/* XPM */
static char *result[] = {
/* columns rows colors chars-per-pixel */
"500 400 14 1 ",
"  c black",
". c #693A21",
"X c #79472C",
"o c #714027",
"O c #965E42",
"+ c #5F331B",
"@ c #562A17",
"# c #8D583C",
"$ c #834F33",
"% c #451E11",
"& c #2F130B",
"* c #A1694B",
"= c #1B0B06",
"- c #B77D5D",
/* pixels */
"                                                                                                                                                                                                                                                                                                                                                                                                                                                                                                                    ",
"                                                                                                                                                                                                                                                                                                                                                                                                                                                                                                                    ",
"                                                                                                                                                                                                                                                                                                                                                                                                                                                                                                                    ",
"                                                                                                                                                                                                                                                                                                                                                                                                                                                                                                                    ",
"                                                                                                                                                                                                                                                                                                                                                                                                                                                                                                                    ",
"                                                                                                                                                                                                                                                                                                                                                                                                                                                                                                                    ",
"                                                                                                                                                                                                                                                                                                                                                                                                                                                                                                                    ",
"                                                                                                                                                                                                                                                                                                                                                                                                                                                                                                                    ",
"                                                                                                                                                                                                                                                                                                                                                                                                                                                                                                                    ",
"                                                                                                                                                                                                                                                                                                                                                                                                                                                                                                                    ",
"                                                                                                                                                                                                                                                                                                                                                                                                                                                                                                                    ",
"                                                                                                                                                                                                                                                                                                                                                                                                                                                                                                                    ",
"                                                                                                                                                                                                                                                                                                                                                                                                                                                                                                                    ",
"                                                                                                                                                                                                                                                                                                                                                                                                                                                                                                                    ",
"                                                                                                                                                                                                                                                                                                                                                                                                                                                                                                                    ",
"                                                                                                                                                                                                                                                                                                                                                                                                                                                                                                                    ",
"                                                                                                                                                                                                                                                                                                                                                                                                                                                                                                                    ",
"                                                                                                                                                                                                                                                                                                                                                                                                                                                                                                                    ",
"                                                                                                                                                                                                                                                                                                                                                                                                                                                                                                                    ",
"                                                                                                                                                                                                                                                                                                                                                                                                                                                                                                                    ",
"                                                                                                                                                                                                                                                                                                                                                                                                                                                                                                                    ",
"                                                                                                                                                                                                                                                                                                                                                                                                                                                                                                                    ",
"                                                                                                                                                                                                                                                                                                                                                                                                                                                                                                                    ",
"                                                                                                                                                                                                                                                                                                                                                                                                                                                                                                                    ",
"                                                                                                                                                                                                                                                                                                                                                                                                                                                                                                                    ",
"                                                                                                                                                                                                                                                                                                                                                                                                                                                                                                                    ",
"                                                                                                                                                                                                                                                                                                                                                                                                                                                                                                                    ",
"                                                                                                                                                                                                                                                                                                                                                                                                                                                                                                                    ",
"                                                                                                                                                                                                                                                                                                                                                                                                                                                                                                                    ",
"                                                                                                                                                                                                                                                                                                                                                                                                                                                                                                                    ",
"                                                                                                                                                                                                                                                                                                                                                                                                                                                                                                                    ",
"                                                                                                                                                                                                                                                                                                                                                                                                                                                                                                                    ",
"                                                                                                                                                                                                                                                                                                                                                                                                                                                                                                                    ",
"                                                                                                                                                                                                                                                                                                                                                                                                                                                                                                                    ",
"                                                                                                                                                                                                                                                                                                                                                                                                                                                                                                                    ",
"                                                                                                                                                                                                                                                                                                                                                                                                                                                                                                                    ",
"                                                                                                                                                                                                                                                                                                                                                                                                                                                                                                                    ",
"                                                                                                                                                                                                                                                                                                                                                                                                                                                                                                                    ",
"                                                                                                                                                                                                                                                                                                                                                                                                                                                                                                                    ",
"                                                                                                                                                                                                                                                                                                                                                                                                                                                                                                                    ",
"                                                                                                                                                                                                                                                                                                                                                                                                                                                                                                                    ",
"                                                                                                                                                                                                                                                                                                                                                                                                                                                                                                                    ",
"                                                                                                                                                                                                                                                                                                                                                                                                                                                                                                                    ",
"                                                                                                                                                                                                                                                                                                                                                                                                                                                                                                                    ",
"                                                                                                                                                                                                                                                                                                                                                                                                                                                                                                                    ",
"                                                                                                                                                                                                                                                                                                                                                                                                                                                                                                                    ",
"                                                                                                                                                                                                                                                                                                                                                                                                                                                                                                                    ",
"                                                                                                                                                                                                                                                                                                                                                                                                                                                                                                                    ",
"                                                                                                                                                                                                                                                                                                                                                                                                                                                                                                                    ",
"                                                                                                                                                                                                                                                                                                                                                                                                                                                                                                                    ",
"                                                                                                                                                                                                                                                                                                                                                                                                                                                                                                                    ",
"                                                                                                                                                                                                                                                                                                                                                                                                                                                                                                                    ",
"                                                                                                                                                                                                                                                                                                                                                                                                                                                                                                                    ",
"                                                                                                                                                                                                                                                                                                                                                                                                                                                                                                                    ",
"                                                                                                                                                                                                                                                                                                                                                                                                                                                                                                                    ",
"                                                                                                                                                                                                                                                                                                                                                                                                                                                                                                                    ",
"                                                                                                                                                                                                                                                                                                                                                                                                                                                                                                                    ",
"                                                                                                                                                                                                                                                                                                                                                                                                                                                                                                                    ",
"                                                                                                                                                                                                                                                                                                                                                                                                                                                                                                                    ",
"                                                                                                                                                                                                                                                                                                                                                                                                                                                                                                                    ",
"                                                                                                                                                                                                                                                                                                                                                                                                                                                                                                                    ",
"                                                                                                                                                                                                                                                                                                                                                                                                                                                                                                                    ",
"                                                                                                                                                                                                                                                                                                                                                                                                                                                                                                                    ",
"                                                                                                                                                                                                                                                                                                                                                                                                                                                                                                                    ",
"                                                                                                                                                                                                                                                                                                                                                                                                                                                                                                                    ",
"                                                                                                                                                                                                                                                                                                                                                                                                                                                                                                                    ",
"                                                                                                                                                                                                                                                                                                                                                                                                                                                                                                                    ",
"                                                                                                                                                                                                                                                                                                                                                                                                                                                                                                                    ",
"                                                                                                                                                                                                                                                                                                                                                                                                                                                                                                                    ",
"                                                                                                                                                                                                                                                                                                                                                                                                                                                                                                                    ",
"                                                                                                                                                                                                                                                                                                                                                                                                                                                                                                                    ",
"                                                                                                                                                                                                                                                                                                                                                                                                                                                                                                                    ",
"                                                                                                                                                                                                                                                                                                                                                                                                                                                                                                                    ",
"                                                                                                                                                                                                                                                                                                                                                                                                                                                                                                                    ",
"                                                                                                                                                                                                                                                                                                                                                                                                                                                                                                                    ",
"                                                                                                                                                                                                                                                                                                                                                                                                                                                                                                                    ",
"                                                                                                                                                                                                                                                                                                                                                                                                                                                                                                                    ",
"                                                                                                                                                                                                                                                                                                                                                                                                                                                                                                                    ",
"                                                                                                                                                                                                                                                                                                                                                                                                                                                                                                                    ",
"                                                                                                                                                                                                                                                                                                                                                                                                                                                                                                                    ",
"                                                                                                                                                                                                                                                                                                                                                                                                                                                                                                                    ",
"                                                                                                                                                                                                                                                                                                                                                                                                                                                                                                                    ",
"                                                                                                                                                                                                                                                                                                                                                                                                                                                                                                                    ",
"                                                                                                                                                                                                                                                                                                                                                                                                                                                                                                                    ",
"                                                                                                                                                                                                                                                                                                                                                                                                                                                                                                                    ",
"                                                                                                                                                                                                                                                                                                                                                                                                                                                                                                                    ",
"                                                                                                                                                                                                                                                                                                                                                                                                                                                                                                                    ",
"                                                                                                                                                                                                                                                                                                                                                                                                                                                                                                                    ",
"                                                                                                                                                                                                                                                                                                                                                                                                                                                                                                                    ",
"                                                                                                                                                                                                                                                                                                                                                                                                                                                                                                                    ",
"                                                                                                                                                                                                                                                                                                                                                                                                                                                                                                                    ",
"                                                                                                                                                                                                                                                                                                                                                                                                                                                                                                                    ",
"                                                                                                                                                                                                                                                                                                                                                                                                                                                                                                                    ",
"                                                                                                                                                                                                                                                                                                                                                                                                                                                                                                                    ",
"                                                                                                                                                                                                                                                                                                                                                                                                                                                                                                                    ",
"                                                                                                                                                                                                                                                                                                                                                                                                                                                                                                                    ",
"                                                                                                                                                                                                                                                                                                                                                                                                                                                                                                                    ",
"                                                                                                                                                                                                                                                                                                                                                                                                                                                                                                                    ",
"                                                                                                                                                                                                                                                                                                                                                                                                                                                                                                                    ",
"                                                                                                                                                                                                                                                                                                                                                                                                                                                                                                                    ",
"                                                                                                                                                                                                                                                                                                                                                                                                                                                                                                                    ",
"                                                                                                                                                                                                                                                                                                                                                                                                                                                                                                                    ",
"                                                                                                                                                                                                                                                                                                                                                                                                                                                                                                                    ",
"                                                                                                                                                                                                                                                                                                                                                                                                                                                                                                                    ",
"                                                                                                                                                                                                                                                                                                                                                                                                                                                                                                                    ",
"                                                                                                                                                                                                                                                                                                                                                                                                                                                                                                                    ",
"                                                                                                                                                                                                                                                                                                                                                                                                                                                                                                                    ",
"                                                                                                                                                                                                                                                                                                                                                                                                                                                                                                                    ",
"                                                                                                                                                                                                                                                                                                                                                                                                                                                                                                                    ",
"                                                                                                                                                                                                                                                                                                                                                                                                                                                                                                                    ",
"                                                                                                                                                                                                                                                                                                                                                                                                                                                                                                                    ",
"                                                                                                                                                                                                                                                                                                                                                                                                                                                                                                                    ",
"                                                                                                                                                                                                                                                                                                                                                                                                                                                                                                                    ",
"                                                                                                                                                                                                                                                                                                                                                                                                                                                                                                                    ",
"                                                                                                                                                                                                                                                                                                                                                                                                                                                                                                                    ",
"                                                                                                                                                                                                                                                                                                                                                                                                                                                                                                                    ",
"                                                                                                                                                                                                                                                                                                                                                                                                                                                                                                                    ",
"                                                                                                                                                                                                                                                                                                                                                                                                                                                                                                                    ",
"                                                                                                                                                                                                                                                                                                                                                                                                                                                                                                                    ",
"                                                                                                                                                                                                                                                                                                                                                                                                                                                                                                                    ",
"                                                                                                                                                                                                                                                                                                                                                                                                                                                                                                                    ",
"                                                                                                                                                                                                                                                                                                                                                                                                                                                                                                                    ",
"                                                                                                                                                                                                                                                                                                                                                                                                                                                                                                                    ",
"                                                                                                                                                                                                                                                                                                                                                                                                                                                                                                                    ",
"                                                                                                                                                                                                                                                                                                                                                                                                                                                                                                                    ",
"                                                                                                                                                                                                                                                                                                                                                                                                                                                                                                                    ",
"                                                                                                                                                                                                                                                                                                                                                                                                                                                                                                                    ",
"                                                                                                                                                                                                                                                                                                                                                                                                                                                                                                                    ",
"                                                                                                                                                                                                                                                                                                                                                                                                                                                                                                                    ",
"                                                                                                                                                                                                                                                                                                                                                                                                                                                                                                                    ",
"                                                                                                                                                                                                                                                                                                                                                                                                                                                                                                                    ",
"                                                                                                                                                                                                                                                                                                                                                                                                                                                                                                                    ",
"                                                                                                                                                                                                                                                                                                                                                                                                                                                                                                                    ",
"                                                                                                                                                                                                                                                                                                                                                                                                                                                                                                                    ",
"                                                                                                                                                                                                                                                                                                                                                                                                                                                                                                                    ",
"                                                                                                                                                                                                                                                                                                                                                                                                                                                                                                                    ",
"                                                                                                                                                                                                                                                                                                                                                                                                                                                                                                                    ",
"                                                                                                                                                                                                                                                                                                                                                                                                                                                                                                                    ",
"                                                                                                                                                                                                                                                                                                                                                                                                                                                                                                                    ",
"                                                                                                                                                                                                                                                                                                                                                                                                                                                                                                                    ",
"                                                                                                                                                                                                                                                                                                                                                                                                                                                                                                                    ",
"                                                                                                                                                                                                                                                                                                                                                                                                                                                                                                                    ",
"                                                                                                                                                                                                                                                                                                                                                                                                                                                                                                                    ",
"                                                                                                                                                                                              =&&&&&&&=                                                                                                                                                                                                                                                                                                             ",
"                                                                                                                                                                                             =&%@+@+@@%=                                                                                                                                                                                                                                                                                                            ",
"                                                                                                                                                                                          ==&%@.oooooo+%=                                                                                                                                                                                                                                                                                                           ",
"                                                                                                                                                                                         =&%%+o$$$$$$$X+%=                                                                                                                                                                                                                                                                                                          ",
"                                                                                                                                                                                      ===%+.oX$##O#O##$X+&=                                                                                                                                                                                                                                                                                                         ",
"                                                                                                                                                                                     =&&%+X$$##OOOOOOO#$X@&=                                                                                                                                                                                                                                                                                                        ",
"                                                                                                                                                                                    &%+..X#O#OOOOOOO*OO#$o@&=                                                                                                                                                                                                                                                                                                       ",
"                                                                                                                                                                                   &%+X$$#OOOOOOOOO**OOO##X@&=                                                                                                                                                                                                                                                                                                      ",
"                                                                                                                                                                                 =&%.X$##OOOOOOO********OO$o@&=                                                                                                                                                                                                                                                                                                     ",
"                                                                                                                                                                                 =%+X$$#OOOOOOO**O**O****OO$o%=                                                                                                                                                                                                                                                                                                     ",
"                                                                                                                                                                                  %+$##OOOOOOOOOOOOOO*****O#o%=                                                                                                                                                                                                                                                                                                     ",
"                                                                                                                                                                                 &%.$#OOOOOOOOOOOOOOOO*****OX%=                                                                                                                                                                                                                                                                                                     ",
"                                                                                                                                                                                &%+X$##OOOOOOOOO###OOOOOO**O$%=                                                                                                                                                                                                                                                                                                     ",
"                                                                                                                                                                               &%+X$$###OOOOOOO####OOOOOO*OO$%=                                                                                                                                                                                                                                                                                                     ",
"                                                                                                                                                                              &%+X$###OO#OOOOOOOOOOOOOOOOOOO$%=                                                                                                                                                                                                                                                                                                     ",
"                                                                                                                                                                             =%+o$####OO#OOOOOOOOOOOOOOOOOOOX%=                                                                                                                                                                                                                                                                                                     ",
"                                                                                                                                                                             =@.X$####OOOO*******OOOOOOOOOO#$%=                                                                                                                                                                                                                                                                                                     ",
"                                                                                                                                                                             &@o$####OOOO**********O*OOOOOO#X%=                                                                                                                                                                                                                                                                                                     ",
"                                                                                                                                                                            =%+o$###OOOO*****-*-*-*******OO#X%=                                                                                                                                                                                                                                                                                                     ",
"                                                                                                                                                                           =&@.X$##OOOO*****-*-------****OO#X%=                                                                                                                                                                                                                                                                                                     ",
"                                                                                                                                                                           =%.X$##OOOO********-*----*-***OO#X%=                                                                                                                                                                                                                                                                                                     ",
"                                                                                                                                                                           =@.X$##OOOO*********-*------***OO$%=                                                                                                                                                                                                                                                                                                     ",
"                                                                                                                                                                           =@.X$##OOOO**-*********-*----***O$%=               ==&=&=&=&=&=&=  ==                                                                                                                                                                                                                                                                    ",
"                                                                                                                                                                           =@oX$##OOOO************-*-----**O$%=              =&%@@@@@+@@@@@%%&%%&=                                                                                                                                                                                                                                                                  ",
"                                                                                                                                                                           =+o$$##OOOOO************-*----**O$%=             =%+oX$##O#O##$$Xo.o.@&=                                                                                                                                                                                                                                                                 ",
"                                                                                                                                                                          =%.X$##OOOOOO**************-----*O$%=           ==%+o$#O********O#$$$X.@%&==                                                                                                                                                                                                                                                              ",
"                                                                                                                                                                         =%.oX$#OOOOOO******-**********--**O$%=         ==&%+o$##OO*******OO##$$Xo.+@%=                                                                                                                                                                                                                                                             ",
"                                                                                                                                                                         =@oX$$##OOOO*****************-***OO$%=         =&%@.X$##O*******OOOO##$$XXo.@&=                                                                                                                                                                                                                                                            ",
"                                                                                                                                                                         =+oX$####OO*********************OOO$%=       ==&%@+o$###OO*****OOOOOO##$$$Xo.@%=                                                                                                                                                                                                                                                           ",
"                                                                                                                                                                         =@oX$####OO*O*******************OO#X%=      ==&%%@.X$##OO******OOOOOOO##$$$Xo.@%=                                                                                                                                                                                                                                                          ",
"                                                                                                                                                                         =+X$$####OOOO*******************OO#o%=     =&%%%@+oX##OO********OOOOOOO##$$$Xo.+%=                                                                                                                                                                                                                                                         ",
"                                                                                                                                                                        =&+X$$####OOOOO*O***O****OOO*O*OOOO#o%=     &%%%%@+o$#OOO*******OOOOOOOO###$$$XXo+%=                                                                                                                                                                                                                                                        ",
"                                                                                                                                                                       =&@oX$$####OOOOOOOO*OOO****OOOOOOOOO#o%=   ==&%@%%@+o$##OO*********OOOOOO####$$$XXo+%=                                                                                                                                                                                                                                                       ",
"                                                                                                                                                                       &%+oX$$###OOOOOOOOO*OOOO*OO*OOOOOOOO#o%=    =%@@@@@.X$##OOO*********OOOO#####$$XXXX.@&                                                                                                                                                                                                                                                       ",
"                                                                                                                                                                      =&+oXX$$##OOOO##OOOOOOOOOOO**OOOOOOO##o%=    &&@@@@+.X$##OOOO*******OOOO######$XX$XX.+&=                                                                                                                                                                                                                                                      ",
"                                                                                                                                                                      =&+oXX$$##OOOOOOOOOOOOOOOOO**OOOOOOO##o%=    =%@@@@+oX$#OOO*******OOOOOO######$X$XXXo+%=                                                                                                                                                                                                                                                      ",
"                                                                                                                                                                       =@oXX$$##OOOOOOOOOOOOOOOOOO*OOOOOO###X%=   ==&@@@+.o$#OOO*O***O***OOOOO######$XX$XXo@&=                                                                                                                                                                                                                                                      ",
"                                                                                                                                                                       &+XXX$$###O#O#OOO*OOOOOOOOOOOOOOO##$$o%=     &%@@+.X$#OOOOO***O*OOOOOOO####$$$$$X$Xo+%=                                                                                                                                                                                                                                                      ",
"                                                                                                                                                                     ==%.XX$$$$$######OO*OOOOOOO###OOOO##$XX.%=     =%@@+oX##OOOOOO*OOOOOOOOOO##$$$$$$$$XXo+&=                                                                                                                                                                                                                                                      ",
"                                                                                                                                                                     &%+oX$$$$$$#$####OO*OOOOOOO###OO###$$$X.%=    =&@@@+o$#OOOOOOOOOOOOOOOOOO##$$$$$$XX$Xo@&                                                                                                                                                                                                                                                       ",
"                                                                                                                                                                    =%.XXXX$$$$$$$$$##OOOOOOO***OOOOO#$$$$$$.%=    =%@+@+X$##OOOOOOOOOOOOOOOOOO#$$$XXXXXXo.%=                                                                                                                                                                                                                                                       ",
"                                                                                                                                                                    =%.XXXX$$$$$$$$$###OO***********O###$$$X.%=    =%+..oX$##OOOO#O#OOOOOOO*OOO##$$X$XXXX.@&                                                                                                                                                                                                                                                        ",
"                                                                                                                                                                    =%.XXXX$$$$$$$$$$##O****-------**O###$XXo%&=  =&%.XXX$###OOOO###OOOOOO*****OO#$XXXXXo+%=                                                                                                                                                                                                                                                        ",
"                                                                                                                                                                    =%.XXX$$$$$$$$$#$#OO***-*-----***OOO#$$$X.@@%%@@+oX$$###O####OOOOO******--**O#$$$$$Xo@&                                                                                                                                                                                                                                                         ",
"                                                                                                                                                                   ==%.XXXXX$$$$$$$$##OO**---------***OOO#$$$XXoXoXXX$$$$##OO####OOO*****------**O#$$$$Xo@=                                                                                                                                                                                                                                                         ",
"                                                                                                                                                                  ==%@oXXXX$$$$$X$$###O**------------**OO####$#$$$$$#$####OOO####OO****---------*O##$$XXo@=                                                                                                                                                                                                                                                         ",
"                                                                                                                                                                  =%@.oXXXXXX$$$$X$###O**-------------**OOO##############OOOO####OO***---------**O###$XXo@=                                                                                                                                                                                                                                                         ",
"                                                                                                                                                                ==%@.oXXXXX$X$X$X$$##OO**--------------*OOOOOOO##OOOOOOOOOOOOOOOOOOO**----------*OOO##$XX+&=========&&&&&&&=                                                                                                                                                                                                                                        ",
"                                                                                                                                                                =&@+oXXX$X$X$X$X$$$#OOOO*------------*-**OOOOOO##OOOOOOOOOOOOOOOOOOO**---------**OOOOO$$X.%&&&&&&&&%%%%%%%%&                                                                                                                                                                                                                                        ",
"                                                                                                                                                                &%+oXXXXX$X$X$X$$$##OOOO**----------*-***OOOOOOOOOOOOOOOO*OOOOOOOOOOO**--------**OO***#$X.%&%%%%@@@++.++++@%&=                                                                                                                                                                                                                                      ",
"                                                                                                                                                                &%.oXXXX$X$X$X$$$##OOOOO**---------*-*-**OOOOOOOOOOOOOOOO**OOOOOOOOOO**--------**O**-*O#$.@%%%@+++..ooo....+%&                                                                                                                                                                                                                                      ",
"                                                                                                                                                                =%+oXXXXX$XXX$$$##OO*OOOO*----------******OOOOOOOOOOOOOOO**OOOOOOOO*O***------*-*****-*#$o@@@@@++.ooXXXo....+%&=                                                                                                                                                                                                                                    ",
"                                                                                                                                                                =%+oXXXX$XX$X$$$##OO**OOO**--------****-**OOOOOOOOOOOOOOO*OOOOOOOOO*OOO**-----*-******O#$o+@@@++..ooXXXXo....+%&                                                                                                                                                                                                                                    ",
"                                                                                                                                                                &%+ooXXX$$$$$$$####OO**OO***-------******OO##OOOOOOOOOOOOOOOOOOOOO**OO***----*-***OO**O#$Xo.+++..ooooXXXoXoo..+@&=                                                                                                                                                                                                                                  ",
"                                                                                                                                                               =&@+oooXX$$$$$$$$$####O**O****------******OOO#OOOOOOOOOOOOOOOOOOOOOO*OOO******---**OO*OO#$XXo....ooooooXXXXXXooo+%&                                                                                                                                                                                                                                  ",
"                                                                                                                                                              =%@+.oooXX$$##O#$$$$$$$#O********-----**OOOOOOOOOOOOO***OOOOOOOOOOOOOO**OO****-*-*-**OOO##$$XXooXXXooXXXXXXX$$$XXo+%&=                                                                                                                                                                                                                                ",
"                                                                                                                                                              &%+..ooXX$$###O#$$XXXX$$#O**O*O***-----*OOOOOOOOOOOOOO***OOOOOOOOOOOOOO**OO****----**OOO##$$XXXXXXXXoXXXXXXX$$$$XXo+%&=                                                                                                                                                                                                                               ",
"                                                                                                                                                              &%+..ooX$$####O#$$X$X$X$$##OOOOOO**----**OOOOOOOOOOOOOOOOOOOOOOOO#OOOO****OO***--***OO####$XXXXXXXXXXXXXXXX$$$##$$X.+%&=                                                                                                                                                                                                                              ",
"                                                                                                                                                              &%+..ooo$$####O##$$$$XXXX$##OOOOOO***---**OOOOOOOOOOOOOOOOOOOOOOO#OOOOO***OOO****-**OO###$$XXXXXXXXXXXXXX$$$##OO#$$X.+%=                                                                                                                                                                                                                              ",
"                                                                                                                                                              &%+.oooX$$####OO###$$$XXX$$##OOOOOO**--******OOOOOOOOOOOOOOOOOOOOOOOO***OOOOOO******OO##$$XXXXXXX$X$X$$$$$#OO*OOO#$XX.%=                                                                                                                                                                                                                              ",
"                                                                                                                                                             =&@+ooooX$$####OO#####$$$X$$$##OOOOOO***--****OOOOOOOOOOOOOOOOOOOOOOO****OOOOOO******OO##$XXXXXXXX$X$X$$$$#O******##$X.@=                                                                                                                                                                                                                              ",
"                                                                                                                                                            &%@+.oooXX$$####OOOOOOO##$$$$$$##OOOOOO***-****OOOOOOOOOOOOOOOOOOOO*****OOOOOOOO******O###XXXXXXXX$X$X$$$$##O**-*-**O#$.@=                                                                                                                                                                                                                              ",
"                                                                                                                                                            &@+..ooXXX$$####OOOOOOOO###$$#$###OOOOOO*******OOOOOOOOOOOOOOOOOOO******OOOOOOOOOO****O###$XXXXXXXX$X$X$$##OO***---*O#$.@=                                                                                                                                                                                                                              ",
"                                                                                                                                                            %+...ooXX$$$####OOOOOOOOOOO##########OOOO**-***OOOOOOOOOOOOOOOOOO*****OOOOOOOOOOO*O***OO##$XXXXXXXXX$X$X$#OO****-*-**O$.@=                                                                                                                                                                                                                              ",
"                                                                                                                                                           =%+.oooXXX$$$####OOOOOOOOOOOO#########OOOOO**-***OOOOOOOOOOOOOOOOO*****OOOOOOOOOOOO*****O##$XXXXXXXX$X$$$$$OO*****-**O#$.@=                                                                                                                                                                                                                              ",
"                                                                                                                                                          =&%+.oXXXXX$$$####OOOOOOOOOOOOOOO######OOOOOO***-**OOOOOOOOOOOOOOOO***OOO#######OOOOO****OO#$XXXXXXXXXX$$$$$#O********O#X.@=                                                                                                                                                                                                                              ",
"                                                                                                                                                          &%@.ooXXXXX$$$###OOOOOOOOOOOOOOOOOOO###OOOOOOO**-**OOOOOOOOOOOOOOO*****O#########OOOO*O***O#$$XXXXXXXXXX$$$$#O*******O#$X.@&                                                                                                                                                                                                                              ",
"                                                                                                                                                          %+..ooXXXXX$$$##OOOOOOOOOOOOOOOOOO*OO##OO##OOOO*-**OOOOOO##OOOOOO*****OO##########OOO#***OO###$XXXX$XXXX$$$$$#*****OOO#$Xo@%=                                                                                                                                                                                                                             ",
"                                                                                                                                                         =%..oooXXXX$X$$##OO#OOOOOOOOOOOOOOO*OOO#O####OOO****OOOOOO##OOOOOOOO*O*OOO#############O***O###$XXXXXXXXXX$$$$#O*O**OO##$$X.@%=                                                                                                                                                                                                                            ",
"                                                                                                                                                        =&@....oXXXXX$$$##OO##OOOOOOOOOOOOOOOOOOO###$##OOOO**OOOOOO##OOOOOOOOOOOOOOO######OO#$##O***OOO#$$XXXX$XXXXX$$$#OOOO**O###$Xo.@=                                                                                                                                                                                                                            ",
"                                                                                                                                                        &%+.ooooXXXX$$$###OO#OOOOOOOOOOOOOOOOOOOOO######O#OOOOOOOOO##OOOOOO*OOOOOOOO#O##O#O##$##O****OOO$$XXXXXXXXXX$$$##OO*OOOO#$$XXo.%=                                                                                                                                                                                                                           ",
"                                                                                                                                                        &+.oooooXXX$$$####OOOOOOOOOOOOOOOOOO#OOOOOOOOOO##OOOOOO**OO##OOOOOO**OOOOOO##OOOOO##$$##OO***OO#$$XXX$XXoooXX$$$#OOOOOOO#$$XXXo.@=                                                                                                                                                                                                                          ",
"                                                                                                                                                        %+oooooXXXXX$$####OOOOOOOOOOOOOOOOOO#OOOOOOOOOO##OOOOOO**OOOOOOOOOO**OOOOOO#OOOOOO###$##OOO***O#$XoXXXXooooXXX$##OOOOOO##$XXXXXo+%=                                                                                                                                                                                                                         ",
"                                                                                                                                                        %..oooXXXXXXX$##OO##OOOOOOOOOOOO#OOOOOOOOOOOOOO##OOOOOO**OOOOOO##OO*OOOOOOOOOOOO####$$##OO***OO#$XXXXXXoooooXXX$OOOOOO##$XXXXXXXo+@=                                                                                                                                                                                                                        ",
"                                                                                                                                                        %+..ooXXXXXXX$$#####OOOOOOOOOOOO#OOOOOO#OOOOOOOOOOOOOOOOOOOOOO###OO*OOOOOOOOOOOO#####$$##OO***O#$$XXXXXooooooX$$#OOOOO##$XXXX$XXoo+%&=                                                                                                                                                                                                                      ",
"                                                                                                                                                        %+.oooXXXXXX$$$$####OOOOOOOOOOOOOOOOOOO##OOOOOOOOOOOOOOOOOOOO##OO##OOOOOOOOO##OO####$$$$##OO*OO#$$XXXXXXooo.ooX$$#OO*OO#$XXXXX$Xoo.+@%=                                                                                                                                                                                                                     ",
"                                                                                                                                                        %+..oooXXXXX$$$$$####OOOOOOOOOOOOOOOOOOOOOOOOOOO#OOOOOOOOOOO#######OOOOOOOO####O#####$$$##OOOO##$$XXXXXXXooooXX$$##O*OO#$XXoXXXXoo..+@&=                                                                                                                                                                                                                    ",
"                                                                                                                                                        %..oooooXXXXX$$$$$######OOOOOOOOOOOOOOOOOOOOOOO##OOOOOOOOOO#######OOOOOOOOO#######OO#$$$##OOOOO#$XXXooXXXXooXXX$$##OOO#$XXoooXXXXo.o.+@&=                                                                                                                                                                                                                   ",
"                                                                                                                                                      ==@.oooXXXXXXXX$$$$$#########OOOOOOOOOOOOO#OOOOOOOOOOOOOOOOO##########OOOOOOO###########$$###OOO##$$$XXXXXXXXXX$X$$######$XXooXXXXXooo.++%&=                                                                                                                                                                                                                  ",
"                                                                                                                                                      &%@.ooXXXXXXXXX$$$$###########OOOOOOOOOOO##OOOOOOOOOOOOOOOO########$$##OOOOOOOO#########$$####OO####$$XXXXXXXXXXX$$$####$$XXoXXXXXXooo.o.+@&=                                                                                                                                                                                                                 ",
"                                                                                                                                                     =%@+.ooXXXXXXXXX$$$$$$######O##OOOOOOOOOOOOOOOOO#OOOOOOOOOO#########$$$##O#OOOOOO###O#####$###OOO####$$XXXXXoXoXXXX$$###$$$XXXXXXXoXXooooo.+@&=====                                                                                                                                                                                                            ",
"                                                                                                                                                    =&@+..ooXXXXXXXXX$$$$X$$####OO##OO##OOOOOOOOOOOOO##OOOOOOOO########O#$$$#####OOOOO###O####$$##OOOO##OO$$XXXoooooXXXX$$####$$XXXX$XXooXXXooooo+@%&%%&=                                                                                                                                                                                                           ",
"                                                                                                                                                     =%..ooXXoXXXXXXX$$$$$$$$#########OOOOOOOOOOOOOOO##OOOOOOOO###OO###O#$$$$$####OOOOO#########$##OOOOOO#$XXXXoooooXXXXX$####$$X$X$XXXXoXXXXXXXo..++..+%===                                                                                                                                                                                                        ",
"                                                                                                                                                      %..ooXooXXXXXXX$$$X$$$$$#######OOOOOOOOOOOOOOOO##OOOOOOOO##OOOO##O#$$$$$$####OOO##########$$##OOOOO#$XXXooooooXXXX$$###$$$XXX$X$XooXXXXXXXXXXX$$$X+%&&=                                                                                                                                                                                                       ",
"                                                                                                                                                     =%+.ooooXoXXXXXX$$$$X$$$$########OO#OOOOOOO#OOOOOOOOOOOOO#OOOOOOOOOO####$$$#$##OOO##O###########OOOO#$$XXoo.ooXoXXXX$####$$$$$$$XXXXXX$$$$$$######$X.++@&=                                                                                                                                                                                                     ",
"                                                                                                                                                    =&@+.oooooXXXXXXX$$$$XX$$$########OO#OOOOOO##OOOOOOOOOOOO##OOOOOOOOOO###$#$$$$##OO##OO############OO##$$XXo.o.ooooXXX$####$$X$$$$XXXX$$$$$$##OOOOO#$$$$$.@&                                                                                                                                                                                                     ",
"                                                                                                                                                   =&@+..ooXooXXXXXXXXXXX$XX$$$#########OOOOOOOOOOOO#OOOOOOO###OOOOOOOOOO#####$$$$######OOO##$#####OOOOOO#$$XXXooo.ooXXXo$####$$X$$$$$$$$$$$$$##OOOO*OO#####X.%=                                                                                                                                                                                                    ",
"                                                                                                                                                  =&%+...ooXooXXXXXXXXXX$XX$$$$$########OOOOOOOOOOO##OOOOOO####OOOOOOOOOO######$$$$######O###$####OOOOOOOO$$$XXXoo..ooXXo$###$$$XX$$$$$$$$$$###OOOO*OO######$X+%=                                                                                                                                                                                                   ",
"                                                                                                                                                  =&%+.o..oooXXoXXXXXXXXXXXXX$$$$$$######OOOOOOOOOO####OOOOOOOOOOOO###OOO##O###$$$$#$$$$#######OOOOOOOOOOO$$$XXooo...ooXX$##$$$$X$X$$#################$$$$$#$X.@&=                                                                                                                                                                                                  ",
"                                                                                                                                                  =&%+..o..ooXooXXXXXXXXXXXX$XX$$$$$######OOOOOOOOO####OOOOOO#OOOOO####OO##OO##$$$$$$$$$$$#####OOOOOOOOOOO$$$XXoooo...ooX$##$$XX$X$$$$###$#########$$X$XXX$#$Xo.@&=                                                                                                                                                                                                 ",
"                                                                                                                                                   &%+.o.o.oooXXXXXXXXXXXXXXXX$X$$$$##O####OOOOOOOOOOOO##OOO####OOO######OO#OO###$$$$$$$$$$$$$######OOOOOO$$$XXooooo..ooX$##$$XXXXXX$$$$$$$$$$$$$$$XXXXXXXX$$XXo.@%=                                                                                                                                                                                                ",
"                                                                                                                                                  =&%+......ooXXXXXXXXXXXXXXXXX$X$$$##OO####OOOOOOOOOOO##OO##$$##OO######O###OO##$$$$$$$$$$$$$$$####OOOOOO$$XXXXoooooo.oX$#$$$XXoooXXXXX$X$$$$$$$$XXXXXoooXXXXXXo.@&=                                                                                                                                                                                               ",
"                                                                                                                                                   &%+..o...ooXXXXXXXXXXXXXXXXX$XX$$$#######OOOOOOOOOO############################$$$$$$$$$$$$X$$$####OOOO$$XXXXXXooooooX$$$$$XXXoooXXXXXXXXX$$X$XX$XXoooooXXX$XXo+%&=                                                                                                                                                                                              ",
"                                                                                                                                                  =&%+.+....ooXXXXXXXXXXXXX$XX$X$$X$$$#####OOOOOOOOOO####################$$#######$$$$$$$$$$XXX$$$####OOOO#$XXXXXXoXXXooXX$$$XXXXXoooooX$XXXXXXXXX$XXooo.ooXX$XXXo.@%&=                                                                                                                                                                                             ",
"                                                                                                                                                   &%+.......oXXXXXXXXXXXX$XXXX$$$$$$$$###OO#########################OO##$$#########$$$$$$$$XXXX$$######OO#$$$XXXXXXoooXXX$$$XXXXXXXoooXXXXXXXXXXXXXXooo.oooXXX$XXo+@%=                                                                                                                                                                                             ",
"                                                                                                                                                  =&%+.+....o.oXXXXXXXXXXXXXXX$X$X$X$$$$##O##########################O###$###########$$$$$$$$XX$$$######OO##$$$XXXXXooooXX$$XXXXXXXooooXXXXXXXXXXXXXXooo..oooXXXXXo.@%=                                                                                                                                                                                             ",
"                                                                                                                                                   &%+.....o.oooooooXXXXXXXXXXXXXXX$$$$$$#####$#####O###O##OO##$$################OOO##$$$$$$$$$$$$$$$$######$$$XXXoooooXXX$XXXXXoooooooXXXXXXXXXXXXXooooo.oooooXXoo.+@&                                                                                                                                                                                             ",
"                                                                                                                                                  =&%++.+....ooooooXXXXXXXXXXXXXXX$XX$$$$#####$####OOO#OO##O###$################OOOOO##$$$$$$$$$$$$$$$######$$$XXXooXoooXXXXXXXXoooo.ooXXXXXXXXXXXoooooXoooooooooo..+@&                                                                                                                                                                                             ",
"                                                                                                                                                   &%+++++.....ooooXXXXXXXXXXXXXXXX$X$$$$$########OOOOO########$$##############OOOOOO####$$$$$$$$$$$$$$$###$$$$XXoooooooXXXXXXXXo....ooXXXXXXXXXXXXoooXoXooooooo....+@&                                                                                                                                                                                             ",
"                                                                                                                                                  =&%++++++..o...oXXXXXXXXXXXXXXXXXXX$$$$#########OOOO#O#######$###############OOOOO#####$$$$$$$$$$$$$$$#$$$$$XXooooXoXoXXXXXXXXo...oooXXoXoXXXXXooooooXXoooooo....++@&                                                                                                                                                                                             ",
"                                                                                                                                                   &%++++++.......XXXXooXXXXXXXXXXXXXX$$$$$########################OO##$#################$$#$$$#$$$$$$$$$$$$X$$XoooXoXooXXXXXXXXoo.ooXXXoooooXXXXooooXoXXXoooo...+.+@%&                                                                                                                                                                                             ",
"                                                                                                            ============                          &%@++++++..o...oXXXXooXXXXXXXX$XXXXX$$$$$########################OO##$################$$$$$$$$$$$$$$$$$$$X$$X$XooXXXoXXXXXXXXXooooooXoo..ooXXXXooXooXXXoooo.....++@%=                                                                                                                                                                                             ",
"                                                                                                           &%%%%%%%%&&&&&                       ==%@+++++++.....oooXXoooXXXXXXXXX$X$X$$$$$$$#############$$################OO##$$$#######$$$$$$$$$$$$$$X$$$$$$$$XXXXoooooXXXX$Xoo.oooooo....oXXXXXoooXXoooooo...+.++@%=                                                                                                                                                                                             ",
"                                                                                                        ===%@+++++@@%@%@%=====                  =&@+++++++...o.oooXXoooooXXXXXXXX$X$X$$$X$$$##############$###############OO###$#$#######$$$$$$$$$$$$XX$X$$$$$$$$XXXooooooXXXXXX...ooo......ooXXXoooXXooooo.......++@%&                                                                                                                                                                                             ",
"                                                                                                       &%%%@++++++++@@@@@%&&&&&                 =%@++++..........oXXXXooooXXXXXXXX$X$XX$$$$$$#########$########OO########OO##$$##########$$$#$$$#$$$$X$X$XX$X$X$X$XXooo.ooooXXXo.....o......oooooooXXoXooooo....+.+++@&                                                                                                                                                                                             ",
"                                                                                                     ==%@@+++....+++++@@@%%@%%%== =        =====&%+..+...o.o.....oXXXXooooXXXXXXX$X$X$X$$$X$$########$$########O#########O###$##########$$$$$$$$$$$$$X$X$X$X$$$$X$XXXooo...oXXXoo..........o.oooXoXXoooooo........+++@&                                                                                                                                                                                             ",
"                                                                                                    &&%@@@++..+......++@@@@@@%%%&&===     =&%%%%@++.......o.....ooXXooooooXXXXXXX$$$$$X$$$$$$$#########$$##########################$#####$$$$$$$$$$$$$X$X$X$$$$$$XXXXXooo...oXXXoo............ooXXXoXoooooo.....+++++@&                                                                                                                                                                                             ",
"                                                                                                   &&%@@@++..++.+.+.++++@@@@@@%@%%%%&=====&%@++++++...o.o.oo...oooXXooXoXoXXXXXX$$$$$X$$$$$$$##########$$##########################$$###$$$$$$$$$$$$$$$X$X$$$$$$XXXXXoooo...oXXXoo........o...oXXXXooooooo......+++@%%=                                                                                                                                                                                             ",
"                                                                                                 ==&%@++++..+.++.........++++@+++@@@%%&&&%%@++.+.....o..o.ooooooooooooXXooooXXXXX$$$$$X$$$$$$$$####OO###$########OO################$$$$$$$#$$$#$$$$$$$X$X$XX$X$XXXXXXXooo..ooXXXXo.............XXXXXoooooo.....+++@%&=                                                                                                                                                                                              ",
"                                                                                                 =&%%@++...+.+++.+.+.+.+.++++++++.++@@@@@@@+.........oooooooooooooooXoXXooXXXXXXXX$$$$$$$$$$$$$$####O##$#########O################$$$$$$$$$$$$$$$$$$$$$X$X$$X$XXXXXXXXoo..oooXX$Xo....o.......ooXXXoooXoo....+++++@%=                                                                                                                                                                                               ",
"                                                                                                  &%@@+......+++.....++...........+..++++.........oooooooooooooooooooooooooXXXXXX$XX$XX$$$$$$$$$$#####$######OO##################$$$$$$$$$$$$$$$$#$$$$$$X$X$$$XXXXX$XXooo..ooXX$Xo...oo...o...oooooooooo.o..++++++@%=                                                                                                                                                                                               ",
"                                                                                                 ==%@++...+.+.+......++.+..+.............oo..oooooooooooooooooooooXoooooXXXXXXXXXXX$X$X$$$$$$$$$$$##$$$###$##O##################$$$$$$#$$$$$$$$$$$$$$$$X$X$X$$XXXXX$XXoooo.oooXXXXo..oo....o.oooooooooo.....++++++@%&                                                                                                                                                                                               ",
"                                                                                                  &%@+++.......+...............oooooooooooo.oooXXXoooooooooooooooooooooXoXXXXXXX$XXX$XXX$$$$$$$$$$$$$$$##$$######$$$$##########$$$$$$$$$$$$#$$#$$$$$$$X$X$X$$$$XXX$X$Xoooo..oooXXXo..ooo.o..o..oooXooo.......+++@@@%=                                                                                                                                                                                               ",
"                                                                                                 =&%@@++..........o.o....oo..oXXXXXXXXXXoooooXXXXXXoo...ooXXXoXooooXoXoXXXXXXXXXXXXXXXX$$$$$$$$$$$$$$$$$#$$$####$$$$#######$$#$$$$$#$$$$$$$$$$$$$$$$$$$X$$$$$$$XXXX$XXoXooo...ooooo..oooo...o.oooooooo......+++++@%&=                                                                                                                                                                                               ",
"                                                                                                  &%@@@+................oooooX$$$$$XXXoXXXoXXXXXXXXo....oooXXXoooXooXXXXXXXXXX$XXXXXXXXXX$$X$$$$#$$#$$$$$$$$$$$$#$$$$#####$$$$#$$$$$$$$$#$$$$$$$$$$X$XX$XX$$$$X$XX$XXXooXoo.o...oooo.oooo....o..oooo........+++++@%&=                                                                                                                                                                                               ",
"                                                                                                 =&%@@@++..ooo.oooooooooooXXX$$$$$$$XXXXXoXX$$XXXXooo....oXXXXXXXooXXXXXXXXXXXXXXXXXXXXXX$$$XX$$$$$$$$$$$$$$$$$$$$$$$#$###$$$$$$$$$$$$$$$$$$$$$$$$$XX$X$X$$$$$XXXXX$XXoXXoo......oooooooo.....o.oooo......++++++@@%&=                                                                                                                                                                                               ",
"                                                                                                  &%@@@+++.ooooooooooooooXX$$##$$$$$XXXXXXXX$$$XXoooo....oXXXXXXXXXXXXXXXX$XXXXXXXXXXXXXXXXXXX$XXX$$$$$$$$$#$$$$$$$$$$$$$$$X$$$$$$$$#$$$$$$$$$#$$$$$XXX$X$XXXX$X$X$XXXoXXoo......ooooo.....................++++@@@%&=                                                                                                                                                                                               ",
"                                                                                                 =&%@@@+++.ooooooXXXXooooXX$$#$$$$$$XXXXXXXX$$XXoooooo...oXXXXXXXXXXXXXXXXXXXXXXXoXoXoXXXXXXXXXX$XXX$X$$$$$$$$$$$$$$$$$$$$$$$$$$$#$$$$$$$$$$$$$$$$$XXXXX$X$XXXXXXXXXXXXooo.......oooo....++++......o......++@+@@@@%&=                                                                                                                                                                                               ",
"                                                                                                  &%@+++++..ooooooXXXXoooXX$$$$$$$$XXXXXXXXXXXXo....oooo.ooXXXXXXX$X$XXXXXXXXXXXooooooooXXoXXXXXXXXXXXX$$$$$$$$#$$$#$$$$$X$$$$$$$$$$$$$$$$$$$X$$$$$XXX$X$X$XXXXXXXXXXXXXo.o...o.o......++++++++.....o...+++@@@@@@%&&=                                                                                                                                                                                               ",
"                                                                                                 =&%@@+++++..o.oooXoooooXoX$$$$$$$XXXXoooooXXooo....ooooooXXXXXXXXX$$XXXXXXXXoXoooooXooXooooXoooXXXXXX$X$$$$$$$$$$$$$$#$$$$$$$$$$$$$$$$$$$$$$$$$$$X$XXX$X$X$XXXXXXXXXXXoo........o.o...+++@++++++......+++++@@@@%%&&=                                                                                                                                                                                               ",
"                                                                                                  =%@@@@+@@+.....ooooooooooXXXXXXXXooooo...ooo......ooXXXXXXXXXXXX$XX$XXXXXXooooooooXXoooooooooooooooXXXXXXX$$$$$$$$$$$$$$$$$$$$$$$$$X$$$$$X$$$$$X$XXXX$X$X$X$XXXX$X$Xoooo.oooo.o.o....++@@@@++++++..++++++++@@@@%&&=                                                                                                                                                                                               ",
"                                                                                                  =&%%@@@@@@+++..oo.....oooXXXXXXXoo...........o....oooXoXoXoXXXXXXXXXXXXXXoXoooooooooooooooo...ooooooooXXXXXX$$$$$$$$$$$$$$$$##$$$$$$$$$$$X$$$$$X$X$XXX$X$XXXXXXXXXXXXoo..ooo.....o....++@@@@@+++++++@@@@@+@@@@@%&&=                                                                                                                                                                                               ",
"                                                                                                    &%@@@@@@@+++.........ooooooXXoo......+......o.o.oooooooooooXXXXXXXXXXXooXXooo..o...oooo......ooo..oooXXXXXXXXXXXXXXX$$$X$$$##$$$$$$$$XX$XXXXX$X$X$XXXXXXXXXXXXXXoXXoo.o...o.o.o....+.++@@@@@@@@++@@@@@@@@@@@%%&&=                                                                                                                                                                                               ",
"                                                                                                    =&@@@@@@+@+++....+.+...oooooo.....+++..+++.....ooooooooooXXXXXXXXXXXXXoXoooo.......ooo......o.......ooXXXXXXXXXXXX$XX$$XX$$$$$$$$$$$$X$X$X$$X$X$XXXXXXXXXXXXXXXXXoXooooo.o...o.oo....++@@@@@@@@@@@@@@@@@@@@%%%%&=                                                                                                                                                                                               ",
"                                                                                                     &@@@@@++@@+++.....................+++...++...o.......ooXXXXooXXXXXXXXooooo.......o.......o.........oooXXXXooooooXXXXXXXXX$$$$$$$$$XX$XXXX$X$X$XXXXXXXXXXXXXXXXXXXoooooo..o.o..oo....++@@@@@@@@@@@@@@@@@@@@%%%&&=                                                                                                                                                                                               ",
"                                                                                                     =%%@@@@@@@@+++.+.+.+.........+.+++++..+.+.+....o.o...oooXXooooXXXXXXooooooo.....ooo.o........++.....oooooooooooooXXXXXXXX$$$$$$$$$X$XXXX$X$X$XXXXXXXXXXXXXXXXXXoooooooo.o.o....ooo...++++++++++@@@@@@@%%%%%%%%&=                                                                                                                                                                                               ",
"                                                                                                     =%%%%@@@@@@@@++......+.........+++++............o....ooooooooooXXXXoooooooooo.oooooo..o.o...+++...o...ooo..ooo.oooXXXXXXXXXXX$XXXX$X$XX$X$X$XXXXXXXXXXXXX$XXXXXooooooooo........oooo..++..++++++@@@@@@%%%%%%%&&=                                                                                                                                                                                               ",
"                                                                                                     =&%%%%%%%%%%@@++++++++++++++++.++++..+++.+.+..........o.o....oooXXooooooooooooooooo.o..o.....+.............ooo.oooXXXXXXXXX$XXX$$X$X$XXXX$X$XXXXXXXXXXXXXXXXooooo.ooooooo.o.....ooXXo...........+++@@@@%%%%&&&&=                                                                                                                                                                                               ",
"                                                                                                     ==&%%%%%%%%%@@++++@@++++++++++.+++.+..++..........+.....+.....oooooooXooXooooooooooo.o.....+...+...............oooXXXXXXXXXXXXXXX$X$XXX$X$XXXXXXXXXXXXX$XXXooo.o.o....oooo...+...oXXo....oooooo...++@@@@%%%%&&&=                                                                                                                                                                                               ",
"                                                                                                      ==&%%%%%%%%@@@@@@@@@@@@@+++++++.+++++++..++.+.+.+.....+++.....ooooooooooooooooooo........++.+++.+.+.+++.+..o.o.oooooXoooooXXXXXX$X$XXXX$XXXXXXXXXXXXXXXXXooo..oooo.o.oooo........oo..o.o.ooXXooo..+++++@@@%%&&=                                                                                                                                                                                               ",
"                                                                                                       ==&%%%%%%%%@@@@@@@@@@@@@++++++.+++++++.+++............++.+......ooooooooo.ooooo.o.o.....+++.+++.....++.....o.o...ooooooXoXXXXXXXXXXXXXXXXXXXXXXXXXXXX$XXXoooooooo...oooo.+.+.+..........ooXXoooo.++++.++@@%%&=                                                                                                                                                                                               ",
"                                                                                                        ==&&&%%%%%%@@@@@@@@++@@++++++++++++@+++++.+......o..++....++...o.oooooo.....oo..o.......+...+..+.+..+.+......o.o.ooooooXXXXoooXXXXXXXXXXXXXX$XXXXXXXXXXoXXoooo...o..ooo.......+..............o..+++...++@@%%&=                                                                                                                                                                                              ",
"                                                                                                         =&=&&%%%%%@@@@@@@@@+@@++++++++++++@@++++.......oo......+.+++..................o......+...+..+..........+...o.o.o.....oXXXXoooXXXXXXXXXXXXX$XXXXXXXXXXXXXXXXoo...........+........+...............+.+...+@@%%&=                                                                                                                                                                                             ",
"                                                                                                            ==&&&%%@@@@@@@@@@@@@@@@@@@@@++@@@@++++++....oo.........+++..++.......+.......o..o..+.+..+..+.+.....+..+....o.o.o.o.oooooXXXXXXXXXXXXX$X$XXXXXXXXXXXooooooo..o.....o.....o.........+.+.+...o..+.+..+++@@%%%&&=                                                                                                                                                                                           ",
"                                                                                                             ==&=&%%@@@@@@@@@@@@@@@@@@@@@@+@@@@++++++......o.o....+..++.++..+..+..+.+................+...............o..o.o.....oooooXXXXXXXXXXXXX$XXXXXXXXXXXooooooooo..o.........ooo...............o........+++@@@@%%%&                                                                                                                                                                                           ",
"                                                                                                                = =&%%%@@@@@@@@@@@@@@@@@@@@@@++@++++++++++....o.....+++++..+..+.......+.+......+.+.++++.+++++.+.+.+.....oooo...oooooooXXXXXXXXXX$X$XXXXXXXXXXXooooooooo.o.....o...ooo...+.+...+.+...........++++++++@@%%%&=                                                                                                                                                                                         ",
"                                                                                                                   &%%%@@@@@@@@@@@@@@@@@@@@@@++@@++++++++++..o.o.......++.......+.+.+..+++...+.....+++++.++++......+.+..ooo.........oooXXXXXXXXXXXX$XXXXXXXXXXooo..oooo.....o...o......++....................++....++@@%%%===                                                                                                                                                                                       ",
"                                                                                                                   =&%%%%@@%%@@%%@@@@@@@@@@@@++@@@@@@@+.......o........+.+.+.+.+......+...+....+.+.++++..++++.+.+....++.........o.o...ooXXXoooooXXXXXXXXXXXXXXoo..ooooo......o....o.o.....o..........o......+..+.+..++@@%%&&&&&=                                                                                                                                                                                    ",
"                                                                                                                   ==&&%%%@%%%@%%@@@@@@@@@@@@+@@@@@@@@++..+........o....++.........+.+..+..........+++++++++++....+.+++++...+....o.....oXXooooooooXXXXXXXX$XXoo.o.oooo....oo............ooo....o..o......+...+.....+.++@@%%%%%%&=                                                                                                                                                                                   ",
"                                                                                                                    = =&%%%%%%%%%%%@@%%@@@@@@@@@@+++@@@@++++...o....o..+.............+++......+++..++++++++++++++...++++.+.+...........oooooooooooooXXXXXXXXXoo..ooooo....oo.o.....o....oooo............+..+...+.+..+.++@@@@%%%&=                                                                                                                                                                                   ",
"                                                                                                                       &%%%%%%%%%%%@%%%@@@@@@@@@@++++@@@+++++.....o............oo.....++.......++++++++++++++++++++..++++.....+.......ooooo.....ooooXXXX$XXXoooo.ooo......ooo.....o....oooooo....+....+......+....+..+.++@@@%%%%=                                                                                                                                                                                   ",
"                                                                                                                       =&&&&&%%%%%%%%%%%%%@@@@@@@@@@++@@+++@++++.....o....o...o.oo...+.......+++++++++@@@++++++++++...+++.+.+..........ooo...o.oooooXXXXXXXooo....oo.....oXXoo.....o...oooooXoo.........+.+.+..++++....+++@@%%%%&===                                                                                                                                                                                ",
"                                                                                                                       ==&&&&&%%%%%%%%%%%%%%@@@@@@@@@+@@@+@@@+++++......o...o.ooooo....+.....++++++++@@@@@++++++++++.+.++.....+.+...o.o.......o....ooXXXXXooo..o.o......oooXooooooo.ooooooooXoo..+.....+.........+.+....+++@@%%%%&&&=                                                                                                                                                                               ",
"                                                                                                                         =&&&&&%%&&%%%%%%%%%%%@@@@@@@@@@@@@@@@@@++++......o.ooooXXoooo.........++++@@++@@@@@@++++++++..++.+++........o.o.o.....o.o.oooooooo..o..o.o....oooXXXXXoooooooXXXooooXo..........++++.+.+.+.....++++@@@@%%%%&===                                                                                                                                                                            ",
"                                                                                                                         =====&&&&&&%%%%%%%%%%%%@@@@@@@@@@@@@@@@@++++++......ooXXXXoXooo..o..+.+++++@@+@@@@@@++++++++++++.+++++.+.....o.o.....o.oooooooooooo..o.......ooooooXXXXoooooXXXXoooooo........+.++++...........+++++@@@@%%%%&&&==                                                                                                                                                                          ",
"                                                                                                                              =&&&&&&%%%%%%%%%%%%%%%%@@@@@@@@@@@@@@@@+++.....oooXXXXXXXoXooo.....++++@@@@@@@@@@@@@@++++++.++++.........oo.o....oooooo....o..o....o....ooo.oooXXXXooXXXXXXoooo.o..............+.+.+......++++++@@@@@@%%%%&&&=                                                                                                                                                                        ",
"                                                                                                                               ====&&&%%%%&%%%%%%%%%%@@@%@@@%@@@@@@@@@@+++++..oooXXX$XXX$XXoo....++++@@@@@@@@@@@@@@+++++++.++++.+.+.+..oo........oooo.....oo.....oo...oo..oooooXXXXXXX$XXXoo.ooooooo......+..............+++++@@@@@@@%%%%%&&==                                                                                                                                                                      ",
"                                                                                                                                  ==&&&%&&&&&%%%%%%%%%%%%%%%%%@@@@@@@@@@@@@++..ooooXX$X$#$$XXo.....++@@@@@@@@@@@@++@@++++++++..........oo.o......o.o.....oooo....ooo..o..oooooooXXXX$X$XXXoooooXXooo..........+.+...........++@@@@@@@@@@%%%%%&&=                                                                                                                                                                    ",
"                                                                                                                                   ===&%&&&&&&%%%&%%%%%%%%%%%%%@%@@%@@@@@@@@@@+...ooXX$$$$$$XXo..+.++@@@@@@@@@@@@++@@++++++++.+.+.+.+........+......o.o.ooooo....oooo....ooo.oooXX$$$$$$XXoooooXXXoooooo.............oooooo...++@@@@@@@@@%%%%%&&=                                                                                                                                                                   ",
"                                                                                                                                      =&&&&&&&&%&&&%%%%%%%%%%%%%%%%%%%@@%%@@%@@+++..oXXXX$$$$Xo....++@@++@@@@@@@@++@@@@++++...............+++....o.o...oooo.......oo.o....ooooXXXXX$$$$XXXXooooXXXXooXoo...o........oXXXXXXXoo.+++@@@@@@@@%%%%%&&=&=                                                                                                                                                                ",
"                                                                                                                                       ==&&&&&&%&&&%%%%%%%&%&%%%%%%%%%%%%%%%%%%@@+++.oXXXXXXXXoo....++@+++@@@@@@@+@@@@@+++++.+.+.+.+.+.+++++....o.o..o.ooo..o....o.......ooXXXXXXXXX$$$$XXXXooXXXXXXoXoooooo...ooooooXXXXoXooo..+++@@@@@@@@%%%%%%&&&===                                                                                                                                                             ",
"                                                                                                                                        =&&&&%&&&&&%%%%%%%&&&&&%%%%&&&%%%%%%%%%%@@@++.oXXXoXoXoooo...++++++++@@@@@@@@@@++++++.........++++....o..o.o..o.o.....o.o.o.......XXXX$XooXXXXXX$$$XoXXXXXXoooooooXooooXXooooXXXXoooo.....++++++@@@@@@%%%%%%%&&=                                                                                                                                                            ",
"                                                                                                                                          ==&%&&&&&&%&%&&%&&&&%%%&%%%&%%%%%%%%%%%@@@++.oooooooXXoooo..+++++++@@@@@@@@@@+++++++.+...+.+.++++.........o....................oX$X$XXoooooXXXXX$XXXXXXXXooooooXXXXXXXXoooXXXXooo.....+.+++++++@@@@@%%%%%%%%&&= =                                                                                                                                                         ",
"                                                                                                                                            =&&&&&&&&&&&&&%%&&&%&&%%%%%%%%%%%%%%%%@@@++...oXXXXXXXXoo..++++++@@@@@@@@@@++++.+++.....+++.+++........o......++....++...o...oXX$X$XoooooooXXXXXXXXXXXXooooooXXXXXXXXoooXXooooo.o.......++++++@@++@@@@%%%%%&&&==                                                                                                                                                        ",
"                                                                                                                                             ==&=&&&&&&&&&&&&&%%&&&&&&%%%&%%%%%%%%@%@@@++..ooooXXXXXoo.+++++++@@@@@@@@+++++..++....++++++++++++++.......+.++++++++....o..oXXXXXooo....ooXXXXXX$X$XXXoXoXXXXXXX$XXXXXXXXoXoo.......+.++++++++++++@@@%%%%%&&&&===                                                                                                                                                     ",
"                                                                                                                                              =&&&=&=&=&&%&&&&&%&&&&&&%&&&%%%%%%%%%%%%@@@++...ooXX$XXo.++++++++@@++@@++++++.+.....+++@+++@+++++++++........+++++++.+.....oooooooo..o...ooXXX$$$$XXXXXXXXXXXXooXXXX$$$XXoXXoo.o......+++++..+...+++@@@@%%%%%&&=&=                                                                                                                                                    ",
"                                                                                                                                                =====&&&%%&&&&&&&&&&&&&&&&&&&&%&%%%%%%@%@@@+++.oX$XXXXo.+++++@+@++++@+++++++...+++++@@@@@@@@+++++++++++++++.+++++++....o.ooooooo.oo....ooXX$$$$XXXXXXXXXXXXooooXXX$$$XXoXXooo.o...+.++++.....+..+++@@@%%%%%%%&&&===                                                                                                                                                 ",
"                                                                                                                                                    =&&&&%&&&&&&&&%%&&&&&&&&&&&&%%%%%%%%%%@@@+.oXX$XXXo....++@@++++++@@++++++.+++++++@@@@@@@@@++@@@@++@@++++++++++++.+......oooooo.o...ooXX$$$XXoooXX$XXXoooooooXXXXXXXoXXXoo..o....+++..+.+.....+++@@@@%%%%%%%&&===                                                                                                                                                ",
"                                                                                                                                                     ==&&&&&&&&&&&&&&&&&&&&&&&&&&&%%%%%%%%%@@@+.oXXXXXXo.+.+++++++++@@+++++++++++++@+@+@+@+@@@@@@@@@@@@@++++++++++++.........oooooooooooXXXXXXXooooXXXXXoooooooooXXXXXoooXXooo...+.+.+.......+.+..+++@@@%%%%%%%%&&&====                                                                                                                                             ",
"                                                                                                                                                      === =&%%&&&&&&&&=&&=&&=&&&&&%%%%%%%%%@@@@+.ooXXXX......++++++@@++++.+++++++@@@@+++++++@@@@@@@@@@@@++@@++++++++.+.......ooooXXooooXXXXXXoooooXoXXXo..ooooooooo.ooooXXXoo.o.................+.++++++@@%%%%%%%&&&&=&=                                                                                                                                            ",
"                                                                                                                                                       =  =&&&&&&=&&=&&&&&&&&&=&&&&&&&%%%%%%%@@++..oooo..+++.+++++@+++++++++++++@@@@++++++++@@@@@@@@@@@+++@@@++++++...+.++.....oooXooooooXXXXooXXoooooo..oooooXXXoo..ooooXooo..o...+....ooo...+...++++++@@@@%%%%%%%%&&&&===                                                                                                                                         ",
"                                                                                                                                                          =&&&&=&&&=&&&&%%&=&&&&&&&&&%%%%%%%%%@@@+++.oo..++..+++.++++++++++++++++@@@@++++.++@@@@@@@@@@++++@@@@++++.+...+++.+++..oooo..oooXXXoooXXXo......ooooXXXXo....ooooo..o.........oXXo.....+..+++.++++@@@@@%%@%%%%%%&&=                                                                                                                                        ",
"                                                                                                                                                            = == =&&&&&&&&&&&=&&=&&&&&&&&&&%%@%@%%@@+...+++++++++++++++@++++++++@+@@@@@++++++++++@@@@@+++@+@@@+++++++++.+...++..oo.......oXXXXXXXXo......ooooXX$Xoo...ooooo.o.o.o....ooXXo..++.......+++..++@@@%@@@@@@%%%%&&===                                                                                                                                     ",
"                                                                                                                                                                  =&=&=&&&&&&&&=&&=&&&&&&&&&%%%%%%%@@++++++++@@++.+++++@@++++++++++@@@@@@@++++@+++@@@@++@@++@@++@@++++......++...........oXXXXXXXooo.o..oXXoXX$XXXoo...oo....o.o.....oXXXo..++.......++....+@@@@@@@@@@@%%%%%%&==                                                                                                                                    ",
"                                                                                                                                                                   ===== =&=&&&&&&&&=&=&&&&&&&&%%%%%%@@@@@+@@++++++++++++@++++++++++@@@@@@@@@@+@@@@@@+++@@@@@@@@@@+++++.+...+..........o.ooXoXoooooooooooXXXXXXXXooooooo...oo...o.....oXoo..++....o...+...++@@@@@+@@@@@@%%%%%%&====                                                                                                                                 ",
"                                                                                                                                                                          =&=&=&=&&&&&&&=&&&&&&&%%%%%@@%%@@@@++++++@@+++@@@+++++++++@@@@@@@@@@@@@@@@++++@@@@@@@@@@++++.+++....+........oo.........oooXXoXX$XXXXoooXXXooo..oooo.o.o....ooo......+....o....+++@@@+++++@@@@@%%%%%%&&&=                                                                                                                                 ",
"                                                                                                                                                                          = = ==&&=&&&&&&&&=&&&&%%%%%%%%%%%@@@+@@@@@@@@@@@@@+++@@@@@@@@@@@@@@@@@@+++@@@@@@@@@+@@@@++.++.+.+.+..+.......oXo.o.....ooXX$$XXXXXXXoooooooooooooXooo.....+..o..ooo.....ooo......+.++++++++@@@@@%%%%%%&&&====                                                                                                                             ",
"                                                                                                                                                                                =&&==&==&=&&&=&&%%%%%%%%%%%@@@@@@@@@@@@@@@@@@++@@@@@@@@@@@@@@@@@++++@@@@@@@@++@@@@++.+++......+..+....ooXooo....oooX$$$XXXXooooo..oooooXoooXooo.o.........oooo...oooo.o....o..o....++@@@@@@%%%%%%&&&&&=                                                                                                                             ",
"                                                                                                                                                                                 = == = ==&&&&&&&&&&&&&&&%%%%%%@@@@@@@@@@@@@@@@@@@@+@@@@@@@@@@@+@+++@@@@@@@@@@+++++++++++++.++++++++..oooo......oooXXXXXXXooooooo.ooo.oooooooo..............oooooooo...oooo......+.+++++++@@%@%@%%&&&&&====                                                                                                                         ",
"                                                                                                                                                                                         ==&&=&&&&&&&&&&&%%%%%%@@@@@@@@@@@@@@@@@@@+++@@@@@@@@@++@@++@@@@@@@@@@+++++++++++..+++++++++.ooo.........ooooooooooo.ooooo......ooo......o....+..+...oooooo..o.ooo.........++++++++@@@@@@%%%%&&&&&=                                                                                                                         ",
"                                                                                                                                                                                          ==&== ==&&&=&&&&%&&%%%@@@%@@@@@@@@@@@@@++++@@@@@@@@@@@++@@@@@@@@@@@+@@@@++@+++++..+.++++@+.oo.....o...............oXXXoooo.o..oooo.o.oooo...........ooooo.o..ooo.....+.+.+++++..++++++@@@@@%%%&%&&&&===                                                                                                                   ",
"                                                                                                                                                                                           ===   ==&=&&=&&%&&&%%%@@%%@@@@@@@@@@@@+++@@@@@@@@@@@@++@@@@@@@@@@++@@@+++@++...+....++@@+.o.++.oooo..+++.........oXXXXoo.o....oo..oooooo.....o.....oooo...o.ooo.........+++.......++++@@@@@@%%%%%%%%&=                                                                                                                   ",
"                                                                                                                                                                                                    ==&&&&&&&&&%%%%%%%%%@@@@@@@@@@@@@@@@@@@@@@@@@+@@@@@@@@@@@@@@@@@@++++++++++.++++....++.ooo..+++++.+.+.+...ooXXoo.....oooo.ooXoooooooo..o...ooo.......oo.....+......o.o...+.+.++++++@@%%%@@@@%&===                                                                                                                ",
"                                                                                                                                                                                                     ==&&&&&&&&&%%%%%%%%%@@@@@@@@@@@@@@@@@@@@@@@++@@@@@@@@@@@@@@@@@@++++++++++.++++....++.....+++++...........oXXoo.o.ooooo..ooXXoooooo..o.ooo..........oo.o..............o......++++++@@%%@++@%%&&&=                                                                                                               ",
"                                                                                                                                                                                                      ==&&&=&&&&&%%%%%%%%%@@@@@@@@@@@@@@@@@@@@@@@@++++++++@@@@@@@@++@@++++++++++++....+...+.++++++.+.++..+.+...ooooo.o.ooo...ooXXoooooo.o...oooo.o.......o........o....o.o....+.+.+.+++@@@@@@@@@@@@@&===                                                                                                            ",
"                                                                                                                                                                                                       ====&&&&&&%%%%%%%%%%@@@@@@@@@@@@@@@@@@@@@@@+++++++@@@@@@@@@++@@++++++++++++..+++..+++++++++...++.+......oooo...ooo....ooXooooooo..o.ooo..o.........o....o.o..o.o.o..o.........++@@@@@@@@@@++@%&&&=                                                                                                           ",
"                                                                                                                                                                                                         ===&&=&&&&&&%%&&%%%%%%%%%@@@@@@@@@@@@@++++++@++++++++@@++++++++++++++++...++++..+@@@++++++.+.......+..oooo.o.ooo...ooooXoooo.o.o.o..o.o..o.............o..o...oo..............+++@@@@@@@@@@@@%%&===                                                                                                        ",
"                                                                                                                                                                                                           ==&&&&=&&&%&&&%%%%%%%%%%@@@@@@@@@@@+++++@@@+++++++@@@++++++++++++++++.+.++++..+@@@++++++...+..............oooo..oooooooo..o...o.o..o.o.............o..o..o...o....o.o.o.o...++++@@@@@@@@@++@%%&&&=                                                                                                       ",
"                                                                                                                                                                                                            ==&&&&&&&%%&&&&&&%%%%%%%%%%%@@@@@@++++++@@@@@@@@@@@@@@@@++++++++++++++++++@++++@@+++++.......o......o.o.o.oXoooooXoooo.o.........o....o.............o..o....o.....o.o.o...+++++.++++@@@@+++@@%@%&=                                                                                                      ",
"                                                                                                                                                                                                             ==&=&=&&&&&&&&&&%%%&%%%%%%%%@@@@@@+++++@@@@@@@@@@@@@@@@+++++++..++++++++@@++++@@++++...............o.....oXo.ooXXXoo..ooo...ooooooo.o..o........o.o..ooo................++++......++@@@+++@@@@@%&==                                                                                                    ",
"                                                                                                                                                                                                              ==&&&&&&&&&&=&&%%&&&&%%%%%%%%%@@@@@@@@@@@@+@%%@@@@@@@@@++++++++++++.+++++@@@@@@+++.+.....++..++..oo.....ooo..ooXXXo.oooo..ooooooooo.....o.............oo.o......o....o..++++.+.+.++@@@+..++@@+@@%%&=                                                                                                  ",
"                                                                                                                                                                                                               =&&&=&&&&=&&&&%&&&&&%%%%%%%%%@@@@@@@@@@@@+@%%@@@@@@@@@@++++.+++++...++++@@@@@@++.......+++.+++..oo......o....oXXXooooXX..ooXXooooo.....oo.+.+.......ooo.......o.........++......++@@@+...+@@++++@%&=                                                                                                 ",
"                                                                                                                                                                                                                                                                                                                                                                                                                                                                                                                    ",
"                                                                                                                                                                                                                                                                                                                                                                                                                                                                                                                    ",
"                                                                                                                                                                                                                                                                                                                                                                                                                                                                                                                    ",
"                                                                                                                                                                                                                                                                                                                                                                                                                                                                                                                    ",
"                                                                                                                                                                                                                                                                                                                                                                                                                                                                                                                    ",
"                                                                                                                                                                                                                                                                                                                                                                                                                                                                                                                    ",
"                                                                                                                                                                                                                                                                                                                                                                                                                                                                                                                    ",
"                                                                                                                                                                                                                                                                                                                                                                                                                                                                                                                    ",
"                                                                                                                                                                                                                                                                                                                                                                                                                                                                                                                    ",
"                                                                                                                                                                                                                                                                                                                                                                                                                                                                                                                    ",
"                                                                                                                                                                                                                                                                                                                                                                                                                                                                                                                    ",
"                                                                                                                                                                                                                                                                                                                                                                                                                                                                                                                    ",
"                                                                                                                                                                                                                                                                                                                                                                                                                                                                                                                    ",
"                                                                                                                                                                                                                                                                                                                                                                                                                                                                                                                    ",
"                                                                                                                                                                                                                                                                                                                                                                                                                                                                                                                    ",
"                                                                                                                                                                                                                                                                                                                                                                                                                                                                                                                    ",
"                                                                                                                                                                                                                                                                                                                                                                                                                                                                                                                    ",
"                                                                                                                                                                                                                                                                                                                                                                                                                                                                                                                    ",
"                                                                                                                                                                                                                                                                                                                                                                                                                                                                                                                    ",
"                                                                                                                                                                                                                                                                                                                                                                                                                                                                                                                    ",
"                                                                                                                                                                                                                                                                                                                                                                                                                                                                                                                    ",
"                                                                                                                                                                                                                                                                                                                                                                                                                                                                                                                    ",
"                                                                                                                                                                                                                                                                                                                                                                                                                                                                                                                    ",
"                                                                                                                                                                                                                                                                                                                                                                                                                                                                                                                    ",
"                                                                                                                                                                                                                                                                                                                                                                                                                                                                                                                    ",
"                                                                                                                                                                                                                                                                                                                                                                                                                                                                                                                    ",
"                                                                                                                                                                                                                                                                                                                                                                                                                                                                                                                    ",
"                                                                                                                                                                                                                                                                                                                                                                                                                                                                                                                    ",
"                                                                                                                                                                                                                                                                                                                                                                                                                                                                                                                    ",
"                                                                                                                                                                                                                                                                                                                                                                                                                                                                                                                    ",
"                                                                                                                                                                                                                                                                                                                                                                                                                                                                                                                    ",
"                                                                                                                                                                                                                                                                                                                                                                                                                                                                                                                    ",
"                                                                                                                                                                                                                                                                                                                                                                                                                                                                                                                    ",
"                                                                                                                                                                                                                                                                                                                                                                                                                                                                                                                    ",
"                                                                                                                                                                                                                                                                                                                                                                                                                                                                                                                    ",
"                                                                                                                                                                                                                                                                                                                                                                                                                                                                                                                    ",
"                                                                                                                                                                                                                                                                                                                                                                                                                                                                                                                    ",
"                                                                                                                                                                                                                                                                                                                                                                                                                                                                                                                    ",
"                                                                                                                                                                                                                                                                                                                                                                                                                                                                                                                    ",
"                                                                                                                                                                                                                                                                                                                                                                                                                                                                                                                    ",
"                                                                                                                                                                                                                                                                                                                                                                                                                                                                                                                    ",
"                                                                                                                                                                                                                                                                                                                                                                                                                                                                                                                    ",
"                                                                                                                                                                                                                                                                                                                                                                                                                                                                                                                    ",
"                                                                                                                                                                                                                                                                                                                                                                                                                                                                                                                    ",
"                                                                                                                                                                                                                                                                                                                                                                                                                                                                                                                    ",
"                                                                                                                                                                                                                                                                                                                                                                                                                                                                                                                    ",
"                                                                                                                                                                                                                                                                                                                                                                                                                                                                                                                    ",
"                                                                                                                                                                                                                                                                                                                                                                                                                                                                                                                    ",
"                                                                                                                                                                                                                                                                                                                                                                                                                                                                                                                    ",
"                                                                                                                                                                                                                                                                                                                                                                                                                                                                                                                    ",
"                                                                                                                                                                                                                                                                                                                                                                                                                                                                                                                    ",
"                                                                                                                                                                                                                                                                                                                                                                                                                                                                                                                    ",
"                                                                                                                                                                                                                                                                                                                                                                                                                                                                                                                    ",
"                                                                                                                                                                                                                                                                                                                                                                                                                                                                                                                    ",
"                                                                                                                                                                                                                                                                                                                                                                                                                                                                                                                    ",
"                                                                                                                                                                                                                                                                                                                                                                                                                                                                                                                    ",
"                                                                                                                                                                                                                                                                                                                                                                                                                                                                                                                    ",
"                                                                                                                                                                                                                                                                                                                                                                                                                                                                                                                    ",
"                                                                                                                                                                                                                                                                                                                                                                                                                                                                                                                    ",
"                                                                                                                                                                                                                                                                                                                                                                                                                                                                                                                    ",
"                                                                                                                                                                                                                                                                                                                                                                                                                                                                                                                    ",
"                                                                                                                                                                                                                                                                                                                                                                                                                                                                                                                    ",
"                                                                                                                                                                                                                                                                                                                                                                                                                                                                                                                    ",
"                                                                                                                                                                                                                                                                                                                                                                                                                                                                                                                    ",
"                                                                                                                                                                                                                                                                                                                                                                                                                                                                                                                    ",
"                                                                                                                                                                                                                                                                                                                                                                                                                                                                                                                    ",
"                                                                                                                                                                                                                                                                                                                                                                                                                                                                                                                    ",
"                                                                                                                                                                                                                                                                                                                                                                                                                                                                                                                    ",
"                                                                                                                                                                                                                                                                                                                                                                                                                                                                                                                    ",
"                                                                                                                                                                                                                                                                                                                                                                                                                                                                                                                    ",
"                                                                                                                                                                                                                                                                                                                                                                                                                                                                                                                    ",
"                                                                                                                                                                                                                                                                                                                                                                                                                                                                                                                    ",
"                                                                                                                                                                                                                                                                                                                                                                                                                                                                                                                    ",
"                                                                                                                                                                                                                                                                                                                                                                                                                                                                                                                    ",
"                                                                                                                                                                                                                                                                                                                                                                                                                                                                                                                    "
};
