/* XPM */
static char *result[] = {
/* columns rows colors chars-per-pixel */
"500 400 14 1 ",
"  c black",
". c #6A3B23",
"X c #834F32",
"o c #7B482D",
"O c #744228",
"+ c #8E583C",
"@ c #552C17",
"# c #5F331C",
"$ c #A36A4C",
"% c #975F42",
"& c #411B10",
"* c #260F09",
"= c #AF7555",
"- c #BE8464",
/* pixels */
"                                                                                                                                                                                                                                                                                                                                                                                                                                                                                                                    ",
"                                                                                                                                                                                                                                                                                                                                                                                                                                                                                                                    ",
"                                                                                                                                                                                                                                                                                                                                                                                                                                                                                                                    ",
"                                                                                                                                                                                                                                                                                                                                                                                                                                                                                                                    ",
"                                                                                                                                                                                                                                                                                                                                                                                                                                                                                                                    ",
"                                                                                                                                                                                                                                                                                                                                                                                                                                                                                                                    ",
"                                                                                                                                                                                                                                                                                                                                                                                                                                                                                                                    ",
"                                                                                                                                                                                                                                                                                                                                                                                                                                                                                                                    ",
"                                                                                                                                                                                                                                                                                                                                                                                                                                                                                                                    ",
"                                                                                                                                                                                                                                                                                                                                                                                                                                                                                                                    ",
"                                                                                                                                                                                                                                                                                                                                                                                                                                                                                                                    ",
"                                                                                                                                                                                                                                                                                                                                                                                                                                                                                                                    ",
"                                                                                                                                                                                                                                                                                                                                                                                                                                                                                                                    ",
"                                                                                                                                                                                                                                                                                                                                                                                                                                                                                                                    ",
"                                                                                                                                                                                                                                                                                                                                                                                                                                                                                                                    ",
"                                                                                                                                                                                                                                                                                                                                                                                                                                                                                                                    ",
"                                                                                                                                                                                                                                                                                                                                                                                                                                                                                                                    ",
"                                                                                                                                                                                                                                                                                                                                                                                                                                                                                                                    ",
"                                                                                                                                                                                                                                                                                                                                                                                                                                                                                                                    ",
"                                                                                                                                                                                                                                                                                                                                                                                                                                                                                                                    ",
"                                                                                                                                                                                                                                                                                                                                                                                                                                                                                                                    ",
"                                                                                                                                                                                                                                                                                                                                                                                                                                                                                                                    ",
"                                                                                                                                                                                                                                                                                                                                                                                                                                                                                                                    ",
"                                                                                                                                                                                                                                                                                                                                                                                                                                                                                                                    ",
"                                                                                                                                                                                                                                                                                                                                                                                                                                                                                                                    ",
"                                                                                                                                                                                                                                                                                                                                                                                                                                                                                                                    ",
"                                                                                                                                                                                                                                                                                                                                                                                                                                                                                                                    ",
"                                                                                                                                                                                                                                                                                                                                                                                                                                                                                                                    ",
"                                                                                                                                                                                                                                                                                                                                                                                                                                                                                                                    ",
"                                                                                                                                                                                                                                                                                                                                                                                                                                                                                                                    ",
"                                                                                                                                                                                                                                                                                                                                                                                                                                                                                                                    ",
"                                                                                                                                                                                                                                                                                                                                                                                                                                                                                                                    ",
"                                                                                                                                                                                                                                                                                                                                                                                                                                                                                                                    ",
"                                                                                                                                                                                                                                                                                                                                                                                                                                                                                                                    ",
"                                                                                                                                                                                                                                                                                                                                                                                                                                                                                                                    ",
"                                                                                                                                                                                                                                                                                                                                                                                                                                                                                                                    ",
"                                                                                                                                                                                                                                                                                                                                                                                                                                                                                                                    ",
"                                                                                                                                                                                                                                                                                                                                                                                                                                                                                                                    ",
"                                                                                                                                                                                                                                                                                                                                                                                                                                                                                                                    ",
"                                                                                                                                                                                                                                                                                                                                                                                                                                                                                                                    ",
"                                                                                                                                                                                                                                                                                                                                                                                                                                                                                                                    ",
"                                                                                                                                                                                                                                                                                                                                                                                                                                                                                                                    ",
"                                                                                                                                                                                                                                                                                                                                                                                                                                                                                                                    ",
"                                                                                                                                                                                                                                                                                                                                                                                                                                                                                                                    ",
"                                                                                                                                                                                                                                                                                                                                                                                                                                                                                                                    ",
"                                                                                                                                                                                                                                                                                                                                                                                                                                                                                                                    ",
"                                                                                                                                                                                                                                                                                                                                                                                                                                                                                                                    ",
"                                                                                                                                                                                                                                                                                                                                                                                                                                                                                                                    ",
"                                                                                                                                                                                                                                                                                                                                                                                                                                                                                                                    ",
"                                                                                                                                                                                                                                                                                                                                                                                                                                                                                                                    ",
"                                                                                                                                                                                                                                                                                                                                                                                                                                                                                                                    ",
"                                                                                                                                                                                                                                                                                                                                                                                                                                                                                                                    ",
"                                                                                                                                                                                                                                                                                                                                                                                                                                                                                                                    ",
"                                                                                                                                                                                                                                                                                                                                                                                                                                                                                                                    ",
"                                                                                                                                                                                                                                                                                                                                                                                                                                                                                                                    ",
"                                                                                                                                                                                                                                                                                                                                                                                                                                                                                                                    ",
"                                                                                                                                                                                                                                                                                                                                                                                                                                                                                                                    ",
"                                                                                                                                                                                                                                                                                                                                                                                                                                                                                                                    ",
"                                                                                                                                                                                                                                                                                                                                                                                                                                                                                                                    ",
"                                                                                                                                                                                                                                                                                                                                                                                                                                                                                                                    ",
"                                                                                                                                                                                                                                                                                                                                                                                                                                                                                                                    ",
"                                                                                                                                                                                                                                                                                                                                                                                                                                                                                                                    ",
"                                                                                                                                                                                                                                                                                                                                                                                                                                                                                                                    ",
"                                                                                                                                                                                                                                                                                                                                                                                                                                                                                                                    ",
"                                                                                                                                                                                                                                                                                                                                                                                                                                                                                                                    ",
"                                                                                                                                                                                                                                                                                                                                                                                                                                                                                                                    ",
"                                                                                                                                                                                                                                                                                                                                                                                                                                                                                                                    ",
"                                                                                                                                                                                                                                                                                                                                                                                                                                                                                                                    ",
"                                                                                                                                                                                                                                                                                                                                                                                                                                                                                                                    ",
"                                                                                                                                                                                                                                                                                                                                                                                                                                                                                                                    ",
"                                                                                                                                                                                                                                                                                                                                                                                                                                                                                                                    ",
"                                                                                                                                                                                                                                                                                                                                                                                                                                                                                                                    ",
"                                                                                                                                                                                                                                                                                                                                                                                                                                                                                                                    ",
"                                                                                                                                                                                                                                                                                                                                                                                                                                                                                                                    ",
"                                                                                                                                                                                                                                                                                                                                                                                                                                                                                                                    ",
"                                                                                                                                                                                                                                                                                                                                                                                                                                                                                                                    ",
"                                                                                                                                                                                                                                                                                                                                                                                                                                                                                                                    ",
"                                                                                                                                                                                                                                                                                                                                                                                                                                                                                                                    ",
"                                                                                                                                                                                                                                                                                                                                                                                                                                                                                                                    ",
"                                                                                                                                                                                                                                                                                                                                                                                                                                                                                                                    ",
"                                                                                                                                                                                                                                                                                                                                                                                                                                                                                                                    ",
"                                                                                                                                                                                                                                                                                                                                                                                                                                                                                                                    ",
"                                                                                                                                                                                                                                                                                                                                                                                                                                                                                                                    ",
"                                                                                                                                                                                                                                                                                                                                                                                                                                                                                                                    ",
"                                                                                                                                                                                                                                                                                                                                                                                                                                                                                                                    ",
"                                                                                                                                                                                                                                                                                                                                                                                                                                                                                                                    ",
"                                                                                                                                                                                                                                                                                                                                                                                                                                                                                                                    ",
"                                                                                                                                                                                                                                                                                                                                                                                                                                                                                                                    ",
"                                                                                                                                                                                                                                                                                                                                                                                                                                                                                                                    ",
"                                                                                                                                                                                                                                                                                                                                                                                                                                                                                                                    ",
"                                                                                                                                                                                                                                                                                                                                                                                                                                                                                                                    ",
"                                                                                                                                                                                                                                                                                                                                                                                                                                                                                                                    ",
"                                                                                                                                                                                                                                                                                                                                                                                                                                                                                                                    ",
"                                                                                                                                                                                                                                                                                                                                                                                                                                                                                                                    ",
"                                                                                                                                                                                                                                                                                                                                                                                                                                                                                                                    ",
"                                                                                                                                                                                                                                                                                                                                                                                                                                                                                                                    ",
"                                                                                                                                                                                                                                                                                                                                                                                                                                                                                                                    ",
"                                                                                                                                                                                                                                                                                                                                                                                                                                                                                                                    ",
"                                                                                                                                                                                                                                                                                                                                                                                                                                                                                                                    ",
"                                                                                                                                                                                                                                                                                                                                                                                                                                                                                                                    ",
"                                                                                                                                                                                                                                                                                                                                                                                                                                                                                                                    ",
"                                                                                                                                                                                                                                                                                                                                                                                                                                                                                                                    ",
"                                                                                                                                                                                                                                                                                                                                                                                                                                                                                                                    ",
"                                                                                                                                                                                                                                                                                                                                                                                                                                                                                                                    ",
"                                                                                                                                                                                                                                                                                                                                                                                                                                                                                                                    ",
"                                                                                                                                                                                                                                                                                                                                                                                                                                                                                                                    ",
"                                                                                                                                                                                                                                                                                                                                                                                                                                                                                                                    ",
"                                                                                                                                                                                                                  *  * * * *                                                                                                                                                                                                                                                                                        ",
"                                                                                                                                                                                                               *&@@@@@@@@@@@&*                                                                                                                                                                                                                                                                                      ",
"                                                                                                                                                                                                              *&#OoOOooXXXoo#&*                                                                                                                                                                                                                                                                                     ",
"                                                                                                                                                                                                             *&#oX+++%%++++Xo#&*                                                                                                                                                                                                                                                                                    ",
"                                                                                                                                                                                                            *&#o+%%%$$$%%++++o#&*                                                                                                                                                                                                                                                                                   ",
"                                                                                                                                                                                                           *&#o+%$$$$$$%%%%%+XO#&*                                                                                                                                                                                                                                                                                  ",
"                                                                                                                                                                                                          *&#o+%%$$$$$$%%%%%%+XO@&*                                                                                                                                                                                                                                                                                 ",
"                                                                                                                                                                                                         *&#oX+%%$$$$$$$%%%$%++XO#&*                                                                                                                                                                                                                                                                                ",
"                                                                                                                                                                                                         *@O+++%%$$$$$$$$%$$$%++Xo@&                                                                                                                                                                                                                                                                                ",
"                                                                                                                                                                                                         @OX++%$$$$$$$$$$$$$$$%%%+O@*                                                                                                                                                                                                                                                                               ",
"                                                                                                                                                                                                        *#X+%%%$$$$=$$=$$$$$$$$%%%X#*                                                                                                                                                                                                                                                                               ",
"                                                                                                                                                                                                        *#X+%$$$$==========$$$$$$%X#*                                                                                                                                                                                                                                                                               ",
"                                                                                                                                                                                                       *@O+%%%$$$===========$=$$$%X#&                                                                                                                                                                                                                                                                               ",
"                                                                                                                                                                                                      *@OX+%%%$$$====--==---=====$+.&                                                                                                                                                                                                                                                                               ",
"                                                                                                                                                                                                     **#X++%%%%$=====--==-----===$+O&                                                                                                                                                                                                                                                                               ",
"                                                                                                                                                                                                      &.+%%%%$$===========-----===%O&                                                                                                                                                                                                                                                                               ",
"                                                                                                                                                                                                     *@O+%%%%$$$===========---=-==%O&                                                                                                                                                                                                                                                                               ",
"                                                                                                                                                                                                    *@.X+++%%$$$$$$$$$========---=%O&                                                                                                                                                                                                                                                                               ",
"                                                                                                                                                                                                    &#o+++%%$$$$$$$$$$$=========-=%O&                                                                                                                                                                                                                                                                               ",
"                                                                                                                                                                                                   *&.X++%%$$$$$$$$$$$============%O&                                                                                                                                                                                                                                                                               ",
"                                                                                                                                                                                                    &.X+%%%$%$$$$$$$$$$===========%O&                                                                                                                                                                                                                                                                               ",
"                                                                                                                                                                                                   **#X+%$$%%%%$$$$$$$===$$$$$===$+.&                                                                                                                                                                                                                                                                               ",
"                                                                                                                                                                                                   *&.+%%%%%%%%$$$$$$$$=$$$$$$$$=$+.&                                                                                                                                                                                                                                                                               ",
"                                                                                                                                                                                                  *&@o+%%%+%%%%$$$$$$$$$$$$$$$$$$$+.&                                                                                                                                                                                                                                                                               ",
"                                                                                                                                                                                                 **@OX++%++%%%$$$$$$$$$$$$$$$$$$$%+.&                                                                                                                                                                                                                                                                               ",
"                                                                                                                                                                                                 *&.+++++%%%%$$$$$$$$$$$$$$$$%%%%%X.&                                                                                                                                                                                                                                                                               ",
"                                                                                                                                                                                                 *&.+++++%$$$$=$=$========$=$$%%$%X.&                                                                                                                                                                                                                                                                               ",
"                                                                                                                                                                                                 *&.X+%++%$========------====$$$$$+.&                                                                                                                                                                                                                                                                               ",
"                                                                                                                                                                                                 *&.X+++%$$=======--------=-==$==$+.&                                                                                                                                                                                                                                                                               ",
"                                                                                                                                                                                                 *@.XXX+%$$======------------====$+.&                                                                                                                                                                                                                                                                               ",
"                                                                                                                                                                                               **&#OXXX+%$$$======-----------====$+.&                                                                                                                                                                                                                                                                               ",
"                                                                                                                                                                                               *&#OooXX+%$$$$=====-----------====$+.&                                                                                                                                                                                                                                                                               ",
"                                                                                                                                                                                               *@.OoXX++%$$$$=======---------===$%X.&                   &&@&&&&@&&@&@@&*                                                                                                                                                                                                                                            ",
"                                                                                                                                                                                               *&#OoX++%%$$$$=======---==----==$$%X.&                  *#oooOoooooooXoO@                                                                                                                                                                                                                                            ",
"                                                                                                                                                                                               *&#OoX++%%$$$$==========--=--==$$$$X.&            ***&&&#X%%%%+%%%%%%++X.&&&*                                                                                                                                                                                                                                        ",
"                                                                                                                                                                                               *@#OoX++%%$$$==========---====$$$$$+.&            *&@##OX%$$$$$$$$$$$%%+o.##&*                                                                                                                                                                                                                                       ",
"                                                                                                                                                                                              *&#.oXX++%$$$$================$$$%$%X.&           *&@..oX%$$==$$==$$$$%%%+Xoo.@*                                                                                                                                                                                                                                      ",
"                                                                                                                                                                                              *@.OoXX++$$$$======$$========$$$$%%%X.&           &@#.OX+%$$==$$==$$$$%%%++++X.@*                                                                                                                                                                                                                                     ",
"                                                                                                                                                                                             *&#OooXX+%$$$$===============$$$%%%%+o#&         **&@#.OX+%$$===$$$$$%%%%%%%%++X.&*                                                                                                                                                                                                                                    ",
"                                                                                                                                                                                             *@.OooXX+%$$$$==========$$==$$$$%%%%+o#*       ***&&&@#OX+%$$==$$$$$$%%%%%%%%%%+o#&*                                                                                                                                                                                                                                   ",
"                                                                                                                                                                                             &@.OooXX+%$$$$==========$$$$$$$$%%%%+o@*       **&&&@@#OX+%$$$$$$$$$$$$%%%%%%%%+Xo.&*                                                                                                                                                                                                                                  ",
"                                                                                                                                                                                             *@.OooXX+%$$$$==========$$$$$$$$%%%%+O@*       *&*&&&@.OX+%$$$$$$$$$$$$%%%%%%%%+++o#&*                                                                                                                                                                                                                                 ",
"                                                                                                                                                                                             *@.ooXXX+%$$$$$======$=$$$$$==$$%%++XO@*     ***&*&&@@.oX+%$$$$$$$$$$$$%%%%%%%%%%%+o#&*                                                                                                                                                                                                                                ",
"                                                                                                                                                                                            *&#OoXXXX+%$$$$$$====$$$$$$$===$$%%++XO@*     *&&*&&&@#Oo+%%$$$$$=$$=$$$%%%%%%%%%%%++O@*                                                                                                                                                                                                                                ",
"                                                                                                                                                                                           *&#.OoXXX++%$$$$$$$====$$$$$$$$$$%%%%+XO@*    **&*&*&&@.OX%%$$$$$$$====$$$$$%%%%%++++XO@*                                                                                                                                                                                                                                ",
"                                                                                                                                                                                           &#.OooXX++%%$$$$$$$$==$$$$$$$$$$$$%%%+XO@*   *&&*&&*&&#.o+%$$$$$$$$====$$$$$$%%%%++++XO@*                                                                                                                                                                                                                                ",
"                                                                                                                                                                                           *#.OooXX+%%$$$$$$$$$$$$$$$$$$$$$$$%%%+X.@***&&&&&&*&&&#.o+%$$$$$$$$$$==$$$$$$%%$%%++XXo.@*                                                                                                                                                                                                                               ",
"                                                                                                                                                                                           &#.OooXX+%$$$$$$$$$$$$$$$$$$$$$$$$%%%+X.@&*&&&&&*&*&&@#OX+%$$$$$$$$$===$$$$$$%%$$%++XXoO#&*                                                                                                                                                                                                                              ",
"                                                                                                                                                                                           *#.OooXX+%$$$$$$$$$$$$$$$$=$$$$$%%%%++oO#@&&&@&&&*&&&@.OX%$$$$$$$$$$$$$$$$$$$%%$$%+XXooo.@*                                                                                                                                                                                                                              ",
"                                                                                                                                                                                          *&#.OooXX+%$$$$$$$=$=$$$$$$$$$$$$%%%%+XoO.@&@&&&&&*&&@#Oo+%$$$$$$$$$$$$$$$$$$$%$$%%+XXooo.@*                                                                                                                                                                                                                              ",
"                                                                                                                                                                                         *&@.OooXXX+%$$$$$$$$==$$$$$$$$$$$$%%%%+XO.#@&&&&&&&*&&@#OX%$$$$$$$=$$$$$$$$$$$$%%%%+++XXXo.@*                                                                                                                                                                                                                              ",
"                                                                                                                                                                                         *@.OOoXXXX+%$$$$$$$$==$=$$$$$$$$$$%%%%+XO.#@&@&&&*&*&&&.o+%$$$$$$$$$$$$$$$$$$$$%%%+++++XXo.@*                                                                                                                                                                                                                              ",
"                                                                                                                                                                                         &#OoooXXX++%$$$$$$$$$$==$$$$$$$$$$%%%%+XO.@@@&&&&*&*&&@.X%$$$$$$$$$$$$$$$$$$$$%%%+++++++Xo#&*                                                                                                                                                                                                                              ",
"                                                                                                                                                                                         *#OoooXX++%%$$$$$$$$$$===$$$$$$$$$%%%%+XO.@@&&&&&*&&&&@.X%$$$$$$$$$$$$=$$$$$$$$%++++++++Xo#&*                                                                                                                                                                                                                              ",
"                                                                                                                                                                                         &#OoXXX+++%%$$$$$$$$$$=====$$$$$$$%%%%+XO.@@&&&&*&*&&@#o+$$$$$$$$$$$$$$$$$$$$$$%%++++++XXo.@*                                                                                                                                                                                                                              ",
"                                                                                                                                                                                         &#OoXX++++%%$$$$$$=$=====$$$$$$$$%%%%++XO.@@&&&*&&&&@#.X%$$$$$$=$$$$$$$$$$$$$$$%%+++++XXXo.@*                                                                                                                                                                                                                              ",
"                                                                                                                                                                                         &#OXXX++++%%$$$$$$=======$$$$$$$%%%%++XoO.@&&*&&&&&&@.OX%$$$$$$$$$$$$$$$$$$$$$$%%++XXXXXoo.@&****                                                                                                                                                                                                                          ",
"                                                                                                                                                                                         &.oXXX++++%%$$$$$$======$$$$$$$$%%%%++XoO#@&&&*&&&&&#OX+%$$$$$$$$$$$$$$$$$$$$$%%++XXXXXXXO.@&&&&&&*                                                                                                                                                                                                                        ",
"                                                                                                                                                                                        *&.oX++++++%%$$$$$$======$$$$$$$$%%%%++Xo.#@&&*&&&&&@#o+%$$$$$$$$$$$$$$$$$$$$$%%++XXXXXXXoO.#.####@&**                                                                                                                                                                                                                      ",
"                                                                                                                                                                                       *&@OoX++++++%%$$$$$$======$$$$$$$$%%%+++Xo.@&&&*&*&&&#.X%$$$$$=$=$$$$$$$$$$$$$%%%++XXXXXXXoO..OOOooO#@&&*                                                                                                                                                                                                                    ",
"                                                                                                                                                                                      *&@.oXX++++++%%$$$$$$=======$$$$$$$%%++++Xo.@&&&*&*&&@#o+%$$$$$$==$$$$$$$$$$$$%%%+++XXXXXXooOO.OooXXoOO.#@*                                                                                                                                                                                                                   ",
"                                                                                                                                                                                       &#OoXX++++++%%$$$$$$=====$$$$$$$$$%%+++XXO.@&&&*&&&&@.X+%$$$$$$====$==$=$$$$$$%%%++XXXXXXoOO..OXXXX+XXoo.@*                                                                                                                                                                                                                  ",
"                                                                                                                                                                                       &#OXXXX+++++%%$$$$$$=====$$$$$%%$$%%++XXoO.#&&&*&&&@#OX+%$$$$$$========$$$$$$$$%%++XXXXXXoO...OX++++XXXXo.@*                                                                                                                                                                                                                 ",
"                                                                                                                                                                                       &#oXXX++++++%%$$$$======$=$$$$%%%%%++XXXoO.#&&&&&&&#OX+%$$$$$$$=========$$$$$$$%%++XXXXooOO...oX++++XXXXXo.@*                                                                                                                                                                                                                ",
"                                                                                                                                                                                      *&.oXXX++++%%%%$$$$$=======$$$$%%%+++XXXXoO.@&&*&&&@.X+%$$$$$$$$$$=========$$$$$%%%+XXooOO.....oX++++XXXXXXO.@*                                                                                                                                                                                                               ",
"                                                                                                                                                                                     *&@.oXXX+++++%+%%$$$=========$$$%%+++XXXXooO.@&&&&&@@O+%$$$$$$$$$$$====-=-==$$$$$%%%+XXooOO..#.OoX+++++XXXXXoO.@*                                                                                                                                                                                                              ",
"                                                                                                                                                                                    *&@#OoXXXX+++++++%%$$$$========$$%%++XXXXooOO.@&&&&&@#o+%$$$$$$$$$$$====----==$$$$%%++XXoooO..#..oX++++++XXXXXoO.@*                                                                                                                                                                                                             ",
"                                                                                                                                                                                    *&#OoXXXX++++++X++%$$$$======-==$$%%+XXXXoOO.#@&&&&@#.X+%$$$$$==$$====-------==$$$%++XXXXooO.###.OXX+X++++X+XXXoO#@*                                                                                                                                                                                                            ",
"                                                                                                                                                                                    *&.oXXXXX++++XXXX++$$$$======--==$$%+XXXXoO.##@&&&@@.oX+%%$$$$==$$====--------==$%++XXXXXXoO.#@#.OoXXXX++++++XXoO.#@*                                                                                                                                                                                                           ",
"                                                                                                                                                                                    *&.oXXXXX+++++XX++%$$$$======-====$$%+XXXoO..#@@@##.OX+%%$$$$$$======----------=$%+XXXXXXoo.##@#.OoXXXXX++++XXXoOO.#&                                                                                                                                                                                                           ",
"                                                                                                                                                                                    *&OoXXXXX+%+++++++%$$$$=============$%++XooOO.##..OOX+%%$$$$$$$$$===-----------=$+XXXXXXXoO.#@@#.OoXXXXXX++XXXXoOOO.@                                                                                                                                                                                                           ",
"                                                                                                                                                                                    &@OXXXXX+++%++++%%%$$$$======-=======%%%+XXXoOO.OoooX%%$$$$$$$$$====-----------=%+XXXXXXXoO.#@@#.OooXXXXXXXXXXXoOoOO@                                                                                                                                                                                                           ",
"                                                                                                                                                                                   *&#oXXXXX+++++++%%%%$$$$======---=====$$%+++++XoOoXXX+%$$$$$$$$$$====------------%+XXXXXXXoO.#@##.OOooXXXXXXXXXXooOO.@                                                                                                                                                                                                           ",
"                                                                                                                                                                                  *&#OXXXXX+++++++X+%%%$$$$====-------===$$%%%+%++XXX+++%$$$$$$$$$====-------------=%+XXXXX+XoO.#@@#..OOooXXXXXXXXXooOO#&                                                                                                                                                                                                           ",
"                                                                                                                                                                                  *@.oXXXXX++++++XX+%%%$$$$====--------==$$%%%%%%+++%%%%$$$$$$$$$$====--==---------=$+XXXX++XoO.#@@#...OOooXXXXXXXXooO.#&                                                                                                                                                                                                           ",
"                                                                                                                                                                                 **@OooXXXX+++++XXX+++%%$$$=----------====$%%%%%%+%%$%$$$=$$$$$$$$=======-----------$%+++++XXoO.#@@##...OOoXXXXXXXXooO.#&                                                                                                                                                                                                           ",
"                                                                                                                                                                                  &@OooXXXX+%%+XXXX++++%%$$----------=====$%%%%%%%$$$$$$$==$$$$$$$========---------=$$%%++++XoO.##@###..OOoXXXXXXXXooO.#&                                                                                                                                                                                                           ",
"                                                                                                                                                                                *&@.OoXXXXX+++++XXX++++%%%$=-=---------===$%%%%%%$$$$$$$=$$$$$$$$$=$$=====----------$%$$%%%+XoO..#####..OooXXXXXXXXooO.#&                                                                                                                                                                                                           ",
"                                                                                                                                                                                *@.OooXXXXX+++++++X++++%%%$$===--------==$$%%%%%%$$$$$$$$$$$$$$$$$$$$$======-------=%%$$$$%+XoOO..####.OOooXXXXXXXXooO.#&                                                                                                                                                                                                           ",
"                                                                                                                                                                                &@.OOoooXXXX+++++++++++%$%%$===--------==$$$%%%+%%$$$$$$$%$$$$$$$$$$========-------=%%%$%%+XoOOO...#...OoooXXXXXXXooOO..&                                                                                                                                                                                                           ",
"                                                                                                                                                                                &@OoOOOoXXX+++++++++++%$$%%$$==--------==$$$$%%++%%$$$$$%%$$$$$$$$$$==========----=$%%%%%+XoOoOOO.....OOoOooXXXXXooOOO..@                                                                                                                                                                                                           ",
"                                                                                                                                                                              *&@#OooOOooXX++++++++++%$$$%%%$$==-------==$$$$%%%%%%$%%$$$%%%$%$%$%$$===$=$$$$==--==$%%+++XXoooooOOO...OoooooXXXXXXooOO..@                                                                                                                                                                                                           ",
"                                                                                                                                                                              *@#OooooOooXX+++++++++%%$$$$%%%$$==------==$$$$%%%%%%%%%$$%%%%%%%%%%$$==$$$$%%$$====$$%%++XXoooXXXooOOOOOooooooXXXXXXooO..@                                                                                                                                                                                                           ",
"                                                                                                                                                                             *&#.OooooooooX+++++++++%$$=$$$%%%$$=------=$$$%%%%%%%%%%%%%%%%%%%%%%$$===$$$%%%%$$$$$$$+++XXoooXXXXooooOoooooooXX+++XXooO..@                                                                                                                                                                                                           ",
"                                                                                                                                                                             *@.OooooooooXX+++++++++%$$===$%%%%$$=-----$$$$%%%%%%%%%%%%%%%%%%%%%$$====$$%%++%%$$$$$%+++XooooXXXXoooooooooooXX++++XXooO..@                                                                                                                                                                                                           ",
"                                                                                                                                                                             *@.OoooooXXXX++++++++++%$$===$%%%%%$==----$$$$%%%%%%%%%%%%%%%%%%$$$$$===$$$%%+++%%$$$%%+++XooooXoooooooooooooX++++++XXXoO..@                                                                                                                                                                                                           ",
"                                                                                                                                                                            *&#.oooooXXXXX+++++++++++%$====$%%%%%%==--==$$$%%%%%%%%%%%%%%%%%$$$$$$==$$$$%%++++%%$$%%++++ooooooooooooooooooo+%++++XXXXO..@                                                                                                                                                                                                           ",
"                                                                                                                                                                           *&@.OooooooXXXX++++++++X++$$$====$%%%%%$======$$%%%%%%%%%%%%%$$%%$$$$$$$$$$$%%+++++%%$$$%+++XooooOOOooXXoOOooXoX+++++++++XoO.@                                                                                                                                                                                                           ",
"                                                                                                                                **** **                                    *&#OooooooXXXX++++++++XXX+%$$$$===$%%%%%$$====$$%%%%%%%%%%%%%%$$%$$$$$$$$$$%%++++++%%$$$%+++XooooOOOoooXoOOOoXooX++++%%%%+XoO@                                                                                                                                                                                                           ",
"                                                                                                                               *&&&&*&***                                  *&#OoooXXXXXX++++++++XXXX++++%%$==$$%%%%%$$===$$%%%%%%%%%%%%%$$$$$$$$$$$$%%%%++++++++%%%%++XXooooOOOoooooOOOXXoXXX+++%$$$%%Xo@*                                                                                                                                                                                                          ",
"                                                                                                                              *&@@@@&&&&*                                   @#OooXXXXXXX+++++++XXXXXooXX++%$$$$%%%%%%$$==$$%%%%%%%%%%%%%$$$$$$$$$$$$%+%%++++++++++%%++XXoooOOOOoooooOOOoXooXX++%%$$$$$+o@*                                                                                                                                                                                                          ",
"                                                                                                                             *&@@@@@@@&&&****                              *@.OooXXXXXX+++++++XXooOooOOooX+%%%%%%%%%%$===$$%%%%%%%%%%%%$$$$$$$$$$$$%++++++++++++%%+++++XooOOOoooooooOOOXXooX+++%%$$==$%o@*                                                                                                                                                                                                          ",
"                                                                                                                            *&&@@###@#@@&&&&*                              *@.OoooXXXXXX++++++XXoooOOOOOOoXX++%%%%%%%$$=$$$%%%%%%%%%%%$$$$$$$$$$$$%%+++++++++++++%++++++ooOOOooooooOOOoXXoo++++%%$$==$%o@                                                                                                                                                                                                           ",
"                                                                                                                           *&@@#########@@@&&*****                       *&@.OoooooXXXXXX++++++XXXoooOOOoooXX++%%$$%%%%%$$$%%%%%%%%%%%$$$%$$$$$$$%%%++++%%++++++++%+++%+oOOOooooooOOOoXXXX++%%%%%%%$$$%o@                                                                                                                                                                                                           ",
"                                                                                                                           &@@###......##@@@&&****                       *@.OoooooooXXXXXX++++++XXXXoooooooXXX++%%$%%%%%$$$%%%%%%%%%%%%$%%%$$$$%%%%%+++++%+++++++%%%++++ooOoooooooOoOoXXXX++%%%%%%$$=$%o#****                                                                                                                                                                                                       ",
"                                                                                                                          *&@###.OOO...##@@@@&&*****                   *&@.OooooXXXXXX+++XX++++++++XXXXoooXooXXX++%%%+%$$$$$$%%%%%%%%+%%%%%%%%%%++++++++++++++++%%%%+++XooooooooooooooooXXX++%%$$$$==$%XO#@@&*                                                                                                                                                                                                      ",
"                                                                                                                          *@##...OOOO...##@@@&&&****                    @.OoooooXXXXX+++++X+++++++++XXXXoXXXoXXXXX+%%+%$$$$$$%%%%%%%%+%%%%%%%%++%++++++++++++++++%%%++++oooooooooooooOOoXXXX++%$$$$$=$%XoOOO@*                                                                                                                                                                                                      ",
"                                                                                                                         &@@##...OOOO.#.###@@&&&&***                   *@OoooooooXXX++++++++%++++++++++XXXXXXXXooXX++%%%%%$$$$$%%%%%%%%%%%%+++%%%%%%++++++++++++++%%%%+XooooooOooXXXoOoooXXX+++%%$$=$%+Xoooo#*                                                                                                                                                                                                      ",
"                                                                                                                        *&###...OOOOO...###@@&&&*&***                  *#OoooooooXXX++++++++%+++++++++++XXXXXXXooXX++++%%%%$$$$%%%%%%%%%%%%+++%%%%%%++++++++++++++%%%%+XXoooooOoooXXooOooXXXXX++%$$$%+XoooXo.&*                                                                                                                                                                                                     ",
"                                                                                                                         @.....OOOOOO...#@@@@&&&&****               **&&#OooOOooXXX+++++%++++++++++++++++XX++XXooXXXXX++++%%$$$$%%%%%+%%%%%%++%%%%%%++++++++%%++++++%%++XoooooOooXXooooooXXXXX+++%%%%+XooXXo.@&*                                                                                                                                                                                                    ",
"                                                                                                                        *@....OOOOOOO...#@@@@&&&*&****              **@#.OooOoooXXXX++++%+++++++++++++++++X+++XXXXXXXXX+++++%$$$$$%%+++%%%%%+++%%%%%+++++++++%++++%+%+++XooooOOooXXoooooooXXXXXX++%%+XooooXoO.@*                                                                                                                                                                                                    ",
"                                                                                                                        *@...OOOOO...O..#@@&&@&&*&&***               &#OOOOOooooXXXX+++++++++++++++++++++++++++++++XXXXXX+++%%$$$$%%++%%%+%%++++%%++++++++++++++%%%%++++XoOOOOOooooooooooooXXXXX+++++XoooXoOOO@&*                                                                                                                                                                                                   ",
"                                                                                                                        *@...OOOO.O.O...#@@@&&&*&**&**              *&#OOOOoooooXXX++++++++++++++++++++++++++++++++XXXXXX++++%%$$$$%+++%++%%++++%%%+++++++++++++%%%+++++XoOOOoOoooooooooooooXXXXXX+XXoooooOOOO#&*                                                                                                                                                                                                   ",
"                                                                                                                        *@..OOOO........#@@&&&&****&**              *@#OOOOoXXoooX++%%+++++++++++++++++%%++%%++%%++XXXXXX++++%%%$$$%++++%%%%++++%%%%++++++++XX++++++++++XoOOooooOoooooOooooooXX++XXXoOOOOOOOOO.@*                                                                                                                                                                                                   ",
"                                                                                                                         @.OOOO.OOOO.O..#@@&&&*&&*****             *@#.OOOOoXXXXoX++%+++++++++++++++++++%+%%%%%%%%++XXXX+++++%%%%$$%%+++%%%%++++%%%%+++++++XXXX+++++++++XoooooooOooooOOooooooXX++XXoooOOOOOO.O.#&*                                                                                                                                                                                                  ",
"                                                                                                                        *@OooOOOOOO.....#@@&&&&*&*****            *&.OoOOOooXXXXXXX++++++++++++++++++++++%%%%%+%%%+++++++++++%%%%$$$%%++%%%%++++%%++%%++++XXooXX++++%%%+XXooooooooOOOOOoooOooXX++XXoooOOOOOOO.O.#&**                                                                                                                                                                                                ",
"                                                                                                                        *@OoooOOOOOOO..##@@&&&*&*&*****           *@.oooOoooXXXXXXXX++++++++++++++%++++++++%%+%%%%%%+++++++++%%%%$$$$$%+%%%%%+++%%%+%%+++XXXXoXX++++%%%++XoooooooooOoOoooOOoXX++++XXoooO.OOOO.OO.@@&&*                                                                                                                                                                                              ",
"                                                                                                                        *@OooooOOOOOO..##@@&&&&****&****          &@.oooooooXXXXXX+++++++++++++++%%%%++++++%%++++%%%%++++++++++%%%$$$$%%%%%%%%++%%%%++++XXXXXXoX++++%%%%+XooOooooooooooooOOoX++%%++XXoOO..........#.#@*                                                                                                                                                                                             ",
"                                                                                                                      **@.OoooooOOOOO..##@@&&&*&&**&****         *@#.OoooooXXXXXXX++++++++++++++++%+%+++++++%+++++%%%%++++++++%%%%%$$$$$%%%%%%+++%+%+++XXXXXXXXXX+++%%%%+XooooooooXooooooooXX+++%++XooO..O.O.O.O......@&***                                                                                                                                                                                         ",
"                                                                                                                      *@.OoooooooOOOO..##@@&&&*&*&&***&**       &@#OOOOOooXXooXXXXXX++++%%+++++++++++++++++++%%++++%%%%%%++++%%%%%%$$$$$%%%%%%++++++++XXooXXXXXXXX++%%%%+XooooOooXXooooooooXX++++++XoO.O.........O.O...##@&*                                                                                                                                                                                        ",
"                                                                                                                    **@#OoooooooooooO..##@@@&&&&***&****        *@.OOoOoooXoooXXXXXX+++%%%+++++++++++%++++++%%%++++%%%%%%%++++%%%%%$$$$$%%%%%%+++++++XXXooXXXXXXXX+++%%%+XooooooooXooooooooXX+++++XoOOOOOO.OOOOO...OOOOOO.@&*                                                                                                                                                                                       ",
"                                                                                                                    *@.OOooooooOOoooOO..#@@&&&&&***&&***        &@.OOOooooooooooXXXX++++%%+++%%++++%%%%++++%%%%++++%%++%%%%++++%%%%%%%%$%+%%%%++++++XXXXooXXooXXXX++++%%+XooooooooooOOOooooXX++++XXoOOOOO.OOOOO..OOOOOOooo.@&*                                                                                                                                                                                      ",
"                                                                                                                   **@OoooXXooooOoooOO..#@@@@@&*&****&**        *&#OOOooooXoooooXXX++++++++++%%%%+%%%%%+++%%%%+++++%%+++%%%+++%%%%%%%%%%%%%%%%++++++XXXXXXXXooXXXX+++++%++XoooooooooOOOoooXXX++++XoOOOooOOOOOOOOOOOOOoooooO.@&*                                                                                                                                                                                     ",
"                                                                                                                    &#OXXXXXXooOOoooOO..#@@@@&&&*&***&**        *&#..OooooXXoooXXX++++++X++++%%%%%%%%%%++%%%%++++++%%++++%%++%%%%%%%%+%%%%%%%%++++++XXXXXXXXooXXXX++++++%+XoOOOooooooOoooXXXX++++ooOoooooOOOOOOOOooOoooooOoo.@&*                                                                                                                                                                                    ",
"                                                                                                                  **&#OXX+XXXoooOoooOO..###@@&&&&****&***      *&@#.OOooXXXXooooXXX+++++X++++%%%%%%%%%%++%%%%%+%%%%+%%+++%%+++%%%%%%+++%%%%%%+++++++++XXoXXXXXXXXX+++++%++XoOOOooooooOOoooXX++++XXoOOOooooOOOOOOoooooooooooXo.@&**                                                                                                                                                                                  ",
"                                                                                                                  *&@.OoX++XXooOOoooOO....##@&&&***&&*&***    *&@#.OOOooXXXXoooXXXXX++++++++++%%%%%%%%%++%%%%%%%%%+++%%++%%++++%%+%%%+%%%%%%++++++++++XXooXXXXXXXX++++%%++XoOOOoooooooOooooX+++XXooO.OOOOooOOOOOOoooooooooXXoo.@&&**                                                                                                                                                                                ",
"                                                                                                                 *&@#.OoX++XXooOOoooO...#.##@&&&*****&****    *@#.OOOOoooXXXXXXXXXXXX++++++++%+%%%%%%%%%%%%%%%%%+%%++%%++%%+++%++%+%%%%%%%%+++++++++++XXooXXXXXXXXX+++%%++XoOOOooooooOOOooXX+++XXoOO.OOOOOOOOOoOOooXXXXXXXXXXoO.#@&&*                                                                                                                                                                               ",
"                                                                                                                 *&@..OOX++XXooOOooOO.....#@@&&&&&***&**&**   &@.OOOOOooooXXXXXXXXXXX++++++++++%%%%%%%%%%%%%%%%++%%++%%++%%++%%++%%%%%%%%%++++++++++++XXooXXXXXXXXXX++%%++XoOOOoooOOOOOOOoo++++XXoO.....OOOoOOOOoooXX+XXXXXXXXoOO.#@&*                                                                                                                                                                              ",
"                                                                                                                 *&@#..OoXXXXoooooOOO....##@@@&&&*&**&****    &@.OOOOOooooXXoXoXXXXXXXX++++++++++%%%%%%%%%%%%%+++%%%%%%++%%%%%%+++%%%+%%%%++++%++++++++XXXXXXXXXXX++++%%++XoOOOOOOOOOOOOOooX+++XoOO.O.O..OOOooooooXXX+XXXXX+++XoOO.#@&                                                                                                                                                                              ",
"                                                                                                                 *&@#..OOoXXXooooOOOO...###@@@@&&&*&&*&&**    *@#.OOOoooooXXooooXXXXXXXX+++++++++%%%%%%%%%%%%++++%%%%%+++%%%%%++++%%+++%%%++++%%++++++++XXXXXXXXXX++++%%++XoOOOOOO...OOOOoXX+++XoO......O.OooooooooXXXXXXXX+%%+XoOO..@*                                                                                                                                                                             ",
"                                                                                                                 *&@##..OoXoXXXooooOO...#####@@&&&*&*&*&***   &@#..OOoooooXXooooXXXXXXXXX+++++++++++++++%%%%%++++%%%%%++++%%%++%%+%++++%%%++++%%%%++++%+XXXXXXXXXXX++++++++XOOOOO..O.OOOooX+++XoOO..O.O...OOoooooooooooXoXX+%%%+XoO..@*                                                                                                                                                                             ",
"                                                                                                                 *&@#...OooooXXooooOO...####@@@&&&&&&&&***** *&##..OOooooXXXoooXXXXXXXXXXX+++++++++++++++%%%%++++%%%%++++++%%++%%%++++%%%%++++%%%%++++%+XXXXXXXXXXXX+++++++XOO...O...OOooXX++XXoO.O....O.O.OOOOOOOOOOoooooX+%%%%XoO..@&*                                                                                                                                                                            ",
"                                                                                                                 *&@#..OoooooXXoooOO.O....###@@@&&&&&&&*&****&@##...OOooooooooooXXXXXXXXXXX+++++X++++++++++++%%%%%%%%%%%+++++%%%%++++%%%%%+%%%+++++++++++XoXXXXXXX+++++++++XoO.O...O.OooooX++XoO...O.O.....OOOOOOOOOOOOOOoX+++%+XoO.#@@&                                                                                                                                                                            ",
"                                                                                                                 *&@#..OoooOoXXooOOO...O..###@@@@&&&&&&&&*&&@@###....OoooooooooXXXXXXXXXXXX++++XX++++++++++++%%%%%%%%%%%%++++%%%++++%%%%++%%%%+%++++++++XXooXXXXXX+++++++++XoO...O..OOoOOoX++XoO.O....O.O.O.............OOX+++++Xo..##@&*                                                                                                                                                                           ",
"                                                                                                                 **@#..OOooooXXooOOOoOO....##@@#@@@@@&&&&&*&@@###.#..OOooooooooooXXXXXXXXXXXXXX+++++++++++++++++++++%%%%%++%%++++++++++++%%%%%%%+++++%++XXooXXXooXXXX+++++XXoO..O..O.OoOOX+++XoOO...........O.O.O.O.O.O.OooXXXXooO.####@*                                                                                                                                                                           ",
"                                                                                                                  *@#...OOoooXXooOOooOO.O..##@@##@@@@&@&&&&&&@##......OOooooooooooXXXXXXXXXXXXXX+++++++++++++++++++++%%%%++%%+++++++++++%%%%%%%%++++%%++XXooXXooooXXXX++++XXoO.O..O..ooOoX+++XXoOO....O.O....O.......O..OoooXXooO.####@&*                                                                                                                                                                           ",
"                                                                                                                 *&@#....OooooooooooOO.....##@@@@@@@@@@@&&&@@###.#....OOOOOoooOooXXXoooXXXXXXXXXX++++++++++++++++++++++++++++++++++++++%%+%%%%%+++++++++XXXXXXooooXXXXX+++XoOOOO....OOoooX+++XoOOO........#...O.O.OOO...OOOOoooOO.#####&*                                                                                                                                                                           ",
"                                                                                                                 **&##...OOooooooooOOO.O....##@#@@@@@@@@@@@@###......OOOOOOoooOOooXXooooXXXXXXXXX++++++++++++++++++++++++++++++++++++++%+++%%%++++++++++XXXXXXoooXXXXXXX++XoOOOO.O.O.Oooo++++XoOO..O.O...##.......OOO.O...OOoooOO..####&*                                                                                                                                                                           ",
"                                                                                                                  *&&@#..OOooooXXXoOOOOOOO...###@@@@@@@@@@@@###.#.....OOOOOOooooOooooooooXXXXXXXXXXXXXX+++XXXXX++++++++++++++++++++++++++++++++++++++XXXXXXXXoooooXXoXXX++XooOOO.....OOooXXXXXooO......#.#....O.O..O....OOOOooooO..####&*                                                                                                                                                                           ",
"                                                                                                                   *&@##.OOooooXXXooOOoooOOO...##@@@@@@@@@@@##......O.OO..OOooooOOoooXooooXXXXXXXXXXXXX++XXXXXX+++++++++++++++++++++++++++++++++++++XXXXXXXXooOOooXXooXX+XXXooOO.O.O.OOooXXXXXXoO.....###...O....O..O.O.OOOOooooO...##@&*                                                                                                                                                                           ",
"                                                                                                                    *@#...OOoooXXXoooooXooOOOO..##@@@########.#.#.....O..OOOoooooOooXXoooooXXXXXXXXXXXXXXXXXXXXXXXX++++++++++++++++++++++++++++++++XXXXXXXXXooOOooXXooXXXXXXooOO....O.OOoXXXXXoO.......##....O.O..O......OOOOOooOO..##@&*                                                                                                                                                                           ",
"                                                                                                                   **@#....OOooXXooooXXXXXooOOO..##@#########.....#..O..O.OOooooOOooXXooooooXXXXXXXXXXXXXXXXXXXXXX+++++++++++++++++++++++++++++++XXXXXXXXXXXooOOooXXoXXXXXXXooOO.O.O..OOoXXXXooO...#.#.##..O....O..O.O.O..OOOOooOO..##@&*                                                                                                                                                                           ",
"                                                                                                                    *@#....OooXooXXXXX++X+XXooO..#####.####.###.#......O.OOOoooooOoooooooXoooooooXXXXXXXXXXXXXXXXXXXX++++++++++X+++X+++++++++XXXXXXXXXXXXXXXoooOooooooXXXXXoooOO...OOOOooXXXXooO......#.....O.O...O.....O..OOOOOO...##@&*                                                                                                                                                                           ",
"                                                                                                                    *&##.#.OoXXoXXXX+++++++XXoO...#####.###.##.......O...OOOooooOOooooXooooooooooXXXXXXXXXXXXXXXXXXXX+++++++++XXX+XXX+++++++XXXXXXXXXXXXXXXXooOOoooooXXXXXXXooOOO.OOOOOooXXXXooO..#.#..#.#.....O.O..O.O..O.OOOoOO..####&*                                                                                                                                                                           ",
"                                                                                                                   **&@##..OOooooXX++++%%%++XoO....####.......#.......O.OOOOooooooOOOoXoOooooXoooooooooXXXXXXXXXXXXXXXXXXXXXXXXXXXXXXX+++++XXoXXXXXXXXXXXXooooooOoooXXoXXXXXooOOOOOOOooooXXXXooO.....##.....O.O....O...O..OOOooO..###@#&*                                                                                                                                                                           ",
"                                                                                                                    **&@##.OOooooXX++++%%%%+XoOO.O..##..#.#.#......O.O..OOOOooooooOoOoXoOooooooooooooooXXXXXXXXXXXXXXXXXXXXXXXXXXXXXXXX+++XXXoXXXXXXXXXXXXoXooooOoooXooXXXXXooOOOOOOOooooXXXXooO..#.###.#.......O.O..O...OOOoooO..##@@@@*                                                                                                                                                                           ",
"                                                                                                                     **@##.OOOOOoXX++++++++++XoOO.....#.....###.......O.O..OooOoooooooooOoXXoooooooooooooXXXoooXXXXXXoXXXXXXXXXXXXXXXXXXXXXXXXXXXXXXXXXXXXXXoooooooooXXXXXXoooOOO.OOOooooXXXXoo..##....#.....O.O...O..O.O.OooooOO.###@@&*                                                                                                                                                                           ",
"                                                                                                                     **&##.OOOOOoXX++++++++++XXoOOO.....##..##.....O.O....OOooOOooooooooOoXXooooooXoooooXXXoooXXXXXXXooXXXXXXXXXXXXXXXXXXXXXXXXXXXXXXXXXXXXXoooooooooXoXXXXXooOO...OOooooXXXXoO.####.#..#.#...O..O...O...OOOoOOO..##@@@&*                                                                                                                                                                           ",
"                                                                                                                     **&##....OooXXXX+++++++++XXXooO.....#....#........O.O.OooOOOoooOoooooooooOoooooooooooXooXXXXXXooooXXXXXXXXXXXXoooXXXXXXXXXXXXXXXXXXXXXXooooOoooXXoXXXXXooOOO..OOooooXXXXoO.####....###....O...O..O.O..OOOO..##@@@@&*                                                                                                                                                                           ",
"                                                                                                                      *&##..O.OooXXXXX+++++++++XXXXOOOOO...OO.....O.O.OOO.OOOOOOOOooOoooooooooOooooooooooXXooXXXXXXoooXXXXXXXXXXXXXoooXXXXXXXXXXXXXXXXXXXXXXooooOOoooooXoXXXooOOO.OOOOoooXXXXoO..#...#.#.##.......O..O...O......##@@@@&*                                                                                                                                                                            ",
"                                                                                                                      *&##...OOoooooXoXXXXXX++++++XoooooOOOOOOO.O.....OOOOOOOO.OOOooooooOoXXooooooooooOOoXXooXXXXooooXXoooooXXXXXXXXXooXXoXXXXXXXXXXXXXXXXooooooooOOooXXoXXXXooOOO....OOoX+XXoO..#.#.##....#...........O..OOO...##@@@&*                                                                                                                                                                             ",
"                                                                                                                       *@##..OOOoOoOOoooXXXXXX+++XXooooOooooooOOO.O.O.OOOOOO....OOooooooOoXooooooooXoooOoXXooXXXXooooXXooooooXXXXXXXooXXXoXXXXXXXXXXXXXXXXooooooooOoOoXXoXXXXXooOO.O.O.OoX+XXoO..#..###.#.#..#.#...........O...###@@@&*                                                                                                                                                                             ",
"                                                                                                                       *&@##.OOOOOOOOOoOoXXXXXXXXXXXoOOOoXooooooOO.O..OOooOO.O.O.OOoooOoooooOoooooooXXXooXXXoXXooooooXXooooooXXXXXXoXXXXXXXXXXXXXXXXXXooXXooooooooooooXXXXXXXXooOO....O.OoXXXoO..##...#..........#............###@@@&&*                                                                                                                                                                             ",
"                                                                                                                        *&##..O......OOOOoXooOoooXXXoOOooXoooooooOOO.OOOOOOOOOO..OOOoOOooooOOooooXXXXXXXXXXooXXXoXoXXXXXooooXXXXXXXoXXXXXXXXXXXXXXXXXXXoXXoooooooooooXXXXXXXXooOOO.O.O..OoXXooO..##.#..##.#.##.#..#.#.#.#..#..##@@@@@&*                                                                                                                                                                             ",
"                                                                                                                        *&@##............OoOOOOOOOooooooooooooOOoooOO.OOOOOOOOOO.OOOOOOoXXooOoooooXXXXoXXXXooXXXXXXXXXXXXXoooXXXXXXXXXXXXXXXXXXXXXXXXXXXoooooooooooooooooXXXooOO.......OOoXXooO.#....#.##....##.#........#..#.##@@@@@&*                                                                                                                                                                             ",
"                                                                                                                         &@@#####.#....#.OOO.....OOoooooooooooOoooooOOOOO.OOOooOOOOOoOOoXoooOooooXXXXoXXXXXXXXXXXXXXXXXXXoXoXXXXXXXXXXXXXXXXXXXXXXXXXXXXooooXoooooooooooooXoooOO.O.O..OOOooooOO...#...###.#.###...#.#.#.......##@@@@&&*                                                                                                                                                                             ",
"                                                                                                                         &@@@####.....##..........OOOOooooooooOOooooOOOOOOOOooooOOOOooOoooooOoooooooXXXXXXXXXXXXXXXXXXXXXXXXXXXXXXXXXXXXXXXXXXXXXXooooXXXoooXXooOOooXoOOOoooooOO.......OOOoOOO..#...#..##.......#.......#.#.#.###@@@@&*                                                                                                                                                                             ",
"                                                                                                                         &&@@#########.#...##.#....OOOOoooooooOoOooooooooOOoooooOOOoooooooooOoooooXXXXXXXXXXXXXXXXXXXXXXXXXXXXXXXXXXXXXXXXXXXXXXXXooooXXXoXXXXooOoooXoOOOoooooOOOOO.O...OOOOO.....#..####.#.#.#...#.#.#.......##@@@@@&*                                                                                                                                                                             ",
"                                                                                                                         &&&@@##########..###.........OOOOOOooOOOOoooooooooOoooooOooooooooooOoXXoXXXXXXXXXXXXXXXXXXXXXXXXXXXXXXXXXXXXXXXXXXXXooooooOoXX+XXXXXXooOOOooooOoooXXXoooOOO..........O....#...##.......#.......#.#.#.##@@@@&&*                                                                                                                                                                             ",
"                                                                                                                         &&@&@##########.#.#...#........OOOOOOOOOOooooooooOOooooOOooXooooooooXXXoXoXXXXXXXXXXXXXXXXXXXXXXXXXXXXXXXXXXXXXXXXXoooooooooXX++XXXXXXooOOOoooooXXXXXXXooOO....O.O.O..........##.#.#.#..#.#.#.#...#####@@@@&&                                                                                                                                                                              ",
"                                                                                                                         &&&@@@@@@@@@####....................O..OOooOOOOooOOoooooOoXXoOoooooXXXXXXoXXXoXXXXXXXXXXXXXXXXXXXXXXXXXXXXXXXXXXXXXXoooooooXXXX++XXooXXooOOooooXXXX+XXXXXoO..............#....##......#..........#####@@@@@&*                                                                                                                                                                              ",
"                                                                                                                         *&&@@@@@@@@@####.#....#...#.#.#.#...O.OOOooOOOooOoOooooooooXoooooooXXXXXXoXXoXXXXXXXXXXXXXXXXXXXXXXXXXXXoXXXXXXXXXXXoXXXoooXoXoXXXXXXXXooOoooXXXXXX+XXXoooO..O.O.O........#...##.#.#...........######@@@@#@&*                                                                                                                                                                              ",
"                                                                                                                         *&&&@@@@@@@@@##....#...###...........O.OOOOOOOOOOOOooooooooooooooOoXXXXXXXXXXXXXXXXXXXXXXXXXXXXXXXXXXXoooXXXXXXXXXXXXXXXXooooooooooXXXXooOOooXXXXoXXXooooO........O......####...................####@@@@@@@&*                                                                                                                                                                              ",
"                                                                                                                         **&@@@@@@@@@@@##.###.#.#.##.#.#.#......OOOOOoOOOOOooooooooooXooooooXXXXXXXXXXXXXXXXXXXXXXXXXXXXXXXXXXXXoXoXXXXXXXXXXXXXXXXooooooXoooooooOoooXXXXXoooooooO.....O.O....#########.#.#.#...O.O.O....####@@@@@@@&*                                                                                                                                                                              ",
"                                                                                                                         **&@@@@@@@@@@@@##.##.....###......#...O..OOOOOOOOOOOOOOOOOoXXoooooooXXXoXXXXXXXXXXXXXXXXXXXXXXXXXXXXXXXXXXXXXXXXXXXXXXXXXXXoOOoXXoooooOOoooXXXXXXooOooooO..............#######...................##@@@@@@@@&*                                                                                                                                                                              ",
"                                                                                                                          *&&@@@@@@@@@#@#####.#.#.###.#.#.#.....O.OOOOOOOOOOOOOOOOOooXooooooooXoooXoXXXXXXXXXXXXXXXXXXXXXXXXXXXXXXXXXXXXXXooXXXXXXXXoOOOoXXXXoooooXXXXXXXXooooXoO.....O.O...#.###########.#.#...O.O.O...####@@@@@@@@&*                                                                                                                                                                              ",
"                                                                                                                           &@&&@@@@@#@@##@@##......##.......#....O..OOO..OOOOOOOOOOOooooOooooooooooooXXXXXXXXXXXXXXXXXXXXXXXXXXXXXXXXXXXXXoooXooooXXooOOooXXXXXXXXXXXXXXXXoooXXoO..............####@@####...............###@@@#@@@@&**                                                                                                                                                                              ",
"                                                                                                                           *&&@@@#@@@@#@@@@#####.#.#.#.#.#.........OOO..OOOOOOOOOOOooooOOoooooooooooooXXXXXXXXXXXXXXXXXXXXXXXXXXXXXXXXXXXXoooooooXXXooOOoXXXXooooXXXXXXXXXooooooOO..O.O.O.....#########.#.#.#....O.O.O..##@@@#@@#@@&**                                                                                                                                                                              ",
"                                                                                                                           *&&@@@@@@@@@@@@@@######........#...........O.OO.OOOOOOOOOOOOOOooooooooooooooXXXXXXXXXXXXXXooXXXXXXXXXXXXXXXXXXXXooOooXXXXooOoXXXXooOooXXXooXXXXooooOOOOOO...........######.........#.........##@@##@@@@@&**                                                                                                                                                                              ",
"                                                                                                                            *&&@&@@@@@@@@@@@######.#.#.#...#....#......OOO..OOOOOOOOOOOOOOooooooooooooooXXXXoooXXXXXooooXXXXXXXXXXXXXXXXXXXooooXXXXXXoooXXXXXooXXXXXooXXXooooOOOoooOOOO.O.O....######.#.###.#........O...#@@@#@@@&&&**                                                                                                                                                                              ",
"                                                                                                                             *&&@&&@@@@@@@@@@##@###.......###.#..#.........O.............OooOOOOOOOOOooooXXooOoXXXXooooooXXXXXXXXXXXXXXXXXXXooXXXXXXXXXoXXXXXXXX++XXoXXXooooOOOoooooOOOO....O..#####.....##...#.#........##@@@@@&&&***                                                                                                                                                                              ",
"                                                                                                                              *&&&@@@@@@@@@@@@@@####.#.....#...#..##.#...O..O.O.O.O.O.O.OOOOOOOOOO.OOOooooooOOOoXXooooooXoXoXXXXXXXXXXXXXXXXXXXXXXXXXXXXXXXXXoXX++XXXXXXooooOOoooooooooO.O.O....###..##..#..#.....#.....###@@@@&&*&***                                                                                                                                                                              ",
"                                                                                                                               *&&&&&@@&@@@@@@@@@####.#.#.#..#..#.##......O.......................O..OOOOOOOOOOooooooooooooooXXXXXXXXXXXooXXXXXXXXXXXX++XXXXooXX++XXXXXXooooOooooooXXXoO.....O...###.###..#..#.#.#..#...##@@@&&&&&*&**                                                                                                                                                                              ",
"                                                                                                                               **&&@&@&&@@@@@@@@############...#..##.#......O.........O.O...O.O.O...O.....OOOOOOOOOOoXXoooooooXXXXXXoooooooXXXXXoXXXXX+++XXXoooXXXXoXoXXooXoooXXXXXoXooO.O......#.#.######..#....#########@@@&@&&&&***                                                                                                                                                                              ",
"                                                                                                                               ***&&&&&@&@@@@@@@##############..#......#..........................O..........OOOOO.OoXXoooooooXXXXooooooooooXXooooXXXX++++XXooooXXoooXXXooXXoXXXXXXooooO.............#######..#.#########@@@@&&&&*&***                                                                                                                                                                              ",
"                                                                                                                                 **&&@&&@&@@@@@@@@@@@@########...#.#.#..#.#....#.#.#..................#........OO...OooXXooooooXXooOoooooooooooOooXXXXXXXXXooooooOOoooXXoooooXXXXXooOOO..............###@#########@@@@@@@@@&@&@&&&*&**                                                                                                                                                                              ",
"                                                                                                                                   *&&@&&&&&@@@@@@#@@@#########.#............#......#.#..#.#.#..#..#....#.#......O.O.OoXXoooooXXXooooooXoooooooOooXXooXXXXoooooooOOooXXXooooooXXXXoOOO...O....O.O.O..##@@########@@@@#@@@@@@&&&&&&&***                                                                                                                                                                              ",
"                                                                                                                                   **&&&&@&@&@&@@@@@@@@@@@####...#.#.#...#.#...#.#.###..#......#..#..#.#.##.#.......O.OooooXXXXXXXXooooooooooOooooooooooooooooooOOooXooooooXXXoooooOO...OOOOOOO..OO..##@@@@@@@@@@@@@@@@@@@@&&&&@&&&&**                                                                                                                                                                              ",
"                                                                                                                                   *****&&&&&&@&@@@@@@@@#@#####.#............#......###...#.#.#....#.....###..#.......OOOOoXXXXoXXXXXooooooooOooooooXooXoXooXooooOoXXXooooXoXXoooooO.O.OOoooOOOO.OOO.##@@@#@@@#@@@@@@@@@@@@&&&&&&&&***                                                                                                                                                                              ",
"                                                                                                                                     * ***&&@&&&@@@@@#@@@#######..#.#....#.#...#.#.#.###........#....####.#.#...........OOOoXoooooXXXoooooooooooooooXXXoXXXXXXooOOoXXXoooXX+XoooooOOOOOOOOoooOO.O.OOO.###@@@@@@@@#@@@@@@&@&&&&&&&&&***                                                                                                                                                                              ",
"                                                                                                                                         **&&&@&@@@@@@@@#########.#....#....#.#.......##.#.#.#.#..#.############.#.....O..OoooOOOooXXoooooooooooooXoXXXXXXXXXXooOooXoXoooX+XXXoooOOOOOOOOOOoooOO.OOOO.###@@@#@@@@@@@@@@&&&@&@&&&&*&&**                                                                                                                                                                              ",
"                                                                                                                                          *&&@&&@&@@@@@@@@@@######..#.#..#.....#.#.#.#...###.###...#####@##@@####.#......O.OOOOOOOoooooooooooooOooXXXX++XXXooooOooXXooooooXXXXooOoOOOooOOOOOOoooooOOO.######@@@@@@@@@&&&&&@&&&&*&*&***                                                                                                                                                                              ",
"                                                                                                                                           *&&&&&&@@@@@@@@@@########...#...#.#.......#.#.###.####.#####@@@@@@@@####.#.......OOO.OOOooooooOoooooOooXXXXX+XoooooOooXoXoooooooooXooOOOOOOoOO.OOOooooooOO..#######@#@@@@@@&&&&&&&&*&*&*&*                                                                                                                                                                               ",
"                                                                                                                                            *&&&&@&@&@@@@@#@@@######.#...#....#.#.#########.########@@@@@###@@@@@####.....O......OOOO.OOOooOoooooooXXXXXoOOOOOooXXooOOOoXXooXooooooOoOOOOOOOooooOOOO...O.....#####@@@@&&&@&&&*&&*&&**                                                                                                                                                                               ",
"                                                                                                                                             ***&&&&&&@@@@@@@@#######.#.#..#.#.#.#..#########.######@@@@####@@@@@@@###.#...O.O.O........OooOooooooooXXXoO..OOOoooXooOoOoXooooooooooOOO...OOooooOO...O.OOOO.......####@@@@&&&&&&*&*&*                                                                                                                                                                                ",
"                                                                                                                                             ****&&@&@@@@@@@@@@@@@##....##..####################@@@##@@@@####@@@@@@@#####..............OOOoooXoooOOooooO..OOOOooXoooooooooOoooooooOO...O.OOooooOO.O...OooOO.O.......###@@@&&&&&&*&**                                                                                                                                                                                ",
"                                                                                                                                               **&&&&&&@@@@@@@@@@@#############################@#@@@#@@@@###@#@@@#@@@#####...O...#..#...OOOoXXooOOOOoooO..OOOoooooooooooooOooooooOOO.O...OOOoooOOO.O.O.ooOO...O.OO.O.####@@@&&&&*&**                                                                                                                                                                                ",
"                                                                                                                                                *&&&&@&@&@&@@@@@#@@###############@@@@@@@###@@@#@###@@@@@###@@@@@##@@@#####........#.....OOOoooOOOOOooooOOooOOooXooOOoooOOooXXooOO...OOO..OOOOOoOOO...OOOO.O.OOOOOOO....##@@@&&*&*&*                                                                                                                                                                                ",
"                                                                                                                                                 ***&&&&&&&&@@@@@@@@@#@@##########@@@@@@@@@#@@@####@@@@@@@#@@@@@#@#@@@@####.###.#.#....O..OOOoOO..OOooooOOooOOooXoOOOOooOooXXXooOOO.OOOOO....OOOOOOOO.OOO.O.OooOOOOO..#.###@@@&&&&&&*                                                                                                                                                                               ",
"                                                                                                                                                  ***&&@&@&@@@@&@@@@@@@@######@@@@@@@#@@@#@##@@####@@@@@@@@##@@@@@@@@@@@@@####...........O.OOOO.O.OOOOOOOoooOOooooOOOOooooXXXXooOO.OOooO........OOOO..OOO..OooXoOO......####@@&&&&&&*                                                                                                                                                                               ",
"                                                                                                                                                   **&&&&&@&&@@&@@@@@@@@#####@#@#@@@@@@@@@@###@#####@@@@@@@###@@@@@@@@@@@@@#####.#....O.O...OOO...OOOOOOOOooOoOoOOOOOOooXXXXXoooOOOOOOoO.....#...OO...OOO.OOoXXoO..O..#..####@@@&@@&&*                                                                                                                                                                              ",
"                                                                                                                                                    *&&&&&&@&@&&@&&@@@@@@@@@@@####@@@@@@@@@#####@@@@@@#@@@#@###@@@@@@@@@@@#####......O...O.O...O.O.......OooOOOOOOOOOOoX+XXXooooOOOOOOOO..............OOO.OOoooOO.O....#....##@@@@@@&&*                                                                                                                                                                             ",
"                                                                                                                                                     ***&&&&&&@&&@&&@@@@@@@@@#@####@@#@#@@@@@##@@@@@@@@@#@#####@@#@@#@@#@@@######......O.....O.....O.O.O.OOoOO...OOOOOoX+XXXooooOOOOOOO.O.OO............O..OOOOOO....#...#.####@@@@@@&&*                                                                                                                                                                            ",
"                                                                                                                                                      **&&&&&@&&@&&@&@@@@@@@@@@#####@@##@@@@#@@@@@@@@@@######@@@@@@@@@@@@@@@####.#...O..O.O.OOO.O.O......OOOOO.O.OOOOooXXXXXooXooOOO...O.OOOO....O.....#.....OO........#..##.###@@@@@&&&*                                                                                                                                                                           ",
"                                                                                                                                                        *&**&&&&&&@&&&@@@@@@@@@@#@#@@@#@@@@@@@@@@@@@@@@#######@@@@@@@@@@@@@@@####.#...O.....OOO....O.O.O..OOOO...OOOOooXXXXXoXXXoOO..O...OOOOO.O....#.###..O.....#...#.#...##.####@@@@@&&**                                                                                                                                                                         ",
"                                                                                                                                                        ****&&&&&@&&@&&&@&@@@@@@@@@@#@@@@@@@@@@@@@@@@@@#####.##@@@@@@@@&@@@@@######.....O.O....O.O......O.....O.O.OOOoXX++XXoXXXoO.O..O.O.......O.........OOO.........###.#...######@@&&&&&**                                                                                                                                                                       ",
"                                                                                                                                                         ******&&&@&&&@&&&@@@@@@@@@@@@@@@@@@@@@@@@@@@@#####.####@@@@@@@@@@@@@#########............O.O.O..O.O.O...OOOOoXXXXXoooooOO.OOOOO.O....O.....#....OOOO.O........##...#.#######@@@@@&&&*                                                                                                                                                                      ",
"                                                                                                                                                             *&*&&&&&&&&&&&&@&@@#@@@@@#@@#@@#@@#@@#@######.##@@##@@@@@@@@@@@###########................O......O.O.OOOoooXoooooOOO..OoooOO......O.........OOOO.OOO..O......#.....######@@@@&&&&*                                                                                                                                                                     ",
"                                                                                                                                                            * *&*&&&&&&&&&&&@&@@@@@@@@@@@@@@@@@@@@@@@@####.###@##@@@@@@@@@@@@@#######.#.#.#.#.#.#..O.O...O.O.O.OOOOoOooooXoooOO...OOooOO.....OO...........OOO..OO...O...#..#.#...#####@@@@@@@&&**                                                                                                                                                                   ",
"                                                                                                                                                              ***&&&&&&&*&&@&&@&&&@&#@@@@@@@@@@@@@@@@####..####@@@@@@@@@@@@@@#@@@@###.................O.O....OOOOOoooooooXXoOO.O.OOOOO......OOO.O...#####.........O...O.............##@@@@@@&&&&&**                                                                                                                                                                 ",
"                                                                                                                                                                ****&&&&&&&&&@&&@&&@@@@@@#@@@@@@@@@@#####..########@@@@@@@@#@@@@@@##.#.####.#.#.#..O......O.OOOoooooooooooXoOOO..OOOO.O....OOOO.......###......#...O.O......#.......###@@@@@@&@&&&**                                                                                                                                                                ",
"                                                                                                                                                                  ***&*&&&&&&&@&&&@&@@&@@###@@@@@@&@##..........###@@#@@@#@##@@@@@###.####.............O.O..OOooooooooooooooOOOO.....O.OOOOooO......#.........#.......O.O..#.......#####@@&&&@&&&&&**                                                                                                                                                               ",
"                                                                                                                                                                   **&*&&&&&&&&@&&&@@@&&@@#@@@@@@@@@##.#.........###@@@@@@@#@@@@@@@#########.####..........OOooooooooooooooOOOOOO.O....OoOOoOO.........#.#..........O.........#.....####@@@@@&@&@&&&***                                                                                                                                                             ",
"                                                                                                                                                                     **&*&*&&&&&&&&&&&@&@@@@@@@@@@@@@#.....O.OO...###@@@@@@@@@###@@@######..####....#....O..OOooooooooooOOOO...OOO.....ooOOOOOO.O.O..........#.#.....O.O...#.#.....#####@@@@&&&@&&&*&**                                                                                                                                                             ",
"                                                                                                                                                                     ***&****&&&&&&&&&&@&&@@@@@@@@@@@##....OOOOOO..##@@#@@@@@@@##@@@@############.#...##.....OOoooooooOOOOOO.O.OOOO....OoOOOOOOO...O............#...O.....#.....O....#####@@@@&&&&&&&&**                                                                                                                                                            ",
"                                                                                                                                                                      ***&**&*&*&*&&&&&&@@@@@@@@@@@@####..OOOOOOO...#@@@@@@@@@###@@@@@###########...#.##......OOOOoooOO..........OOO.O.OOOOoOooO..............#.........#.....O..O....#####@@&&@&@&&&&&**                                                                                                                                                           ",
"                                                                                                                                                                       ******&&&*&&*&&@&&@@@@#@@@@@#@###...OOOOOOO..##@@@#@#@@@#@@@@@@@@#########.#.##.#.#.#...OOooXoO..#...O.O...OOOOOOOOoOooOO.......OOOO........O..............O...######@@@@&&@&@&&&&*                                                                                                                                                          ",
"                                                                                                                                                                        *****&*&*&*&*&&&@&@@@@@@@@#@###....OOOOOO...###@@##@@@@@@@@@@&@@########....###......#..OoXXoO.##..O.......OOOOOOOOoooOO.O.O..OooOO...#........#.#...........###.####@@@&@&&&&&&&&*                                                                                                                                                         ",
"                                                                                                                                                                           ********&&&&&&@@@@@@@#@######...OOOOOO....######@@@@@@@@@@@@@@##########.##.....#....OooooO..#..OOO......OOOOOOOooooOOOOOoOOooOO......O.O........####.#....#####@###@@@@@@&&&&&&*                                                                                                                                                        ",
"                                                                                                                                                                            ******&*&*&&&&&&&&&@@@####....O..OOO....#.#####@@@@@@@@@@@@@@@########.....#.....#..OOooOO.....OOO...#...OOO..OOoooooooooooooOO.............#.####......#.####@@####@@@@&&@&@&&&*                                                                                                                                                       ",
"                                                                                                                                                                                **&***&&&&&&&&@&@@@@#####....OO....##.####@@@@@@@@@@@@@@@@##########.#..........OOOO.......OOO......O.O....OOOooooOOOoOOOOOOOOOOOOOO......####....#.....########@@@@@@@@&&@&&***                                                                                                                                                    ",
"                                                                                                                                                                                *******&&&&&&&&&&&@@@@@###..O....########@@@#@@#@@@@@@@@@@########.......O.............O..OOOO.O.............OOooOO.OOOOOOOOOooooOO.....#.#@##......#...###...##@@@@@@@@&@&&&&&**                                                                                                                                                   ",
"                                                                                                                                                                                  *  *&****&*&&@&@&&@@@@##......#.######@@@@@@@@@@@@@@@#@@@@@#@#@####.#....O....OOO..............O.O.OO..#......OOO..OO.OOOOoXXXoOO..#....###..O............#.###@@@@@@@@@@@@&&&** *                                                                                                                                                ",
"                                                                                                                                                                                      ****&*&*&&&&&@&@@@@#.....#.##@@##@@@@@@@@@@@@@@####@@@@@@@@@###...........OOOO.O....O..........OOO............O.OOOOOOoXXXoO.................#...........###@@@@@@@@@@&&&&&****                                                                                                                                               ",
"                                                                                                                                                                                     * * ***&&*&&&@&&&@@@##..#####@#@@@@@@@@@@@@@@@@@@#@@@@#@@@@@@@####.#....#..OOOO.OOO........O.O.O.OOO....#.#...OOOOoOOOOOoooOO.....O.O.OOOO.........O...#.###@@@@@@@@@@@@@@&&&**** *                                                                                                                                            ",
"                                                                                                                                                                                          ****&*&&&@&@&@@@@########@@@@@@@@#@@@@@#@@###@@@###@@@@@@@###...#....#..OO..OO...............OOO........OOOOOoOO..OOO...O.....O.OOOOO.O.O....O.....###@@#@#@@@@@@@@@&&&&&&&****                                                                                                                                           ",
"                                                                                                                                                                                            ****&&&@&&@&@@@#.#######@@@@#@@#@@@@@@@@########@@@@@@@@##..#...#.#.#..#....#...#.O......O.OOO.O.....OOOOOoOO...........O.OOOOOOOO..OOOO..OO.....##@@@##@#####@@@@@@@&&&&&*****                                                                                                                                         ",
"                                                                                                                                                                                              **&&&&&&&&@@@#######@@@@@@@@###@@@@@@@#@#######@@@@@@@###..#.#.#############.#........O..OOO...O...OOOOOOOOO.O......O...OOOOOOO..OOOOOO.OOO....##@@@#######@@@@@@@&&@&&&&&&&**                                                                                                                                        ",
"                                                                                                                                                                                               ***&&&&&&&&@@#@#####@@@@#######@#@@@@@@########@@@@@@@#######..####@#####.###.....#....O.OOOO...O.OOooooOOOO...........OOOOOOOOOOOOOOO.OOO.OO..###############@@@@@@@@@&&&&** *                                                                                                                                      ",
"                                                                                                                                                                                                *****&&&&@&@@@@##@@@#@#########@@@@@@@########@@@@@@@@@@##########@#####.##..#.#.....O...OOO.O..OOOooooOOOO.O...O.O....OO.OOOOOOOOOO.OOOO.OO....####..########@@@@@@@@&@&&&****                                                                                                                                     ",
"                                                                                                                                                                                                   ***&&&&@&@&@@@@@#@#####.#.####@@@@@####.####@@@@@@@@@@###.#########.#..#............O.OOO.OOOOOoooooooOO...O...........OOooooOOO.O.OO.O.O.O....#...#####.########@@@@&&&&**** *                                                                                                                                  ",
"                                                                                                                                                                                                    ***&&&&&&@&@@@@####.......###@#@@@###...##@@@@@@@@@@@@##########..#..#..#.#.#.......OOO.OOOOOooooooooOO.O.O.O.O....O.OOOOoooOOO..OOOO.O.O....#....####...#########@@&@&&&&&****                                                                                                                                 ",
"                                                                                                                                                                                                     ***&&&&@&@&@@@####.....#..######@###...#@@#@@#@@@@@@@@@@###############...........O..OOOOoooOoooooooOOO.OOOOOO....OOO.OOOOOoOOOOOO...OO..O................#.#####@@@@&&&&&&*****                                                                                                                               ",
"                                                                                                                                                                                                      ****&&&&&&@@@#####........#####@###.###@@@@@@@@@@@@@@@@@################.#.#.#.....O.OOooooOOooOOooOO.OOOOOOOO..OOOOO.OOOOOOOOOOO.O.OOO.....#......O.O.......#####@@&@&@&&&&&&**                                                                                                                              ",
"                                                                                                                                                                                                        *****&&&&&@@@@#####.#.#...#####.#####@@@@@@@@@#@@@#@@@@@@@@@@@@@@@@@########.....OOoooOOOoooOOOO.O..OOOoooOOOOOooOO..OOOOOooooO...OOOOOO..##...O.OOOO.......##@@@@@@@@&&&&&&*****                                                                                                                           ",
"                                                                                                                                                                                                          ****&&&@&@@@@#####...#.#.#####.###@@@@@@@@@@@@@@@@@@@@#@@@#@@@@@@@@@######.#...OOooOOoOooOO.....O..OOooooOOOoooOO..OOOOOooooOOOOOOOOOO..#...O.OOOOO.......###@@@@@@@&@&@&&&&&&**                                                                                                                          ",
"                                                                                                                                                                                                             **&&&@@@@@###.######..#.#.####@@@@@#@@@@@@@@@@@#@@@@@@@@@@@&@&@@#@#######....OOOoOOOOO.........O.OOooooOoooOO..OOOOOOOOooooOoooooOO.....OOOO.O.......######@@@@@@@@&&&&&*&&&****                                                                                                                       ",
"                                                                                                                                                                                                             ***&&@@@@@##.#######.....###.#@@@@@@@@@&&@@@@@@@@@@@@@@@@@@&&&@@@@#######.....OOOOOOOO...#...O..OOOoooOooooO...OOOOOOOOooooooooooOO.O...OooOO....#..###...#@@@@@@@&@&@&&&&&&&&&*                                                                                                                       ",
"                                                                                                                                                                                                                                                                                                                                                                                                                                                                                                                    ",
"                                                                                                                                                                                                                                                                                                                                                                                                                                                                                                                    ",
"                                                                                                                                                                                                                                                                                                                                                                                                                                                                                                                    ",
"                                                                                                                                                                                                                                                                                                                                                                                                                                                                                                                    ",
"                                                                                                                                                                                                                                                                                                                                                                                                                                                                                                                    ",
"                                                                                                                                                                                                                                                                                                                                                                                                                                                                                                                    ",
"                                                                                                                                                                                                                                                                                                                                                                                                                                                                                                                    ",
"                                                                                                                                                                                                                                                                                                                                                                                                                                                                                                                    ",
"                                                                                                                                                                                                                                                                                                                                                                                                                                                                                                                    ",
"                                                                                                                                                                                                                                                                                                                                                                                                                                                                                                                    ",
"                                                                                                                                                                                                                                                                                                                                                                                                                                                                                                                    ",
"                                                                                                                                                                                                                                                                                                                                                                                                                                                                                                                    ",
"                                                                                                                                                                                                                                                                                                                                                                                                                                                                                                                    ",
"                                                                                                                                                                                                                                                                                                                                                                                                                                                                                                                    ",
"                                                                                                                                                                                                                                                                                                                                                                                                                                                                                                                    ",
"                                                                                                                                                                                                                                                                                                                                                                                                                                                                                                                    ",
"                                                                                                                                                                                                                                                                                                                                                                                                                                                                                                                    ",
"                                                                                                                                                                                                                                                                                                                                                                                                                                                                                                                    ",
"                                                                                                                                                                                                                                                                                                                                                                                                                                                                                                                    ",
"                                                                                                                                                                                                                                                                                                                                                                                                                                                                                                                    ",
"                                                                                                                                                                                                                                                                                                                                                                                                                                                                                                                    ",
"                                                                                                                                                                                                                                                                                                                                                                                                                                                                                                                    ",
"                                                                                                                                                                                                                                                                                                                                                                                                                                                                                                                    ",
"                                                                                                                                                                                                                                                                                                                                                                                                                                                                                                                    ",
"                                                                                                                                                                                                                                                                                                                                                                                                                                                                                                                    ",
"                                                                                                                                                                                                                                                                                                                                                                                                                                                                                                                    ",
"                                                                                                                                                                                                                                                                                                                                                                                                                                                                                                                    ",
"                                                                                                                                                                                                                                                                                                                                                                                                                                                                                                                    ",
"                                                                                                                                                                                                                                                                                                                                                                                                                                                                                                                    ",
"                                                                                                                                                                                                                                                                                                                                                                                                                                                                                                                    ",
"                                                                                                                                                                                                                                                                                                                                                                                                                                                                                                                    ",
"                                                                                                                                                                                                                                                                                                                                                                                                                                                                                                                    ",
"                                                                                                                                                                                                                                                                                                                                                                                                                                                                                                                    ",
"                                                                                                                                                                                                                                                                                                                                                                                                                                                                                                                    ",
"                                                                                                                                                                                                                                                                                                                                                                                                                                                                                                                    ",
"                                                                                                                                                                                                                                                                                                                                                                                                                                                                                                                    ",
"                                                                                                                                                                                                                                                                                                                                                                                                                                                                                                                    ",
"                                                                                                                                                                                                                                                                                                                                                                                                                                                                                                                    ",
"                                                                                                                                                                                                                                                                                                                                                                                                                                                                                                                    ",
"                                                                                                                                                                                                                                                                                                                                                                                                                                                                                                                    ",
"                                                                                                                                                                                                                                                                                                                                                                                                                                                                                                                    ",
"                                                                                                                                                                                                                                                                                                                                                                                                                                                                                                                    ",
"                                                                                                                                                                                                                                                                                                                                                                                                                                                                                                                    ",
"                                                                                                                                                                                                                                                                                                                                                                                                                                                                                                                    ",
"                                                                                                                                                                                                                                                                                                                                                                                                                                                                                                                    ",
"                                                                                                                                                                                                                                                                                                                                                                                                                                                                                                                    ",
"                                                                                                                                                                                                                                                                                                                                                                                                                                                                                                                    ",
"                                                                                                                                                                                                                                                                                                                                                                                                                                                                                                                    ",
"                                                                                                                                                                                                                                                                                                                                                                                                                                                                                                                    ",
"                                                                                                                                                                                                                                                                                                                                                                                                                                                                                                                    ",
"                                                                                                                                                                                                                                                                                                                                                                                                                                                                                                                    ",
"                                                                                                                                                                                                                                                                                                                                                                                                                                                                                                                    ",
"                                                                                                                                                                                                                                                                                                                                                                                                                                                                                                                    ",
"                                                                                                                                                                                                                                                                                                                                                                                                                                                                                                                    ",
"                                                                                                                                                                                                                                                                                                                                                                                                                                                                                                                    ",
"                                                                                                                                                                                                                                                                                                                                                                                                                                                                                                                    ",
"                                                                                                                                                                                                                                                                                                                                                                                                                                                                                                                    ",
"                                                                                                                                                                                                                                                                                                                                                                                                                                                                                                                    ",
"                                                                                                                                                                                                                                                                                                                                                                                                                                                                                                                    ",
"                                                                                                                                                                                                                                                                                                                                                                                                                                                                                                                    ",
"                                                                                                                                                                                                                                                                                                                                                                                                                                                                                                                    ",
"                                                                                                                                                                                                                                                                                                                                                                                                                                                                                                                    ",
"                                                                                                                                                                                                                                                                                                                                                                                                                                                                                                                    ",
"                                                                                                                                                                                                                                                                                                                                                                                                                                                                                                                    ",
"                                                                                                                                                                                                                                                                                                                                                                                                                                                                                                                    ",
"                                                                                                                                                                                                                                                                                                                                                                                                                                                                                                                    ",
"                                                                                                                                                                                                                                                                                                                                                                                                                                                                                                                    ",
"                                                                                                                                                                                                                                                                                                                                                                                                                                                                                                                    ",
"                                                                                                                                                                                                                                                                                                                                                                                                                                                                                                                    ",
"                                                                                                                                                                                                                                                                                                                                                                                                                                                                                                                    ",
"                                                                                                                                                                                                                                                                                                                                                                                                                                                                                                                    ",
"                                                                                                                                                                                                                                                                                                                                                                                                                                                                                                                    ",
"                                                                                                                                                                                                                                                                                                                                                                                                                                                                                                                    ",
"                                                                                                                                                                                                                                                                                                                                                                                                                                                                                                                    ",
"                                                                                                                                                                                                                                                                                                                                                                                                                                                                                                                    "
};
