/* XPM */
static char *result[] = {
/* columns rows colors chars-per-pixel */
"500 400 37 1 ",
"  c black",
". c #64371F",
"X c #6C3C24",
"o c #683921",
"O c #723F27",
"+ c #552B18",
"@ c #582F19",
"# c #5F341D",
"$ c #75442A",
"% c #935C40",
"& c #79482D",
"* c #451B11",
"= c #A36B4F",
"- c #814E33",
"; c #34120A",
": c #4F2216",
"> c #6A6C81",
", c #895539",
"< c #60647C",
"1 c #996145",
"2 c #9F6749",
"3 c #080910",
"4 c #B07657",
"5 c #545A78",
"6 c #AA7153",
"7 c #6D5961",
"8 c #766672",
"9 c #6F4F4E",
"0 c #121424",
"q c #363C5D",
"w c #404669",
"e c #495071",
"r c #1C2036",
"t c #5D3F3E",
"y c #252944",
"u c #2D3251",
"i c #BA8060",
/* pixels */
"                                                                                                                                                                                                                                                                                                                                                                                                                                                                                                                    ",
"                                                                                                                                                                                                                                                                                                                                                                                                                                                                                                                    ",
"                                                                                                                                                                                                                                                                                                                                                                                                                                                                                                                    ",
"                                                                                                                                                                                                                                                                                                                                                                                                                                                                                                                    ",
"                                                                                                                                                                                                                                                                                                                                                                                                                                                                                                                    ",
"                                                                                                                                                                                                                                                                                                                                                                                                                                                                                                                    ",
"                                                                                                                                                                                                                                                                                                                                                                                                                                                                                                                    ",
"                                                                                                                                                                                                                                                                                                                                                                                                                                                                                                                    ",
"                                                                                                                                                                                                                                                                                                                                                                                                                                                                                                                    ",
"                                                                                                                                                                                                                                                                                                                                                                                                                                                                                                                    ",
"                                                                                                                                                                                                                                                                                                                                                                                                                                                                                                                    ",
"                                                                                                                                                                                                                                                                                                                                                                                                                                                                                                                    ",
"                                                                                                                                                                                                                                                                                                                                                                                                                                                                                                                    ",
"                                                                                                                                                                                                                                                                                                                                                                                                                                                                                                                    ",
"                                                                                                                                                                                                                                                                                                                                                                                                                                                                                                                    ",
"                                                                                                                                                                                                                                                                                                                                                                                                                                                                                                                    ",
"                                                                                                                                                                                                                                                                                                                                                                                                                                                                                                                    ",
"                                                                                                                                                                                                                                                                                                                                                                                                                                                                                                                    ",
"                                                                                                                                                                                                                                                                                                                                                                                                                                                                                                                    ",
"                                                                                                                                                                                                                                                                                                                                                                                                                                                                                                                    ",
"                                                                                                                                                                                                                                                                                                                                                                                                                                                                                                                    ",
"                                                                                                                                                                                                                                                                                                                                                                                                                                                                                                                    ",
"                                                                                                                                                                                                                                                                                                                                                                                                                                                                                                                    ",
"                                                                                                                                                                                                                                                                                                                                                                                                                                                                                                                    ",
"                                                                                                                                                                                                                                                                                                                                                                                                                                                                                                                    ",
"                                                                                                                                                                                                                                                                                                                                                                                                                                                                                                                    ",
"                                                                                                                                                                                                                                                                                                                                                                                                                                                                                                                    ",
"                                                                                                                                                                                                                                                                                                                                                                                                                                                                                                                    ",
"                                                                                                                                                                                                                                                                                                                                                                                                                                                                                                                    ",
"                                                                                                                                                                                                                                                                                                                                                                                                                                                                                                                    ",
"                                                                                                                                                                                                                                                                                                                                                                                                                                                                                                                    ",
"                                                                                                                                                                                                                                                                                                                                                                                                                                                                                                                    ",
"                                                                                                                                                                                                                                                                                                                                                                                                                                                                                                                    ",
"                                                                                                                                                                                                                                                                                                                                                                                                                                                                                                                    ",
"                                                                                                                                                                                                                                                                                                                                                                                                                                                                                                                    ",
"                                                                                                                                                                                                                                                                                                                                                                                                                                                                                                                    ",
"                                                                                                                                                                                                                                                                                                                                                                                                                                                                                                                    ",
"                                                                                                                                                                                                                                                                                                                                                                                                                                                                                                                    ",
"                                                                                                                                                                                                                                                                                                                                                                                                                                                                                                                    ",
"                                                                                                                                                                                                                                                                                                                                                                                                                                                                                                                    ",
"                                                                                                                                                                                                                                                                                                                                                                                                                                                                                                                    ",
"                                                                                                                                                                                                                                                                                                                                                                                                                                                                                                                    ",
"                                                                                                                                                                                                                                                                                                                                                                                                                                                                                                                    ",
"                                                                                                                                                                                                                                                                                                                                                                                                                                                                                                                    ",
"                                                                                                                                                                                                                                                                                                                                                                                                                                                                                                                    ",
"                                                                                                                                                                                                                                                                                                                                                                                                                                                                                                                    ",
"                                                                                                                                                                                                                                                                                                                                                                                                                                                                                                                    ",
"                                                                                                                                                                                                                                                                                                                                                                                                                                                                                                                    ",
"                                                                                                                                                                                                                                                                                                                                                                                                                                                                                                                    ",
"                                                                                                                                                                                                                                                                                                                                                                                                                                                                                                                    ",
"                                                                                                                                                                                                                                                                                                                                                                                                                                                                                                                    ",
"                                                                                                                                                                                                                                                                                                                                                                                                                                                                                                                    ",
"                                                                                                                                                                                                                                                                                                                                                                                                                                                                                                                    ",
"                                                                                                                                                                                                                                                                                                                                                                                                                                                                                                                    ",
"                                                                                                                                                                                                                                                                                                                                                                                                                                                                                                                    ",
"                                                                                                                                                                                                                                                                                                                                                                                                                                                                                                                    ",
"                                                                                                                                                                                                                                                                                                                                                                                                                                                                                                                    ",
"                                                                                                                                                                                                                                                                                                                                                                                                                                                                                                                    ",
"                                                                                                                                                                                                                                                                                                                                                                                                                                                                                                                    ",
"                                                                                                                                                                                                                                                                                                                                                                                                                                                                                                                    ",
"                                                                                                                                                                                                                                                                                                                                                                                                                                                                                                                    ",
"                                                                                                                                                                                                                                                                                                                                                                                                                                                                                                                    ",
"                                                                                                                                                                                                                                                                                                                                                                                                                                                                                                                    ",
"                                                                                                                                                                                                                                                                                                                                                                                                                                                                                                                    ",
"                                                                                                                                                                                                                                                                                                                                                                                                                                                                                                                    ",
"                                                                                                                                                                                                                                                                                                                                                                                                                                                                                                                    ",
"                                                                                                                                                                                                                                                                                                                                                                                                                                                                                                                    ",
"                                                                                                                                                                                                                                                                                                                                                                                                                                                                                                                    ",
"                                                                                                                                                                                                                                                                                                                                                                                                                                                                                                                    ",
"                                                                                                                                                                                                                                                                                                                                                                                                                                                                                                                    ",
"                                                                                                                                                                                                                                                                                                                                                                                                                                                                                                                    ",
"                                                                                                                                                                                                                                                                                                                                                                                                                                                                                                                    ",
"                                                                                                                                                                                                                                                                                                                                                                                                                                                                                                                    ",
"                                                                                                                                                                                                                                                                                                                                                                                                                                                                                                                    ",
"                                                                                                                                                                                                                                                                                                                                                                                                                                                                                                                    ",
"                                                                                                                                                                                                                                                                                                                                                                                                                                                                                                                    ",
"                                                                                                                                                                                                                                                                                                                                                                                                                                                                                                                    ",
"                                                                                                                                                                                                                                                                                                                                                                                                                                                                                                                    ",
"                                                                                                                                                                                                                                                                                                                                                                                                                                                                                                                    ",
"                                                                                                                                                                                                                                                                                                                                                                                                                                                                                                                    ",
"                                                                                                                                                                                                                                                                                                                                                                                                                                                                                                                    ",
"                                                                                                                                                                                                                                                                                                                                                                                                                                                                                                                    ",
"                                                                                                                                                                                                                                                                                                                                                                                                                                                                                                                    ",
"                                                                                                                                                                                                                                                                                                                                                                                                                                                                                                                    ",
"                                                                                                                                                                                                                                                                                                                                                                                                                                                                                                                    ",
"                                                                                                                                                                                                                                                                                                                                                                                                                                                                                                                    ",
"                                                                                                                                                                                                                                                                                                                                                                                                                                                                                                                    ",
"                                                                                                                                                                                                                                                                                                                                                                                                                                                                                                                    ",
"                                                                                                                                                                                                                                                                                                                                                                                                                                                                                                                    ",
"                                                                                                                                                                                                                                                                                                                                                                                                                                                                                                                    ",
"                                                                                                                                                                                                        330000000000000000000003                                                                                                                                                                                                                                                                                    ",
"                                                                                                                                                                                                        0ryyuuuuuuuuuuuuuuuuuuy03                                                                                                                                                                                                                                                                                   ",
"                                                                                                                                                                                                     300ruqqwwwwqwwwqwwqwwwqwwqy03                                                                                                                                                                                                                                                                                  ",
"                                                                                                                                                                                                   33ruuuweeeeeeeeeeeeeeeeeeeewqy03                                                                                                                                                                                                                                                                                 ",
"                                                                                                                                                                                                  30ruqqwe<<<<<<<<<<<<<<<<<<<<5wqy03                                                                                                                                                                                                                                                                                ",
"                                                                                                                                                                                                 30ruweee<>>>>>>>>>>>>>>>>>>>><5eqy03                                                                                                                                                                                                                                                                               ",
"                                                                                                                                                                                                30ruw55<<<>>>>>>>>>>>>>>>>>>>>><5eqy03                                                                                                                                                                                                                                                                              ",
"                                                                                                                                                                                               30ruw5<><>888=88=888=88=88=88=88><5eqy03                                                                                                                                                                                                                                                                             ",
"                                                                                                                                                                                              30ruw5<>>>877%1128==8=8=8==8==8=88><5eqy0333                                                                                                                                                                                                                                                                          ",
"                                                                                                                                                                                             30ruw5<>888879,%%12===============88><5eqy0003                                                                                                                                                                                                                                                                         ",
"                                                                                                                                                                                            30ruw5<>87779,,,%%11122=====666===8=88><5equyy03                        333333333333333333                                                                                                                                                                                                                              ",
"                                                                                                                                                                                           33ruw5<>887999,,%%%%%112==6666446=====88><5ewwqy03                      300000000000000000033                                                                                                                                                                                                                            ",
"                                                                                                                                                                                           0ruw5<>87799--,,%%%1%1222==6644466==8=8=>><<5ewqy03                   30ryyyyyyyyyyyyyyyyyyr0                                                                                                                                                                                                                            ",
"                                                                                                                                                                                         30ruw5<>887999---,%%%%%11222==66446=======88>><55ewy03             303030ruqqqqqqqqqqqqqqqqqqqr3                                                                                                                                                                                                                           ",
"                                                                                                                                                                                        30yuw5<>8779&-&-&-,,%%1%11122===666==6======88>>><<5wu03           30ryyyyuqweeeeeeeeeeeeeeeeewur0                                                                                                                                                                                                                          ",
"                                                                                                                                                                                       33rqw5<>8879&&$&&&--,%%%%%%112=======66464666=88>>><<5wy03          0yqqqqwwe555555555555555555ewqr3                                                                                                                                                                                                                         ",
"                                                                                                                                                                                      30ruw5<>8899&$$$$$$&-,%%1%1%112===6666644i44666=88>8>><5wu03     30rryqweeee55<><><><><><><><><><5wur0                                                                                                                                                                                                                        ",
"                                                                                                                                                                                       ruwe<>>879&$OOOOO&&-,%%%%%112==66444444iii44446=8=8>>><5wy0333330yuuqe55555<>>>>>>>>>>>>>>>>>>>><5wqr3                                                                                                                                                                                                                       ",
"                                                                                                                                                                                      3ruw5<>879&$OXooX$&--,%%%1112=664iiiiiiiiiiiii446==888>><eqyrrrrryqwwe5<>>>>>>>8>8>8>8>8>8>8>8>8>><5wur0                                                                                                                                                                                                                      ",
"                                                                                                                                                                                      3rqw5<>879$OXo..oO&--,%%%112=6444iiiiiiiiiiiiii446===8>>><eqquuuuqe555<>>>>>>88=8686868686868=8=8>><5wqr33                                                                                                                                                                                                                    ",
"                                                                                                                                                                                      3rqw5<>879$OX...oO&--,%%1122=64444iiiiiiiiiii444446===88>>5eewwwwe<><>8888>8=8==666666666=666=88888><5wur03                                                                                                                                                                                                                   ",
"                                                                                                                                                                                      3rqw5<>879$Xo.#.oO&--,%%112=6444444iiiiiiiiii444446====8>>><5e5555>>>>88=8=8====6444644466666===8=8>><equr3                                                                                                                                                                                                                   ",
"                                                                                                                                                                                      3rqw5<>>79tXo.#.oX$&-,,%11==644444i4i4i44i4i4666666==8=88>><<5<<<<<>>81%%1112==64444644444446=21188>><5eqr3                                                                                                                                                                                                                   ",
"                                                                                                                                                                                      3ruwe<>>879to.#..X$&--,%112=6444444444466444466666======8>>><<>>><<577,,,%%12=664444664444466=21128>>><eqy03                                                                                                                                                                                                                  ",
"                                                                                                                                                                                      30yqe5<>>799to..oO&----,%12=6644444666666444466========8=>>>>>><8779tt&--,%122=66666666444446==212=88><5wur3                                                                                                                                                                                                                  ",
"                                                                                                                                                                                      330yqe5<><799to.oO&---,,%122=66444466666644466==========288<<<<579tt#.X$&-%112==6666666444466==2222888<5ewur3                                                                                                                                                                                                                 ",
"                                                                                                                                                                                       330yqe<><<799tXO$&-,,,,%%122=6644466666666662====222221%,77879tt#@++@#o$-,%112======6644466===2211,788<<ewur3                                                                                                                                                                                                                ",
"                                                                                                                                                                                         30yqe<<<<779t$&--,,,%%%1122=6666666666666=22===222121%,999tt+::*::++#X&,%%122=====664466====211%,978>><eqy03                                                                                                                                                                                                               ",
"                                                                                                                                                                                          30yqe<>><<7999-,,,%%%%%1112==6===========222==22111%,-&X#+*;*;;**::+o$-,%122=====66666====211%%,,978>>5eqy03                                                                                                                                                                                                              ",
"                                                                                                                                                                                           30yqe<<>><7799,%%%%1111111==============22222211%%%%-$o+*;;;;;;;*:+#X$-,%12======666666==21%%%,,-98>><ewur3                                                                                                                                                                                                              ",
"                                                                                                                                                                                            30yqe5<>>>879,%,%12222112========66=====2211111%1%,-$.+*;;;;;;;;:+@#X$-,%2======2=66466=21%%%%,-978><5wur3                                                                                                                                                                                                              ",
"                                                                                                                                                                                             30yqe5<>>>79,%%%122=2222=======6=6=====221%%%%%%%,-$#:*;;;;;;;;*++#.O&,%1======2=6666=211%%%%,-9788<5eqy03                                                                                                                                                                                                             ",
"                                                                                                                                                                                              30yqe5<>>79,%%%1122==================2221%1%1%%%,-O#:*;;;;;;;;:++#.O-,%1===========2211%1%1%,--9788<5equr3                                                                                                                                                                                                            ",
"                                                                                                                                                                                               0ruw5<>>79,%%%1112==================2221%%1%%%,,&X@*;;;;;;;;;*:+#.O-,%1=========22221%%%%%%,-&-978><ewqy03                                                                                                                                                                                                           ",
"                                                                                                                                                                                               0rqw5<>>79,%,%1222===================221%1%1%1%,&o+*;;;;;;;;;*:+@.O-,%1=========22221%1%1%%,-&&-78><5wquyr3                                                                                                                                                                                                          ",
"                                                                                                                                                                                              30yqe5<>879,%%%1122===================221%%%%%%%,&o+*;;;;;;;;;**:@oO-,%1==========2221%%%%%%,-&&&78>>5ewqqy0333                                                                                                                                                                                                       ",
"                                                                                                                                                                                             30yqe<<><799,%,%%112===================221%1%1%%,,&.:*;;;;;;;;;;*+@o$-,%1===========221%1%%%,,&$$&78>><5eewquyr03                                                                                                                                                                                                      ",
"                                                                                                                                                                                             3ruw5<>>799,,,,%%1122===================21%%1%1%,-&#:;;;;;;;;;;**+#o$-,%1===========221%%%%,,-&$$$98>><<555ewquy03                                                                                                                                                                                                     ",
"                                                                                                                                                                                            30rqe<>>>79-,,,,%%%1122===================11%%%%%%,&#:;;;;;;;;;;**+#X&-,%1===========221%1%%,,--$OO978888<<<5ewwqur3                                                                                                                                                                                                    ",
"                                                                                                                                                                                            30rqe<>>>79--,,,%%%%1122=2===============21%1%1%%,-$#:;;;;;;;;;;*:+#X&,%%12=========2221%%%%,,,-$XX$97778>>>><55equr3                                                                                                                                                                                                   ",
"                                                                                                                                                                                             0ruw5>>>79---,,%%1%1122222==============21%%%%%%,-$#:;;;;;;;;;;*:+#O-,%%122=======22221%1%%,,--$XoO&-,77>>>>><<5ewur3                                                                                                                                                                                                  ",
"                                                                                                                                                                                             0yqw5>>>79--,,%%%%%11122222============221%1%1%%,-$#:;;;;;;;;;**:+.$-%%1122========2221%%%%%,-&$XoO&-,,788>>>>>><ewur3                                                                                                                                                                                                 ",
"                                                                                                                                                                                             0uqw5>>>79--,%%%1%1%%112==2222======222221%%1%%%%-$#:;;;;;;;;;**:@X&,%11222=========221%1%%,,-&$XX$-,%,%%188>>>>>5ewur3                                                                                                                                                                                                ",
"                                                                                                                                                                                            30uqe5>>879--,%%%%%%%1112==21122===22211111%1%%%%,-$@*;;;;;;;;***:#O-,%11122=========221%%%%,,--$XX$-,%%%%1288888><<ewur3                                                                                                                                                                                               ",
"                                                                                                                                                            3333333333                      3ruwe<>8879--,%,%%1%1%11===211122==22211%1%1%%%%,,-O@*;;;;;;;;;**+.$,%%%1122=========221%%%,,,--&OO$-%%%%1121999788<<ewur3                                                                                                                                                                                              ",
"                                                                                                                                                           30rrrrrrrr0                     3ruqe5<8879--,,%%%%%%%%112==211122222221%%%%%%%%%%,&X+*;;;;;;;;**:+X&,%%1%122=========221%%%,,--&&OO&-%1%1%111,-99788<5ewur3                                                                                                                                                                                             ",
"                                                                                                                                                          33ruqqqqqqur3                    0yqe5<>879--,,,%%%1%1%1112==21112222==211%1%1%%,%,,&.:*;;;;;;;;;*+#O-,%%%%122=========221%%,,,-&&&OO&-%%1%%1%%%,99978><<ewur3                                                                                                                                                                                            ",
"                                                                                                                                                          3ruwwwewewwur0003                0uwe<>8879--,,%%%%%1%11122==21%12222==211%%%%%%,%%,$@*;;;;;;;;;*:@o$-%%%1%12==========221%%,,,--&&$$&,%1111%1%%,,,9978><5ewur3                                                                                                                                                                                           ",
"                                                                                                                                                         3ruwe555555wwuuuy03               0uwe<>>879--,%%%1%1%%11222==21112222=221%1%1%%,%,%,X+*;;;;;;;;;*+#X&,%%1%11===========221%%,,,---&$$&-%1111%%%%,%,997<>>>5equ0                                                                                                                                                                                           ",
"                                                                                                                                                       33ruw5<<<<<<<<ewwqqr03              0uwe<>8879-,,%%%%111111122===21122222211%%1%%%%,%,,X+*;;;;;;;;*:+.$-,%%%1122==========221%%,,--&&&$$&,%1111%%%%,%,,9978>><ewu0                                                                                                                                                                                           ",
"                                                                                                                                                      33ruwe<>>>>>>>><5eewqy03             0uwe<>8899-,,%%%11111%%122====22==22211%1%%1%%,%,,-X+*;;;;;;;;*:@X$-,%%112222=========221%%,,-&$&&O$&,%%%%%%%,%,%,,-978>><ewu03                                                                                                                                                                                          ",
"                                                                                                                                                      0ruw5<<<><8>88<<<<<5wur03          30yqe5<87799--,%%%%1111111222==2====2111%%%%1%%%%,,,&o:*;;;;;;;**+.O&,%%1112222=========221%%,,-&$&$O$&,%%1%1%%%%,%,,,-9788>5eqy033                                                                                                                                                                                        ",
"                                                                                                                                                    33ruwe<<<<777777<<>>><5wqy03         0ruw5<<87999--,%%%11%%%112==22======211%1%1%%1%%,,,-&#:;;;;;;***:@o$&,%%1122222=========221%%,,-&$&$O$&,%%%1%%%%%%,,,---978>>5wqur3                                                                                                                                                                                        ",
"                                                                                                                                                   30ruw5<<<799tt9t997<8>><5wur03        0uqe5>8879---,,%%11111%112==========21%%%1%1%%%%,,--$@*;;;;;;;**:#X$-,%%1112============221%%,,-&&&$O$&,%%%%%%%%%,%,,--&-98>><ewur3                                                                                                                                                                                        ",
"                                                                                                                                                   3ruwe<>879tttoX.ttt9778><5wqy03       0qwe<>>879---,,%%1111%%112==========211%1%%%1%%,%,-&O@*;;;;;;***:#X$-,%%%11=============221%%,,-&&&$O$&,%%%%,%%%%%%,,-&&&98>><5wqr3                                                                                                                                                                                        ",
"                                                                                                                                                  30yqe5>><9tt#####@#ttt998><5wuy03      0uwe<>>879---,,%%111111122=========2=211%1%1%%,%,,-&O@*;;;;;;**:+.O$-,%%112=============221%%,,-&&&$OO&,%%%,%%%%%%%,,-&$&98>><5eqr3                                                                                                                                                                                        ",
"                                                                                                                                                  30uw5<>>7tt###@#@@++++#t78><5wur03     0uwe<>>879-&-,,%%%%%%11222============211%%%%%%,%,-&O@*;;;;;;*:+#oO&-,%%122=============221%%,,-&&&$$$&,%%%%,%,%%%,,,-&&&98>>>5wqr3                                                                                                                                                                                        ",
"                                                                                                                                                 33ruw5<>89t###@#@@+::::+#97>><ewur3    3ruwe<>879----,,%%1%1%1122=====666======211%1%%%%,,-&X+*;;;;;*:+.XO&-,,%122=======6======221%%,--&&&&$$&,%%%%%,%,%%%,,-&&-98>><5wqr3                                                                                                                                                                                        ",
"                                                                                                                                                 30yqe5<<79.##@##@++:*:*:+t7>><5eqy0   30yqe5<<779-&-,,,%%%%%1112======6666=====221%%%%%%,,-$X+*;;;;**+#X$&-,,%%12=======666=====221%%,-&&&&&$$&,%%%%%%,%%,%,,----,8>><5wqr3                                                                                                                                                                                        ",
"                                                                                                                                                30yqe5<<79t.####.#@+:****:#9<><5eqy0  30yqe5<<77--&---,%%%1%1112222====6646====2211%%%%%%,,-$.:*;;;**+#X$&-,,%1122====6664466=====21%%,-$$&&&$$&,%%1%%%%,%,%,----,98>><5wqr3                                                                                                                                                                                        ",
"                                                                                                                                               30yqe5<<<7to......#@+:***;:@t7<<<5wy03 3rqw5<>879-----,,%%1%%1122222====6646====2111%%%,%,%,-O#:*;;**+#X$--,,%12222===664444466===21%%,,-$$&&$OO&,%%1%%%%%,%%,----,,8>>>5wqr3                                                                                                                                                                                        ",
"                                                                                                                                              30yqe5<><9tt........@+:***;*+t97<<<eqy033rqw5<>879----,,,%%%%1%11222======646===2=211%%,%,%,,-O@:*;**+#o$-,,%%22222===6644446666==211%%,,-&&&&&OO&-%%%%1%%%%%%%,---,98>><5wqr3                                                                                                                                                                                        ",
"                                                                                                                                              3ruw5<>>7tt.#.......@+:**;;;:#t7<>>5eqyr0yqe5<>879----,,%%%1%%%1112=======646======21%%%,%%,,-X@:***:@oO&-,%11==22===66444446666==21%%%,,-&&&&$$$&,%%1%%1%%%%%%,----98>><5wqr3                                                                                                                                                                                        ",
"                                                                                                                                              0ruw5<><7t..o......#@+:***;;:@t7<><5wquuuqe5<><79-----,%%%1%1%1112222===664446=====21%%%%,%,,-X@:**:+#X$-,%12=6666666666444466466=21%%%,,--&$$$$&-,%1%%1%1%%%%,--&&-98>><5wqr3                                                                                                                                                                                        ",
"                                                                                                                                             30yqe5>><9t.oXXoo...#@+:***;;*+t9<<<5ewqqqw5<>><79----,,%%1%%%%1122222===6444466====211%%%%,,,-X@+::+#X$&,%%1==6666666666444464446=21%%,%,,-&$$&&&-,%%%1%%%%%,%,--&$&98>>>5wqr3                                                                                                                                                                                        ",
"                                                                                                                                            30yqe5<>87$XXXOXXo....@+:***;;;*#t97<<5ewqqw5<>>79----,,,%%%%1%1%11122=====644446===22111%%%%,,-X#@@@.O&-,%122==6644446666444464446=21%%%,,--&&&&---,%%%%%1%%%%%%,-&$&98>><5wqr3                                                                                                                                                                                        ",
"                                                                                                                                            3ruw5<><79$XOOOOXo.#..#+:**;;;;*+tt7<><5ewqw5<>879----,,%%%1%%1%%1112=====6644446====211%%%,%,,-O...XO&-,%12====6644446664444464446=211%%,,--&&&-&--,,,%,%%1%%%%%,-&$&98>><5wqr3                                                                                                                                                                                        ",
"                                                                                                                                            0yqe5<>87&$OOOXXoo.#..#@:*;;;;;;:#t7<>>5ewqw5<>879----,,%%1%%1%%11222==666444ii446==22111%%%,,-&$OXO$&-,,%2=66===664444444444464446==21%%,,--&&&&&&--,,,%%1%%%%%,,-&$&98>><5wqr3                                                                                                                                                                                        ",
"                                                                                                                                           30uwe<>>79&$OOXXoo..#.#@+:*;;;;;;*+t7<>><ewwe5<><79----,,%%%1%%1%11212=664444iii4466==211%%%,,--&&$&&&-,,%1=666====66444444444464446==21%%,,--&-&-&&&--,,%%%1%111%,-&$&98>>>5wqr3                                                                                                                                                                                        ",
"                                                                                                                                          30yuw5<><79&OXXXo....##@+:**;;;;;;*+t7<>><eee5<>><79----,,%%%%%1%%%1112=644iiiiii44666=211%%%,--&&----,,%%12=666=====6644444444464446=211%%,,,-----&&&&-,%%%1%%%111%,&&&98>><5wqr3                                                                                                                                                                                        ",
"                                                                                                                                          0yqwe<<<79-&OXoo....##@+:**;;;;;;;*+t7<>><5e5<>><779----,,%%%1%%1%1%11=6644iiiiii44666=21%1%%,------,,%%%12=6666======644444444464446=21%%%%%,,----&&&&,,%%1%1%1121%,-&&98>><5wqr3                                                                                                                                                                                        ",
"                                                                                                                                      3333rqe5<<>79--&Ooo....##@+:**;;;;;;;;*+t7<>><555<>>779-----,%%%1%%1%1%%112664iiiiiii444466=11%%%,,---,,,%%%122=666======6444444444444446==1%%%%%%,,,,---&--,%1%%%%%121%,---98>><5wqr3                                                                                                                                                                                        ",
"                                                                                                                                     30rrrue5<><79--&$Oo...###@+:**;;;;;;;;;*+t7<>><55<>>8799----,,%%1%1%%%%%%11==644iiiiii444666=21%%%%,,,,,,,%%112==6========64444444444444466=211%%%%%,,,,-----,%%%1%1%1211%---98>>>5wqr3                                                                                                                                                                                        ",
"                                                                                                                                    30yqqqw5<>>79-&&$$Xo..##@++:**;;;;;;;;;;;+t7<>><55<<879999--,,,%1%%%%1%%%%%12=644iii4444466===221%,%,,,,%%%%%112==========6644444444444464466=11%%%%%%,,,------,%%%1%%121%%,--98>><5wqr3                                                                                                                                                                                        ",
"                                                                                                                                   30yqeee5<>>79-&$OOOXo..#@++::**;;;;;;;;;;*+t7<>><5<<<7799-&&-,,%%%1%1%%%%,,%12=664ii4444466====21%%,%%%%%%%%%%1122=========6644444444444464446=21%%,%%%%,,------,%%%%1%1111%,--98>><5wqr3                                                                                                                                                                                        ",
"                                                                                                                                  30yqe5<5<>>77-&$OXXXo..#@++::***;;;;;;;;;;*+t7<>><<<>8999&$$&-,,%%1%%%%%%,%%%%12=6444644466=====21%,%,%,%%%1%%%%1122=========6644444444444444466=1%%%%%%%,,--&-&-,,%%%%%%1111%,,,8>><5wqr3                                                                                                                                                                                        ",
"                                                                                                                                 30yqe5<>>>>79--&$Xooo.##@++::***;;;;;;;;;;;*+t7<>><<>>899-&O$&-,,%%%%%%,%,%,%,%12=6666666666===66=21%%%,%%%%%%1%1%1122=========664444i4i444444466=2%%%,%%%,--------,,%%1%11121%,,%8>>>5wqr3                                                                                                                                                                                        ",
"                                                                                                                                30yqe5<>>>>79-&&$$Xoo.##@++:::****;;;;;;;;;;;+t7<<><<>>89-&$O$&-,%%%%%%,%,%,%,%%122===666=666==66466=1%%,%,%%%%%%%%1122222======664444iiii4444444462%%%%,%,,---------,,%%%112=21%%%8>><5wqr3                                                                                                                                                                                        ",
"                                                                                                                               30yqe5<>>8877---&&OX..##@@++++::**;;;;;;;;;;;*:tw5<>><<879&&$$&--,%%%%%,%,%,,,,,%%12====66=6666664444621%%,%,%,%%%1%1122222======6644iiiii4444444446211%%%%,,---------,,%1112==21%%%8>><5wqr3                                                                                                                                                                                        ",
"                                                                                                                              30yqe5<>>7799,----&Oo.##@@@@+@++:*;;;;;;;;;;;;**uqe<>>>7799&$&&---,,%%%,%%,%,,,,-,%%12=====664466664ii42%,%,%,%,%%%%%11222==22====6644iiii46666664446=21%%%%,,,--------,%%112===21%%18>><5wqr3                                                                                                                                                                                        ",
"                                                                                                                             30yqe5<>>8799-,,---&Oo.##@@@@+++::*;;;;;;;;;;;;;ryq5<>>>899&&&&---,,,%,%%,,,,,----,,%122====666666664ii621%,%,%%%,%%%1112112212====644iiiii44466444446=21%1%%,,,--------,,%%122==21%%18>>>5wqr3                                                                                                                                                                                        ",
"                                                                                                                            30yqe5<><7799--,,,--$Oo.####@@+:::**;;;;;;;;;;;;;*yw5>>>>79&$&&---,,,%,%,%,,,,,&&&&-,,%%12222=======6444621%,%%%%%,%%%%1121122112===64iiiiiiii4664iii46=21%%%%,,,--------,,,%%122==21%18>><5eqr3                                                                                                                                                                                        ",
"                                                                                                                            3ruw5<>>8799-,,,,,-&$Xo..###@@+:****;;;;;;;;;;;;;*yq5>>>><9&$&&---,,%,%,%,%,---&$&&&--,,%1112=======6446=1%%%,%%,%%%%%11111111112===64iiiiiiii4664iiii6=21%1%%,,,--------,,,%%122==211118>>5ewy03                                                                                                                                                                                       ",
"                                                                                                                            3rqw5<>>879-,,%%%%-&OX...####@+:****;;;;;;;;;;;;;*+t78>><79&$$&&--,,,%,%,%,,--&&&&&&&&&--,%%1=666===666=21%,%,,,,%%%%1%%11%%1%%1222264iiiiiii46664iii46==1%%,%,,,-&&-----,,,%%122==21%%%78><5eqy03                                                                                                                                                                                      ",
"                                                                                                                           30yqe5<>879--,%%%%,-$Oo.....##@+:**;;;;;;;;;;;;;;;*+t7<>>799&&&&&--,,%,%,%,,--&&&&&-&$$$&--,%1=66666====21%%%,,,-,,%%%%%%%%1%%1%11112=64iiiiii46==4iiii46=21%,,,,--&&&----,,,%%12222211%,,78><5eqy03                                                                                                                                                                                     ",
"                                                                                                                          30yuw5<88779-,,%1%%,-$Xo......#@+:**;;;;;;;;;;;;;;;*+te<>899&&&&&&--,,,%,%,,,-&&&&&&&&$$$&&&-,12=6646=2211%,%,,,---,,%%%%1%1%%1%%%%1112=64iiii46=22=4ii446=21%,,,--&&&&&---,,,%%12222211%,-978><5eqy03                                                                                                                                                                                    ",
"                                                                                                                          3ruqe<>87799,,%%%%,-&OXo.....##@::**;;;;;;;;;;;;;;;;yq5<<79&&&&&&&&--,,,%,,,-&&&&&&---&&&&&&-,%2=6646=211%%%,,,----,,,,,%%%%%%%%1%1%%1112=444466=21=64i46=221%----&&&&&&-----,,%1122111%%,,-978><5eqy03                                                                                                                                                                                   ",
"                                                                                                                          3rqw5>>8799,,,%%%%,&$XXooo..##@@:***;;;;;;;;;;;;;;;*yw5<87&$$$$$$&&---,,,,,-&&$$&&-,,,----&&&-,12=66=211%,%,,,---------,,%%%%%%1%1%%1%1%112======211=646=1111,---&&&&&&&-------,%12211%%%%,,,978><5eqy03                                                                                                                                                                                  ",
"                                                                                                                          3rqw5>>879-,,%111,-&OXoooo..#@@+:***;;;;;;;;;;;;;;;*yq7<79&$$$$$$&&---,,,,--&$$$$&-,%%,,--&&&&-,1122211%%,,,,-----------,,%%%,%%1%1%%%%%%%%1122=21%12=6=1%,%%,-&&&&&&&&&&&&&&&-,%122211%%%%,,-978><5eqy03                                                                                                                                                                                 ",
"                                                                                                                          0yqw5>>8799,,%111%-&OXoooo.#@+++:***;;;;;;;;;;;;;;;*+t9779&$OO$$$&&----------$$$$&-,%%%%,-&$$&&-,%111%%%,,,,-------------,,,%%%%%%%1%%%%,%%%%12221%%%2=2%,--,-&&$$$&&&&&&&&&&&&-%12==211%%%,,,,978><5eqy03                                                                                                                                                                                ",
"                                                                                                                          3rqw5>>879-,,%11%,-&$XXoo..#@++::**;;;;;;;;;;;;;;;;*:@ttt$$OO$$$$&&---------&&$$$&&-,%%%,-&$$$$&-,%%%,,,,---------------,-,,,,,%,%,%%%,%,%,%%1211%,,,122%,&&&&$$$$$&&&&&&&&&&&--,12===22111%%,,-978><5eqr03                                                                                                                                                                               ",
"                                                                                                                          3rqw5>>8799,,,%%,--&$OXoo.##@+:::*;;;;;;;;;;;;;;;;;;:+@#oXOO$$&&&&&---------&&&$$$$$$,%%,-&OO$$O&-,,,,----------&&---------,,,,,,,,,,%,,,,%%%111,,--,%11%-&$OOOOOO$&&-&&&&&&&&--,%1=====2211%%,,,98>><5wur3                                                                                                                                                                               ",
"                                                                                                                          3rqw5>>879---,,,--&&$OXo..##@+::**;;;;;;;;;;;;;;;;;;*:+#oO$$$&&&&&&--------&&$$OXXXoX&-,,,&OXXXX$&,,%,-&&&--&&&&&---------,---,-----,,,,,,,,%%%%,-&-,%1%,-OXXXXOO$$&&&&&&&&&&----%12======21%%,,-97>>>5wqr3                                                                                                                                                                               ",
"                                                                                                                          3rqw5>>8799------&&&$OXo...#@+:***;;;;;;;;;;;;;;;;;;*:@.X$$&&&&&&&---&-----&$OOo.####oO&---OXooXO$-,,,-&&&&&&$$&&&&------------,-----------,--,--&&-,%%%-&XooXXOO$$&&&&&&&&&&----,%12=222=221%,,-978><5eqy0                                                                                                                                                                               ",
"                                                                                                                          3rqw5>>879--&&&--&&&$OXo..##@+::**;;;;;;;;;;;;;;;;;;*:@oO$$$$$&&&&----&&&&&$OXo.#@++++@oO&&$OXXXOO$-,,,-&&&&&$$&&&&&----------,---&&&&&&&&&$$$&&&&&-,,%,&Oo..XOXOO$$&&&&&&&&&--&-,%111111111%%,,,-978><5wqy03                                                                                                                                                                             ",
"                                                                                                                          3rqw5>>8799&$$&--&&&$OXo..##@++::*;;;;;;;;;;;;;;;;;*:+#oXO$$$$&&&------&&$$OOXo.#+:::*:@.X$$$OOOXXO$-,,,-&&&&&&&&&&&-----&&&-----&&&&&&$$OXXooXXO$$&,,,-&X...XOXXOO$$&&&&&&&&--&-,%%%%,,%%1%%%%,,--978><5wqy0                                                                                                                                                                             ",
"                                                                                                                          3rqw5>>879-&$$&---&&$OXo..##@++::*;;;;;;;;;;;;;;;;;*+@#oXOOOO$$&------&&&&&$OOXo#@+::*:+@.oXO$OOXooO&,,,-&&&&&&&&&&&&&&&&&-&&&-&-&&$$$OOOXXo.##.oX$-,,,-$X...XXOOXOO$$&&&&&&&&&&-,,,,,,,,,%%%,,,----978<<5wqy03                                                                                                                                                                           ",
"                                                                                                                          3rqw5>>8799&&$&&--&&$OXo...#@+++:*;;;;;;;;;;;;;;;;*:+#.ooXOOOO$&-----&&&&&&$$$OX.#@+:::++@#.X$$OXooX&-,,-&&&&&&&&&&&&&&&&&&&&&&&&&$$$OXXooo.##@##X$&-,,-$X...oXOOXXOO$$&&&&&&&&&&--------,,,,,,------978><5wqy3                                                                                                                                                                           ",
"                                                                                                                          3rqw5>>879-&&&&&&-&&$OXo...#@+++:**;;;;;;;;;;;;;;;*+@#.oXXXOOO$&-----&&&&&&$$$$OX.#@+::+++@#oOOOXXXO$-,,,-&&&&&&&&&&&&&$$$&&&&&&&$$OOOXoo...####.X$&---&$X..oXXOOXXXOO$$&&&$$$$&&-&&&&&&&---,,-----&&-78>>5wqy3                                                                                                                                                                           ",
"                                                                                                                          3rqw5>>8799&&&&&&&&&$OXo...#@+++:***;;;;;;;;;;;;;*+@#.oXXXXXOO$&&&&&&&&&&&&$$&$$Oo.#@++@++@@.XOOOOOO$&-,,,-&&&&&&&&&&&$$&$&&&&&&$OOOOOXo...####..X$&&--&$X..ooXOOXXXXOO$$&$$$$$$&$$$$&&&&&&&&-----&$$&98>>5eqy0                                                                                                                                                                           ",
"                                                                                                                          3rqw5>>879-&&&&&&&&&$$OXo..#@@++:***;;;;;;;;;;;;;:@#.oXXXXXXOO$&&&-&&&&&&&&&&&$$$OX.####@@@@#.oXXXOO$&--,,-&&&&&&&&&&&$$$$&&&&&$$OOOOXXo.###@###.X$$&--&$X...oXXXXXoXXOO$$$$$OO$$OOO$$$$$$$$$$&---&$$$9788<5wur0                                                                                                                                                                          ",
"                                                                                                                          3rqw5>>8799-&&&&&&&&&$OXo..#@@@+:***;;;;;;;;;;;;*+#.oXXXXXoXO$$&&&&&&&&&&&&&&$$$$OOXXo..###@@#.ooXXOO$&--,----&&&&&&&&$$$$&&$$&$$OOOXXo.###@@@###oO$&--&$X.##.oXXXooXXXOO$$$$OOOOOO$$$$OO$$OOO&---&$$$&978<<ewur3                                                                                                                                                                         ",
"                                                                                                                          3rqw5>>879--&&&&&&&&$$OXo.##@@@+:***;;;;;;;;;;;*:@.XXOOXXooXXO$&&&&&&&&&&&&&&$$$$$OOOOXo..##@@#..ooXOO$&-,-----&&&&&&&&&&&&&$$$$$$OOXo..#@@@@@@##oO$&--&$X.##..oXooXXXXXOO$$$OOOOOO$$OOOOOOOOO$&&&&$$$$&97>>5eqy0                                                                                                                                                                         ",
"                                                                                                                          3rqw5>>8799&&&&&-&&$$$OXo###@@@@+***;;;;;;;;;;;:+#.XOOOXXooXXO$$&&&&&&&&&&&&&$$$OO$$OOOXo..##@@##.oXXO$&-------&&&&&&&&&&&&&$$$$$$OXXo.##@++@@@@#oO$&--&$X..##..oooXXXXXXOOOOOXXXOO$$OXXXOOOOOO$$&$$$$$&97>><ewu03                                                                                                                                                                        ",
"                                                                                                                          3rqw5>>879-&&&&--&&$$OOXo.###@@@+:***;;;;;;;;;*:@.oXOOOXXooXXO$$$$$&&&&&&&&&&&$$OOOOOOOXXo..##@@##.oXXO$&------&&$$$$$&&&&&&&$$$$$OXo..##@++++@#.oO$&--&$Oo..##..ooXXXXXXXXXXXXoXOOOOXXXXXOOOOOOO$$$$$$&97>><ewu03                                                                                                                                                                        ",
"                                                                                                                          3rqw5>>8799&&&&--&&$OOXXo..###@@+:****;;;;;;;;*+#.oXOOOXXooXXO$$$$$$&&&&&&&&&&&$OOOOOOOOXXXo.#@@@#..oXO$&------&&$$$$$$&&&&&&&$$&$OXo..##@++++@#.XO$&&&&OOXo......ooXXXXXooooXXoXOOOOOOOXXXXOOOXXO$$$$$&97>><ewu03                                                                                                                                                                        ",
"                                                                                                                          3rqw5>>8799&$$&&&-&$$OXXo...##@@+::***;;;;;;;*+@#..oXOOXXooXOO$$$OO$$$$$$$&&&&&$$OOOOOOOOOOOX.##@##..oXO$&-----&$$OO$$$$&&&&&&&$&$OXoo.##@@@@@@#oXO$&&&$OOOo.........ooXXooooXXXXOOOO$$$OXo..ooXXXO$&&$&97>><ewur3                                                                                                                                                                        ",
"                                                                                                                          3rqw5>>879&$$$$&&&&&$OXo....#@@@+::**;;;;;;;*:@....oXXOXXoXXO$$$$OO$$$OO$$&&&&&&&$OOO$$$$OOOXo.####..ooXO$&---&&$OOOO$$$&&&&&&&$$$XXoo..##@@@@@#oXO$&&&$OOOX..o...###.oXXXoooXXXOO$$$$$$OX.###.XXXO$&&$$978><5wqy03                                                                                                                                                                       ",
"                                                                                                                          3rqw5>>87-$$$$$$&--&$OXo...#@@@@@+:***;;;;;*:+#ooooooXXXXXOOOO$$$$OOOOOOO$$$&&&&&$OOO$$$$OOOOXo...ooooooX$&-&&&-$OOO$$$&&&&&&$$$OOXoooo..##@@@@#.oXO$&&$OOOXooo....##..oXXXXXXXOO$$$&&$OXo#####.oX$&&&$O$978><5wqy03                                                                                                                                                                      ",
"                                                                                                                          3rqw5>>87&$$$$$$&---&OXo...#@++@@@:***;;;;*:+#.XXXXooXXXXXOOOOO$$$$OOOOOOO$$&&&&&$$$$$$$$OOOOXX..oXXoo.oXO$&$$&-&OOO$$$&&&&&$$$OOXXooooo..#@@@@#oXXO$$&$OOXXooo.....##.ooXXXXXXO$&&&&&$OX.#####.oX$&&&$OOO97>><ewur3                                                                                                                                                                      ",
"                                                                                                                          3rqw5>>87&&&&&&&&&--&$Xo...#@+++@@:***;;;;*:#.ooXXXXXXXXXXXXXOOO$$$$OOOOOO$$&&&&&&$$$$$OOO$$$OXoooooo...oXO$$$&-&$OOOO$$$$$$$$OOXXXXoo....##@@#oOOOOO$$$OOXo........##.ooooooXXO$&&-&$OXo.###...XO$$&&$OXXt9<><ewur3                                                                                                                                                                      ",
"                                                                                                                          3rqw5>>87-&&&$$&&&&-&$Xo...#@+++++:**;;;;*:+.oooXOOOXXXXXXXXXXOOOO$OOOOOOO$$$&&&&&&&&$OOOO$$$OOXoXXXXooooXO$$$&-&&$OOOOOO$$$$$OOXXXXXo....##@@#oO$OOO$$$OXo.........##..oooooXOO$&-&&OXo.####...XO$$$&$OXXt97><5wqy03                                                                                                                                                                     ",
"                                                                                                                          3rqw5>>87-&$$$$$&&--&OXo..##@++++::*;;;;**+@.oooXOXXXXXooXXXXXOOXXXXOO$$$OO$$$$&&&&&&$OOOOO$$$OXXOOOOOXXXXO$&&&&-&&$$OOOOO$$$$OOXooXXXoo..##@@#.XOO$$$$OXXo..........##..ooooXO&&---$X.##@@@###.oOO$$$$OXXO&78><5wqy03                                                                                                                                                                    ",
"                                                                                                                          3rqw5>>87-&$$OO$&&&&$OXo..##@+++::*;;;;**:@#.ooXOOXXXXoooXXXXXOXXXoXXOO$$OO$$O$$$$$$$$$OOOOO$$$OOOOOOOOXXXO$$$&&&$&$$OOOOO$$$$OOXooXXXoo...#@@#.oXO$$$$OXooo...........#.oooXXO&---&$o#@@@@@###.oOO$$$OOXX$&978><5eqy03                                                                                                                                                                   ",
"                                                                                                                          3rqw5>>87-&$$OOO&&-&$OXo...#@++:::*;;**:+@#.oXXOXXXXXXoooooooXXXXXXXXXXOOO$$$OO$$$$$$$$$OOOOO$OOOOOXXXXXXXXOOO$&$$$$OOOOO$$$$$OOXoXXXXoo...####.oXO$&$$XXoooo......ooo....oXXO$----$X#@@@@@@##..XO$$$OOXO$$&-,78><5wqy03                                                                                                                                                                  ",
"                                                                                                                          3rqw5>>87&$$OOOO$&&&$OXo..##@+:::**;**:+@#.ooXOOXXXXXXXXXooooXXXXXXXXXXXOO$$$OO$$OOO$$$$OOOOOOOOOOOXXXXXooooXO$$$OOOOOOO$$$$$OOOXXXXXXoo........oXO$&$$Xooooo......ooo....oXOO$---&Oo#@+@@@@##..XO$$$OXO$&&&&-78>><5wur0                                                                                                                                                                  ",
"                                                                                                                          3rqw5>>87&$$OOOO$&-&$OXoo.#@+:*******:+@#.oooXOOXXOOXXXXXXooooXXXXOXXXXXXOO$$$$$$OOOO$$$OOOOOOO$$$OXXXXoo...XOOOOOOOOOO$$$$$OOOOXXXoooooo......oXXO$$$$Xo..oo......oo....oXO$$&&&&$X.@@@@##....oXO$$$OO$&---&&97>><5eqy03                                                                                                                                                                 ",
"                                                                                                                          3rqw5>>87&$OOOOO$&&&$OXo..#+::**;;**:+@#.ooXoXXOXXOOXXXXXXooooXXXOOOXXXXXXOOOO$$$$OOOOOOOOOOOO$$$$OOXXXo....XOOOOOOOOOO$$$$OOOOOXXooooooo......oXOO$$$$Xo...o............oO$$$&&&$Oo#@@@##.ooooXO$$$OO$&----&&&78><5eqy03                                                                                                                                                                 ",
"                                                                                                                          3rqw5>>87&OOXXXXO&&&$OXo.#@+:***;;*:+@#.ooXXoXXXXXOOXXXXXXooooXXXOOOXXXXXXXOOOO$$$$$O$OOOOOOOO$$$$$OOOXo....XOOXOOOXXXO$$$OOOOOOXoooooooo....#.oOOO$$$$Xo..oo.........#..XO$&&$$OOX.#@@@#.oXXXOO$$$$$$&&-,--$$978><5eqy03                                                                                                                                                                 ",
"                                                                                                                          3rqw5>>87&OXXXXX$&&$$OXX.#@+::***;*:+#.ooXXXXXXXXXOXXXXXXXooooXXXOOOXXXXXXXOOOO$$$$$OOOOOOOOOO$$$O$$$OXXo...XXXXOOOXXXOOOOOOOOOXooooooooo...###oO$$$$$OXo..oo...###..##.oO$$&&$OOXo.#@@@#.oXXOO$$$$O$$&----&OO$78><5eqy03                                                                                                                                                                 ",
"                                                                                                                          3rqw5>>87&OXooXO$&$$OOOX.#@+:::****:@.ooooXOOOXXXXXXXXXXXXoooooXXOOOOXXXXOOOOOOO$$$$OOOOOOOOOOOOOO$$$OOXXooooXXXOOOOXXXXXXOOOOXXo.ooooo.....###oO$&&&$OXo..oo..#######..XO$$&&$OX...##@##.oXXO$$$$OO$&&&&&OXoot9<><5eqy03                                                                                                                                                                 ",
"                                                                                                                          3rqw5>>87&OXoXXO$$$OOOXX.#@+::::::+@#.ooooXOOOXXXXXXXXXXXXXoooooXO$$OOOXXOOOOOO$$$$$$OOOOOOOOOOOOO$$$OXXXXXoooXXXOOOXXXXXXXOOOXXo.oooo.......#.oO$&&&$OXo......#@#####.oXO$$$&$Oo.######.oooXXOO$OOO$$&$OXo.##t9<><5eqy03                                                                                                                                                                 ",
"                                                                                                                          3rqw5>>87&OXXXXO$$$XXXXo.#@++:::+@##.....oXXOOXXXXXXXXXXXXXXooooXO$$$$OOOOOOOOO$$$$$$$OOOOOOOOOOOO$$$OXXXXXoooXXXXOOXXXXXXXXOOXXo..............oX$&&$OXXo....##@@@####.oXOO$$$$Oo.####..ooo.ooXXOOOOO$OX.##@@@#t<><5eqy03                                                                                                                                                                 ",
"                                                                                                                          3rqw5>>87&OXXXXOO$OXXXXo..#@@+++@#.o.....ooXXOOXXXXXXXXXXXXXXooXXO$$$$$OOOOOOOOO$OO$$$OOOOOOOOOOOOO$OOXooXXXooXXXXXOXXXXXXXoXXXXo...............XO$$$OXoo..####@@@@##..XOOOOOOXX.##@@##......ooXXXXXXXX.#@@@@@#t<><5eqy03                                                                                                                                                                 ",
"                                                                                                                          3rqw5>>87&OXXoXOOOXXoooo....#####.ooo.....ooXXOOXXXXXXXXXXXXXXXXXOO$$$$$OOOOOXXOOOO$$$OOOOOOOOOOOOOOOOXXooXXXXXOXXXXXXOOXXo..oXOX......####...#.oXOOOOXo..##@@@@@@@@#.oXOOOOXo...#@@@@@#####..oooo.....####@@@#t<><5eqy03                                                                                                                                                                 ",
"                                                                                                                          3rqw5>>87&OXXoXXOOOOXXXXo.........oooo.....oXXXXXXXXXOOXXXXXXXXXXXOO$$$$OOOOOOXXOOO$$$OOO$$OOOOOOOOOOOOXXXXXXXXXXXXXXXOXXo....XXo......####...#..oXOOXXo.##@@@@@@@@##.XOO$$Xo.###@@@#@#####.......######@@@@@@t98><5eqy03                                                                                                                                                                 ",
"                                                                                                                          3rqw5>>87&OXoooXXOO$$OXXXo.....#..oooo.....oooooXXXXOOOOXXXXXXOXooXOO$$$$OOOOOOXXOOOOOOO$$$OOOOOOOOOOOOOOOXXXXXoXXXXOOXXo..#..XXo.......###...#..ooXOXo.###@@@@++@##..XO$$Oo..##@@@#######...#...###@@@@@++++#$78><5eqy03                                                                                                                                                                 ",
"                                                                                                                         0ruw5<>879&OXoooXXOO$$$OOXoo.......ooo.......oooooXXXXXXXXXXXXXXX.oXXOO$$$OOOOOOXXXOOOOO$$$$$OOOOOOOOOOOOOOXXXXooXXXOOOXXo..##.oooo............#...oXXXo.##@@@@@+@@##.oXOO$Oo..###@@###########...###@@@+++++:@$78><5eqy03                                                                                                                                                                 ",
"                                                                                                                        0ruw5<>8779&OXoooXXXO$$$$OXooooo..oooo........oooooooooooooooXXXXo.ooXXOOO$OOOOOOXoXXXXOOO$$$$$OOOOOOOOOOOOOXoooooXXOOOOXXoo.##..oooo.........###...oooo.##@@@@++@@@@#.oXOOOX.#..##@@@@####@@###.o.####@@+++++:+t78><5eqy03                                                                                                                                                                 ",
"                                                                                                                       30yqe5>>8799&OXooXXXoXO$$OOXooooXXXXXoo........oooo......oooooooXooooXXXXXOOOOOOOXXoXXXXXXOOO$$$OO$OOOOXOOOOXXooooXXOOOXXXoo.......ooo.........##.....oo..##@@@@+++@+@#.oXOOXo######@@@@###@@@##...####@@@++++:::t98><5eqy03                                                                                                                                                                 ",
"                                                                                                                        0ywe5>>879-$OooXXOX..oXOOXooooXXOOXXXooo......XXo.......oooo..oooooXXXooXXXOOOOXXXoXXXXXXXOO$$$$$$$OOXXXXXXXXoooXXOOXXXo.....oo...o......##...##..#...o.###@@@@+++++@#.oXOOX.#@@@@@@@@@#@@@@@#....#@@@@@@@++::::t9<><5eqy03                                                                                                                                                                 ",
"                                                                                                                        3ywe5>>879&$OXoXXXo..oXXXXoooooXOOOXXXXo......ooo.......ooo......ooXXXXXXXXXOOXXXXoooXXXXXXOOOOOO$OOXXXXXXXXooooXXXXXoo.....oooo..........##.###..##.....##@@@@+++++@#.XOOOX.#@@@@@@++@@@@@@@#####@@@@@+@+++::*:t7>>>5eqy03                                                                                                                                                                 ",
"                                                                                                                        3yqe5>>87-$OXXoooo...ooooooooooXXOXXOOXo..........oo....ooo...#...oXXXXXXXXXXXXXXXo..XXXXXXOOXXOOOOXXXXXXXXooooooooo.......ooooo....#.....####@@#####....##@@@@+++++@#oXOOXo.#@@@++++++@@@@@@@@#@@@@@+++++:::**+t7>><5eqy03                                                                                                                                                                 ",
"                                                                                                                        0yqe5>>87&$OXXoo.....ooXXXXXXoooXXXXOOXoo.o.......oo....ooo...#....oXXXXXXXXXXXXXo...oXXXXXOOXXXXXXXXXXXXXXXoo....oo......ooo.......##....###@@@######...##@@@@+++++@#.XOXX.##@@@+++++@@@@@@@+@@@+@@@++++:::*::@97>>>5eqy03                                                                                                                                                                 ",
"                                                                                                                        0yqe5>>79$OXXoo...##.oXXXXXXXoooXXXXXOXooooo......oo....ooo...#.....ooXXXXoooXXXXo...ooXXXXOOXXXXooXXOOXXXXXoo.#...o.....ooo........###...###@@@###########@@@@+++++@#.XXXo.#@@@@++++@@@@@@@@++++++@@@++:::**:+t97>><5eqy03                                                                                                                                                                 ",
"                                                                                                                        3yqe5>>89$OXooo....#..oXXXXXXXooXXXoXXXXXXXo............ooo...........ooXoooooXXXoooooooXXXXXOXXXXXXXXXXXoXXo..#..ooo.........##....##...###@@@##.########@@@@++++++@#.oo..##@@@@+++@@@@@+++++++++++@@+:::::*:+t97>><5wqr0                                                                                                                                                                  ",
"                                                                                                                        3ywe5>>79$Xooo...o.....oooooXXXoXXXoXXXXOOXX........#...ooo.........#..ooooooooXXXoXXoooXXXXXOOXXXXooXXoooooo..#..oXoo.........#....#...###@@@@@#########@@@@+++++++@#....###@@@@++@@@@@@+@++++@@+++@@+:::***:@t97<<5eqy03                                                                                                                                                                  ",
"                                                                                                                        0ywe5>>89$Xo.....o........ooXXooXXoXXOXXXXXoo.......#.................oooo....ooXXXXXooooXXXXOOXXXooooo........#..oXoo.........#....#...####@@@@@@###..##@@@@+++++++@#...####@@++@@@@@@@@@++++++@@++++++::**::#t7><<5wyr3                                                                                                                                                                   ",
"                                                                                                                        0ywe5>>79$X.##...oo........oooooooooXOXXoooooo......#.............#...ooo......ooXXXooooXXXXXOXoooo............#..oooo........##....#...#####@@++@@##..##@@@@++++++@@########@@++@@@@@@@@@@+++++@@@++++++:***+t9<><5eqr3                                                                                                                                                                    ",
"                                                                                                                       30yqe5>><7tX.##.............oXXXXo..oXXXo..ooXo......##..ooo......................oXooooXXXooooo........ooo....................#..o..#...#####@+++@@#####@@+@@+++@@@@@#######@@+@@+++++++++@@@@@@@@@@+++++::**:t9<><5eqr3                                                                                                                                                                    ",
"                                                                                                                        3ruwe<><59t.##...##........ooXXX....ooo...ooXo..........ooo.........#.....###....oooooXXXXo............ooo...............##......o......####@@++@@@@####@@+@@++@@@@@@@######@@+@@++++++++++@@@@@@@@@++++++:*::t9<><5eqr3                                                                                                                                                                    ",
"                                                                                                                        30ruwe<><7t.##..##@###..o....oo....ooo...ooooo....................o.......###..ooXXXXXXXXXoo.........................oo................#####@@@@+++@####@@@++++@@@@@@########@@+++++++++++++++@@@@@+++++++:**+t7>>>5eqr3                                                                                                                                                                    ",
"                                                                                                                          0yqw5>>79.###.#@@@##..oo.#......ooo...oooo.................##...oo......##..oooXXXXXXXXXXXo....................#..ooo................#####@@@@+++@#####@@++++@@@@@@########@@++++++++++++++++@@@@+++++++:::@97>><5eqr3                                                                                                                                                                    ",
"                                                                                                                          3rqw5>>89t#@@#@@@@#......##....ooo....ooo..............oo.......ooo...........ooXoooXXXOXXo...........#...........oo...............o..###@@@@@++@@#####@@++++@@@@@########@@+@@++++++++++++@++@@@@@@@@+++++t97>>>5eqr3                                                                                                                                                                    ",
"                                                                                                                          3rqw5>>87t#@@@@+@##......###..ooo.........##...........oo.....#..oooo..........ooooXXXOOOXo..........###.ooo......oo.##.....##....ooo..##@++@@++@@#####@@++++@@@@@########@@+@@+++++++++++@@@++@@@@@@@+++@#t97>><5wur3                                                                                                                                                                    ",
"                                                                                                                          3rqw5>>87tt@+++@@###########.oXXo........##..oo...............##..oo...oo......oooXXOOOOOXo..ooo.....###.oo......ooo........##........###@@@@++@@######@@+++++++@@########@@@++++++++++++@@@@+++++@@@@++@#t97<<<5wuy03                                                                                                                                                                    ",
"                                                                                                                          3rqw5>>879t#+@+@@@#@@@######.oXXo.##.....##..ooo..........#....#......ooo....oooooXO$$OOOXo..oooo....###........oooo.........#.........##@@@@@@@###.###@@@+++++++@########@@@++++++++++++@@@@++++++@@@++@.$98><5eqy03                                                                                                                                                                     ",
"                                                                                                                          0yqw5>>>59tt@++@@@@@@@@#####..oo.###.....##...oo.........##..o..............oXXo.oXO$$OOOXoooXXoo......##.......oooo.........##........##@@###@@##...##@@@@++++++@@##...##@@@++++++++++++@@@@++@++++++++@#$78><5wur3                                                                                                                                                                      ",
"                                                                                                                          0ruw5<>><9tt#@+@@@@@@@@@####.....##......##...oo........###.oooo...........oXXXo.XOO$$OOOXXooXXo........##..oo...oo..........##...#..o..#########.oo.##@@@@@+++++@@##..###@@@++++++++++++@@@++@@++++++++@.$78><ewu03                                                                                                                                                                      ",
"                                                                                                                          3ruwe<>><79tt@+@@@@@@@@@@####...##...o..##..........ooo.###.oooo..........ooXXXooXOOOO$$OXXooXXo........##..oo.........##.........#..o..######@##.oo.##@+@@@++++@@###..##@@@@+++++++++++++@@@+@@++++++++@t97>><ewur3                                                                                                                                                                      ",
"                                                                                                                           0ruwe5<<779t@+@@@@@@@@@@@@@######..oo...#..####....ooo..##..oo...#...oooooXXXXXXOOOO$$$OXXooXo..#...oo.....oo...#.....###..............########..oo.##@+@@@+++@@####..##@@@+++++++++++++++@@+@@++++++++#t97>><ewur3                                                                                                                                                                      ",
"                                                                                                                            0ruqe<><<79t@@@@@@@++++@@@@######.ooo..##########.ooo...........#..ooXXooXXOOOOOOOO$$$OXo..oo..#...ooo.........#......##.....o....o...#####@##oooo.##@@@@@@@@@@#.######@@++++++@@++++++++@@+@@@+++:::+@t97>><ewur3                                                                                                                                                                      ",
"                                                                                                                             0ryqe<><87tt#@#@@@+++++@@@@@@@##......##@##@@@###.................ooXXooXXOOOOOOOO$$$OXo..oo......ooo.........#..ooo........o..oooo..#######oXOXo.###@@@##@@@@#..#####@@++++++@@++++++++@@+@@@+++::++#t97>><ewur3                                                                                                                                                                      ",
"                                                                                                                              3ruw5<>><7tt##@@@@@@@@@@@#@@@@##....##@@@@+++@####...oo...#......ooooooXO$$$OOOOOOOOOXo..ooo.................#..oooo..........ooXXo.##....oO$$OXo..##.####@@@#.######@@++++++++++@@+++@@+++@@@+::::+tt7<>>5eqy03                                                                                                                                                                      ",
"                                                                                                                              30yqe<>>>79t#@@@@@@@@@@@@@@@@#########@@++++++@@###..ooo.........ooXXXXOO$$$OOOOOOOOOXo..oooo...................oooo..........oXXXo....ooXO$&$OOXo..######@@@@#######@@++++++++++@@++++@+++@@@+::*:+t95<><5wur3                                                                                                                                                                       ",
"                                                                                                                              30yqe<>>>5ett@@@@@@@@+++++@@######...#@@@@@@+++@@##.....oooo....oXXXOOO$$$OOOOOXXOOOOXoooXXooo...###...........ooo...........oXOOOXooooXXXO$&&$OOXo.##@@@@+++@@@@####@@@@++++++@@++++++++++++++:***+t98><5wur3                                                                                                                                                                        ",
"                                                                                                                              30ruw5<>><59t#@@@@@@+++++++@#..###...##@@@@@+++@@##....oooooXoooXXXOO$$$$OOOOXXXXXOOOXXoXXXooo....#...........ooo...........oXOOOOXXXXOOOO$&&&$OOXo.##@@@@+++++@@####@@@@+++++@@@+++++++++++++::***+t78><ewu03                                                                                                                                                                        ",
"                                                                                                                                0ruw5<>><79t#@@@@@+++++++@#..############@++@@@##..oXo...XXXXXXXOO$$$$OOOXXXooXXXOOOXXXXXo.............#...ooo...........oXOOOOOXXO$&&$$&&&&&$Xo.######@@@@++@@@@@@@@@@++++@@@@@+++++++++++::****+t7>><ewu03                                                                                                                                                                        ",
"                                                                                                                                 0ruwe<>><9t##@@@@+++++++@################++@@@##..ooo...oXXXXXOOOO$$OOOOXXoooXXXOOOXXXXXo.................oo..........oXXXOOOOOXOO$&&&&&&&&&$Xo......#@@@@++@@@@@@@@@+++++@@@@@@++++++++:::***;*+t7>><ewu03                                                                                                                                                                        ",
"                                                                                                                                  3ruw5<<<7tt.###@+++@++@@@###########...#@@@@@@##........oXXXOOOOXXXXXXXXXooXXXXXXXoooXXoo....###............oooo...oXOOXXXXXOOOOO$&&$$&&&&&$OXo..oo.#@+++@@@@@@@@@@++++++@@@@@@@++++@@+::***;;*+t7>><ewu03                                                                                                                                                                        ",
"                                                                                                                                  30yqe5>><9t..##@@+@@@+@@@@#########....#@@@@@@@##...#...ooXXXXXXXXXXXXXXXXXXXXXXXXoooXXoo...................oooo.oXXOOOOXXXOOOOOO$&$$$$$$$$$OXo..oo.#@+++@@@@@@@@@@++++++@@@@@@@++++@++*::**;;*+t7>><ewu03                                                                                                                                                                        ",
"                                                                                                                                   0yqe5>>879t####@@@@@@@@@@@#######.....##@@@+++@#####...ooooooXooooXXXXOOXXXXXXOOXXooXXooooo.......ooo.......o..oXOOOOOXoXO$OXXXO$&$OOOOO$$OXo....o.#@++@@@@@@@++++@@@@++++++@@@+++++++:::****:@t78><ewu03                                                                                                                                                                        ",
"                                                                                                                                   3ruw5<>><9t.###@@@@@@@@+@@##.........####@@+++@@#####..ooo...oooooXXXXOOXXXXXXOXXXooXXoooo........ooXo.........oXOOOOOOXXO$OXoXO$&&$OOOOOOOXoo.....#@+@@@@@@@++++@@@@@++++++@@@+++++++:::****:@t78><ewu03                                                                                                                                                                        ",
"                                                                                                                                   30rue5<<<7ttt###@@@@@@@@@##.........#####@@++++@@#####........ooooXXXXOOXXXXXXXXXooXXXXXoo........oXXo.........oXXXXXOOXXOOXooXO&&&$$$$$OOOXXXXo..##@@@@@@@@++++@@@@@@++@@+++++++++++:::***;*:#97>><ewu03                                                                                                                                                                        ",
"                                                                                                                                    30rqwe<><79t.###@@@@@@@@##........##..##@@+++@@@@@@@########..oooXXXXXOXXXXXXXXooXXXXXXoo.........oXo.......ooXXXXXOOOXXXXoooXO$&&$$$$$$OOXOOXX.###@@@@@@@+++++@@@@@+++@@+++++++++:+:::*****+t97>><ewu03                                                                                                                                                                        ",
"                                                                                                                                     30ruw5<>87tt.##@@@@@@@@##........##...#@@++@@@@@@@@@@@@#####.oooooXXXXXXXXXXXooXXXXXXXoooooooo...oooo...oooXXOOXXOOOOXXo.ooXOO$&$$$$$$$$OOOOOX.###@@@@@@++++@@++++++++@@++++++++++:::*****:+t97>><ewu03                                                                                                                                                                        ",
"                                                                                                                                      30yqe<>887tt.#@@@@@@@@##........#....#@@@+@@@@@@@@@@+@@@@##....ooXXXXXXXXXXooXXXXXXXXXXXXXXXo...ooXXo.ooXXXOO$OOOOOXXo..oXOO$$$$OO$$$$&$$OOOo#@@@@@@@@@@++++@++++++++@@+++@+++:+:::::***::#t9<>>5equ03                                                                                                                                                                        ",
"                                                                                                                                       3ruw5<>>77tt#@@@@++@@@##########....##@@@++++++@@@++++++@####..oXXXXXXXXXoooXXXXXXooXXXXOOOXooooXXOXoXXXXOO$$$$$$OXo..oXOO$$$OXXXOO$&&&$$OX.@+@@@@@@@@@@++++++++++++@@++@@@+++++::::***:@t97<><ewqy03                                                                                                                                                                        ",
"                                                                                                                                       30uwe<>>>79t#@@@@@++@@@##########...##@@@+++++@@@@++++++@@###..oXXXXXXXXoooXXXXXXXXXXXXXOOOOXXXXXO$OXXXXXOOOO$$$OOXo.oXXOO$$OXXXXXO$&&&$OXo#@++@@@@@@@@@@@++++++++++++++@@@++++:::::***:@t9<<<5wur03                                                                                                                                                                         ",
"                                                                                                                                       30yqe5<>><7tt##@@@@++@@@########...###@@@++@@@@@@@++++@@@@@##..oXOXoooXXXooXXXXXOOXXXXXXOOOOO$$O$$&$OOOOOXXXXOOOOOXXXOOOOO$$OXXXXXO$&&&$Oo.##@++@@@@@@###@++++++++++++++++++++++:::****:@t7>>5eqy0                                                                                                                                                                           ",
"                                                                                                                                        30yqe5<>><9t.##@@@++@@@@######...######@@+@@@@@@@@+++@@@@@@##.oXXo..ooXXXXXXXXXXXXXXXXXXOOO$$$$$&&&$$OOOOXOOOOOOXXOO$$OOOOOXooXXXO$$$$OX..###@+@@@@@####@++++++++++++++++++:++:::*:***:@t7>>5eqy3                                                                                                                                                                           ",
"                                                                                                                                         30yqe5<><7ttt#@@@++@@@@@#####...###...#@@++@@++@@@++@@@@@@@##.......ooXXXXXXooXXXXXXXXXOOO$$&&&&&&&$$$$OOO$$$OOXX$$&$OOOOXXXXXXOOOOXXXo..###@@@@@#####@@++++++@@++@+++++::::::*******:#97>>5eqy3                                                                                                                                                                           ",
"                                                                                                                                          30yqe5<><79t#@@@@++@@@#####...####...#@@+++++++@@@@@@@@++@@######...oXXXXoo..oXXOOXXXO$$$$&&&&&&&&$$$$$OO$$$$$O$$&$$OOOXXO$$OOO$$OXXXXXo..########.##@@@++++@@+++++::::::*:::****;;*:t98>><eqy3                                                                                                                                                                           ",
"                                                                                                                                            0yqe5<>87tt@@@@@++@#######..###...###@+++++++@@@@@@@+++@@@@@#####..oooo..#.oXOOOXXXO&&&&&&&&&&&&&&&&$$$$$&&&&&&&$$OOXXO$&&$$$&&$XooXOXo.....###..##@@@@++@@@+::::::::*********;;**+t78>>5wqy3                                                                                                                                                                           ",
"                                                                                                                                            30yqe5<>87t#@@@@@@@@######..###...###@++++++++@@@@@+++++@@@@@@@##@###..###.oXOOOXXO$&&&&&&&&&&&&&&&$$$$$&&&&&&&&$$OOOO$$&&$$$$&OXooXOOXoo........##@@@@@@+@@++:+::::*:****;;;;;**:t97<>5eqy03                                                                                                                                                                           ",
"                                                                                                                                              0uqe<>>79t@++@@@@@@##########...###@++++++++@@@@@++++++@@++++@@++@@@####.XXOOXXOO$&&&&&&&&&&---&&$$$&&&&&&&&&&&$$$$$$$O$$$$$$XoooXOOOXXo......########@++@@++++:::****;;;;;;;*:@t7<<<eqy03                                                                                                                                                                            ",
"                                                                                                                                              0yqe5>>>7t#+++@++@@@@@@#####.....##@+++@@@@@+++@@@@++++++++++++++++@@@##.oXOOOOO$$&&&&&&&&&---&&&$$&&&&&&&&&&&&&$$O$$$OO$$$$OXoooXXOOOXo.....########.#@@@@@++++::****;;;;;;;;:@98><5eqy0                                                                                                                                                                             ",
"                                                                                                                                              3ruw5<>>7tt@++++++@@@@@@####.....##@++@@@@@@+++@@@@++++++++++++++++++@@#..XOOOOOO$$$$$$&&&&&&&&&&$&&-&-&&&&----&$$$$$OOO$$&$OXXoooXXOOXo#...#######..o.#@@@@@++++::***;;;;;;;;*@98><5eqy3                                                                                                                                                                             ",
"                                                                                                                                              30yqe<>>87tt@+++++@@@@@@#####.....#@@@@@@@@@+++@@@@@++++++@@++++++++++@@##.XXXXXOOOOOOO$$$$&&&--&&&&$&&&-&&&--&&$$OOOOOO$$&$$OOOXXXXXXX.#.o....###..ooo.###@@++@++:****;;;;;;;*@98><5eqy3                                                                                                                                                                             ",
"                                                                                                                                               30yqe<<<87tt@++++@@@@@@@@@@##...##@@@@@@@@+++++@@@+++++++@@@++++++++++@@@#.oXXooXXXXXXOOOO$$&---&&$$&&-&&&&--&&$$OOXXOOO$&&$$$$$OOOXXo..oXo...###..ooo..###@++@@+::****;;;*;;*@98><5eqy3                                                                                                                                                                             ",
"                                                                                                                                                30yqe<>>79t@+::+++@@@@@@+@@#####@@@@@@@@+@@+++++++++:::+++++++++++++++@@##....oooXXXXXXXXX$&&&&&&$$&&&-&&&&&&$$$OXoXXOO$$$$$$$$$OOXXo..XXo...###..ooo..###@@++++:::::*;;;****t98><5eqy3                                                                                                                                                                             ",
"                                                                                                                                                330yqe<<<79t+::::+++@@++++@@@@@@@@++@@@@++@@+++++++:::::+++++++++++++++@@@###....oXXXooooXO$$&$$$$$&&-&&$$&&$$$OXXooXXOO$$$OOOOOOOOXXoXXXo.oo..#..ooo.#####@+++++::::**;;***:#98><5eqy3                                                                                                                                                                             ",
"                                                                                                                                                 330yqe5<<79#+:::::++++++++@+@+++++++@@@+@@@++:::::::**::::++@@++++@@@@++@@@###...oXXo...oXXOOOO$$$$&&-&$$&&$OOOXoooXXXOOOOOOXXXOOOOXXXXo..oXoo...ooo.#@@#@+++++++:::**;;;**+t98><5eqy3                                                                                                                                                                             ",
"                                                                                                                                                  330yqe5<<7t@:**::::+++++++++++++++++@+++@++:::::::**:*::::+@@++++@@@@++++@@@####..o..#.oooooXXOO$$&&&&$$&&$OOXXoooXXXOOOXXXXoXXXOOOOOXo..oXXXo..ooo.#@@@@++++++++::**;;;*:+t78><5eqy3                                                                                                                                                                             ",
"                                                                                                                                                    30uwe<><9t+:**:::::::+++++++++++++++++++::::::::*:*:*::::++++++++++++++++@@@@@@#####.o...oooXXO$$$$$$$&&$OOOXoooXXOOOOXXOXoooXXXXXXXooooXXXoooooo.#@@++++++++:+::**;;;**@t7><<5wur3                                                                                                                                                                             ",
"                                                                                                                                                     0rqe5>>7t@::******::::++++:++:++++++++:::******:*:*:***::+++:+++++++++++++++++@@@##.o...oooooXO$$OOO$&&$OOOXXXXXOO$$OXXOXoo..oooXXXXXXooXXXooooo.##@+++++++++::****;;*:t9<><5eqy03                                                                                                                                                                             ",
"                                                                                                                                                     3yqe5>>79t@:*****:***::++++++++++++::::::*:*************::::::::::+++++++++++++@@##....ooooooXXXXXO$$$$OOOOOOOO$$$$$OXOOXo....oXO$OOOXXoXXXXXXXXo.#@@@@@@@@++::****;;*+t7<><ewu03                                                                                                                                                                              ",
"                                                                                                                                                     3ruw5<>879t+:*********:++++:+:++++:::::::*****************::***::::+:+:+++++++++@####..oooooooooooXO$$OOOOXOOO$$$$$$OXXOXo...oXOO$OOOOXXXOOOOOOOXo.#@@@@@@@@+::*****;*@97><<equ03                                                                                                                                                                              ",
"                                                                                                                                                      3ruw5<>87t#::***:*:*::::::+:::::::::::::*********************:*::::+:::++@@++++@@###..oooo......ooXXXXXXooooXXOOOOOXoXXXo..XOO$OXOOOOO$$$$$$$$OXoo..#@@@@@+++:+::***:@t9<><5eqyr3                                                                                                                                                                             ",
"                                                                                                                                                       3ruw5<>79t#+:::::***:::::::::*****:::*****;******;*;*;*********:::::*:+++++++++@###..ooXo..#...oo.ooXoo....ooXXXXXoooooo.oXO$$XoXXXO$$&$$$$$$Oo.oo.#####@@+++++:::::+tt7>><5wqy3                                                                                                                                                                             ",
"                                                                                                                                                        3ruw5<<87tt@++:::*:*::::::::*:****::*::**********;;;;**********::::*::::+++@++@@###..oXXX...oXXo...ooooooooooooooo..o....XOOOX..ooX$$$$OOOOOX.........#######@+:++++tt78><5wqy3                                                                                                                                                                             ",
"                                                                                                                                                         3ruwe<<<79tt@+:::*:***:::*:********:**********;*;;;;;*;*;**********:::::++@+++@@##..oXXXo.oXXXo....oooXXXooooo.........ooXXXo...oXO$$OXXXooo###...o........##@+@@+@#t788>5eqy0                                                                                                                                                                             ",
"                                                                                                                                                          0ruw5<<<79tt@+:::*:***::*:*:********:**;**;****;;;;;;************:::::::+++++@@##.ooXoo.ooXXXo....ooXXXXXXoo.......oXXXXXXXoooooXXXXXXo..#####.oo..........########t9788<5eqy03                                                                                                                                                                           ",
"                                                                                                                                                           0ruw5<<<779t#+:::******:*:*****************;**;;;;;;;***;;*;*********:::+++@@@#.ooo.....oXXo.....oXXXXXXXXo.......oXOOXXoooooXXXooooo.##@@@##.oo....oooo........#t.t977<<5wqr03                                                                                                                                                                          ",
"                                                                                                                                                           33ruw5<<<<77t#+:::******:*:**********;**;******;;;;;***;;;;;*********:*::+@@@@##.....##..oo....ooXXXXXXXXXXoooooooXOOOXo...oXXXX..#####@@@@@#.o....oooooooo...oo..#oX9778<5wqr03                                                                                                                                                                         ",
"                                                                                                                                                             3ruw5<>>><7t#+:::*****:*******:*********;**;**;;;;;;*;;;;;*;*;******:::+@@@@@###..####....#..ooXXXXXXXXXXXoXXXXXXOOXX....oXXXo.##@@@@@@+@##.....ooooooooo...oo..##.O9788<5wur03                                                                                                                                                                        ",
"                                                                                                                                                              0ruw5<<>><7tt@++::*:**********:***************;;;;;;;;;;;**;;******::++@@@@@@@###.....oo.#..oooXoooooXOXXXXOOOOXXXo....ooooo.##@@@@@@@@###.....oooooooo....oo..##.oO9788<5wqr03                                                                                                                                                                       ",
"                                                                                                                                                              30ruwe5<<<<79t#++::*:**;*************;***;*****;;;;;;;;;;;;;;;*;***::++@@@@@@@@##....ooo.#....oooo.ooXOOXXXO$$OOXo.....oooo..#@@@@@@@@@#...oo..oooooo...#.....#####.O978<<5wur03                                                                                                                                                                      ",
"                                                                                                                                                               30ruwe55<<<79t#+::*:******:*:****:*:******;**;;;;;;;;*;;;;;;*****:::+++++@@++@##..ooXXo............oXOOXXX$&&$OX.....oXXooo.#@@@@@@@@#....oo..oooooo.###...#######..X97<<<5wqr0                                                                                                                                                                      ",
"                                                                                                                                                                 0ruqwwe5<879t#+::*******:::*****:***********;;;;;;*;;;;;;;*****:::++++++@++@@##..ooo...oo.......ooXOXXXX$&&$Oo....oXXXXooo.#########..........oooo..##.####@@@@###.O97<<<5wur03                                                                                                                                                                    ",
"                                                                                                                                                                 30ruuqqe5>879t@::*:*****:::*******:::*:******;;;;;;;;;;;;;*****::++++++++++@@@##.......oo......ooXXXXXXO$&&$Oo...oXOOOXoXXo.......##......##...oooo...####@@@@@@@@#.t97<<<5wqr0                                                                                                                                                                    ",
"                                                                                                                                                                   00rryqe<>879t+::::****:+::*****:::::****;***;;;;;;;;;;;*;*****:::++++++++@@####......oo......ooXXXXOO$&&&$OXo.ooXOOOXoXXXXoooo...#...###.....ooXo...######@+++@@@@.t97<><5wur03                                                                                                                                                                  ",
"                                                                                                                                                                    3330yqe5>87t@+::::****::+:***:::***:*:****************;********::+@@@@++@#####..oo.......ooooXXXOOO&-&&&&$OXoooXOOOXoXXXXXOOXo..#...###.o.oooXXo.....####@@++++++@#t97>><5wqr0                                                                                                                                                                  ",
"                                                                                                                                                                       00yqe<<<7t#++:::****::::::::::::*:********:*****;*****;******:++@@@@@@#####..oo......oXXXOOOO$$$&-&$$&$$OXXXXOOOOXOOXXXXOXXo.....##..o..oXXXX.....####@@++++++@@#t78>><5wqy03                                                                                                                                                                ",
"                                                                                                                                                                        30yqe5<<79t@++::****::::::::::::*:*:***:::*:***********;****::++@@#@#@@@@@#.oo......oO$$$$$&&&&&&$$$$$$$OXXXOO$$$$$OXXXXXoooooo..ooo...oXOOXo..o.##@@@@@++@@@@@@#t78>><5wqr0                                                                                                                                                                ",
"                                                                                                                                                                        33ruqe<<<79tt@+::****::::::::+::::::::::*:*:*:************;**::+@@@@@@@@@##.ooo....oXO$&&&&&&$$$$$$$$&&$$OOOOOO$$$$OXooooooooooooXXo....oXXXo....##@@@@@@@@@@@+@@.t7>>>5eqy0                                                                                                                                                                ",
"                                                                                                                                                                         30ruqe<<887ttt+::****::::+++++++++::::::*:*:*:****************:+@@+++@####..oooooooXO$$&&&&$$OO$$$$&&&&&$$$$OOO$$OXXXXXXXoooXXXXOXo....ooXXo.....#######@@@++@@@##t<>><eqy03                                                                                                                                                               ",
"                                                                                                                                                                           0ryqe<><879tt+::****::++@+++++++++::::::::::::::*:****;**;**:++++++@@####.ooXooXXXOO$$$&&$$$$$$$$$$$$&&&&&$$$$$$OXOOOOXXXXXXXXXXooooooooXo......##....##@++@@@++t97<<5wur03                                                                                                                                                              ",
"                                                                                                                                                                            30yqe<<>><79t+::**::++@@@++@@@@++++++++::::::**:***********:++++++@@@@@#..XXooXXXXOO$$$$&&$$$$&$OOO$$&&&&&&&$&$OO$$$$OOOOOXXXXXooXXXXoooo..ooo.....oo.#@@+@@++:+#t5<<5qur0                                                                                                                                                              ",
"                                                                                                                                                                             00yqe<>>><79t+:**::+@@@@++@@@@@@+++++++:::::::****;******:::++++++++@@##.oooooXXOOOOO$$$&&$$$$$$$$$$&&&&--&&&&$$&&$$OO$OOOXXXXooXXXXXXXo..oXXoo..ooo.##@@@@@+::+t95<<ewuy03                                                                                                                                                            ",
"                                                                                                                                                                              30yqe<<><<7t@::*::+@@@@++@@@@@@@@++++++:::::::**********::++++++++++@@#..o..oXOOOOOO$$$$&&$$$$&&&&$$$$&-----&&&&&$$$$$$OOXXXXoooXXXXXXo..oXXXooo.....#@@@@++:::+t97<<5wqy0                                                                                                                                                            ",
"                                                                                                                                                                              33ruwe55<<<7t@:**::+@@@@@@@@@@@@@@@@+++++:+:::**********:::+++++++++@@#....ooXXOOOOO$$$$$$$$$$&&-&&$$$&&-----&&&$$O$$$$$OOXXXoooooXXXXo..ooXXooo.....##@@++::*:+@t97<<5wqr3                                                                                                                                                           ",
"                                                                                                                                                                               30ruqwee5<<7t@:**::+@@@@@@@@@@@@@@@@++++++++::*:*****:*:::+++++++++@@##..ooXXXXOOO$$$$$$&$$$$&&-&&$$$&&-----&$$$$$$$$$$OOOOXXo..ooXXXo...oooooo.#....#@@+::::::+#t95<<5wu03                                                                                                                                                          ",
"                                                                                                                                                                                 0ryuqqe5<<7t@:**::+@@@@@@@@+@@@@@@+++++++++:::::*:::::::+++++++++@@#...oXXXXXOO$$$$$$$$$$$$$&&&&$$&&-----&&$&&&$$$$$$$OOOOXoo...ooXo.....o.........##@++:+:+::+@t97<<5wur3333                                                                                                                                                      ",
"                                                                                                                                                                                 300ryuqe5<<7t@::::++@@@@@@++++++@@++++++@@+::::::::::::++++++@@@@@@##..oXOOXXOO$$&&$$$$&$$OOO$$$$&&&---&&&$$&&&&$$$$$OOOOOXXXo....oo..............###@@++++++:::+#9<><5wu000033                                                                                                                                                    ",
"                                                                                                                                                                                  3330ryqe5<<7t#++++++@@@@@++++++++++++++++++++++++++++++++++@@@##@@##...oOOXXOO$$$$$$$$$$OOOOOO$$&&---&&$$$$&--&&$OOXXXXXXXXXXo..................##..###@@@@+:::::t9<<<5wuyyr03                                                                                                                                                    ",
"                                                                                                                                                                                      30yqe5<<7tt@+++++@@@@++++++++++++++++++++++++@@@@@++++@@@#######...oXOXXOOOO$$&$$$$OOOOOOOO$$&&&&&&$$$&&&&-&$OOXooo.oXOOOX.....#.......######..o...##@@+:::::+t7<<<5wwqur0333                                                                                                                                                 ",
"                                                                                                                                                                                       00yqe5<<79t#@++++@@@+++++@@@@+++++++@@@@@@@@@@@@++++@@#########....oXoXXOOO$$&&$$$$OOOOOOOO$&&&&&&$$&&&&-&&&OOXXXXoXO$$$Oo.......###...####..oo..##@@@++::*::#t7<<<5eewuyrr03                                                                                                                                                ",
"                                                                                                                                                                                        30yqe5<<79t#++:++@@++++@@@@@@+++++@@####@@@@@@++++@@##########......ooXXOOO$&&&&&$$OOOOOOO$$$$$$&&&&&$$&&-&$OOOOOXO$&&$OXo......####...###.ooo.##@++++++::::+#t7<<<55ewwqur0                                                                                                                                                ",
"                                                                                                                                                                                         00yqe5<<79t@++++@@@++@@@@@@@@@@+++@@######@@@@@@@##########........XXXXXXOO$$$$$$$$OOXXXXOO$$&&&&&&&$$&&&&$$$$OOO$&&&$Xo.....oXo##....###.....#@@+++++++::::+#t7<<><<5eewuyr003                                                                                                                                            ",
"                                                                                                                                                                                          30yqe5<<7tt@+++@@@@@@@@###@@@@@+++@@######@@@#############.......oXOOOXXXO$$$$$$$$OXoooXXO$&&&&&&&&&&&&&&&&&$$$$&--&$X......XOX.....######...#@@++++++++:::++#t9<>>><55ewquuu0                                                                                                                                            ",
"                                                                                                                                                                                           00yqe5<<79t+++@@@@@@######@@@@+++@@#..#######..######@###.......oXOOOXOOO$$OOOOOOXXooXXO$$&&&&&&&----&&&&&&&$$$&&&$OOXoooooXXX...#########..##@+++++++++::*::@t778>>>><5ewwqy03                                                                                                                                          ",
"                                                                                                                                                                                            3ruwe<>87t@++@@@@@@#....#@@@@+++@##..#######..####@@@@@#......ooXXOOOOO$$$OOOOOXXXXXXO$$&&&&&&&-------&-&-&$$$$&&$OOOXXoooXXo..###@@#.......#@@+@@@++++::***:@t977<>>><55eewur33                                                                                                                                        ",
"                                                                                                                                                                                             0yqe<>87t@+++@@@@@#..o..###@+++@##.######....###@@++@@#......oooXXXXXOOOOOOOOXXXXXOOOO$&&&&-&&-&---------&$$$$&&$$OOOXXoooooo..#@@@#.XXXXo..#@@###@@@@+:::***+tt977778<<<<ewur003                                                                                                                                      ",
"                                                                                                                                                                                             0ruw5<>89t+:++@@@@#.ooo...##@+@##########....##@@++++@#.ooo...oooooooXXOOOOOXoooXOOOOO$$&&---&&&&--------&&$$$&&&$$OOOXooooooo.#@+@#oO$OOXo..####.##@@@++:*;*:+#ttt9978>><5equyr03                                                                                                                                     ",
"                                                                                                                                                                                             30yqe<><7t+*:++@@@##.oooo..#@@#####..........##@@++++@#..oo...........oXXXXXXoooXXOOOOO$&----&-&&--------&&&&$$$&&$$OOXo...oo..#@@@#XO$OOXoo..#....##@@@@+:***:+@#ttt978<><<ewquyr3                                                                                                                                    ",
"                                                                                                                                                                                             30ruwe<<<7#:::++@@@##.oooo..#######..........#@@@++++@##.o..#......####...oXooooXXXOOOO$&&&&&&&&&-------&&&&&$$$&&$$OOXo....o..####.XOOOOXXXXo......#@@#@+:::::::+++tt977<<>5eewqur3                                                                                                                                   ",
"                                                                                                                                                                                               0ruqe<<5t#++++@@@@##.ooo......###........###@@@++++@@##...#...###@@@####.oo..ooXXOOOOO$$$$&&&&-------&-&&&&$$$&&&$$$OXoo..o..###..oXXXXOO$OXo....##@@#@+++::*::*::+#tt97<><5<5ewur3                                                                                                                                  ",
"                                                                                                                                                                                               30ruwe5<7tt@@@##@@@##.....oo..###.......##@@@@@+++++@@##########@@@@@@@@#.....ooXOOOOOOOOO$$&&--&&&&&-&&&&$$$$$&&$$$$OOo..o.......ooooX$&&$OX....#@@@@@++@+:::***::+@#tt7<<<<><5wur33                                                                                                                                ",
"                                                                                                                                                                                                 0ruqe5<79tt####@######..ooo.##.......##@@@@@+++++++@@@@####@@@@@@++@@@#......oXXXXXXXOOOO$&&&&&&&-&&$$&&$$$$$$$$$$$$$Xoooo......ooooX$&&&OX....##@@@@++@@+:::***::::+tt777>><<5wur033                                                                                                                              ",
"                                                                                                                                                                                                 30ryqe<<79tt.##@@@@@@@##.o..#.......##@@+@@++++++++@@@@@@@@@@@@@@+++@@######.oXXXXXXXXXXOO$$&$$$&&&-$$&&$$$$OOOO$$$$$Oooooooo..oooXXO$$&$Oo.....#@@@@++@@++:::***:*::+#t977<><<5wur003                                                                                                                             ",
"                                                                                                                                                                                                  330yqe5<<79t#@@@@@@@@@@##..##.....##@@@@++++++++++++++++++++++++@@@@@######.oooXXXXoXXOXXOOOOO$$&--&$OO$OOXXXXXOOOOOXo....oooooXXOOOXXOXo.......##@@@@++++++::::*****:+tt97<<<<ewuuuy3                                                                                                                            ",
"                                                                                                                                                                                                    3ryqe<>87tt@+++@++++@@#######...##@@@@+@++++++:+++++++++++++++@@@@@@@@@@##.ooooooooXOXXXXOOOO$&--&$XOOOXXXXXXXXXXOXXo...ooXXXXOOOOXooo..oooooo.#@@@@+++++++++::******+@tt7<<<5ewwqur33                                                                                                                          ",
"                                                                                                                                                                                                     0ruw5<>87t#+++++:++@@@+@@@@##..##@@@@++++++++++++++++++++++++++++@@@@@@@#..oooo..oXOXXXXOOOO&&--&$XO$$XOO$OXXooXXOXXo..oXXOOOOOOXXoo...oXXXXoo.###@@+++++++++++::****::+t7<><<5eewur3                                                                                                                          ",
"                                                                                                                                                                                                     30yqe5>>79#+++++::@@@+++@@@@#..##@@@@++++++++++++++++++:+++++++++@@@+++@##.ooo....XOXXXXOOOO$&--&$OO$$XO$$$OXoooXOOXo..oXOOOOOOXXXXo.#.oXOOXXo..##@@++++++++++++:******:#9<>><55eewu03                                                                                                                         ",
"                                                                                                                                                                                                                                                                                                                                                                                                                                                                                                                    ",
"                                                                                                                                                                                                                                                                                                                                                                                                                                                                                                                    ",
"                                                                                                                                                                                                                                                                                                                                                                                                                                                                                                                    ",
"                                                                                                                                                                                                                                                                                                                                                                                                                                                                                                                    ",
"                                                                                                                                                                                                                                                                                                                                                                                                                                                                                                                    ",
"                                                                                                                                                                                                                                                                                                                                                                                                                                                                                                                    ",
"                                                                                                                                                                                                                                                                                                                                                                                                                                                                                                                    ",
"                                                                                                                                                                                                                                                                                                                                                                                                                                                                                                                    ",
"                                                                                                                                                                                                                                                                                                                                                                                                                                                                                                                    ",
"                                                                                                                                                                                                                                                                                                                                                                                                                                                                                                                    ",
"                                                                                                                                                                                                                                                                                                                                                                                                                                                                                                                    ",
"                                                                                                                                                                                                                                                                                                                                                                                                                                                                                                                    ",
"                                                                                                                                                                                                                                                                                                                                                                                                                                                                                                                    ",
"                                                                                                                                                                                                                                                                                                                                                                                                                                                                                                                    ",
"                                                                                                                                                                                                                                                                                                                                                                                                                                                                                                                    ",
"                                                                                                                                                                                                                                                                                                                                                                                                                                                                                                                    ",
"                                                                                                                                                                                                                                                                                                                                                                                                                                                                                                                    ",
"                                                                                                                                                                                                                                                                                                                                                                                                                                                                                                                    ",
"                                                                                                                                                                                                                                                                                                                                                                                                                                                                                                                    ",
"                                                                                                                                                                                                                                                                                                                                                                                                                                                                                                                    ",
"                                                                                                                                                                                                                                                                                                                                                                                                                                                                                                                    ",
"                                                                                                                                                                                                                                                                                                                                                                                                                                                                                                                    ",
"                                                                                                                                                                                                                                                                                                                                                                                                                                                                                                                    ",
"                                                                                                                                                                                                                                                                                                                                                                                                                                                                                                                    ",
"                                                                                                                                                                                                                                                                                                                                                                                                                                                                                                                    ",
"                                                                                                                                                                                                                                                                                                                                                                                                                                                                                                                    ",
"                                                                                                                                                                                                                                                                                                                                                                                                                                                                                                                    ",
"                                                                                                                                                                                                                                                                                                                                                                                                                                                                                                                    ",
"                                                                                                                                                                                                                                                                                                                                                                                                                                                                                                                    ",
"                                                                                                                                                                                                                                                                                                                                                                                                                                                                                                                    ",
"                                                                                                                                                                                                                                                                                                                                                                                                                                                                                                                    ",
"                                                                                                                                                                                                                                                                                                                                                                                                                                                                                                                    ",
"                                                                                                                                                                                                                                                                                                                                                                                                                                                                                                                    ",
"                                                                                                                                                                                                                                                                                                                                                                                                                                                                                                                    ",
"                                                                                                                                                                                                                                                                                                                                                                                                                                                                                                                    ",
"                                                                                                                                                                                                                                                                                                                                                                                                                                                                                                                    ",
"                                                                                                                                                                                                                                                                                                                                                                                                                                                                                                                    ",
"                                                                                                                                                                                                                                                                                                                                                                                                                                                                                                                    ",
"                                                                                                                                                                                                                                                                                                                                                                                                                                                                                                                    ",
"                                                                                                                                                                                                                                                                                                                                                                                                                                                                                                                    ",
"                                                                                                                                                                                                                                                                                                                                                                                                                                                                                                                    ",
"                                                                                                                                                                                                                                                                                                                                                                                                                                                                                                                    ",
"                                                                                                                                                                                                                                                                                                                                                                                                                                                                                                                    ",
"                                                                                                                                                                                                                                                                                                                                                                                                                                                                                                                    ",
"                                                                                                                                                                                                                                                                                                                                                                                                                                                                                                                    ",
"                                                                                                                                                                                                                                                                                                                                                                                                                                                                                                                    ",
"                                                                                                                                                                                                                                                                                                                                                                                                                                                                                                                    ",
"                                                                                                                                                                                                                                                                                                                                                                                                                                                                                                                    ",
"                                                                                                                                                                                                                                                                                                                                                                                                                                                                                                                    ",
"                                                                                                                                                                                                                                                                                                                                                                                                                                                                                                                    ",
"                                                                                                                                                                                                                                                                                                                                                                                                                                                                                                                    ",
"                                                                                                                                                                                                                                                                                                                                                                                                                                                                                                                    ",
"                                                                                                                                                                                                                                                                                                                                                                                                                                                                                                                    ",
"                                                                                                                                                                                                                                                                                                                                                                                                                                                                                                                    ",
"                                                                                                                                                                                                                                                                                                                                                                                                                                                                                                                    ",
"                                                                                                                                                                                                                                                                                                                                                                                                                                                                                                                    ",
"                                                                                                                                                                                                                                                                                                                                                                                                                                                                                                                    ",
"                                                                                                                                                                                                                                                                                                                                                                                                                                                                                                                    ",
"                                                                                                                                                                                                                                                                                                                                                                                                                                                                                                                    ",
"                                                                                                                                                                                                                                                                                                                                                                                                                                                                                                                    ",
"                                                                                                                                                                                                                                                                                                                                                                                                                                                                                                                    ",
"                                                                                                                                                                                                                                                                                                                                                                                                                                                                                                                    ",
"                                                                                                                                                                                                                                                                                                                                                                                                                                                                                                                    ",
"                                                                                                                                                                                                                                                                                                                                                                                                                                                                                                                    ",
"                                                                                                                                                                                                                                                                                                                                                                                                                                                                                                                    ",
"                                                                                                                                                                                                                                                                                                                                                                                                                                                                                                                    ",
"                                                                                                                                                                                                                                                                                                                                                                                                                                                                                                                    ",
"                                                                                                                                                                                                                                                                                                                                                                                                                                                                                                                    ",
"                                                                                                                                                                                                                                                                                                                                                                                                                                                                                                                    ",
"                                                                                                                                                                                                                                                                                                                                                                                                                                                                                                                    ",
"                                                                                                                                                                                                                                                                                                                                                                                                                                                                                                                    ",
"                                                                                                                                                                                                                                                                                                                                                                                                                                                                                                                    ",
"                                                                                                                                                                                                                                                                                                                                                                                                                                                                                                                    ",
"                                                                                                                                                                                                                                                                                                                                                                                                                                                                                                                    ",
"                                                                                                                                                                                                                                                                                                                                                                                                                                                                                                                    "
};
