/* XPM */
static char *result[] = {
/* columns rows colors chars-per-pixel */
"500 400 48 1 ",
"  c black",
". c #4E2013",
"X c #562B18",
"o c #3F170E",
"O c #481C11",
"+ c #431910",
"@ c #643820",
"# c #38140C",
"$ c #592E19",
"% c #32110A",
"& c #714027",
"* c #532617",
"= c #77452B",
"- c #5C321B",
"; c #6A3B23",
": c #8E593D",
"> c #7C4A2E",
", c #824E33",
"< c #61351D",
"1 c #945E42",
"2 c #885438",
"3 c #9D9EB1",
"4 c #9296A9",
"5 c #A3A5B6",
"6 c #9B6449",
"7 c #AE7557",
"8 c #A46C4F",
"9 c #686D84",
"0 c #747A8F",
"q c #09090D",
"w c #878CA0",
"e c #7E8397",
"r c #15171E",
"t c #242633",
"y c #343749",
"u c #5D6178",
"i c #52566D",
"p c #6F4C4A",
"a c #43475C",
"s c #A1919D",
"d c #7F5B5B",
"f c #A39AA8",
"g c #9F868D",
"h c #987473",
"j c #8E696A",
"k c #5E3B39",
"l c #9B7E82",
"z c #BC8363",
/* pixels */
"                                                                                                                                                                                                                                                                                                                                                                                                                                                                                                                    ",
"                                                                                                                                                                                                                                                                                                                                                                                                                                                                                                                    ",
"                                                                                                                                                                                                                                                                                                                                                                                                                                                                                                                    ",
"                                                                                                                                                                                                                                                                                                                                                                                                                                                                                                                    ",
"                                                                                                                                                                                                                                                                                                                                                                                                                                                                                                                    ",
"                                                                                                                                                                                                                                                                                                                                                                                                                                                                                                                    ",
"                                                                                                                                                                                                                                                                                                                                                                                                                                                                                                                    ",
"                                                                                                                                                                                                                                                                                                                                                                                                                                                                                                                    ",
"                                                                                                                                                                                                                                                                                                                                                                                                                                                                                                                    ",
"                                                                                                                                                                                                                                                                                                                                                                                                                                                                                                                    ",
"                                                                                                                                                                                                                                                                                                                                                                                                                                                                                                                    ",
"                                                                                                                                                                                                                                                                                                                                                                                                                                                                                                                    ",
"                                                                                                                                                                                                                                                                                                                                                                                                                                                                                                                    ",
"                                                                                                                                                                                                                                                                                                                                                                                                                                                                                                                    ",
"                                                                                                                                                                                                                                                                                                                                                                                                                                                                                                                    ",
"                                                                                                                                                                                                                                                                                                                                                                                                                                                                                                                    ",
"                                                                                                                                                                                                                                                                                                                                                                                                                                                                                                                    ",
"                                                                                                                                                                                                                                                                                                                                                                                                                                                                                                                    ",
"                                                                                                                                                                                                                                                                                                                                                                                                                                                                                                                    ",
"                                                                                                                                                                                                                                                                                                                                                                                                                                                                                                                    ",
"                                                                                                                                                                                                                                                                                                                                                                                                                                                                                                                    ",
"                                                                                                                                                                                                                                                                                                                                                                                                                                                                                                                    ",
"                                                                                                                                                                                                                                                                                                                                                                                                                                                                                                                    ",
"                                                                                                                                                                                                                                                                                                                                                                                                                                                                                                                    ",
"                                                                                                                                                                                                                                                                                                                                                                                                                                                                                                                    ",
"                                                                                                                                                                                                                                                                                                                                                                                                                                                                                                                    ",
"                                                                                                                                                                                                                                                                                                                                                                                                                                                                                                                    ",
"                                                                                                                                                                                                                                                                                                                                                                                                                                                                                                                    ",
"                                                                                                                                                                                                                                                                                                                                                                                                                                                                                                                    ",
"                                                                                                                                                                                                                                                                                                                                                                                                                                                                                                                    ",
"                                                                                                                                                                                                                                                                                                                                                                                                                                                                                                                    ",
"                                                                                                                                                                                                                                                                                                                                                                                                                                                                                                                    ",
"                                                                                                                                                                                                                                                                                                                                                                                                                                                                                                                    ",
"                                                                                                                                                                                                                                                                                                                                                                                                                                                                                                                    ",
"                                                                                                                                                                                                                                                                                                                                                                                                                                                                                                                    ",
"                                                                                                                                                                                                                                                                                                                                                                                                                                                                                                                    ",
"                                                                                                                                                                                                                                                                                                                                                                                                                                                                                                                    ",
"                                                                                                                                                                                                                                                                                                                                                                                                                                                                                                                    ",
"                                                                                                                                                                                                                                                                                                                                                                                                                                                                                                                    ",
"                                                                                                                                                                                                                                                                                                                                                                                                                                                                                                                    ",
"                                                                                                                                                                                                                                                                                                                                                                                                                                                                                                                    ",
"                                                                                                                                                                                                                                                                                                                                                                                                                                                                                                                    ",
"                                                                                                                                                                                                                                                                                                                                                                                                                                                                                                                    ",
"                                                                                                                                                                                                                                                                                                                                                                                                                                                                                                                    ",
"                                                                                                                                                                                                                                                                                                                                                                                                                                                                                                                    ",
"                                                                                                                                                                                                                                                                                                                                                                                                                                                                                                                    ",
"                                                                                                                                                                                                                                                                                                                                                                                                                                                                                                                    ",
"                                                                                                                                                                                                                                                                                                                                                                                                                                                                                                                    ",
"                                                                                                                                                                                                                                                                                                                                                                                                                                                                                                                    ",
"                                                                                                                                                                                                                                                                                                                                                                                                                                                                                                                    ",
"                                                                                                                                                                                                                                                                                                                                                                                                                                                                                                                    ",
"                                                                                                                                                                                                                                                                                                                                                                                                                                                                                                                    ",
"                                                                                                                                                                                                                                                                                                                                                                                                                                                                                                                    ",
"                                                                                                                                                                                                                                                                                                                                                                                                                                                                                                                    ",
"                                                                                                                                                                                                                                                                                                                                                                                                                                                                                                                    ",
"                                                                                                                                                                                                                                                                                                                                                                                                                                                                                                                    ",
"                                                                                                                                                                                                                                                                                                                                                                                                                                                                                                                    ",
"                                                                                                                                                                                                                                                                                                                                                                                                                                                                                                                    ",
"                                                                                                                                                                                                                                                                                                                                                                                                                                                                                                                    ",
"                                                                                                                                                                                                                                                                                                                                                                                                                                                                                                                    ",
"                                                                                                                                                                                                                                                                                                                                                                                                                                                                                                                    ",
"                                                                                                                                                                                                                                                                                                                                                                                                                                                                                                                    ",
"                                                                                                                                                                                                                                                                                                                                                                                                                                                                                                                    ",
"                                                                                                                                                                                                                                                                                                                                                                                                                                                                                                                    ",
"                                                                                                                                                                                                                                                                                                                                                                                                                                                                                                                    ",
"                                                                                                                                                                                                                                                                                                                                                                                                                                                                                                                    ",
"                                                                                                                                                                                                                                                                                                                                                                                                                                                                                                                    ",
"                                                                                                                                                                                                                                                                                                                                                                                                                                                                                                                    ",
"                                                                                                                                                                                                                                                                                                                                                                                                                                                                                                                    ",
"                                                                                                                                                                                                                                                                                                                                                                                                                                                                                                                    ",
"                                                                                                                                                                                                                                                                                                                                                                                                                                                                                                                    ",
"                                                                                                                                                                                                                                                                                                                                                                                                                                                                                                                    ",
"                                                                                                                                                                                                                                                                                                                                                                                                                                                                                                                    ",
"                                                                                                                                                                                                                                                                                                                                                                                                                                                                                                                    ",
"                                                                                                                                                                                                                                                                                                                                                                                                                                                                                                                    ",
"                                                                                                                                                                                                                                                                                                                                                                                                                                                                                                                    ",
"                                                                                                                                                                                                                                                                                                                                                                                                                                                                                                                    ",
"                                                                                                                                                                                                                                                                                                                                                                                                                                                                                                                    ",
"                                                                                                                                                                                                                                                                                                                                                                                                                                                                                                                    ",
"                                                                                                                                                                                                                                                                                                                                                                                                                                                                                                                    ",
"                                                                                                                                                                                                                                                                                                                                                                                                                                                                                                                    ",
"                                                                                                                                                                                                                                                                                                                                                                                                                                                                                                                    ",
"                                                                                                                                                                                                                                                                                                                                                                                                                                                                                                                    ",
"                                                                                                                                                                                                                                                                                                                                                                                                                                                                                                                    ",
"                                                                                                                                                                                                                         qqqqqqqqqqqqqqq                                                                                                                                                                                                                                                                            ",
"                                                                                                                                                                                                                         rrrrrrrrrrrrrrrq                                                                                                                                                                                                                                                                           ",
"                                                                                                                                                                                                                       qrtyytytytytytyytr                                                                                                                                                                                                                                                                           ",
"                                                                                                                                                                                                                    qqqrtaiiiiiiiiiiiiiiyqqqqqqq                                                                                                                                                                                                                                                                    ",
"                                                                                                                                                                                                                   qrtyyau9999u999u99u9uaytyttrqq                                                                                                                                                                                                                                                                   ",
"                                                                                                                                                                                                              qqqqqryaiiu900900090000000uiiiiiyrqqqqqq                                                                                                                                                                                                                                                              ",
"                                                                                                                                                                                                             rtttttyau999eeeeeeeeeeeeeee09999uaytttttrq                                                                                                                                                                                                                                                             ",
"                                                                                                                                                                                                            rtaaaaaiu900eww44444444444wwe00000uiaaaaatr                                                                                                                                                                                                                                                             ",
"                                                                                                                                                                                                           rtaiuuuu99eeew433333333333333weeeee09uuuuiaytrrq                                                                                                                                                                                                                                                         ",
"                                                                                                                                                                                                          qtau999990eww435555555555555553wwwwwe099999uiaayr                                                                                                                                                                                                                                                         ",
"                                                                                                                                                                                                         rtau900e0eew4333355353535353555333333wee0e009uuiatrq                                                                                                                                                                                                                                                       ",
"                                                                                                                                                                                                        qtai90ewwww445553ssssssssssssssf55555534wwwww0099uayrq                                                                                                                                                                                                                                                      ",
"                                                                                                                                                                                                    qrrrtai90w433333333fsllllllglglggzggs353553333334we009uaytrrqq           qqrrrrrrrrrrrrrrq                                                                                                                                                                                                                      ",
"                                                                                                                                                                                                   qrtyyyi90w4355553fssgljjh777h777h777hgssssf35555534wwwe0uayytrrq          rttyyyyyyyyyyyytrqq                                                                                                                                                                                                                    ",
"                                                                                                                                                                                                  qrtaaii90w4355555fslhhj668887777777777hllgggsf5555334444e0uiiaytrqqq   qqqrtyaiaiaaiaaiaiaaytrqqqqq                                                                                                                                                                                                               ",
"                                                                                                                                                                                                 qrtai9990w4333fffsgljj661688888888787777777hhgsffffff3553we099uayttrr   rtttyau99u99u99u999uaytttttrq                                                                                                                                                                                                              ",
"                                                                                                                                                                                                 rtau9000w433fsggllhj6111166668886888887878887hllggggsf5534we009uiaaytqqrtaaaiu90000000000009uiaaaaytrq                                                                                                                                                                                                             ",
"                                                                                                                                                                                                rtau0eeew43fsglhhjj11::::116666666688888778888887hhhhlsf3534wwe0099uiytrtyiu990eeeeeeeeeeeeee99999uiatrq                                                                                                                                                                                                            ",
"                                                                                                                                                                                               rtau9ew44433glhj611:222,,2::::111116668887888888888877hlgsf33444we0099iaaai9900ew4w4w4www4w44we009009iatq                                                                                                                                                                                                            ",
"                                                                                                                                                                                              rtau0ew433334hjdd2222,,>,>,2222::111166668878888888888877hlgf33334we0009uiu9000ew433333443333334we0ee09iytq                                                                                                                                                                                                           ",
"                                                                                                                                                                                             rtau9ew45553sljd,,>>>>>>=>>,,,,22222::111668888888888777787hlgsf35534wwe09990www435555555555555544wwwwwe9iytq                                                                                                                                                                                                          ",
"                                                                                                                                                                                           qqtau0ew43333shddp>=========>>>,,,,,,,2::::1688888777777777777hhlsf5553444we00w44435555555555555553344444w09iytq                                                                                                                                                                                                         ",
"                                                                                                                                                                                           rtai9ew43fsllhd2>=&&;;;;&&===>>>>>>>,,22:::166888777777777777777lggsff55534www435533fsssfssssssssff3555534w09iytq                                                                                                                                                                                                        ",
"                                                                                                                                                                                          rtai9ew43fshjdd,>=&;@@@@@;&&===>>>===>,2::::16688777z7z7z7z7777777hllgsf55534443555ffsgllggggglggggsf5555534w09iytqq                                                                                                                                                                                                      ",
"                                                                                                                                                                                         rtai9ew3fsghjdp=&&;@-----<@;&&====>==>>,2:1111668887zzzzz777z7z77787hhlggsf3555553fssgllh777z777777lgsssssf353w09iytrq                                                                                                                                                                                                     ",
"                                                                                                                                                                                        rtai9ew33fghddp&;;@-$$$$$-<@@;&&&&==>>>,,2:1111668877zzzzzz7z7777777777hhllgsf355fwgllhhh77777777777zlggllgsf554w09iatrq                                                                                                                                                                                                    ",
"                                                                                                                                                                                      qrtai9ew333ghdp=;@<--$$XXX$-<@@@;&&&===>,,2::1111668877zzzzzz77z7z777877778hhhlggssglh8888887777z777777z77llllgsf34w09iatrq                                                                                                                                                                                                   ",
"                                                                                                                                                                                     qqtai90w4554ljpk@<-$$XXXXXXX$-<@@@;&&&&=>,22:11116668877777zz7777777777878888jjhhhhhjj111168887777z7777777z777hhgsf34we9iatrq                                                                                                                                                                                                  ",
"                                                                                                                                                                                      rtiu0ew35540dpk$$XX****.***X$<@@@@;&&;&>,2::111116888888777777777877888888866666611:2,,,2168887777777777z777787hgsf34we9iatrq                                                                                                                                                                                                 ",
"                                                                                                                                                                                      qyi90ew35340dp-X****..OO...*X-<@@@@;;;&=,22:11111668888888787878888888888888661:22,>=&&=>21668877777777777778887hgsf34we9iatrq                                                                                                                                                                                                ",
"                                                                                                                                                                                      qyi99ew35340dp-*....OO+oo+OO.*$<@@@@@@;=>,2:1111116666888888868888888888888661:2,>&;<-<;&>,2:6887787877777778888hhgsf34we9iatrq                                                                                                                                                                                               ",
"                                                                                                                                                                                     qryi90ew35540dp-*.OOO+o####oo+O*$<@@@@@;=>,2::111111666668888668888888686868661:2,=@-XXX-;&=>,:68888878787777788887hgs334we9iatrq                                                                                                                                                                                              ",
"                                                                                                                                                                                     qryi90w435540dp-*O+oo##%%%%%##oO*$<@@@@;=>>,2::::::1111666666688888666666666661:2,&<X..*$<@;&=2166888778777777777777lgf334we9iatrq                                                                                                                                                                                             ",
"                                                                                                                                                                                    rryau0ew4555fedp-*O+o##%%%%%%%%#oO*$<@@@;=>>,22:::::1111166666888888616666666661:2,&<X..*X-<<;&,:166887877777z7zzz7777lsf334we9iatr                                                                                                                                                                                             ",
"                                                                                                                                                                                   qryi90ew435553gj&X*.Oo#%%#########oO*$<@@;=>>,,,2::::1111116666886886611111661111:2,=;$..*$-<@;&>2:166877777zzzzzzzzzz7hlsf334we9iatq                                                                                                                                                                                            ",
"                                                                                                                                                                                  rryi90ew4ffsssghd&X*.+o##oooooooooo+OO*$<@&=>>>>,22:::111111116668888661111166111::2,=;$..*X$-@;&=,2:1687877zzzzzzzzzzz77hgsf334we9iytq                                                                                                                                                                                           ",
"                                                                                                                                                                                 qryi90ew33slhjjddp@X.O+oo+O..........O+O*-@&==>>>>,2:::111:1111116688666666666111:::2,=@X..**X$<@&=>,2:1688777zzzzzzzzzzzzhlgsf334w09iatq                                                                                                                                                                                          ",
"                                                                                                                                                                                rtya90e443fgjd2p=&k<$.O++O*X-kkkk-----X**X-@;&===>>,,2::111:1111116668666666666611:::2,&<*OO.*X$-@&=>,,2:68877zzzzzzzzzzzzz7hlgf553we9uatq                                                                                                                                                                                          ",
"                                                                                                                                                                               qtyau0ew35fghd2>&;;@<$*O+O*kkpiiiapapappkk--@@;;&==>>,,:11111111111668888888866661111:2,&<*o+O**$-@&=>,,2:1687777zzzzzzzzzzzz7hgf553w09uatq                                                                                                                                                                                          ",
"                                                                                                                                                                               rtau9ew455shjd>=;@@<-$*.O.$kd99000999999dpkk;;;;&=>>>>,:1111111111116668888886666111::2>&-.ooO.*X-@&=>>,2::1877777zzzzzzzzzzz7hgf553we09iyrq                                                                                                                                                                                         ",
"                                                                                                                                                                               qtau9ew455sjd>==&;<-$$X*..kp9w44444f444sghp==&&&==>>>,,:1111:::111111668868888661::::2,=;-.o#oO.*$@&&==>,2:16877777z7z7zzzzz77hgf553we099iatq                                                                                                                                                                                        ",
"                                                                                                                                                                              qryi90e433fld,&&&&@<-$$XX..-p0455555335553gj,>======>>,,:111::::111111666888888666::22,>=;$Oo#o+O*X<;&&=>,2:16688777777z7zzzz778lsf534we009iytq                                                                                                                                                                                       ",
"                                                                                                                                                                             qryau9ew33fgh2=&;&;@<-$XXX.*Xkue35555333555shd,>>====>>,2:111::::111111668888866661:22,,>=@*O##o+O.X-<;&=>>,2:168887777777z7z78868lsf334wee09iatq                                                                                                                                                                                      ",
"                                                                                                                                                                             qtau90w435sl6,=&&&;;@-$XXX**Xkp9w3553343355sh12,>====>>,2:1111:::111111166686866661:2,,,>=@*+##o+O.*$<@&=>>>,2:1688877777777778616hlsf33444w09iyrq                                                                                                                                                                                     ",
"                                                                                                                                                                             rya90ew455sh:,==&&&;@<-$$X***-kd0w433444355fh12,>=>=>>>22::1111111111::1166666666112,,,,>=<.o%#o+O.*$-@&=>>>>,:16688877777777861:16hlsf55534e09iyrq                                                                                                                                                                                    ",
"                                                                                                                                                                            qryi90e4353gj:>===&&;@<----*..*-pu0w35344455sh1:,>>>>>>,,22:1111111111:::1111111611:2,,,,>&<O#%#o+O.X$-@;&===>,:16688778778788861::16hlsf55534w0uiyrq                                                                                                                                                                                   ",
"                                                                                                                                                                           qrtau9ew433slj:>===&;;@<<@@<X.OOXkp9e35544355fh12,>=>>>,,,2::11111111::::::11:::111::22,,,>&$+#%#o+O*X$-@;&===>,2:168787787778661:22:16hlgsff334e09iyrq                                                                                                                                                                                  ",
"                                                                                                                                                                           rtai90w435fghj2>===&;@<@;;;@X.o+*kpue45544333sjd2,>==>>,,22::1111111:::::::11::::::::2,,,>=;Xo%%#o+O.X$-<;&===>,2:168777878888611:222:16jhlggf334e0uiyrq                                                                                                                                                                                 ",
"                                                                                                                                                                           ryi90e4355sljd2>>>=&;<<@;&&;XOoo.-pue4554433slj2,>>===>,22::1111111::::::::11::22:::2,,,,>&@*#%%#o+O.*$-<;&==>>,,:16877888888611:2,,,22:16jhhgf344e09iyrq                                                                                                                                                                                ",
"                                                                                                                                                                           rai90w435fghd2,,,,>&;@@;&&;@X.++*kpue455333fghd,>=>===>,2::1111111::::::::::::2222222,,>>=&<*#%%#o+O.*X-<;&==>>,2:16888886666611:2,>>>,211668lsf334w0uiytr                                                                                                                                                                               ",
"                                                                                                                                                                          qtai90w433slj2,,222,=;@;;;;@-*.O.Xkpue435333shd,=&==>>>>,2::111111::::::::::::22,,,,,,,>>==&<.#%%#o+O.*X$<;=>>>>,2:1688886611111:2,>==>,211166hls3534e09iatq                                                                                                                                                                              ",
"                                                                                                                                                                         qtyi90e435fghd,>>>,,>=&&&;;@<$*...Xkpue335335shd>&&&=>>>,22::111111::::::::22222,,,,,,,>>>=&;<.#%%#o+O.*X-@&=>=>>,2:1166666111111:2,===>,:111168hgs3534w09iytq                                                                                                                                                                             ",
"                                                                                                                                                                         ryi90e4355slj:,,=&=====&&;;@-X*..*$kpue433335shd>&&&=>>,,2::1161111::::::::2,,,,,,,,,,>>>>=&;-.#%%#o+O.*$-@&=>>>>,,2::111111::11:2,>===,:1661168hlgf5534e09iyr                                                                                                                                                                             ",
"                                                                                                                                                                         rai90w4553ghj:,,=&&&&&&&;;@<$*.O.*$kpu0w43555sjd=&&&==>,,2:11611111:::::222,,,,,,,,,,>,,,>>=;$O#%##o+O.*$-@;&==>>,,2:::1111111::::,>==>,:1661168hhgs5534e09iyr                                                                                                                                                                             ",
"                                                                                                                                                                        qrai90w455slj6:2,>&&&&&;;@@@<$*OO.*$kpi90w3555wjp=&&&==>,22:11111111::::22,,,,,,,,,>>>>,,,,>=@*+%#ooo+O.*$-@;&==>>,,2::::111111:::2,>==>,:1661166jhls3534e09iar                                                                                                                                                                             ",
"                                                                                                                                                                      qqtyi90e435fghj661:,>=&&&;;;@<-$*O+O.*-kpi9e4555sjp&&&==>,22:::1111111::::22,,,,,,,,,,>>>,,,,,=@*+%#ooo+O.*$-@;&&=>>>,22:::111:::::::,>==>,:11111161jhg3534e09iar                                                                                                                                                                             ",
"                                                                                                                                                                      qryi90e435fsh8668612,>>=&&&;@<-$*O++O.*$kpue4555sjp&&==>>,2:::11116611::::22,,,,,,,>>>>>>>>,,>=@*o%#ooo+O.*$-@;;&=>>>,,22::11::::11:2,>==>,:111111:11jgf534w09uar                                                                                                                                                                             ",
"                                                                                                                                                                       tau90w455fg8666861:2,,>===&;<$*.+oooO.Xkpue455fgjp=&==>,,2::111111111::::22,2,,,,>>>>>>>>>>,>&-O#%#o++O.*X-<@@;;=>>>,22::111111111:2,>==>,:111111::6jlsf33we09iyrq                                                                                                                                                                           ",
"                                                                                                                                                                      qtau0ew455sl6666861:2,,>>>=&;-X.Oo###oO*-pue453ghdp====>,22::1111111111:::22,,,,,,>>>>=====>>>&$o%%#o+O.*X$-<@@@;=>=>,2::111111111:2,,>===,:1661::::djhgf333we9uayr                                                                                                                                                                           ",
"                                                                                                                                                                     qryi90e43fsgh611661:2,,,>>==&@$.Oo#%###+.-pue45fljdp===>>,22:::::111111::::222,,,,,>>>======>>=;X#%%#o+O.*$$-<@@@;=>>>,2:116111111:22,>=&&=,2:11:::::16hls3554e09iyr                                                                                                                                                                           ",
"                                                                                                                                                                    qryau9ew33sgh811111:2,>>>>==&@-*.+o#%###oO$pue43shdpp&==>>,2::::::111111::::22,,2,,,,>>======>>=;X#%%#o+O*X$-<<@@@;=>=>,2:16611::1:22,,>=&&=>2:11:::::11jlsf554w09iar                                                                                                                                                                           ",
"                                                                                                                                                                  qqryiu0ew43slh61::::22,>====&;@<$*O+o####%#O$pue43sjdp=&=>>,22::::::111111::::22,,,,,,,>>=====>>>=;X#%##+O.*X-<<@@@@;=>>>22:11111::::2,,,>=;;&>2:11::::1118lsf554w09iar                                                                                                                                                                           ",
"                                                                                                                                                                  qryi90ew43fgj1:2222,,,>=&&&&;@-$X.O+o####%#O$pue4fgjdp&&=>,,2:::::::111111::::22,,,,,,,>>====>>>>=&X#%#oO.*X$-<@@@@@;&=>>,2:11111:::2,,,,>=;;&>2:11:::11116hgf554e09iar                                                                                                                                                                           ",
"                                                                                                                                                                 qryiu0e443sgh1:22,,,>>>==&&;@<-$X*.Oo####%%#O$pue4fgjp=&&=>,222::::::11111:::::22,2,,,,>>>====>====&X#%o+O.*$-<@@@@@@;&==>,2:166111::2,,,,>=;;&>2:1111111116hgf554e09iar                                                                                                                                                                           ",
"                                                                                                                                                                qryi90ew43fgh12,,,,,>>===&&;@<-$X*.O+o###%%%#OXkue4fgjp=&==>,2222:::::1111::::::22,,,,,,>>>=========;X#%oO.*X-<@@@@@@@;&==>,2:161111:22,,,,,=;;&>2:1111111::djgf554e09iar                                                                                                                                                                           ",
"                                                                                                                                                               qryiu0e443sgh6:2,,,,>>=&&&;;@<-$X*.O+o#%%%%%%#+*yi04fgdp&&=>,,,,,22::::111::::::::22,2,,,>>>>========&X#%oO.*X-<@@@@@@@;&&=>,2:111111:22,,,,,=;;&>2:11111111:6jgf554e09iar                                                                                                                                                                           ",
"                                                                                                                                                              qryau0ew43fgh61:2,>>>>=&;;@@@<-$X*.O+o#%%%%%%%%#Oya0wfgdp=&=>,,,2,,2:::::1::::::::::22,2,,,,>>======>=&X##+O.*$<@;;@@@@;;&&=>,2:11111::22,,,,>=;;&>2:1111111::djgf554e09iar                                                                                                                                                                           ",
"                                                                                                                                                             qryau0e443sgh61:2,>==&&&;;@@<-$$X*.O+o#%%%%%%%%%##*kjlsgdp==>,,,,,,,2:::::::::222::::::2,,,,,,>>>===>>>&Xo#O.X$-@;;;;@@;&&&&=>,2:16611::22,>,>=&;;&=,2:::::::116jgf554e09iar                                                                                                                                                                           ",
"                                                                                                                                                            qryau0ew43fgh61:22,>==&&&;@<<-$XX*.O+o#%%%%%%%%%%%#.@djlhdp>>,,,,,,,,2:::::::::2222:::::222,,,,>>>==>>,>&$++.*$-<;&&;;@;&&=&&=>,2116111::2,,>>>&;@;&=,2::::::::16jgf554e09iar                                                                                                                                                                           ",
"                                                                                                                                                            ryau0e443fgh861::2,,>>=&&;;<-$XX*.O+o#%%%%%%%%%%%%#O-pdddpp>>,,,,,,>,2::::::::::2222::::::22,,,>,>>,,,,>&-..*$-<@;&;;;;&&====>>,2166611::2,,,>=;@<;&=>,2::::::::6jgf554e09iar                                                                                                                                                                           ",
"                                                                                                                                                          qryau0e443fslj61:::22,>>==&;@-$XX*..Oo#%%%%%%%%%%%%%#.$kpppp,>>,,,,,,,,22::::::::::222::::::::2,,>>,,,,,,=&-*.X-<@@;;;;;;&====>>,2:166611::,,,>>=@--@;=>,2::::::::djgf554e09iar                                                                                                                                                                           ",
"                                                                                                                                                         qryau0e433fslhj1:::::2,>==&;@<-XX**..Oo#%%%%%%%%%%%%%o.$@&==>>>>,,,,,,,,,,222:::::::::::::1111::2,,>,,,,,,=&-..X-<@@@;;;;;;&&===>,2:166611::2,,>>&-$$-@&=,2:::1::::18ls554e09iar                                                                                                                                                                           ",
"                                                                                                                                                        qryau0e433fslhj61:::::2,>=&;@<-$X*...O+o#%%%%%%%%%%%%#+*-;&==>>>,,,,,,,,,2,,22:::::::::::11111111:2,,,,,,,>=&<**$-@@@;;;;;;;&&===>,21666611::22,>=;-$$-<;&>2::111:::16ls554e09iar                                                                                                                                                                           ",
"                                                                                                                                                       qryau0e433fsghj61::::22,>=&@<-$X**.OOO+o#%%%%%%%%%%%%#o.X<;&=>>,,,,2:222222222::::::2:111166611111::22,,,>>>==;--<@@;;;;&&&&&&===>,2:161611111:2,=&;-$$-<;&>2::111:::16ls554e09iar                                                                                                                                                                           ",
"                                                                                                                                                       qtau9ew35fsghj611:::22,>=&@<-$X***.O++o#%%%%%%%%%%%%%#+.$<;&=>,,,,2:::2222222::::::22:1116661111111::22,>>>>>=&;@;;;;&&&&&&&&&==>>,2:116111111:2,=&;-$-<<@&>2:::1::::16ls554e09iar                                                                                                                                                                           ",
"                                                                                                                                                       ryi90e435fslj11::::22>=&;<--$XX**.O+oo#%%%%%%%%%%%%%%oO*-@;=>,,,,2::1::::::::::::::222::16661111111112,>>>>=>>=&&&&&&&&&&&&=====>,2:::111111:::2,>&;--<<<@&>2::::::::16ls554e09iar                                                                                                                                                                           ",
"                                                                                                                                                       ryu90e455fgh6:::::22>=;<-$$$XX**..O+o#%%%%%%%%%%%%%%#+.X<;&=>,,,,2::11:::::::::::::2222:11611111111112,>>>=>>>>>=====&&&&&&=====>,2:::111111:::2,>=;<-<<<@&>,2:::::::16ls554e09iar                                                                                                                                                                           ",
"                                                                                                                                                       ryu90e455fgh1:2222,>=;<-$$XXX**..OO+#%%#%%%%%%%%%%%%oOX-;&=>>,,,22::11:::::::::::::2222::11666666661:2,,>>>>>,>>>=>>>===&&&====>>,2:::16666611:2,>=;<---<@;=,2:::::::6jls554e09iar                                                                                                                                                                           ",
"                                                                                                                                                      qryu90e435fg81:22,,>=&@-$XXXXX**..O++#%%##%%%%%%%%%%#+*-;&=>>>,,22:::1::::::::::::::222::1116666666661:2,,,>>,,,,>>>>>>>=====>>>>,,2::1166666611:2,=&<---<@;=,2:::::::djgs554e09iar                                                                                                                                                                           ",
"                                                                                                                                                     qrtau9ew433sl61:2,>==&;@-$$XXXX**.O++o#%%###%%%%%%%%%o.X@&=>>>,,22:::::::::::::::::::22:1166668888888611:2,,>>,,,,,,,,>>>>>=>>>>,,,,2:11666688861:2,>&@---<@;=>2:11::::6jgf554e09iar                                                                                                                                                                           ",
"                                                                                                                                                     qtyi90w433fgh6:::2,>==&@<-$XXXX**.O++o#%%###%%%%%%%%#O*<;=>>>,,,22::::::22::::::::::::::166688887777888612,>>>,,,,,,,>,,,,>>>,,,,,,22:116666868611:2>&;<<<<@;=>,2:1::::djgf554e09iar                                                                                                                                                                           ",
"                                                                                                                                                    qryiu0e435fslj1::::2,>>=;<-$XX****.O++o#%%%%%%%%%%%%#+.-;&==>>,,,,,2:::22,22::::::::::::1166887777777777612,>>>,,,,,,>>,,,,,,,,,,,,,2::116888666611:2>=&;@@@@;&>,,2:::::6jgf554e09iar                                                                                                                                                                           ",
"                                                                                                                                                    qryu90w455fgh1::::::,,>=;@<-$XX***OO++o#%%%%%%%%%%%%#.$@&==>>>,,,,,,2222,,,2222::::::::::1168878777z7777812,>>>,,,,,,>,,,,,,,,,,,,222:1168888866611:2,=&;;@@@;&=>,2:::::djgf554e09iar                                                                                                                                                                           ",
"                                                                                                                                                   qqryu90w455slj:22:1:2,>>=;@@<-$XX**.OO+o#%%%%%%%%%%%#+X;&==>>>,,,,,,,,,,,,,,,,,22::11::::::1688877777z77786:2,>>,,,,,,,>>,,,,,,,,,,,2::1688777886611:2,>=&;;@@;&=>,2:::::6jgf554e09iar                                                                                                                                                                           ",
"                                                                                                                                                    qryu90w455sl6:22:::2,>>=;@@<-$XX**..+o##%%%%%%%%%%#+*<&==>>>,,,,,,>>,,,,,,,,,,22::111:::::168877777777778812,>>,,,,,,,,,,,,,,,,,,,,2:11687777778611:2,>=&&&;;;&=>,2:::::djgf554e09iar                                                                                                                                                                           ",
"                                                                                                                                                    qryu90w455sl6:2,222,,,>=;@@<-$XX***O+#%%%%%%%%%%%%o.$;&=>>>,>>,,,,,,,,,,,,,,,,2::1111111::168887777z7z77786:,,>,,,,,,,,,,,,>,,,,,,22:16687777777861:2>=&===&;;;=>>2:::::6jgf554w09iar                                                                                                                                                                           ",
"                                                                                                                                                    qryu90w455sl62,,,,>>,,>=;;@<-$X***.Oo#%%%%%%%%%%%#+*<&==>>>>>>>,,,,,>,,,,,,>,,2:11666666111668877777777778612,,>,>>>,,,>>>>>>>,,,,2::1168777z777861:2>=&=>>=&;&==>2::::16jls5534e0uiyrq                                                                                                                                                                         ",
"                                                                                                                                                   qqryu90e455sh12,>,>==>>=&&;<-$X**...Oo#%%%%%%%%%%%#+$;&======>,>>,,,,,,,,,,,,,2:11668888861116688777777778861:2,>>==>,,>===>>>>>>,,2:111668777z77861:,>=&=>>=&;&=>>2::::16jlgf553we0uiyrq                                                                                                                                                                        ",
"                                                                                                                                                   qryau0ew43fgj:,>>>>==>>=&&;<-$X**...Oo#%%%%%%%%%%%#O$;&&====>>,,,,,,,>,,,,,,,,2:11688778861111168887888886661:2,>==&=,>>===>>>==>,,2:1111688777777862,>=&&=>=&;&=>>2:::11jjhgs3554w09uatq                                                                                                                                                                        ",
"                                                                                                                                                  qryau9ew33fslj2>===>>>>>=&;;<-$X**..O+o#%%%%%%%%%%%o.$@;&====>,,,,,,,,>>,,,,,,,22:1687777861:::116887886661111:2,>=&&=>>>>>>>====>,22::111166877778862,>=&&===&&==>>,:11116jhlsf554we9uatq                                                                                                                                                                        ",
"                                                                                                                                                  qtyu90w435fgh62>====>>>=&;;@-$$X**.OO+o#%%%%%%%%%%#O*-@;;&==>>>,,,,,,,,>,,2,2,222:1687zz7861::2:1688786661:::::2,>====>>>=>===&&=>,22::11:11687777786:,>=;;&=====>>>,::111jjhlsf553we09atq                                                                                                                                                                        ",
"                                                                                                                                                 qqtau0ew455sl812,=======&&;@-$$XX**.O+o#%%%%%%%%%%#+*$<@@;=>>>>>>,,,,,,,,,222,,,22:1687zz7886:222:16888661:222222,>>=====>>>==&=&=>,2:11::::1687777861:2>=;;&==>>,>>>2::::16jhhgf554we0uatq                                                                                                                                                                        ",
"                                                                                                                                                  qtau0ew455sl812,=====>&&;@<-$XXX**OO+##%%%%%%%%%%#+X<@@@;=>>>==>>,,,,,,,,,,2,2,222:187zz7861:2,221668861::2,,,,,,,>>>=======&&&==>,21111:::168777786612,=;;&=>>>,>,,2::::16jhhgf554w09uatq                                                                                                                                                                        ",
"                                                                                                                                                 qqtau90w455sh6:2,======&;@@<-$$XX**O+o#%%%%%%%%%%%#OX@@@;&=>>====>>,,,,,>>>,,,,,,,,2:6877861:22,,,2:1661:22,>>,,,,>>=>=&&==&&&&==>>,:1661:::11688788661:,=;;&==>>>>,,2:::11168hgs554w09uatq                                                                                                                                                                        ",
"                                                                                                                                                 qrtau90w45fgh12,>======;@@@@<-$$X**.+o#%%%%%%%%%%%#O$@@;&==>====>>>>,,,,>>>>>>>>>>>>,:6886:22,,>=>>,2222,>>>>>>>>>=====&&&&&&&&&==>,:1611::::166888661:2>&;;&&&=>>>>,2:::11166hls353we9uatqq                                                                                                                                                                       ",
"                                                                                                                                                qqtyi90e433slj:,>======&;@@@@<-$$X**O+####%%%%%%%%#o.$@;;=>>====>>>>>>,,,>======&&&&&=,:112,,>==&&&&==>>>=&&===>>======&&&&&;&&&&&&>,2:1611:2::1166661:2,=&&;;;&&==>>,2:11111166hgf344w09iyrqq                                                                                                                                                                      ",
"                                                                                                                                                qtyiu0e433fgjd,>>===&&&;@@@@@<-$$X*.Oo####%%%%%%%%oOX<;;&=>>====>>>===>,>>====&&;;;;;&,222,>>=&;;;;;;;&&&;;;&&==&&&===&&&&&&;;;;;;&=>,:111:22222:1111:2,>=&;;;;;&==>>,2:111161118hgsf34e0uiytqq                                                                                                                                                                     ",
"                                                                                                                                                ryau0ew355shdp>>>==&&;;@@@@@<<-$X**.+#%#o#%%%%%%%#O*-@;&&=>>====>>>====>>>===&&;@@<<@&>2,>>==&;@<<<<@@@@<<@@;&&&&&&&=&&&&&&;;;@@@@;&=,2:11:22,,,,2:1:2,==&&;;;;;&==>,,2:1166661:16hls344w09iyrqq                                                                                                                                                                    ",
"                                                                                                                                                rya90e4355gjd,>===&&;;;;@@@<--$X**.Oo#%%#%%%%%%%%o.-;&&&==>>====>>>>==>>>===&&;@@<<<<;&=>==&;@<--$--<@@<<<<@@;&&&&&&&&&&&&;&;;@@@@@;&>2:11:::2,,>,2::2>=&;;@@@;;&&=>>,2:16666611166hgs334we9iytq                                                                                                                                                                    ",
"                                                                                                                                               qryi90e4353gj:,>>==&;;;;;@@@<-$X**..+#%%%%%%%%%%%#+*<&&&=>>=>====>>>>=====&&&&;;@<---<@;;&=&@<-$$XX$$<@@@<<@@@;&&&&;&&&&;;&&;;@@@@@@;&>2:1111:2,>==>,2,>&;@@<<@@;;&=>>,2:168866111116hlf534w09iyrq                                                                                                                                                                   ",
"                                                                                                                                              qryiu0e4353slj:2,>>>=&&&&;;@@<-$**..O+#%%###%%%%%%oOX@&&==>>>>====>>>=====&&&&;;@<-$$$$-<@&&&;<-$XXXX$-<@@<<@@@;;&;;;&&&&&;;;;@@<<<<@;&>2:111:2,>=&=>>,>=&;@<<<<@;;&=>,22:1688661::2:16hgs334we9iytr                                                                                                                                                                  ",
"                                                                                                                                              ryau0ew355slhj:2,,>>>===&&;@@<-$*...O+#%%#o#%%%%%#+.$@&&==>>>>====>>=&&&&&&&;;;;<-$$XXXX$-@;;;<-$XXXXX$-<<<<@@;;;;;;;&=&&&;;@@@<----<@;=,2:1:2>=&;;&====&;<@<--<@@;&=>,:::1688861:2,,216hgf534w09iytq                                                                                                                                                                 ",
"                                                                                                                                              ryi90e4353ghjd2,>>>>>>==&&;@@@-$*.OOOo#%%%#%%%%%%oO*-@&==>>>,>======&=&&&&&&&;@<-$$XXX*****$---$X*...*X$$---<;&&&&;;;&&&&&;@<<<<-$$$--<;&>,,>=&;@<@;;&;;@-$-$$-<<@;;&=,2::168888612,,2:6jhgf334w09iytr                                                                                                                                                                ",
"                                                                                                                                             qryi90ew353gjdd2>===>>>==&&;@@<-$*.O++o##%%%%%%%%%+.$@;&=>>,>>======&&&&;;&;&&;<-$$XXX**.OOOO*XXX*.OOO.**XXX$<;&==&&;;&&&&;@<--<<-$$$$$$-<;&;;;;<---<@@<-$XXXXX$<@@@;&=,2:::1887786:,,,:16jlgf534w0uiytq                                                                                                                                                               ",
"                                                                                                                                              ryi90ew353ljd2,>=&=>,,==&&;@<--X*.+ooo##%%%%%%%%%+*<;&&==>>>=&&&&===&;;;;&&&;@<$$XXX**.O+oooO.***.O+++..***X-@;&&&&&;;&&&;@<-----$$XX**XX$----$$$$$----$$XXXXX$<@@;;&=,2:::168788612,,2:16hgf554w09uatq                                                                                                                                                               ",
"                                                                                                                                              tyi90ew353gj:2>==&=>,,=&&&;@-$$X*.O+oo##%%%%%%%%#.$;&====>>=&&;;&&==&;;;;&&;@<-$XXX*..O+o###oO....OO+o+.****-@@;&&&&&;;;;;@<-----$$X**..*******XXX$$$$$$$XXXXX$-@@;&=>,22::16887886:2,22168lf554w00uatq                                                                                                                                                               ",
"                                                                                                                                              ryiu0ew353gj:,,>==>>>>=&&;;@-$X**.O+ooo#%%%%%%#oO*<;=====>>=&&;;;&&&&&;;;;;@<-$$XX*.O+oo#%%%#o+O...O+o+O.*.*-@@;&&&&&&;;@@@<-----$$X*....O....*****XXXXXX**XXX$-<@;&=>,222::668888612,22:68lf534w09uatq                                                                                                                                                               ",
"                                                                                                                                              ryi90e433flj2,>>>>>>>=&&;;;@-X***.O+ooo#%%%%%#oO*-;&=====>>=&&;;;;;&&&&;@@@<-$XX**.Oo###%%%%%##oO...+o+O...*-<@;&&=&&;;@<@@@-----$$**.OO++++OO....***XXX***XXXX$-<;&=>,2222:166888812,,2:68lf534w09uatq                                                                                                                                                               ",
"                                                                                                                                             rtai9ew43fshd2>>>>>>>===&;;;@-X***.O+oo##%%%%%oOX-@&&=====>>=&&;;;@;;;&&;<--$$$X***.+#%%%%%%%%%%#oOOO+++OO..*$<@;&=&&;;@@<@@@--$$$$X*.O+ooooo++OOOO...****..***XX$-<;&=>,,,22:11668612,,,:1jhs534w09uatq                                                                                                                                                               ",
"                                                                                                                                            qtyi90w444sljd,>=>>>>====&;;;@-XX**.O+o##%%%%%#+*-@;&===>>>>=&&&;;@@@@;&;@<$XXX$X*..Oo#%%%%%%%%%%%#+OO++OOOO.*X-@;&=&;;@@<<@@<-$$$$XX*.+o#####ooooo++OO.......*****X-<;&=>>>,22::1111:,>>>2:6hs534w09uatq                                                                                                                                                               ",
"                                                                                                                                            ryiu0e433fljdp>=>>=======&;@@@-$$X*.O+o#%%%%%%o.$<@;&==>>>>=&&&;;;@@@@@;@@-$XXX$X..Oo##%%%%%%%%%%%#oo++OO.OO..*$<;&=&;@<<<<<@<$$XXX**.O+o##%%#######oo+OO.........**X-@;&&==>,,,22::22>===>2dhs353we0uiyrq                                                                                                                                                              ",
"                                                                                                                                            tau90w455shdp===>========&;@@@<-$X*.Oo##%%%%%#OX<@@;&=>>,>>=&&;&;;;@@@@@@<-$X*XX*.O+o#%%%%%%%%%%%%%##o+O..OO..*X<;&&&;@<<<<<--$XXX***.O+o##%%##%%%%##oo++OOOO......*X-<@;;&&=>>>>,,2,,=&&&=,dhgf334w09iatr                                                                                                                                                              ",
"                                                                                                                                           qtau9ew453shdp&==========&;@@@@<-$X*.Oo#%%%%%#+*-@;;;&=>>>>>&&&&&;;;@@@@@@<-$X**X**.Oo#%%%%%%%%%%%%%%#o+OOOOO..*X-@&&&;@<-$-$$$$$XXX**.O+o##%%%%%%%%##oooo+++OO.....*$-<<@@;;&===>>,,,>=&;;;=djls3534w09iatq                                                                                                                                                             ",
"                                                                                                                                          qryiu0e433fgjd>&&==>=====&;;@@@@<-$X*.Oo##%%%%oOX<;;;&&=>,>>=&&&&&&;;@@@@@@<-$X*****.Oo##%%%%%%%%%%%%%#o+OOOOO..*X-<;;;;@<$$$XXX$$XXX**.O+o##%%%%%%%%###ooooo++OO...*X$-----<@;&&&&=>>==&;;@@&pdjlf553we0uiyq                                                                                                                                                             ",
"                                                                                                                                          ryiu0ew33fghdp>=&&=>>===&&;;;@@@<-$X*.Oo#%%%%#+.$<;;;&=>>,,>=&&&&&&&;@<<@@@<-$XX***..O+o##%%%%%%%%%%%%#o+O+++O...*$-@;;;@<$XXX*X$$XXX**.O+o#%%%%%%%%%%%%###ooo++O.**X$$$$$$$-<@;;@@;;;;@@<@@;&>2dhs553we0uiyq                                                                                                                                                             ",
"                                                                                                                                         qtau90w455fljdp>=&&>>>==&&;;;;@@@<-$X*.O+##%%%o.*-@;;&&=>,,,>=&&&&&&&;@<<@@@<-$$X**...O+oo###%%%%%%%%%%#o++oo++O..*X-<@;;@<-$XX*XXXXXX**.O+o#%%%%%%%%%%%%###ooo++O.*X$$$$$$$$$--<<---<<<---<@;;&>pjgf334w09iatq                                                                                                                                                            ",
"                                                                                                                                         qtau90w433shddp>=&&>>>=&&;;;;@@@@@<$X*.O+o##%#O*-@;;&&==>,,>>=&&&;;;&&;;@@@@<-$XX*....O+oooooo##%%%%%%%##o+oo++O...*$-@@;@@<-XXX****XXX*O++o#%%%%%%%%%#oo###oo++O.**X$$------$$$-$$$$$$$$$$-<@;;&pdhs3534w09iatq                                                                                                                                                           ",
"                                                                                                                                        qryiu0ew43sgjdpp>====>>=&&&;;;@@@@@<$X*.O+oo##o.$@&&&&&=>,,,>>=&;;;;;&&&;@@@@<-$X**....O+ooooooo##%######oo+oo++OOO.*X-@@@@@<-$XX***XX$X*O+oo#%%%%%%%%%#oo###oo+O.**XX$-<<<<<-$$$$$$XX$$XXX$$-<@@;=djlf553we0uiyq                                                                                                                                                           ",
"                                                                                                                                        ryiu0ew3fsghdp,>=======&&&&&;;;@;@<-$X*.O+ooo+O*<;&&&==>>>>>>=&&;&;;@;;;@@@@@<-$X*.....O++++oooooooooooooooooo++OOOO.X-@@@@<--$X***XX$$X*.Oo#%%###%%%%%%%%###oo+O..*X$$--<<@<-$XXXXXX$$$XXXX$-<@;&=,dhs553we0uiyq                                                                                                                                                           ",
"                                                                                                                                       qtau90w453sljdp>>=======&&&&&&;;;;@<-$X*.O+++OO*$@&=&&=>,,,>>=&;;;;;;@@@@@@@@@<<-X**....O+++++ooooooooo++++oooo+++++O.*$<<@@<-$$X**XX$$X*..Oo##%#o#%%%%%%%%%##oo+O..*X$$--<@@<-$XXXXXX$$XXXXX$-<@;&=>pjls334e09iyrq                                                                                                                                                          ",
"                                                                                                                                       qtiu90w353shd,==>========&&;;;&&&;@<-$X*.OOOO..*-@&=&&>,22,>>=&;;;;;;@@@@@@@@@@<-$X***..OOO+++++++ooooo++++oo+++++++O.**$<@@<$$$X*XX$$X**..O+o####%%%%%%######oo+O..*X$$--<@@@<-$X***X$X***XX$-<@;&&=pdjlsf44w09iytq                                                                                                                                                         ",
"                                                                                                                                      qryi90e435fghd>=========>=&&;;;&&&;@<<$X*.....**$<;&===,222,>=&&;;;;;;;@@@@@@@@@@<-$X***...OO+OOO++oooooo+++oo+++++++OO.*X-<@<$XXX*X$$$X**..O+oo###%%%%%%######o++O..*XX$$-<<<<<-$****XX*****X$--<;&&&>pdhgf33we9uayq                                                                                                                                                         ",
"                                                                                                                                      ryau90w435sljp=&&&========&;;;;&&&;@@<$X***...*$<;&==>>2::2,>=&&&;;;;&&;@@@@@@@@@<--$X*****.OOOOO+++oooooooooo++++oo+OOO.X-<<-$XX**X$$X**...OO++oo#%%##%%##oo##o++O..*XX$$$-----$XX**XX**...*X$$-<@;;&=,djgf534e09iyr                                                                                                                                                         ",
"                                                                                                                                     qtai90e435fghdp=&&&&====&&&&;&&;;&;@@@<-$X*****$<&&=>>,,2:22>=&&&&;;@;&&;;@@@@@@@@<<-$XXX****...OO+++++ooooooooo+++oo+OOO.X-<<-$X***X$XX**...OO+++o#%%###%%#oooo++OO..*XXX$$$-$$$$XXXXX**....*XX$$-@;;&=>pjls554w09uatq                                                                                                                                                        ",
"                                                                                                                                    qrtiu0ew355sljdp>=;;;&===&;;;;&&&;;;@@@<-$$X***$<;=>>,22:::2,>=&&&&&;@;&&&;@@@@@@@@@<$$$XXX****...OOOOO+++++oooooooooo+OOO.*$---$X**XXXX***...OO++++o#%#o##%##oo+++OO..*XXXX$$$$$XXXX$X**....**XXX$-<@;;&=pdhs3534e09iyrq                                                                                                                                                       ",
"                                                                                                                                     ryi90e4355sljdp>=;@;&==&&;;;&&&&;;;@@@@<-$$XX$<;=>,,2::::2,>==&&&&&;@;&&&;@@@@@@@@@<-$$$XXXXXX**..OO.OOOOO++ooooooooo+OOO.*X$--$X*XXXXX***...OO++++o#%#o##%##oo++++O..*XXXXX$$$$XXXXX**.....*XXX$-<@@@@;&pdjlf353we9uatrq                                                                                                                                                      ",
"                                                                                                                                    qryi90ew355sljdp>=&;;&&=&;;;&&&&&;;;;;;;@@-$$-<;&>,,2:11:2,,>===&&;;;@;&&;;@@@@@@@@@<---$$XXX$XX**........OO++++oooooo+OO..*X$--$X*X$XXX***...OO++++o#%########oooo+O..*XXXXXX$$$$XXX**......**XX$<@@@<<@;kpjhsf554w09iyrq                                                                                                                                                      ",
"                                                                                                                                     ryi90ew353sljdp>=&;;;&&;;;;&&&&&&&;;;;;;@<--<;=>,22::1::2,>=====&;;;@@;;;@@@@@@@@@@<----$$XX$XXX**.........OO+++ooooo+OOO.**X$$$XXX$$XX**.....OO+++o#%%#######oooo+O..*XXXXXX$$$XXX**.......**X$$<@@@@<<;kpdhgf554w09uarq                                                                                                                                                      ",
"                                                                                                                                    qryi90ew35fghddp>=&;;@;;;;&&&;;&&&&&;;&&&;@<@&=>22::1::::2>>=====;;;;;@@@;;@@<<<<@@<<--<<-$XXXXXXX**........OOO+++++oo+O++O.*X$$XXXX$$X**.......O++oo##%%##oooooooo+O..*XXXXX$$$X****........**X$$-<<@@@<@kpdjls554w09uarq                                                                                                                                                      ",
"                                                                                                                                     ryi90ew35fghddp=&;;@@@@@;;&&;&&&&&&&&&&&&;;&=,2:::11::::2>=====&&;;&;;@@;;;@<<<<<<<-----$$XXXXXX$X*.......OOOOO+++++o++++O.**XXXXXXXX**...OO..OOO+ooo##%%##oooooo++O..**XXX$$$XX***......OO.**X$$$$<<<--<;pdjls554w09uarq                                                                                                                                                      ",
"                                                                                                                                    qryi90ew35fghddp=;@@@@@@@@;;;;&&==&&&&&&=====,2:1111:::::2>==&&&&&;&&&;;;&&;@<<--<<--$$$$XXXXXXXXXXX*.....OO+++OOOO+++oo+OO..**XXX$X**....O++OOOOO++ooo##%%##o+oo++OO..***X$$$X****.....OO++O.*X$$X$--$$X$@&djls554w09uarq                                                                                                                                                      ",
"                                                                                                                                     ryi90ew35fghdpp&;@@@@@@@@;&;&;&&&&&&&==>>>>,2::111::2222,>=&&&&&;;;;;;;;;;@@<<--<--$$$$XXXXXXXXXXXX*......OO+++OOOO+++++OOO..*XX$$X*.OOOO+++OOO++++o#####%##o+oo+OO...****X$$XX****..OOOO++OO.*X$XX$$X***-&pjls554w09uarq                                                                                                                                                      ",
"                                                                                                                                    qryi90ew35fghdppk;@@@@@@@@;;;;;;;&&=&=>>,,,,22:::::::2,>>==&;;;;;;;@@@@@@@@<<<<<<--$$$$XX$$$$$XXXXXX*.......OO++OOOOO+++OO++O.*X$$X*.O++O+++OOO+o+++o#%#o####o+oo+O.......**X$$X*.**.OO+OOOO++O.*XXXX***.*$@pdls554w09uarq                                                                                                                                                      ",
"                                                                                                                                     ryi90ew35fghdpp;@@@@@@@@@;;;;;;&&&==>>,,,,2::::::::2,>>==&&;;;;;;@@@@@@@@@@<<<<<-$$$$$XX$$$$$$XXXXX*..*.....OOOOOOOOO++++OOOO.*XX**..OOO++++OO++++o#########o++++OOO......**XX*.....O++OOOO++O..*****....X<pdls554w09uarq                                                                                                                                                      ",
"                                                                                                                                    qryi90ew35fghdppk<<@@@@@@@@;;;;&&=&=>>>,,,2:1111:::2,>>==&;;;;;@@@@@@@@<<@@@@@@<-$$XX$$XX$$$$$$XXX$X*..**...........OOO+++OOOOO.***.....OO+++++++++o#oo##%%##oo++OO+O........*...OOOOO++OOOO++OOO..*..OOO.*<pdls554w09uarq                                                                                                                                                      ",
"                                                                                                                                     ryi90ew35fghdpkk<<@@@@@@@@@;;;&&&&=>>,,,22::11::::2,>===&;;@@@@@@@@@<<<<@@@@@<<-$$$X$XXXX$$$XXXXXXX...**...........OOOO+OOO++OO.........O+++oo+ooo#####%%##ooo++OO+OO...........OOOOOOOO..OOOO.......OO..Xkpdls554w09uarq                                                                                                                                                      ",
"                                                                                                                                    qryi90ew35fghdpp;<<@@@@@@@@@@;;&&&===>,,22:::::::::2,=&&=&;@@@@@@@@@@<-<<@@@@<<<-$$$$XXXXXXXXXXXXX**...*...........OOOOOOOO++++OO........O+oooooo######%%##oooo++OOOOO.............OOOOO.....O...*....O..*$kpdls554w09uyrq                                                                                                                                                      ",
"                                                                                                                                     ryi90ew35fghdpk;<<@@@@@@@@@@;;;;&===>>,222::::::::2,=&&&;@@@@@@@<<<<-$-<<<<<<-<-$$$$XXXXXXXXXXXX***..........OO..OOOO++OO++++++OO.......O+ooo+oo######%%##ooo++OOOOOOOO.........O..OOOO........**......*X-kpjgf33we0uayrq                                                                                                                                                      ",
"                                                                                                                                    qryi90ew355sljppk<<@@@@@<<@@@;;;;&====>,2222::::222,>&;;;;@@@@@@@<---$$----------$$$$XXXXXXXX$XX***..O.......OOOOOOOO+++++++oo++OOO......OO+oo+oo#%####%%##oo++OOOO++OOOOOOOOOOOOOO.O+OOOO.....***..O..*X$-pdls334e09iyrq                                                                                                                                                       ",
"                                                                                                                                     qtau90w435fghdp;@@@@@@@<<<@@@;;;&====>,,2222222,,,>=&@@;;@@@@<<<-$$$$$$$$$$$--$$$$$$XXXXXXXXXX**.**.O......OO++OOOO++++++++oooo++OO......O+oooo##%#######oo++OOOOO++OO++OOOOOOOOOO.O++OOOO.........OO.*X-kpjgf54w09uatq                                                                                                                                                        ",
"                                                                                                                                     qryau9ew453sldp;@@@@@@@<<<<@@@;;&&====>,,,,>,,,>>>=&;@@@@;;@@<--$$XX$$$$XX$$--$$$$$$XXXXXX*****.....O.....OOO+++OOO++oo++++ooooo+OO.....OO+o####%%######oo++OOOOO+++++++OOOOO+++OOOO++OOOOOOOOO....OO.*-kpdls554e09uyrq                                                                                                                                                        ",
"                                                                                                                                      rryi90e435fldp;@@@@@@@@<<<<@@;;&&&====>>>>>>>>>=&&;;@@@;;;@<--$$$$XXXXXXX$$$$$$$$$XXXXXX****............OOOO++OOOO++ooooooooo++++O.....O+o##%%%%%#o###oo++OOOOOO+++++o+++OO+++OOO+++OOOOOOOOOOO...OO.*kpd0wf33we9uiyq                                                                                                                                                         ",
"                                                                                                                                       qti990w35fgjp;@@@@@@@@@<<<<@;;;;&&====>=======&;;;@@@@;;;@<-$$--$XXXXXXX$$$$XX$XXXXXXX***.............OOOOOOOOOOO++oooooooo+++++O....OO+o#%%%%%%oo#%#o+++OOOOOO+++oooo++O++++OO+o++OOOOOOOO++OO.....Xkp9e4334w09iytq                                                                                                                                                         ",
"                                                                                                                                       qtiu90w35fgjp&;@@@@@@@@<<<<@;;;;;;&==&&&&&&&&&;;;@@@@@@@@<-$$$--$XXXXXXXXXXXXXX****XXX**.................OO++OOOO+++ooooooo+++++O....O++o#####%#oo###o++++OOOOO+++ooooo+++++o+++oo++O++++OO+++O...**kpde4334w09uatr                                                                                                                                                          ",
"                                                                                                                                       qti99ew35fgjp=&;@@@@@@@<<<<@;;@@@@;&&&;;&&&;;;;;@@@@@@<<--$$$$$-$XX*****XXXX****..**X**...........O......OO++OOOOOO++oooooo++O++O...OO++o#######oo##oo+O+++OOO++O+oooooo++++ooooooo+O+++++OO+++O..*$kd9w353we0uiyr                                                                                                                                                           ",
"                                                                                                                                       qti990w353ghdp&;<@@@@@@@@@@@@@@<<@@;;;@;;;;@@@@@@@<<<<<-$$XXX$$$$X**.**********.....**............O.....OO++OOOO+OO++oooooo++O++OOOOOOO+o##%###o###ooo+O+++OOO++O+##oooo++ooooooooo+O+++o++++++O..Xkpu0w353we0uiyq                                                                                                                                                           ",
"                                                                                                                                       qtiu90w355shdppk<<@@@@@@@@@@@@@<<@@@@@@@@@<<<<<@@@<-----$XXXXX$$X**...............O...............O....OO+++OOO++++++oooooo++O+++OOOO..Oo#%%##oo#%#ooo+O+++OOO+++o##ooooooooooooooo++++oo++++++O..Xkp9e4334w09uatq                                                                                                                                                           ",
"                                                                                                                                       qtau9ew355sljdp&@<<@@@<<<<<<<@@@@@@@@@@@@<<-$$-<--$$$$$$XXX$$$XX**................OO..................OO++OOOO++++++ooooooo++O+++OOOO..Oo####o##%%#oooOOOO+++++++o%#oo#####oo#####o++++++oooo++O..$kd0w334w09uatrq                                                                                                                                                           ",
"                                                                                                                                       qtai90w453sljdp=;@<@@<<<<<<<<@@@;@@@@@@@<<-$$X$-$$XXXXXXXX$$$XX*..........OOOO....O...........O......OOO++OOO++++++oooooooo++O+++OOOO..Oo####o#%%%#oooOOOO+++oooo#%#oo##%%##o#%%%#oo++O++ooooo+O..$puw353we0uiyq                                                                                                                                                             ",
"                                                                                                                                        qtau9ew43fsgjd>&@<@@<<<<<<<<<@@@@@<<<<<--$$$$$$$XX*****X$$$XX*.......OOOOOOOOO..........O..........OO+OOOOO+++++oooooooooo++O+o+++OO..Oo##%####%%#oo+OOOO+++o###%%#oo#######%%####oo++++ooooo++.*kp9w553we09iyq                                                                                                                                                             ",
"                                                                                                                                        qryi90ew45fshd,=;<@@<<<<<<<<<<@<<<<<<<-$$$$$$$$$XX*X**XX$$XX*........OOOOOOOOOO........OOO.....O...OO+OOOO++OO++oooooooooo++++oo++OO.OOo##%####%%#oooOOOO++o#%%%%%########%%%%#o###oo+++oooooo+.$kd04534w09uatq                                                                                                                                                             ",
"                                                                                                                                         qtau90w453shd,=&@<<@@<<<-----<-------$$$$$$XXXX$XX**XX$$XX*......OOOOOOO++OOOOO....OOOOOOOO........OOOOOO++OOO+++++oooo++++++ooo+++OOO+o######%%#ooo+OOO+oo#%%%%%%%#####%%%%#######oooo++++oooOki9w434we9uayrq                                                                                                                                                             ",
"                                                                                                                                         qtau90w453shd,>&;<<@@<<--$$$--$$$---$$$$$$$XXXX$XXXXX$$XX*......OOOOOOO+++OOOOOOOOOOOOOOOOOO........OOOOOOOOOOOO+++oooo+++++ooooo++++++oo#####%%#ooo+OO++oo#%%##%%%%###%%%%#########ooo++++ooo.kue4344e0uiyrq                                                                                                                                                              ",
"                                                                                                                                          tau90w45fshdpp&;<<<<<<--$$$$$$$$$$$XX$$$$$XX**XXXXX$$XX*......OOO++OOO+++OOOOOOOOOO++OOOOOOOO....OOOOOOOOOOO++++oooooo++++oooooo++++++++ooo#%%#oo++++++ooo#%%##%%####%%%%####%#o#%##o+++++ooo*kuw334w09uatq                                                                                                                                                               ",
"                                                                                                                                         qtau90w453shddp&;@<<<<<<-$$$$$$$$$$XXXX$$$XXX****XX$$XX*......OOO+++OOOO++OOOOOOOOOO+++OOOOOOOOOOOOOOOOOOOOOO++++oooooo++++oooooo++++++++++o#%##oo++++++ooo#%%###%###%%%%####%%#o#%%#o+++++o+OXp9w534w09uatq                                                                                                                                                               ",
"                                                                                                                                          tau90w455sljdp&;@@<<<@@<-$$$$$$$$$$XXXXXXXXX*****X$XX*.......OO++++OOOOOOOOOOOOOOOOOO++OOOOO++OOOOOOOOOOOOO++ooooo###ooooooooooo++++ooooooo#%##oo++++++++oo%%######%%%%#####%%#o#%%#oo+++oo+*kp94534w09uatq                                                                                                                                                               ",
"                                                                                                                                         qtai90e455fgjdp&;@@<<@@@@<--$$$$$$$$$XXXXXXXX*****X$X*........OO++OOOOOOOOOOOOOOOOOOOO++OOOOO+++OOOOOOOOOOOO+oooooo####oooooooooo+++oooooooo#%###ooo++++++o#%%#####%%%%#######%#o#%%##oo+ooo+*kp94534w09uatq                                                                                                                                                               ",
"                                                                                                                                         qryi90e4353sljp&;@@@@@@@@@<<--$$X$$$$$XXX******XXXXX**.......OOO++OOO+++OOOOOOOOOOOOOOOOOOOOOO++OOOOOOOOOOO++oooooo##%%#ooooooooo++ooooooooo#%#####ooo+++oo#%%####%%%%######o#%####%%##ooo##+*kp94534w09uatq                                                                                                                                                               ",
"                                                                                                                                          qtyi90w433fgjp=;@@@@@@@@@@<<-$$X$$$$$$XX*X*X**XXXXX**......OOOO++OO+++++++++OOOOOO++OOOOOOOOO++OOOOO+OOO++++ooooo###%%##oooooooo++ooooooooo#%#######oooo###%#####%%%#######o#%%####%%##o###O*kp94534w09uatq                                                                                                                                                               ",
"                                                                                                                                          qqtau9ew433shd=;@@@@@@@@@@<<--$XXX$$$$$XXX*****XXX*.......OOOOO+++++o++++oo++OOOO++o+OOOOOOOO+++OOO++++++ooooooo########o++oooo++++oooooooo###o##%%#####%%%##oo##%%####%#####%%%#o#%#####%#OXkp94534w09uatq                                                                                                                                                               ",
"                                                                                                                                            ryi90w435fld>&;@@@@@@@@@<<---$$$$$$$$$XX*X***XX*......OOOOOOO++++oo+++ooo++OOOO+oo++OOOO+OOOO+OOO+++oooooooooo%%#####o++++oooo++++oooooooo#####%%%###%%%%######%#oo##%####%%%##o#%####%%#O*kp94534w09uatq                                                                                                                                                               ",
"                                                                                                                                           qryi90w435fld,=&@@@@;;@@@<-$$---$XX$$$$$XXX******....OOOOOOOOO++++++oooooo++OO++oo++o++++++O.O++O+++oo###oooooo%%%%##oo+++++oooo++++oooooooo###o#%%%######o###o###oo######%%%#o##%%####%%#+*kp94534w09uatq                                                                                                                                                               ",
"                                                                                                                                           qryi90w455sld2>&;@@@@@@@@@<--<<<-$X$$$$$XXXXX*X**....OOOOOOOOO++++++oooooo+++++ooo++oo+++++O.O+++++oo####ooo###%%%##ooo++++++ooo+OO++ooooooo##oo#%%%#####ooo##oo#ooo#######%%#####%%####%%o*kp94534w09uatq                                                                                                                                                               ",
"                                                                                                                                            tyi90w455fljdp&;@@@<<<@@@@<@@@<-$$$$$$XXXX$XXX**.......OOOOOO++++oooo++++oo++ooo+++++ooo++OO++++++o###oooo#%%%%%##oooooo++O++oo+OOO++oooooooooo#%######oooooooooo+o##%%##o#%%%#o##%%#####o*kp94534w09uatq                                                                                                                                                               ",
"                                                                                                                                            rtai9ew43fghjp=;@@<<<<@@@@@@@@<--$$$$$XXXX$XXX**........OOOOO+++++ooo++++oo+++oo+++++ooo+++++++++oo#####o##%%%%##ooooooo++++++o+OOOO++ooooooooo#%%####oooo+++oo++O+##%#####%%##o##%%#####o*kp94534w09uatq                                                                                                                                                               ",
"                                                                                                                                           qqrtau9ew43fshd=;@@@@@@@@@@<<@@<<-$$$$$XXXXXXXX**.........OOOOOOOO++++oo++oo++++++++++oo++O+++ooooo##%%%%####%%#ooooooooooo++O+++OOOOOO++ooooooo#%%%##o+++++OO+++OO+######%%%#o###%####%%%o*kp94534w09uatq                                                                                                                                                               ",
"                                                                                                                                             qtyi90e435fld>;@@@@@@@@@@<<@@<<--$$$$XXXXXXXX***.........OOOOOOOOO++++++oo++++++++++o++++++ooooooo##%%%######oooooooooooo++OO++OOOOOOO+oooooo##%%##o+++++OOOO+OOO+o####%%%%#o###%####%%#+Xkd04534w09uatq                                                                                                                                                               ",
"                                                                                                                                              ryi90ew355gj,&;@@@@@@@@@<<@@<<---$$$$$XXXXXXX***...........OOOOOOOOO+++oooo++oooo++++++++oooo+++oo##%%#ooooooooooooooooo+OOOOOOOOOOOO+ooooo##%%##o+++++OO..OOOO++oo##%%%%#########%%%%#O-pu04534w00uatq                                                                                                                                                               ",
"                                                                                                                                              ryau90w453shd=;@@@@@@@@@@@@@<<----$$$$XXXXXXXX***...........OOOOOOOOO++oooo+ooooo+++++++oooo+++++oo####oooo+ooooooooooo++OOOOOOOOO..OO+oooo##%%##o++++OO...OOO+++oo##%%%######ooo##%%%#Okp9e4334e09iytq                                                                                                                                                               ",
"                                                                                                                                              qryiu9e443fgjp;@@@@@@@@@@@@@<<-----$$$XX$$$XXX*****.........OOOOOOOOOO+oooooooooo++++++ooooo++++++oo##oooo++++++oooooo++OOOO+OOOO....O++ooo##%%##o++OOO....OOO+++ooo#########o+++oo#%%#Okue4334w09iatr                                                                                                                                                                ",
"                                                                                                                                               rtai90w433shp&@@@@@@@@@@@@@<<<-----$$XX$$$$XX*****........OOOOOOOOOOO++ooooooooo++++++ooooo+++++++ooooooo++++++ooooo+++OOO++OOOO.....O+oooo#%%##o++OO.....O+++++oooooo#####o++OO+o#%%o*kuw334we0uayrq                                                                                                                                                                ",
"                                                                                                                                                ryi90e4353ld=;@@@@@@@@@@<<@@<<----$$XX$$$$XX*******......OOOOOOOOOO++++ooooooooo+++++oooo++++O++++++oo++oo++++oo+++++OOO+++OOOOOO...O++oooo#%##oo+O......++++++oooo+oo###oo+OOOO+o%#+Xa94554w09uatq                                                                                                                                                                 ",
"                                                                                                                                                rtau9ew455gjp&;@@@@@@@@@<<@@@<---$$$X$$$$$XXX*X****......OOOOOOOOO+++++oooooooooo++O+ooo+++OOOO++OO+++++++++++o++++++OOO+++OOOOOOOOOOO++ooo###ooo+OO....O++++++oooo++ooooo++OOOO+###.ki94554w09iytq                                                                                                                                                                 ",
"                                                                                                                                                qtyiu0e433sldp&;@@@@@@@@<<@@@<--$$$$$$$$$$$XXX******.....OOOOOOOOO+++O+oooooooooo++O+oo++OOOOOOOOOOOOOO++++++++++++++OOOOOOOOOOOOOOOOOO+o+oo#oooo++OOO...++++++oooooo++++++OOO++o##o*ku04554w09iytq                                                                                                                                                                 ",
"                                                                                                                                                qrtyi90e43fshdp;@@@@@@@@<<@@@<-$$$$$$$$XXX$$XX******......O.OOO++OOOOO++oooooooo+++O++++OOO...OO....OOOO+++OOOO+++++++OOOO+OOO.OOOO+OOO++++oooooo++OOOO..++++++ooo#oo++++++OO++oo##+Xpue3534e09iyrq                                                                                                                                                                 ",
"                                                                                                                                                  rta900w453gjdk;@@@@@@@<<@@@<-$$$$$$$XX*X$XXX******.........OO++OOOOO+++++++++++++O+++OOO............OOOOOOOOOO++++O++O.O+OO...OOOOO..O+OO++++++OOOO+O..++++++oo####ooooo+O++oo###O-p9w353we9uayrq                                                                                                                                                                 ",
"                                                                                                                                                  qtau90w455shdp&@@@@@@@@@@@@<-$$$$$$XXXXXXXX**XX**...*......OO+++OOOO+++++++++OOOOOO+OOO..............OOOO....OO+++OOOO.OOO.....OO.....OO.OOOOOO....OO..+++++oo#######ooo++++o###o*kde3334e0uayrq                                                                                                                                                                  ",
"                                                                                                                                                 qqtai90w455sljd=;@<@@@@@@@@<<--$$$$XXXXXXXX***XX**..**.O....OO+++OOO++OOOOOOOOOOOOOOOOO.........OO......O......O+++OOOOO...........****..........***....++oo+o######%#o+++o++o#%#+Xp94534w09iyrq                                                                                                                                                                   ",
"                                                                                                                                                  qrtai90w433slj,&@<<@@@@@<<<---$$$$XXXXXXXX***XX*....*......OO++OOOO++OOOO+OOO......O...............****.**....OO+++O.............**XX**........**XX**.O++ooooo###%%%#o++++++o#%#.ki0353we09iyr                                                                                                                                                                    ",
"                                                                                                                                                    rtau90w455sh:=;@<<@@@@<-----$$$$XXXXXXXX*****.........OOOOOOOOOO+++OOO++OO.....................***XX******..OO+++O............**XXXXX*....**..*XXX*.O++ooooo###%%%#o++++++o##o*kue353we09iyrq                                                                                                                                                                   ",
"                                                                                                                                                    qtau90w455sldp&;@<@@@<------$$$$XXXXXXXX****..........OOOOOOOOOO++++OOOOO..............**.********XXXXXXX****..OO.***......****XXXX**....*.....****.O++ooo###%%###oo++++++o##OXpue353we09iyrq                                                                                                                                                                   ",
"                                                                                                                                                    qryi90w455sljdpk@<@@<<--<<-$$$$$XXXX$XXX***...........OOOOOOOOOOO++OOOOO.........O....****XXXX****XXXXXX$$XX***..*****....**XXXX*****..***..OOO..**.O++oo##%%%%#o++o++oo++oo+.kp9w353we09iyrq                                                                                                                                                                   ",
"                                                                                                                                                    qrtai90w43fsljdpk<<<-------$$$$$XXXXXXX***...........OOOOOOOOOOOO+OO.............OO..**XXXXXXXXXXX$-$$$$$$$XXXX***XXX******X$$XX*****..***..OOOO.....++oo###%%##o++++ooo++++.$pue4334e09iytq                                                                                                                                                                    ",
"                                                                                                                                                     qrtau0ew433ghdpk---$$----$$$$$$XXXXXX***.........OOOOOOO......OOOO..............OOO.*X$XXXXXXXX$$-<------$$$$XXXXXXXX*****X$$$XX*****.***..OOOOO...O++oo#######o+++ooooo+O.Xku04534w09uytq                                                                                                                                                                     ",
"                                                                                                                                                      qryu9ew455sljppk-$$$$$$$$$$$$$XXXXXX**.........OOOOOOO.........OO..O............OO.*X$XXXXXXX$$-<@<<<<---$$$$$$$$$$$$XXX$$$-$$$XXXX******...OOOO.OO+ooo##ooo##ooooo#ooo+OXkp9e353we09iyrq                                                                                                                                                                     ",
"                                                                                                                                                       ryi90e435fgjdpk-$XX$$$$XX$$$XXXXX$X**........OOOOO++O.........OOOOOO.............**X$XX**XX$$--<@<<<<----$$$$$$------$$-------$$$$X*******..OOOOO+oooo##oooo#ooo####oo+.$ki0w354we0uatr                                                                                                                                                                      ",
"                                                                                                                                                       qtau9ew35fsljd&<$XX$$$$$$$$XXX*XX$X**........OOOOO++O.........OOO+OO.............**X$XX**XX$$-<@@<-------$$$$$-<<<@@<------<--$$$$XX*X***...OOOOO++++ooo+ooooooo##%##oo.$ku04553we0uatq                                                                                                                                                                      ",
"                                                                                                                                                      qqryi90e433fghdp@-$X$$$$$$$$XX***X$X***.......OOOOO++O.........OO++OOOOOOOOO......**X$XXX*XX$$$-<<--------$$$$-<@@@@;@------<--$$$$XX*****..OOO.OOO++++++++oooooo##%%#o+.$ku04553we9uatq                                                                                                                                                                      ",
"                                                                                                                                                        qryi90w435sljp&<$XXXX$$$$$XXXXXXX*..*.......OOOOO+O.........OO+++OOOOOOOOOO......**XXXXXXXX$$--<-$$$----$$$-<@@;@;;@<-$$$$-$$$XXXX**X**..OOO....OOO+++++++++ooo###%%o.*-pue4354w09uatq                                                                                                                                                                      ",
"                                                                                                                                                        qqyiu0ew35fgjd=;-$XXXX$$$$XXXXXXX*..*.......OOOOOOO......OOOO++++OO++OOOOOOO......*****XXXXX$$$$$$X$----$$-<@@;;;;;@<-$$$$$$$$XXXX*****......**..OOOOO+++++++o######O*$kp9w433we0uiyrq                                                                                                                                                                      ",
"                                                                                                                                                         qtau9ew35fshdp=@-$X$$$$$$$$$XXX**.........OOOOOOO.....OO++++oo++OO++OOO+++OOOOO.....***XXXXXX$$XXX$-<<--<@@;;;;;@@@@<<<<---$$$$$XX*****...****...OOOOO++++++o###ooo.$kp9e4334e09iyrq                                                                                                                                                                       ",
"                                                                                                                                                         qtyi90w433sljdp&@-$$$$$$$$$$XXX**........OOOOOO.......O+oooooo++O+++OOO+++OOO+OO......**XXXXXXXXX$-<<<<<@@;;;;;;;@@@@@@@@<<---$$XX*********X**....OO.OOOOOO+oo#oo+.Xkpu0w354we9uatq                                                                                                                                                                        ",
"                                                                                                                                                          qryi90w43fsljp=;<--$$$$$XXXXX**........OOOOOO........O+ooooooo+OO++++++++O++++OOOOOO..**XXXXX$$$$-<<<<<@@;;;;;&&;;;;;;&;;@<<-$XXXX*****..****..*****....OO++++o+.Xkpi9e4553w09uatq                                                                                                                                                                        ",
"                                                                                                                                                          qqtiu0ew353sjd>&@<--$$$$XXXXX*.......OOOOOOOO.......OO+oooooooo+++oooooo+++++++OOOOOO..**XXX$$$$--<<<<<@@;;@;&&&&;;;;;&;;@<<<$X$$$X****..****..**XX****...O++O+O*kpi90w4554e0uiyrq                                                                                                                                                                        ",
"                                                                                                                                                           qtau9ew353shdp=;@<-$$XXXXXX**......OO+OOOOOOOOOOOOO++ooooooo####oo#####o++++o+++++OO..****XXXX$-<@@@@@@@@@@@;&&;;&;;;;@@---<-$-<-X**XXX****...****XXX****.O++O.-kpu0w4334e0uiyrq                                                                                                                                                                         ",
"                                                                                                                                                            tyiu0w433sljdp=;@<$$XXXXXX**.....OO+++OOOO++++OOO++ooooooo##%%####%%%##o++ooo++++OOO.*****XXX$-<@@@@@@@@@@@@;;;;;;;@@<<---<-$<<-$XXX$XXX**..****XX$XX***.OOO.Xkpd9e4334e0uayrq                                                                                                                                                                          ",
"                                                                                                                                                           qrtyi90w43fsgjdp=;@-$XXXXXXX*....OOO+++OOOO+++OOOO++oo++oo####%%%%%%%%%%##o##o++++O+OO.*******X-<<@@@<<<@@@<@;;;;@@@@@<<<-<<-$--$$XX$$$$$XX***X$$$$-$$**..O..*-kpje4344e0uayrq                                                                                                                                                                           ",
"                                                                                                                                                            qqtyi90w433sljdp=;<-$XXXXXX*....OOO+++OOO+++OOOO++oooooo###o#%%%%%%%%%%%%###o+++++++OO.....**X$--<<<<<<<@@<@@@@<@@@@@@<<<<<-$$$$$$$$$$XXXXX**X$-----$X*.OO.*Xkkdh4334w09iatq                                                                                                                                                                            ",
"                                                                                                                                                             qqtyi90w43fsgjdp=;-$XXXXXX*.....OO+++OOO+++O++++o#######%#o#%%%%%%%%%%%%%%%o+++++++++OO....**XX$---$-<<@@<<@@<-<<<@@@@<<<<-------$$XX*******X$$$$$$$X*..O.*Xkpdlf534e09iar                                                                                                                                                                             ",
"                                                                                                                                                              qqtyi90w433sljdp&@-$$XXXX*......OO++OOOO++++++o########%###%%%%%%%%%%%%%%%#ooo+++++++OOOO..***X$$$$$-<@@<<<<----<<@@@<<<---------$XX*******XX$$$$XXXX*.O.*Xkpdlf534e09iyr                                                                                                                                                                             ",
"                                                                                                                                                               qrtyi90w43fsljdp&@<-$$X**.......OOOOOOO+++++o###%%%%##%%##%%%%%%%%%%%%%%%####oo++++++++OO..**XX$$X$$-<<<<--$$$--<@@@<--$----$$---$XX***.**XXXXXXXXXX**.*X$@pdlf534e09iyr                                                                                                                                                                             ",
"                                                                                                                                                                qrtyi90w43fsljdp&;<$$X**.......OOOOOOOO+++o#####%%%##%%#%%%%%%%%%%%%%%%%%####oo+++++++OO...**X$$XX$--<<--$$$$$-<@@<--$$$---$$---$$XXX**XXXXXXXX**XX****$-;pdlf534w09iyrq                                                                                                                                                                            ",
"                                                                                                                                                                 qrtyi90w43fsljdpkk$X**.........OOOOOOO+++o#%#o##%%%%%%%%%%%%%%%%%%%%%%%%%####oooooo++OOO...**XXXX$$----$$$$X$$-<<--$$$$-------$$$$$-$$$$$XX****XXX***X-<;pdlf534we9uatrq                                                                                                                                                                           ",
"                                                                                                                                                                   qtyi90w43fsljdpkk$X*.........OOOOOOOO++o#%#o##%%%%%%%%%%%%%%%%%%%%%%%%%#####ooooo+++OOO...**XXX$$$--$$$$XXX$----$$$$-<------$$$$--<<<-$X***X*XXX***X-@&pdls333ww09uatrq                                                                                                                                                                          ",
"                                                                                                                                                                   qqtau90w43fsljdpkkX*.......OOOOOOOOOO++o#%####%%%%%%%%%%%%%%%%%%%%%%%%%###%##oo+++++OOO...****X$$$$$$$$$$XX$$$$$$$$-<@<<<<--$XX$$<<@@<$X****XXXXX**X-@&=dhgf3344w09uatrq                                                                                                                                                                         ",
"                                                                                                                                                                     rtau90w43fsljdpk-X*......OOOOOOO++++oo#%%###%%%%%%%%%%%%%%%%%%%%%%%%%%#%%##oo+++++OOO....***XX$$$XXXX$XX$$$$$$$$-<<@<<<<-$$XX$$-<@@<$$XXXXXXXX$X$$-<;&pdhg43334w09uatrq                                                                                                                                                                        ",
"                                                                                                                                                                      qtau90w43fsljdpk-X*.......OOOOO++oooo#%%%####%%%%%%%%%%%%%%%%%%%%%%%%%%%##oo+++++OO.....****XX$XX**XXX$$$$$XX$-<@<<<---$$$$$$$-<<<-$$-$$$$$$$-----<<@kkdjgf5534w09uatrq                                                                                                                                                                       ",
"                                                                                                                                                                       qtau90w43fsljdpk-X*.........OOO+ooo#%%%%####%%##%%%%%%%%%%%%%%%%%%%%%%%##oo++OOOO......***XXX$XXXXXX$$$$$$$X$-<<<-<<<--$$$$$------$$$$XX$$--<<@<-----kkdjls4334w09uatrq                                                                                                                                                                      ",
"                                                                                                                                                                        qtau90w43fsljdpk-*...........O++o#%%%####%%##o#%%%%%%%%%%%%%%%%%%%%%%%##o+++OO........**XXXXXX$$$XX$---$$$$$$--$-<@@<--$$$-<--$$$$$XXXX$--<@@@@<-$$$-kkpd9ew354w09uatrq                                                                                                                                                                     ",
"                                                                                                                                                                         qtau90w43fsljdp@$**..........O+o#%%#####%#####%%%%%%%%%%%%%%%%%%#%%%%##o++OOO......****XXXXX$---$$$$---$$$$-$$$$<@@@-$$$--<<-$$X$$XX$$$--<<<@<-$$$$$-kkpdje4354w09uatrq                                                                                                                                                                    ",
"                                                                                                                                                                         qqtau90w433sljdpk-X*..........O+#%#o##%%####%%%%%%%%%%%%%%%%%%%#o#%%%##oOOOOO......*X**XXXX$--<<-$XX$------<-$X$<@@<-$X$$-<<<-$$XX$$---$$$$---$$X$$$$-kkpdje4354w09uatrq                                                                                                                                                                   ",
"                                                                                                                                                                           qtau90w433sljpkk-X*.........O+##oo#######%%%##%%%%%%%%%%%%%%%#######o+OOOOO.....*XXXXXXXX$-<<<-$XX$---<<<@<-$$<@<-$$XX$-<<<-$XXX$$---$$XX$$$$XX$$-$$-<kpdje4354w09uatrq                                                                                                                                                                  ",
"                                                                                                                                                                           qqtau90w433fldpkk-*..O......O+oooo######%%%###%%##%%%%###%%%%%%#ooooo+OOO+O....**X$XX**XX$-<<<-$$$$--<<@@@;@-$<@-$$$XX$$-<<-$XXXX$$$$$XX*XX$$XX$---$$$<kpdje4354w09uatrq                                                                                                                                                                 ",
"                                                                                                                                                                             qtai90w43fshdpk-X..OO....O+++++o######%%%#o#%%##%%%%####%##%%##oooo+OOO+O...**XXXXXXXXX$$-<<-$$$--<<@@;;;;<-<<$$$$$$$$----XXXXXX$$---$XXX$$$$$---$X$-@kpdje4334we9uatrq                                                                                                                                                                ",
"                                                                                                                                                                             qqtyi90w43fshdpkX*.OOOOOOO+o+OO+o#%%####%#o#%%######%%%%##o#%%%#ooo+OOOOO..**XXXXXXXXXXX$-<<<----<<@@;;;&&;@<-$X$---$$$$$$XXXXXX$-<<<<-$$$$$-----$X$$-@kpdjew334w09uatrq                                                                                                                                                               ",
"                                                                                                                                                                               rtyi90w43fghdk-X*.OOOOOOO+++++o#######%%###%###o##%%%%##o#%###oo+OO..OO..*XXXXXXXXXXXX$-<<<<<<<@@;;;;;&;;@<-$$----$$$$$$XXX$$$$-<@@@<-$--<<<--$$$$$$-kkpd9e4334we9uatrq                                                                                                                                                              ",
"                                                                                                                                                                               qrtyi90w43fgjpkk**.OOO..OO++++oo##ooo#%%####%#ooo#%%%#######ooo+O........*XXXXXXXXXXXX$-<@@@<<@;;;;;&;;;@<<<--------$$-$XX$$---<@@@@<--<@@@<-$$$$$$$$-kkpd9ew334w09uatrq                                                                                                                                                             ",
"                                                                                                                                                                                qrtyi90w43fgjpk-X*......OO+++ooooo++o#%%###%##ooo########oo++++OO......*XXXXXXXXX$$$$$-<@@@@<@;;&;;;;;@<<<<<<----<<----XX$---<<@@@<<<<<@@@<-$$$$$XX$X-kkpd9e4334we9uatrq                                                                                                                                                            ",
"                                                                                                                                                                                 qqtyi90w43sljpkk**...O..OO++oooo+++o##%#o#%%##ooooooo###o+++++OOO.....*XX$$XX*X$$----<<@@@<<@;;;;;;;@@<-<<@@<-<<@@<<<-$$---<@@@@<<<<<<@@<<-$$$$$XXXXX-kkpd9e4334w09uatrq                                                                                                                                                           ",
"                                                                                                                                                                                  qrtyu90w4fsljpkkX*.OO...O+++oo+++++o###oo#%%#oo+++++ooooo+++++OO....***X$$XX*X$$-<<<@@@@@@@@;&;;;@@@@<<<@@;@@;;;;@@@<$$---<@@@@<<<<<<<<<<--$$$$$$XXX-<;&pd9e4334we9uatrq                                                                                                                                                          ",
"                                                                                                                                                                                  qqqtau90w43sljikkX*.O....O++++++++++o##oo##%#o+OOO++++oooo++++OO...****XX$XX*X$-<<@@@@@@@@@@;;;;;@@@@@@@;;;;&&&&;@@@<--<<-<@@@@<<<<<<<<<<<------$$$$-<@&ppd9e4334w09uatrq                                                                                                                                                         ",
"                                                                                                                                                                                    qrtau90w4fse9dpkX......O+++OO+++++ooooooo#o+OOOOO++++ooo++++O..*.****XX$XXXX$--<@@@@@@;;;;;;&&;;@@@@@;&&======&;;;@@@@@<<@@@@<<<<<@@@@@@<<<<<--$$--<@;kppd9e4334w09iatq                                                                                                                                                         ",
"                                                                                                                                                                                      qtau90w434w0dpkX*....OOOOOOO+++oooooo+++OOOOOOOOOO++oo+++O...******XX$XX$$---<@@<<@;;;;;;;&&&;@<<<@&====>>>=&&;;;;;;@@@@@@@<<<<@@@@@@@@@@@<<------@@<kkpd9e4554e09uyrq                                                                                                                                                        ",
"                                                                                                                                                                                      qqtau90w434ghdk-X*....OO...OO++ooo++++OO...OO+OOOOO+++++OO..**XX****X$$$---<<<@@<@;;&&;;;;;;;;@@<<@&=======&&&&&&;@;;;;;@@<<<<<@@@@@@@@@@@@@<<--$---$$kkp9e4554e09uarq                                                                                                                                                        ",
"                                                                                                                                                                                        qtau90w43sgjpkkX*........OO++oo++++OO....OO+OOOOOO+++OO..*XX$XX***X$--<<<<<<@@<@;&&&;&;;;@@@@@@<@&===&&&&&&&&=&;;;;;;;;<<-<<@@@<<<<@@@@@@@<<--$$$$XX-kpu0w354w09uatq                                                                                                                                                        ",
"                                                                                                                                                                                        qqtai90w4fsgjdkkX*....OOOOOO+++++++OO.....OOO....OOOOO..*XX$XX***X$--<<<<<<<@@@;;&&&;&&&;@@@;@@<@&==&&&&&&&&===&&;;;;;@@<<<@@@@@@<<--<<<<<<---$$XXXX$kkpu0w334w09iatq                                                                                                                                                       ",
"                                                                                                                                                                                          qtau9ew434w9pk-*....O++OOOO++OOOOOO..............OOO.*X$$$X**XX$$-<<<<<<<<@@@;;&&&&&=&;;@;;;@@;&=&&&&&&&&====>=;;;;;;@@@@@@@@@@@-$----------$$$X$$--kkpu04334w09uatq                                                                                                                                                      ",
"                                                                                                                                                                                          qtau9ew45340dpkX...OO+++OOO+++OOOO......*******.....*XXXXXXXX$$$---<<<<<<<@@@@;&&&&&&&;;;;&&&&&&=&&&&&&&&&&===&&;&&&&;;;@@@<<-<<<-<@@@<----<--$$$$-$-kkpu0sf34w09uatq                                                                                                                                                     ",
"                                                                                                                                                                                           tau90w4334edpk$*...O++OOOOOOOOOO......**XXXXX*....*XXXXXXX$--$$----<<<<<<@@<@;&&&&&&&;;&&&======&&&;&&==&&&&&&&&&&&&&;;@@@<---<<<@;;;@<--<<<<--$$X$--kkpdls334w09uatq                                                                                                                                                    ",
"                                                                                                                                                                                           rtau9ew434w0dp$...OOOOOO........*******XXXXXXX****XXXXXXX$$--------<@<<<<@@;;&&&&&&&;;&&&====&==&&&&&====&&&&&&&&&&;;;;;@@@@@@@@@;;;;@@<<<<<---XX**XX-kppjlsf34w09iytq                                                                                                                                                   ",
"                                                                                                                                                                                           qryau0ew433w9pk**..OOO....***********XXX*XXXXXXXXXXXXXXX$$-<<<----<@@<<<@;;&&&&&&&;;&&&&==>==&&=&&========&&&&&&;;@@;;;;;;;;;;@@@@@@@@@<<<<---$X***.*$kkpdjls334w09iytq                                                                                                                                                  ",
"                                                                                                                                                                                            qtau0ew43540ik<X*.....***XXXXXXX$X$XX$XXXXXXX$$$$$XXXX$$-<<@<<<<<<<<@@;;;&&&&&&&&&&&&&=====&&&&==>>======&&&&&&;;@@;;;;@@@;;;@<<<<<<<<<<@<-$$XX*....*Xkkpdjl4334w09iytq                                                                                                                                                 ",
"                                                                                                                                                                                             ryi90e4353e9pp<X*..**XXX$$$$$$$$$$$$$$$$XXX$$$$$$$XX$$-<<@@@@<<<<<<@;;&&&=&&;;&&&&&=======&;&&=>>>====>==&==&&;@@@;;;@@@@;;;@<--------<@<-$XXX**....*$kkpdje4334w09iytq                                                                                                                                                ",
"                                                                                                                                                                                            qrtau9ew353w09pk@$****X$$$----$$$$$X$$$-$$$$$$$$$$$$$$-<<@<<<<@@@<<<@;;&&&=&&;;&&&&&====&&&;;;&==>>===>>>====&;;@@;;;;;@@<@@@<-$$$$-----<-$$XXXX**....*$kkpd9e4334w09iytq                                                                                                                                               ",
"                                                                                                                                                                                             qtyau0e4334w0dpk@$XXXX$$------$$$$XX$$----$---$------<<@@<<<<@@@@<@@;;;&&&&&;;&=&&&===&&&&;;;&&======>>>>>>=&;@@;;;;;;;@<@@<-$$$$--------$$$$$$X**...**$kkpd9e4334w09iytq                                                                                                                                              ",
"                                                                                                                                                                                              qryau9e4334e9dp&<$X$$$$-<<<<-$$$$$$$$-<<<--<---<<<<<<<<<<<<<@@@@@@@@@;;&&&;;;&&&&&&&&&&&&;@;&&&&====>>>>=>=&;;@;;;;;;;;@@@<----<<@@<--$$$$$$-$$X**.*.**Xkkpd9w3534e0uiyr                                                                                                                                              ",
"                                                                                                                                                                                               rtyau0e4334ejd>;<$$$$$-<@@<--$$$$$$$-<@@<<<<<<<<<<<<<--<<<<@@@@@@@@@@;;;;;&&&&&;&&&&&;&&;@;;&&&&===>>>====&;;;;;;;;&;;;;;@<-<@;;;;@<--$$$----$$X*******$kkpdlf554w09uat                                                                                                                                              ",
"                                                                                                                                                                                                qryi90ew434ljd=;<-$$$$-<@@<<--------<<@@<<<@@@<<<<<<--<<<<@@<<<<<<@@@@@;;&&&&;;;&&&&;;;;;;;&&&=========&&&;&&&&&&&&;;;;&;@@;&&&&&;@<<----<--$$$XX*X*X**Xkpphs353we9uatqqq                                                                                                                                           ",
"                                                                                                                                                                                                 qtyiu0ew33sljp=;@-$X$$<<@@<<<<-----<<<@<<@@@@@<<<<<---<<<@@<<<<<<@@@@@@;&&&&;@;;&&&&;&;;;;&&&==&&&&&&&&&;&&&&===&&&;&&&&;;&&===&;@<<---<<--$$$$XXXX**..$kpdlf334e0uiytrrq                                                                                                                                          ",
"                                                                                                                                                                                                  qryau0e433fljp=;@-XX$-<@@<<<<<<<<<<<<<@@<<@@@@@@<<-$--<<<<@@<<<<<<<<<@@;&&&&;;;&&&&;;@;&&=&&&&&;;&&==&&;&&=======&&&&&&&&==&&&&;@--$$--<--$$$$XXX**.OO.Xkpje3334e0uiaaytq                                                                                                                                         ",
"                                                                                                                                                                                                   qrau90w455shdp&;-XX$-<@@<<<<<<<<<<<<<@@<<@;;;@@<<$$--<<<<@@<<<<<<<<<<@;;&=&;@;;&&&;;@@&===&;;;;;;&==&&;&====>>>=&&&&&&&===&&&&;<-$$$$-<--$$$$XX**.O++O*-pde4554w099uiatq                                                                                                                                         ",
"                                                                                                                                                                                                                                                                                                                                                                                                                                                                                                                    ",
"                                                                                                                                                                                                                                                                                                                                                                                                                                                                                                                    ",
"                                                                                                                                                                                                                                                                                                                                                                                                                                                                                                                    ",
"                                                                                                                                                                                                                                                                                                                                                                                                                                                                                                                    ",
"                                                                                                                                                                                                                                                                                                                                                                                                                                                                                                                    ",
"                                                                                                                                                                                                                                                                                                                                                                                                                                                                                                                    ",
"                                                                                                                                                                                                                                                                                                                                                                                                                                                                                                                    ",
"                                                                                                                                                                                                                                                                                                                                                                                                                                                                                                                    ",
"                                                                                                                                                                                                                                                                                                                                                                                                                                                                                                                    ",
"                                                                                                                                                                                                                                                                                                                                                                                                                                                                                                                    ",
"                                                                                                                                                                                                                                                                                                                                                                                                                                                                                                                    ",
"                                                                                                                                                                                                                                                                                                                                                                                                                                                                                                                    ",
"                                                                                                                                                                                                                                                                                                                                                                                                                                                                                                                    ",
"                                                                                                                                                                                                                                                                                                                                                                                                                                                                                                                    ",
"                                                                                                                                                                                                                                                                                                                                                                                                                                                                                                                    ",
"                                                                                                                                                                                                                                                                                                                                                                                                                                                                                                                    ",
"                                                                                                                                                                                                                                                                                                                                                                                                                                                                                                                    ",
"                                                                                                                                                                                                                                                                                                                                                                                                                                                                                                                    ",
"                                                                                                                                                                                                                                                                                                                                                                                                                                                                                                                    ",
"                                                                                                                                                                                                                                                                                                                                                                                                                                                                                                                    ",
"                                                                                                                                                                                                                                                                                                                                                                                                                                                                                                                    ",
"                                                                                                                                                                                                                                                                                                                                                                                                                                                                                                                    ",
"                                                                                                                                                                                                                                                                                                                                                                                                                                                                                                                    ",
"                                                                                                                                                                                                                                                                                                                                                                                                                                                                                                                    ",
"                                                                                                                                                                                                                                                                                                                                                                                                                                                                                                                    ",
"                                                                                                                                                                                                                                                                                                                                                                                                                                                                                                                    ",
"                                                                                                                                                                                                                                                                                                                                                                                                                                                                                                                    ",
"                                                                                                                                                                                                                                                                                                                                                                                                                                                                                                                    ",
"                                                                                                                                                                                                                                                                                                                                                                                                                                                                                                                    ",
"                                                                                                                                                                                                                                                                                                                                                                                                                                                                                                                    ",
"                                                                                                                                                                                                                                                                                                                                                                                                                                                                                                                    ",
"                                                                                                                                                                                                                                                                                                                                                                                                                                                                                                                    ",
"                                                                                                                                                                                                                                                                                                                                                                                                                                                                                                                    ",
"                                                                                                                                                                                                                                                                                                                                                                                                                                                                                                                    ",
"                                                                                                                                                                                                                                                                                                                                                                                                                                                                                                                    ",
"                                                                                                                                                                                                                                                                                                                                                                                                                                                                                                                    ",
"                                                                                                                                                                                                                                                                                                                                                                                                                                                                                                                    ",
"                                                                                                                                                                                                                                                                                                                                                                                                                                                                                                                    ",
"                                                                                                                                                                                                                                                                                                                                                                                                                                                                                                                    ",
"                                                                                                                                                                                                                                                                                                                                                                                                                                                                                                                    ",
"                                                                                                                                                                                                                                                                                                                                                                                                                                                                                                                    ",
"                                                                                                                                                                                                                                                                                                                                                                                                                                                                                                                    ",
"                                                                                                                                                                                                                                                                                                                                                                                                                                                                                                                    ",
"                                                                                                                                                                                                                                                                                                                                                                                                                                                                                                                    ",
"                                                                                                                                                                                                                                                                                                                                                                                                                                                                                                                    ",
"                                                                                                                                                                                                                                                                                                                                                                                                                                                                                                                    ",
"                                                                                                                                                                                                                                                                                                                                                                                                                                                                                                                    ",
"                                                                                                                                                                                                                                                                                                                                                                                                                                                                                                                    ",
"                                                                                                                                                                                                                                                                                                                                                                                                                                                                                                                    ",
"                                                                                                                                                                                                                                                                                                                                                                                                                                                                                                                    ",
"                                                                                                                                                                                                                                                                                                                                                                                                                                                                                                                    ",
"                                                                                                                                                                                                                                                                                                                                                                                                                                                                                                                    ",
"                                                                                                                                                                                                                                                                                                                                                                                                                                                                                                                    ",
"                                                                                                                                                                                                                                                                                                                                                                                                                                                                                                                    ",
"                                                                                                                                                                                                                                                                                                                                                                                                                                                                                                                    ",
"                                                                                                                                                                                                                                                                                                                                                                                                                                                                                                                    ",
"                                                                                                                                                                                                                                                                                                                                                                                                                                                                                                                    ",
"                                                                                                                                                                                                                                                                                                                                                                                                                                                                                                                    ",
"                                                                                                                                                                                                                                                                                                                                                                                                                                                                                                                    ",
"                                                                                                                                                                                                                                                                                                                                                                                                                                                                                                                    ",
"                                                                                                                                                                                                                                                                                                                                                                                                                                                                                                                    ",
"                                                                                                                                                                                                                                                                                                                                                                                                                                                                                                                    ",
"                                                                                                                                                                                                                                                                                                                                                                                                                                                                                                                    ",
"                                                                                                                                                                                                                                                                                                                                                                                                                                                                                                                    ",
"                                                                                                                                                                                                                                                                                                                                                                                                                                                                                                                    ",
"                                                                                                                                                                                                                                                                                                                                                                                                                                                                                                                    ",
"                                                                                                                                                                                                                                                                                                                                                                                                                                                                                                                    ",
"                                                                                                                                                                                                                                                                                                                                                                                                                                                                                                                    ",
"                                                                                                                                                                                                                                                                                                                                                                                                                                                                                                                    ",
"                                                                                                                                                                                                                                                                                                                                                                                                                                                                                                                    ",
"                                                                                                                                                                                                                                                                                                                                                                                                                                                                                                                    ",
"                                                                                                                                                                                                                                                                                                                                                                                                                                                                                                                    ",
"                                                                                                                                                                                                                                                                                                                                                                                                                                                                                                                    ",
"                                                                                                                                                                                                                                                                                                                                                                                                                                                                                                                    ",
"                                                                                                                                                                                                                                                                                                                                                                                                                                                                                                                    "
};
