/* XPM */
static char *result[] = {
/* columns rows colors chars-per-pixel */
"500 400 70 1 ",
"  c black",
". c #6C3C24",
"X c #7A482D",
"o c #703F26",
"O c #945C40",
"+ c #744229",
"@ c #965E42",
"# c #673921",
"$ c #77462B",
"% c #62361E",
"& c #996144",
"* c #7F4C30",
"= c #845034",
"- c #8F593D",
"; c #A1694B",
": c #582E1A",
"> c #8A5539",
", c #9C6447",
"< c #5D321C",
"1 c #A46C4F",
"2 c #CDD0DC",
"3 c #7D8296",
"4 c #532717",
"5 c #CACCD9",
"6 c #72778B",
"7 c #878CA0",
"8 c #BFBFCC",
"9 c #6B7086",
"0 c #915B3F",
"q c #C3C4D1",
"w c #C7C9D5",
"e c #82879A",
"r c #8D91A3",
"t c #ACAFBF",
"y c #B47959",
"u c #A97052",
"i c #787D91",
"p c #AF7555",
"a c #9397AA",
"s c #A6A9B9",
"d c #999DAF",
"f c #A0A3B4",
"g c #B9BAC8",
"h c #B2B5C4",
"j c #0C0C0D",
"k c #D1D5E0",
"l c #B87E5F",
"z c #60667F",
"x c #1A191A",
"c c #461C12",
"v c #C1B3BB",
"b c #28292C",
"n c #494A50",
"m c #595B65",
"M c #B69C9E",
"N c #9E7670",
"B c #BBA7AC",
"V c #AD9295",
"C c #BE8566",
"Z c #C79175",
"A c #8F6359",
"S c #946C67",
"D c #A78787",
"F c #38393E",
"G c #666872",
"H c #A07E7D",
"J c #7D5854",
"K c #724C47",
"L c #674039",
"P c #5E362E",
/* pixels */
"                                                                                                                                                                                                                                                                                                                                                                                                                                                                                                                    ",
"                                                                                                                                                                                                                                                                                                                                                                                                                                                                                                                    ",
"                                                                                                                                                                                                                                                                                                                                                                                                                                                                                                                    ",
"                                                                                                                                                                                                                                                                                                                                                                                                                                                                                                                    ",
"                                                                                                                                                                                                                                                                                                                                                                                                                                                                                                                    ",
"                                                                                                                                                                                                                                                                                                                                                                                                                                                                                                                    ",
"                                                                                                                                                                                                                                                                                                                                                                                                                                                                                                                    ",
"                                                                                                                                                                                                                                                                                                                                                                                                                                                                                                                    ",
"                                                                                                                                                                                                                                                                                                                                                                                                                                                                                                                    ",
"                                                                                                                                                                                                                                                                                                                                                                                                                                                                                                                    ",
"                                                                                                                                                                                                                                                                                                                                                                                                                                                                                                                    ",
"                                                                                                                                                                                                                                                                                                                                                                                                                                                                                                                    ",
"                                                                                                                                                                                                                                                                                                                                                                                                                                                                                                                    ",
"                                                                                                                                                                                                                                                                                                                                                                                                                                                                                                                    ",
"                                                                                                                                                                                                                                                                                                                                                                                                                                                                                                                    ",
"                                                                                                                                                                                                                                                                                                                                                                                                                                                                                                                    ",
"                                                                                                                                                                                                                                                                                                                                                                                                                                                                                                                    ",
"                                                                                                                                                                                                                                                                                                                                                                                                                                                                                                                    ",
"                                                                                                                                                                                                                                                                                                                                                                                                                                                                                                                    ",
"                                                                                                                                                                                                                                                                                                                                                                                                                                                                                                                    ",
"                                                                                                                                                                                                                                                                                                                                                                                                                                                                                                                    ",
"                                                                                                                                                                                                                                                                                                                                                                                                                                                                                                                    ",
"                                                                                                                                                                                                                                                                                                                                                                                                                                                                                                                    ",
"                                                                                                                                                                                                                                                                                                                                                                                                                                                                                                                    ",
"                                                                                                                                                                                                                                                                                                                                                                                                                                                                                                                    ",
"                                                                                                                                                                                                                                                                                                                                                                                                                                                                                                                    ",
"                                                                                                                                                                                                                                                                                                                                                                                                                                                                                                                    ",
"                                                                                                                                                                                                                                                                                                                                                                                                                                                                                                                    ",
"                                                                                                                                                                                                                                                                                                                                                                                                                                                                                                                    ",
"                                                                                                                                                                                                                                                                                                                                                                                                                                                                                                                    ",
"                                                                                                                                                                                                                                                                                                                                                                                                                                                                                                                    ",
"                                                                                                                                                                                                                                                                                                                                                                                                                                                                                                                    ",
"                                                                                                                                                                                                                                                                                                                                                                                                                                                                                                                    ",
"                                                                                                                                                                                                                                                                                                                                                                                                                                                                                                                    ",
"                                                                                                                                                                                                                                                                                                                                                                                                                                                                                                                    ",
"                                                                                                                                                                                                                                                                                                                                                                                                                                                                                                                    ",
"                                                                                                                                                                                                                                                                                                                                                                                                                                                                                                                    ",
"                                                                                                                                                                                                                                                                                                                                                                                                                                                                                                                    ",
"                                                                                                                                                                                                                                                                                                                                                                                                                                                                                                                    ",
"                                                                                                                                                                                                                                                                                                                                                                                                                                                                                                                    ",
"                                                                                                                                                                                                                                                                                                                                                                                                                                                                                                                    ",
"                                                                                                                                                                                                                                                                                                                                                                                                                                                                                                                    ",
"                                                                                                                                                                                                                                                                                                                                                                                                                                                                                                                    ",
"                                                                                                                                                                                                                                                                                                                                                                                                                                                                                                                    ",
"                                                                                                                                                                                                                                                                                                                                                                                                                                                                                                                    ",
"                                                                                                                                                                                                                                                                                                                                                                                                                                                                                                                    ",
"                                                                                                                                                                                                                                                                                                                                                                                                                                                                                                                    ",
"                                                                                                                                                                                                                                                                                                                                                                                                                                                                                                                    ",
"                                                                                                                                                                                                                                                                                                                                                                                                                                                                                                                    ",
"                                                                                                                                                                                                                                                                                                                                                                                                                                                                                                                    ",
"                                                                                                                                                                                                                                                                                                                                                                                                                                                                                                                    ",
"                                                                                                                                                                                                                                                                                                                                                                                                                                                                                                                    ",
"                                                                                                                                                                                                                                                                                                                                                                                                                                                                                                                    ",
"                                                                                                                                                                                                                                                                                                                                                                                                                                                                                                                    ",
"                                                                                                                                                                                                                                                                                                                                                                                                                                                                                                                    ",
"                                                                                                                                                                                                                                                                                                                                                                                                                                                                                                                    ",
"                                                                                                                                                                                                                                                                                                                                                                                                                                                                                                                    ",
"                                                                                                                                                                                                                                                                                                                                                                                                                                                                                                                    ",
"                                                                                                                                                                                                                                                                                                                                                                                                                                                                                                                    ",
"                                                                                                                                                                                                                                                                                                                                                                                                                                                                                                                    ",
"                                                                                                                                                                                                                                                                                                                                                                                                                                                                                                                    ",
"                                                                                                                                                                                                                                                                                                                                                                                                                                                                                                                    ",
"                                                                                                                                                                                                                                                                                                                                                                                                                                                                                                                    ",
"                                                                                                                                                                                                                                                                                                                                                                                                                                                                                                                    ",
"                                                                                                                                                                                                                                                                                                                                                                                                                                                                                                                    ",
"                                                                                                                                                                                                                                                                                                                                                                                                                                                                                                                    ",
"                                                                                                                                                                                                                                                                                                                                                                                                                                                                                                                    ",
"                                                                                                                                                                                                                                                                                                                                                                                                                                                                                                                    ",
"                                                                                                                                                                                                                                                                                                                                                                                                                                                                                                                    ",
"                                                                                                                                                                                                                                                                                                                                                                                                                                                                                                                    ",
"                                                                                                                                                                                                                                                                                                                                                                                                                                                                                                                    ",
"                                                                                                                                                                                                                                                                                                                                                                                                                                                                                                                    ",
"                                                                                                                                                                                                                                                                                                                                                                                                                                                                                                                    ",
"                                                                                                                                                                                                                                                                                                                                                                                                                                                                                                                    ",
"                                                                                                                                                                                                                                                                                                                                                                                                                                                                                                                    ",
"                                                                                                                                                                                                                                         xi55t79zmmmzmzmmzz78h9Fj                                                                                                                                                                                                                                                   ",
"                                                                                                                                                                                                                                         x9ggfe9zzzzmzzzzzzetsinbj                                                                                                                                                                                                                                                  ",
"                                                                                                                                                                                                                                         xmdd7i9zzzzzzzzzz967adembj                                                                                                                                                                                                                                                 ",
"                                                                                                                                                                                                                                        jbm33i666699999666666edd3mbj                                                                                                                                                                                                                                                ",
"                                                                                                                                                                                                                                       jbmG666ii33iiiiiiiii6667ademFj                                                                                                                                                                                                                                               ",
"                                                                                                                                                                                                                                      jbn9996ie7777e7e7e7e7366i7ddembj                                                                                                                                                                                                                                              ",
"                                                                                                                                                                                                                                     jbnG66637aadaaaaaaaaaar3i6i7ademFj                                                                                                                                                                                                                                             ",
"                                                                                                                                                                                                                                   jjbnG66ii7afsssfffffffffdr366i7ddembj                                                                                                                                                                                                                                            ",
"                                                                                                                                                                                                                                   xbnGi69ieafthhthhhhhhhhhtdr3i6i7afembj                                                                                                                                                                                                                                           ",
"                                                                                                                                                                                                                                 jxbnG6i663rftg888888888888gtdr366i7dd3mxj                                                                                                                                                                                                                                          ",
"                                                                                                                                                                                                                                 xbnGii6ierdtgqw55wwqwwqwwwqgtdr3666edsenx                                                                                                                                                                                                                                          ",
"                                                                                                                                                                                                                                xbnG6ii63rdsgq522k2222522225qgtdr36667fdinxj                                                                                                                                                                                                                                        ",
"                                                                                                                                                                                                                               jbnGii6ierdshq522kkkk222222kk5qgtdr36963dtenbj                                                                                                                                                                                                                                       ",
"                                                                                                                                                                                                                              jbnG6ii63rdsgq52255555wwqqqw5225qgtdr36967sfembj                                                                                                                                                                                                                                      ",
"                                                                                                                                                                                                                             jbnGi66ierdshq222w8gvvvvvvBvv8q225qgtdr36963fgrnx                                                                                                                                                                                                                                      ",
"                                                                                                                                                                                                                            jbnG66663rdtgq52w8vBBMMMMMMMMMBvq525qgtdr3696rtf3mbj                                                                                                                                                                                                                                    ",
"                                                                                                                                                                                                                            bmG999ierdtgw22wvBMZZCCCCClCCZVBhq525qgtdr36963fh7nb                                                                                                                                                                                                                                    ",
"                                                                                                                                                                                                                          jbnG66663rdsgw22wgBZZClyypppppyyDVBvq525qgtdr3696rsdimbj                                                                                                                                                                                                                                  ",
"                                                                                                                                                                                                                         jbmG966ierdshq22w8BZCllyppuuuuuuuNHVBgq525qgtdr3696edsemb                                                                                                                                                                                                                                  ",
"                                                                                                                                                                                                                        jbnG66i37adshq52w8BMClyyyppppppu11uNHVB8522w8hsa7i699agdGb                                                                                                                                                                                                                                  ",
"                                                                                                                                                                                                                       jbm9966i7afshq5258BZClyyyyyyyyyyp1;1uNDBvq2k58hsdr36zzrgf9F                                                                                                                                                                                                                                  ",
"                                                                                                                                                                                                                     jbnmii9963rdsh8w22qvMClyyyllllllllyu11uuHMvq2k2qhsdr36zzrgf9F                                                                                                                                                                                                                                  ",
"                                                                                                                                                                                                                    jxnirr399ieaftgq52w8BDlyyyllCCCCCClypuuuplVB82k28hsdr36zzrgf6Fj                                                                                                                                                                                                                                 ",
"                                                                                                                                                                                                                    jxmdsri993rdsh8w558BVHyyyllClClClllyppuuulVB82k58hsdr36zz7gt7mxj                                                                                                                                                                                                                                ",
"                                                                                                                                                                                                                     bmste696eafthqw5qvMDNpyylCCllllllyyppuuuyDB85258hsdre6zz7h8s6Fx                                                                                                                                                                                                                                ",
"                                                                                                                                                                                                                    jxmadi9637dsh8q5wqBVHNpylCCClyyppppppu11;uDMvw25qgtfa7i9z3f8qfGb                                                                                                                                                                                                                                ",
"                                                                                                                                                                                                                    jxn3799ierdtgqw5w8MDNNpylCCClyppuupppu1;,1HVB8w5w8hsdr36967h28rF                                                                                                                                                                                                                                ",
"                                                                                                                                                                                                                    jxn3e996erdsgq5258MHNuplCCCllyppuuppuu1;;;uHVvq22wgtfa7i996d8grn                                                                                                                                                                                                                                ",
"                                                                                                                                                                                                                    jxne7996erdshq5258MHuuylCCllyyypuupppu11;;;uDM82k58hsdr36zzettrn                                                                                                                                                                                                                                ",
"                                                                                                                                                                                                                    jbm77zz63rdshq5258MHppylCCllyyyppppyppu1;,,1HMg5k28hsdr36zzettrn                                                                                                                                                                                                                                ",
"                                                                                                                                                                                                                    xFG7ezz63rdshq5258MDypylCCCllyypppyyypuu1;,1HMv5k28hsdr36zz7ttrn                                                                                                                                                                                                                                ",
"                                                                                                                                                                                                                  jbnirr399ieaftgw55wvMDNpyllCCClllyyyyyyypuu1;pDM82k28hsdr39zz7ttrn                                                                                                                                                                                                                                ",
"                                                                                                                                                                                                                  jFGste6963rdshq525qvMDypyylCCCCCCClllyyyypuuulVBq2k58hsdr39zz7ttrn                                                                                                                                                                                                                                ",
"                                                                                                                                                                                                                  jbGffi9637dsh8w22wvMDlypyllCCZZZZCZCCllyyppuplMvq2k58hsdr36zz7ttrn                                                                                                                                                                                                                                ",
"                                                                                                                                                                                                                 jxFGrr99i7aftgq5k28BVCypyylCCZZZZZZZZCCllyypppCMvw2258hsdr36zz7ttrn           jjxxxjxxxxxxxjj                                                                                                                                                                                                      ",
"                                                                                                                                                                                                                jbnG373963rdsh8w55qvMDNppylCCZZZZZZZZZZZClyyppyCMvq2k58hsdr36zz7ttrn           xFnmnnnnnnnmmnxj                                                                                                                                                                                                     ",
"                                                                                                                                                                                                                jFGra369i7aftgqw5qvMDNuuuylCZZZZZZCCCZZZllyyyylCMvq2k28hsdr36zz7ttrn         jxFmiei66iiii3eGFxj                                                                                                                                                                                                    ",
"                                                                                                                                                                                                                xn9ddi963rdft8w5w8BVHu11uylCCCZCCCllCCCClyyyyylCMvq2k28hsdr36zz7ttrn         xFGirr7eeeeee7r3Gnbj                                                                                                                                                                                                   ",
"                                                                                                                                                                                                                jn6dd9z6erdshq52wvMDN1;;uplCCCClllllllyyyyyyyylCMvq2k28hsdr36zz7ttrn        xFmi7rr7777777777eGnbj                                                                                                                                                                                                  ",
"                                                                                                                                                                                                                xn9aa9zieafshq5kwvVHu;;;upylllyyyyyyyppppyyyyllZMvq2k28hsdr36zz7ttrn       xFm6e7e3eeeeeee3ie73Gnbj                                                                                                                                                                                                 ",
"                                                                                                                                                                                                                xn9ar9zi7aftgq5kqBVN1,,;1uppyyppppyyypuuppppyylZMvq2k28hsar36zz7ttrn      xFm9377eeeeeeeee3i377eGnbj                                                                                                                                                                                                ",
"                                                                                                                                                                                                               jbmir799i7aftgq228BDN;,,;1uuuppppppyyypu1uuppppyCMvq2k28hsar36zz7ttrn     jbm6i33eraaaraaaaar73e7e9nxj                                                                                                                                                                                               ",
"                                                                                                                                                                                                              jbn9ee39937dft8w5wvMHS,&,;1uuuuupppyyyypu11uuuuupCMvq2k28hsdr36zz7ttrn    xbn93ii37dffffdfffffaee77eGnxj                                                                                                                                                                                              ",
"                                                                                                                                                                                                              xnirri96i7aftgq55qBVNA&&,;1uuuppppypyyypuu111111ulVB82k28hsdr36zz7ttrn   jbmii66i7dsttssssttssfa73e7e9nx                                                                                                                                                                                              ",
"                                                                                                                                                                                                              xzrdr9z6erdsh8w25gMHSA@&,11uuppppyyyyyypuu11;;;;ulVB82k28hsdr36zz7tt7n  jFm6ei96eashhhhghhhhhhtfaeee7eGFxj                                                                                                                                                                                            ",
"                                                                                                                                                                                                              xm7dr9zieafsh85kwvVNA@@&;1uuupppypyyyyypuu11;,,,ulVB82k28hsdr36zz7ttrn jbGe3666erftg88888888q8gtfa733ee6nx                                                                                                                                                                                            ",
"                                                                                                                                                                                                              xmea7zzi7aftgq5kwvVNA@@&;uuuupppyyyyyyypuu1;;,&,1HVB82k28hsdre6zz7thrnxbmi7i963rdtgqwwwwwwwwww8htfae3e779Fxj                                                                                                                                                                                          ",
"                                                                                                                                                                                                              xmea7zzi7aftgq5kwvVNA@@&;uuuppppyyyyyyypuu1;;,&,SHVBq2k28hsdaeizzettrmbm3i99637dsgqw5552222255q8htfa7333einx                                                                                                                                                                                          ",
"                                                                                                                                                                                                              xmea7zz67aftgq5kwvVNAOO&;uupppppyyyyyyppu11;,&&,SHMvq2k58hsdre699i77imm976963rdshq5222222222225q8gtfa73i7r9Fxj                                                                                                                                                                                        ",
"                                                                                                                                                                                                              xmea7zzi7aftgq5kwvVNAOO&;uupppppyyyyyppu11;,,&@,NDMvw22wgtsa7i966Gmmm9666963rdsh8w22255wwwww5225wqgtfa7333e6nx                                                                                                                                                                                        ",
"                                                                                                                                                                                                              xm7dr9z6erdsh85kwvVNA-0&;1uuppppyyyyypuu1;;,&@@ANVB8525qhsdr369zGmnmm636963rdsh8w52wq8gvvvvv8qw555qgtfa73i77GFxj                                                                                                                                                                                      ",
"                                                                                                                                                                                                              xGrfa9z6erdshgwkwvVNA>-&;1uuupppyyyyypuu1;;,&@@SHMvw22wgtfrei9zmnnnG6666637dsh8w25qvBMMVVMMBBvgw2k5qgtfa73ee39nxj                                                                                                                                                                                     ",
"                                                                                                                                                                                                             xF6dfr9z6erdsh85kqBDSO>-&,11uupppyyyyypuu1;;,&&ANDB82k2qhsdr369znnnm9ii6i3rdsh8w55qvBVDHHHHDVVMBvq225qgtfa7e377Gnbj                                                                                                                                                                                    ",
"                                                                                                                                                                                                            jFGasde99ieaftgq228BDA->-@,;1uupppyyyyypuu1;,,&,SHVBq2k2qhsdr39zzmmG9i3i63rdsh8w55qvBVHNSSSupHHHDMvq525qgtfae3ere9nbj                                                                                                                                                                                   ",
"                                                                                                                                                                                                            xmrssri963rdsh8525vVN@>>-@,;1uupppyyyyypuu1;,,,;SHMvwkk58hsdr39zzmG966ii3rdsh8w5wqvBVDNSAAA;1uNSNDMvq52wqgtfaee7r7Gnbj                                                                                                                                                                                  ",
"                                                                                                                                                                                                            x6stf399i7aftgwk2qBHS->>0&,;1uupppyyyyypuu1;,,,;NDMvw2258hsdae6zzz96696i7afh8w22qvMVDNSAA&,;111;;NDMvq525qgtfae37re9nbj                                                                                                                                                                                 ",
"                                                                                                                                                                                                           jxitsa9z63rdsh85k2gMNA>>-@,;;uuppppyyyyypuu1;;;,1NDMvw2258hsdre69zz9z9963rdshq2k28BVDNNS;,,;111;;,;NDMvwk258htfree7reGFx                                                                                                                                                                                 ",
"                                                                                                                                                                                                            b6fde9z6eafsh82k2vVSA>-O&,;1upppppyyyyypuu11;;;uHVBvw25w8hsdr36669zmz9ieadsgwkk5vMDNSSS111uuuu1;;,1NVB8kk2w8htdr3i7r6nx                                                                                                                                                                                 ",
"                                                                                                                                                                                                            bisde9zieafth85k5vVSA-0@,;1uppyyyyyyyyypuuu1;,;uHVB8525qgtda7i9iei9zz9i7adsgwkkwvVHS;S1uupyyyypu1;;NDMg2kk58ghsaeiee9nb                                                                                                                                                                                 ",
"                                                                                                                                                                                                           xFesde99i7aftgq5kwvVNA@O&,;1uppyyyyllllypuuu1,,,uDMvw25w8hsa7369ia7i9z9i7aftgw22qBDNAA,;uyllCCClyu11SHMvw2k2q8hsdre36Gnbxj                                                                                                                                                                               ",
"                                                                                                                                                                                                          xniad7i66erdsh8q528BDNA@@&,;1upppyyllCClyppuu;,,;NDM8525qgtdrei9z67ei996erdsh8w2wvMHSA@,1pllCCZZClypuuHVB85k2wqgtfa7366GmFx                                                                                                                                                                               ",
"                                                                                                                                                                                                          b3hsri9637aft8w55wvMDNA@@&,;1uuppyylCCCClypu1;,,SNDB82258hsdre6zzzii6663rdsh8w558BVNA0O,1ylCCZZZZClyyplDMvq225q8htfre3e73GFj                                                                                                                                                                              ",
"                                                                                                                                                                                                          brqse99ierdtgq5258BVHS&O@&,;1uuppyylllClypu1;,&,SHVBq2258hsdr36zzzz999ierftgq52wvMHS@0@;uyllCCZZZZCllylDVBvw2258ghtfa7777imFx                                                                                                                                                                             ",
"                                                                                                                                                                                                          br8d3996eaft8w2k5gBDNA@O@&,;1uuppyllllllypu1;,&,SHMvwk258hsdr39zzmzzz9i7afhgq22qBDN,OO&;pylllCCZZZZClllDDVB85k5q88htfa73ee3Gb                                                                                                                                                                             ",
"                                                                                                                                                                                                          br8dizz6eaftgw2k5vMHS&@@&,;;1uupyllllllypu1;,&&,SHMvw2258gtdr36zzmmzz6erdsgqw2wvVHA0-O,1pyllCCCCZZCCClylHDMv8225w8ghsd733ee9b                                                                                                                                                                             ",
"                                                                                                                                                                                                          beha6zzi7aftgw2kwvVNA@O&,;1111upylllllypuu1;,&@,NDBvw25w8hsdr36zzmzz93rdsh8w5qvMHSJ>>O,upylCCCCCCCCClyppNHVMvw225q8hsd73333zb                                                                                                                                                                             ",
"                                                                                                                                                                                                          xGr36993rdsh85k28BDS@OO&,;111uupyllllypuuu1;&@@,NVB8w5w8hsfaei9zzzz9i7ash8wwqvMHAJ==-&;upyylllllyypppu1;1NHVBq225q8hsdre333zb                                                                                                                                                                             ",
"                                                                                                                                                                                                          bm6996ieaftgwkkwvMHAO0O&,;11uupyylllypuuu11,&@O,NVvq5w8gtfa7i9zzmz9i7ash8w5qvMHAJ**>0,1upppyylypu1;;;;,&ASNDBq525q8hsfre333Gb                                                                                                                                                                             ",
"                                                                                                                                                                                                        jbnmzz963rdsgq5k2qBDN,@O@&,;11uupyylllypu111;,@OO;NVvw5w8hsdre69zzz937ash8wwqvBDSJXX=-@,1uuuppppp1;,&&&&O-0ANDBq225q8hsdre333zb                                                                                                                                                                             ",
"                                                                                                                                                                                                        xm6zzz9i7ash8w2k5vMH1,@@@&,;1uuppyllllpu111;,&@OO,NVg52w8hsdr399z99irdfh8w5qvBDSJ*$*>O,;;1uuuuuu1,&@@@O0>>-ANDBq225q8hsd73333zb                                                                                                                                                                             ",
"                                                                                                                                                                                                        xG76z963rdsh8w22qvVN;&@&&,;;1uuppyllllyu1;;,&@OO@;NVg5258hsdr3696637dft8w5wgBDNA=X*=0&;;;111111;,&@OO@O->=>ANVBq225qghsd733ee9b                                                                                                                                                                             ",
"                                                                                                                                                                                                       jb9ri96ieaftgq55wgBDu,@@&,,;1uuuppyllllyu1;,,@OOOO,NVg525qhsdr3i6ierdftgq5w8BVNA>**=-&,;;;11111;,&@@OOO0->=>ANVvw22wqgtfd73ee79b                                                                                                                                                                             ",
"                                                                                                                                                                                                      jxFm69963rdsgqw25qvVH;@OO&,;11uuppylllllyp1,&&@O00O,NVg525qhsdreii37dftgqww8BMHS@>==>@,;11111111;,&@@OOO->==-SDMg525qghsdre333iGb                                                                                                                                                                             ",
"                                                                                                                                                                                                      xFmmzz6i7afh8w52wvMDNAO0O&,1uuupyyllllllyp1,&@O0--0,NVg5258hsdre337aftgq55qvMDN,O->-O,;;1111111;,,&@@OO->>=*-SVBq22w8htfa7e336Gnx                                                                                                                                                                             ",
"                                                                                                                                                                                                     jbGe6z963rdsh8w258BVNS,O0O&,1uupyllCClllypu;,&OO0---&NVg5258hsdre3erdsgq5k5gMDNS@00O&,;;1111111;;,&@OOO0>>***0NMg5k2qgtsdree3iGFxj                                                                                                                                                                             ",
"                                                                                                                                                                                                     jF6d396ieaftgq55wvMHSA&@0O&,1upylCCCCCllyu1;,&O0-->>&NVg5258tsdre37aft8w22qvVNSAO0@,;;11111111;;,,&@OOO->=**=ANMqkk2qgtfa73e36mb                                                                                                                                                                               ",
"                                                                                                                                                                                                    jjbmi69ierdshq5k58BDNA&@OO@,;1uplCCZZZCClyu;,&@O0-->-&NVg5258hfa7eerdsh852wvMHSA@OO&;;;1111111;;,,,&&OO0->***>ADBqkk2qgtfd73ee6mb                                                                                                                                                                               ",
"                                                                                                                                                                                                    jbFmz9637aft8w2kwvMH1,@@@@&,1upylCZZZZZClyu1,&@O0->>-,NVg525qhfa7e7aftgq5qvMDNA@O@&,;;;111111;;,,,,&@OO0>=**=ONDBq2k5qgtsd73e36mb                                                                                                                                                                               ",
"                                                                                                                                                                                                   xFm699963rdshq522qBVN;,&&&,,;upyllCZZZZZZClp1,&@O0->>>,NVg525qhsdrraftgq5wgBDSA00O&,;111111111;;,&&@@OOO0>=*=-AHVvq225qghsdreei9nx                                                                                                                                                                               ",
"                                                                                                                                                                                                   xn6ri96ieaftgq2228BDu,&@&&,;1pyllCCZZZZZZZCyu;&@OO->=>&NVg525qhsdadftgq5w8BVNA->-O,;11111111111;,&@OO000->==>@NDMvw22wqghsd7ee39mb                                                                                                                                                                               ",
"                                                                                                                                                                                                   xFG3696erdsh85kkwvVHS&OO@&&;1pllCCZZZMMZZCCyu;,@@O0>>>ANVg525qhsffftgw5w8BVHA->=-@,;11uuppuuu11;,&O000->>=*=>AHVBq2k5w8gtfaeier7Gb                                                                                                                                                                               ",
"                                                                                                                                                                                                  jbnG699i7aftgq2k28BDNAO00O@&;uplCCZZZZMBMZZClp1,&@@O->>&NVg525qgtsstgq258BVHS@->>-&,;11uppppuuu1;,&0--->>=**>@SDBg5k2wqghsd733raeGb                                                                                                                                                                               ",
"                                                                                                                                                                                                 xFnG99963rdsh8522wvMDNA@00O&,;uplCZZZZZZBBMZZlpu;,,,&O--&NVg525q8ghh8w558BMDNA@O0O&,,;1uuppppuu11;,@->>>>=*X*JSDMv522wqghsde37aa7GFx                                                                                                                                                                               ",
"                                                                                                                                                                                                 bnG3699ieaftgq225gBDNSA000O&,;uplCZZZZZMBBBZZCyu1;,,,@00,NVg222wqqqqw5w8BMDNSA&&&,,;;1upppppuu11;,&O->>==***JAHMvqkk5qghsa733rd79Fxj                                                                                                                                                                               ",
"                                                                                                                                                                                                 bn676963rdsh85k2qvVHSA0-0O@&,;uyCCZZZZZZBBBMZCyu1;;;;&@O,NM82kk225555qvBVDN1;,,,;;;11upppppuuu11;,@->>==*X*JANVBq225qgtfdeieaaeGFxj                                                                                                                                                                                ",
"                                                                                                                                                                                                jbm6e69ieaftgq52wvMDNA0>-0O@&,;uyCZZZZZZMBMMZZCyu1;;;;,&@,NVvw2222225qvMDHN1;;;;;;;11uuppppuuuuu1;&0->==*X*KANVBg525qgtfa733raeGFxj                                                                                                                                                                                 ",
"                                                                                                                                                                                               jbnm96663rdsh8w5w8BVNA@->>-O@&,;ulZZMZZZZZBMZZZCyu1;;;;,&@,NDBgqww55w8vMDNS;;;1111111uppppppppppu1,@->===**KANVBgw55qgtfaeiera7GFxj                                                                                                                                                                                  ",
"                                                                                            jjjxjjxjjxjjxjjj                                                                               jjjxbnmG99637ash8q5w8vMHSA0->>-0O&,;ulZMBMZZZMMZZZZCpu1;;;;,,@&SHVBvvgvgvBMDNAA,;11uu111uuppppppppppu1,O->==*=JANDBgw5wqgtfa73i7a7GFxj                                                                                                                                                                                   ",
"                                                                                           jbFFFFFFFFFFFFFFxj                                                                              xbbFnG6i69i7aft8w55qvMDNA@0->>-0O&,;ulZMBBBZZZZZZZZCp1;;,;;,,&@ASHDMMMMMMVDNS&&;11uuuuuuupppuuppyyyp1;@->>=*=>ANVBgw5wqgtfa7ee7arGFxj                                                                                                                                                                                    ",
"                                                                                        jjjbm9666666666666Gnxjjjjjjj                                                                      jFGGG96i3ii7aftgq55wgBVHSAO0---0OO&,;ulZZMBBMZZZZZZZCpu;,,;;;,@@@ASNDDVDVDDHN;,;1uuupuuuuppppuupyyyyu1,0>==*=>ANVBgw5wqgtfa733ra79nxj                                                                                                                                                                                     ",
"                                                                                       xxbbnrtg88888888888t9Fbxxbbbxj                                                                     jmshfri66i7aftgq55w8vVHNA@0---0O@@&,;uyCZZMBMZZCCCZZCyu;;,;;,,@@@&;uylllllyppu1uuupuuuuupppppppylyypu;@>=**=>ANVB8w5wqghsa733edd9Fxj                                                                                                                                                                                      ",
"                                                                                      jbmGG6asththththththseGmmGGGGnFx                                                                    jGh8sri66eaftg852w8vMDNAA---00O@@&,;;uplCZZMZZClCCZZClp1,,,;,&@O@&,1upyyyyyyppppupuuuuuupppyyyyllyypu,O=*X*=0SDBgw55qghsdr3ier76nx                                                                                                                                                                                        ",
"                                                                                     jbmfgta369999999999996edshhgqgaGbjjxxj                                                               jmdde69ierdshqw258vBVHS@>>>-0O@@&,;;11uplCZZZZCylCZZZlp1,&,,,&@@&,;1uppyyyyylyppuu1uuuuppppyylCllyypu,0=XX=-SHMgw55w8hsfaeiira9Fx                                                                                                                                                                                         ",
"                                                                                    jbm3shsr6zzzzzzzzzmzzz93afstthhfeGnmmmnx                                                              jnr7699i7aftgw525gBVDNA0>>>-OO@&,,;1111uplCZZZCylCCZCCyu,&,,,&@&,;;1uppyyyyyyypu1111uuppppyylCCllyyp1,-*X*>ANVBq25wqghtfa7337r6nbj                                                                                                                                                                                        ",
"                                                                                   jbmrde669999zzzzzz9z9z999996666ierfstthrnx                                                           j jn3e6993rdsh8w55qvMDNSA0---0O@&,,;;;;;;1uplCZZClylCCCCyu,&,,,,&&,;;1uppppppppu11;1111uppyyyylCCllypp1&>**=OSDMvw55w8ghhtsdr333rrmbj                                                                                                                                                                                       ",
"                                                                                  xFm3ar9zzz96666i666666iii9zzzzzzz6edsstgs6nxj                                                       jbnnnm6i66i7aftgq55qvMDNSA00000O@&,,;;;;;;;;1uplCCCClylCCCyu;&,,,,&&,;;1upppppppu111;1111uupylllCCCClypu;@>==@SDMv8w5wq8ggggtsd73irainbj                                                                                                                                                                                      ",
"                                                                                 jFG7ae69z96i3e333e333eeeeei6999999996ii3rdsenxj                                                     jxmfd3699637aft8qw5qvMDN1,O0-00OO&,,;;;;;;;;;;;upylCClyllCClp;,&&&&@&,,;1uupppppu1111111111upylCCCZZClpu1,O>>-SHMv8w5wqq88qqq8hsd73337embj                                                                                                                                                                                     ",
"                                                                                xFG3ar6996i3e7rr7rrr7rrrrrre3i6666699zz99i7sdGnnFbx                                                  jb6qgri99ieaftgq55wgBDN1,@---0O@&,;;;1;;;;;;;;;;upylllyyllllp1,&@@@@@&,,;1uuuuuuu11111111uupylCCZCZZCypu1,0>>@NVvw2k255www555q8hsd73i7r6mFx                                                                                                                                                                                    ",
"                                                                               xFGerei963e7radddddddddddddaa7eeeee3i69z999iraeer3mFj                                                 jbiwhe6963rdshq525qvVHu,@----0O&,;;1111111;;,,,;;1upyllyyllypu;&@@@@@&&,;111uuu111111uuuuppylCZZZZZZCyyp1,0>-AHMqkkkkk2222kk25qgtsd73e773mFx                                                                                                                                                                                   ",
"                                                                              xFGer7i663raadfssssssssssssssfaarrrrre36666663eersdGFj                                                 jb68si99ieaftgw22wvMDN,@0---0O&,,;;1111111;;;,;;;;1uupyylyyyyu;,@@@@@@&&,;;;11111111uuppppyllCZZZZZClyypu,O>-AHMqkkkk222222kk25qgtsd7e37r6mFx                                                                                                                                                                                  ",
"                                                                             xFGerei663rdffshhhhhhhhhhhhhhhtsfdddddar7eee3i6667faGFj                                                 jbGsa99637ash852wgBVNA&O0--0O&,,;;;;;;;;111;;;;;;;;;1uyylyyyyp1,&&&&&@@&&,;;;1111111upyyyyylCCZZZZZClylyu,0>>@NVvqqwwwwwwww52225qgtsd73e776mFx                                                                                                                                                                                 ",
"                                                                            xFGer7i663rdstth8qqqqqqqqqqqqqqghtsssssfdarrrre699i73Gnbxxj                                              xFGre99ieaftgq558BVHSA@OOOO@&&,,;;;;;;;;11111;11;;;;;1pylyyyppu;,,&&&@@@&&,,;;111111upyyyylCCZZZZZCllllyu&-==-SHVBBBBBBvBvvv8w525qgtsa7ee776mFx                                                                                                                                                                                ",
"                                                                           jFmea7i993rdshhh8w52222222222222q8ghhhhhtsfddddr39z999mnFFbxj                                            jbnGi6963rdtgq558vMHS,@OOO@&&,,,,;;;;;;;;111111111;;;,1upyyyyppuu;;,&&@@O@&&,;;;11111upyyyylCZZZZZZClllly1O=**=0SNHDDDDDVVVVMBvq525qgtsd737r7imFx                                                                                                                                                                               ",
"                                                                          jbGer7i66i7dsh8qqw52kkkkkkkkkkkkk5wqqqqq8ghtssssd7i6669GGGmmFx                                          jxbnG996i3rdtgq55qvMHS,@@O@@@&,,,,,;;;;;;;;1111111111;;;1uppyyyypppu;,&&@OO@@&&,;;;1111uppppylCCZZZCClllllp,>*XX*=>0AAASSSSSNNHDMB8525qgtsa7ee776mbj                                                                                                                                                                              ",
"                                                                         jbm7f7i663rdsh8w555225w5w5w5w5522222555555wqghhhhsa7ee3i663i6mbx                                        jxbnm6i9ierdt8w22wvMDS,@OO@@@&,,,,,,;;;;;;;;1111111111;;;;1uppyyyyypp1;,&@O@@O@&,;;;;1111uuupplCCCCCClyylCy1@=X++$$X**===>>>--0ASHVBq2k5qgtsd73e77inbj                                                                                                                                                                             ",
"                                                                        jbG7ari6637dsh8w2k25qgvvvvvvvvvvg88w22kkkk225wqqq8hfaar73i6666zmFj j                                     xbnG966ierft8w22wgMDS,@@@@@@@&&,,;;;;;;;;;;;11111111111;;;1uupyllllypu;,&&@&@O@&,,;;1111111uupylllllypyyllp;-*X+++++$X******====>AHVB8225qgtsa7ee7e6mbj                                                                                                                                                                            ",
"                                                                       jbnrs769637afh8w22258vMMVVVVVVVVMMMBvq555522225555w8tsfdar3699999nbxxx                                   jbnG6i9ierdt8w225gBDS&OO@@@@@&&&&,,;;,,;;;;;;11111111111;;;;1upylCCClpu;;,&&&&@@&&,,;1u111111uppyllypuupyly1&>*X$+oo+$XX*********=JAHVBq525qgtsd7337r3nbj                                                                                                                                                                           ",
"                                                                      jbm7ari963rdst8w5w8vBMDHNNNNuNNNNNlHCMBvvvvv8q52kkk2wghtsfd7366669znmmFxj                                jbnG966ieafsgw22wvMDS@00O@@@@&&&&&,,;,,,;;;;;;;;;1111111111;11upylCClypu1;;,&&@OO@&&,,;11;;;;;1uupppuu1upllp;-=XX$++++X************=>AHVB8525qgtsa7ee776mbj                                                                                                                                                                          ",
"                                                                     jbnrt79963rdsh8qwwgBVDNu;;,&@000O@&,;1HDVVVVMBv8w52225q8ghhsdre3i69z9i3GFxj                           jjjjbnG669ieaftgq52wvMDS@--0O@@@&&&&@&,,,,&,;;;;;;;;;11111111111111uylCllypu11;,&@@OO@@&&,,;;,,,,;;1uuu1;;;1pllp,>*XX$$++$************X*=JAHVvw225qgtsd733eaenbj                                                                                                                                                                         ",
"                                                                    xFGeari963rdsh8wwqvMDNS,&@&&&O->=>-0@&,1NNNyNHDVMBBvv8qwwwq8hsdar736966i9GFxj                          xFnnnmz96ieaftgq55qvMDN&->-OO@O@&,&&@@&,,,,,;;;;;;;;;111111111111111uyllClpu;1;;,&@@&&&&&&,,,&&&,;;;111;,,;1ylyu&>*X$$$$XX******======*XX=0SHMgw22w8htsa7eerrimbj                                                                                                                                                                        ",
"                                                                    bnrtr999i7dst8w2wgMDS0->>-@,,@-=*=>-O@@&&,,,,;NHDDDVMBvw225w8hsfda73699z6imFxjjjjxxxxxxxxxxxxxxxxxxxjjjbm99zzz9ieaftgq55qvMDNA0--0O@@O@&,&&@@&&,,,,;;;;;;;;1111111111111;;;1pylClyu;;;;,&@&&,,&&&&@@&&@&,,;;;;;,&;1yly1@=*$$$$XX******===>>>=**X*>@SDB8525q8htfa7e3ed7nx                                                                                                                                                                        ",
"                                                                    bmdg7zz63rdsh852wvVN0====>O&,@>=**>-@@O000O@@&,1SSNSNDMvw222w8htsfa73i6966GnFbFFmG6iiiiiiiiiiiiiiii9mnFnG999z9i7afhgqw58BMDNS@--0OO@@@@&,&&@@&&,,,,,;;;;;;;11111111;;;;;;;;1upllCyu;,,,&OO@&&,&&&&@@&&@@&&&,,,&&&,1pyp10=X$$$$XX*===>>>>>>>>>=*X*=-AHMvq55w8ghsa73i3frnxj                                                                                                                                                                       ",
"                                                                    bnrt3z9ieaftgq55qBDS>****=0@@0>***>0&&@---0OO@@&&&AAASDMvq525q8ghtfare33i9zmmmmz3dh888888888888888gtaiGmz996637aft8w55qBVDNSA000OOOO@@@&&&&@@&&,,&&,,;;;;;;1111111;;;;;;;;;;1uyllyu;,&&@00O@&&&&&&@@&&@@@@@@OO@@&,1ppu;-=X$$$$$X*=>>--000--->==***>ANDB8w5wqghsd7363drnx                                                                                                                                                                        ",
"                                                                    xF6riz6erdshq52qvVNA=****=>>>>=*X*>-@@O----0OOO@OOOO@ANDMBg8qwwwqghsdrr7369zzzz63afstsstssstsststssdri9z996i37aftgw52qvMDNSA00-OOOOO@@&&&&&@@@&&,,,,,,;;;1111111111;;;,;;;;;;1uppp1;,&@O00OO@@@@@@@@&&&@OO0---0O&;1ppu,-=X$$$$X**=>-0O@&&&@@O->=**=-SHB852wqghsd7i63drnx                                                                                                                                                                        ",
"                                                                    xFm669i7aft85258MDS>*XXXX**==*XXX*>-O@O->--0OO@@@@@O@&ASHVMBvq522w8hsdddr3699996ii3ee7eee7eeeeeeee33i6996i3eraftgq52wvMDNSA00-0O@OOO@&&&&&&@@@@&&,,&&,;;;111111111;;;,,,;;;;;;1uuu1;,&@O00OOOOOO@@@@&&&@O0----0@&;1uu1,-=XX$$$X*==>0OO&;;;,,,&O>=XX=AHM8525qghsd7363drnx                                                                                                                                                                        ",
"                                                                    jbnz963rdshq2kwvMNA=$++++$$$$$$X*=>-OO->>>-0O&&,,,,&&&,,;NHDMvq2k2w8hsssd73i66666999z9999z9999999z99966ie77rdftgq52wgBDNSAO0-0OO@@O@@@@@@&&&@@@&&,,&&,,;;11111111;;;;,,,;;;;;;11u11;,&OO0OOOOOOO@@@@@@@@O0----O@&,;11;,-=*X$$$X**=>--0&1u11;;;,@>X$X0NM8525qghsdr363drnx                                                                                                                                                                        ",
"                                                                    jxnz9ierdshq2kwvVN-Xoooooooooo+X*=>-0->==>-O&,;;11;;,,,&@@ASHMvq555w8hhhsa7eee3i6zzzzzzzzzzzzzzzzzzz96ieradfstgq5228sVNSA0---0OO@@@@@@@@@&&&&@@&&,,&&,,;;1111111;;;;;,,,;;;;;;1111;;,&OOOOOOOOOO@@@@@@@OO0000OO@&,;11;,-=*X$$XX**==>--&1u111111;0*$XAHM8525qghsfrei3frnx                                                                                                                                                                        ",
"                                                                    jxFz9ierdshq2kwvDS=+.########.oX=>>->>=**=-@,;1uuuu;;;,&@00@SHVBv8w5wqq8tfarrrr736999999999999999999ie7rdfsthgq5kk5vMHSA0----0OO@@@@O@@@@&&&&&&&&&&@&,,,;;;;;;;;;;;,;;;;;;;;;;;;;;;;,&@O00OOOOOO@@@@OOOOOOOOOO@@&,;11;&-=*X$XXX**==>>-O,;;;;1uuu,>X*ADBq225qghsfreiesanx                                                                                                                                                                        ",
"                                                                    jxnz9ierftgq2kwvDS*o#%%%%%####o$=>>>=*XX*=-&;1upppu1;;;,&O00@ANDVBvq525wgtfdddda7e333i3i3i3i3i3i3i3e7radsthg8w5kk28BDNSA-----0OO@@@OO@@@@&&&&&&&&@@@&,,,,;;;;;;;;;;,;;;;;;;;;;;;;;;;;,@O00OOOOO@@@@@OOOOO@@@@@@@,,;11;,-=*XXXX**===>>>-@&,,,;upp;>=JSVvw22wqghsdre37sanx                                                                                                                                                                        ",
"                                                                    jbnz9ierftgq2k5vVS*.%<%%%%%%#.o$*===X$+$*>O,1uppuu1;;;;;,&OOO@&;NHVvq2k2wghssssfar77777777777777777raffthg8qw5222qvVHSA0-----00OOOOOOO@&&&&@@@@@@@@O&,,,&,,,;;;;;;;;;;;;;,,,,,,,,;;;;,&O00OOO@@@@@OOOOOOO@@@@@@@&;1uu1,-=XXXX**===>>>>>0OO@&;upu,0ASDs8525w8hsfa7eerd3Fx                                                                                                                                                                        ",
"                                                                   jjbnz963rdsh82k2gMNJ+%<<<<<%%#.+X***X+oo$=-&;uuuu11;;;;;;;,&@@O0-OAHMvq222w8hhhhtsddaaadadadaaaaaaaadfstg8q55555w8BVHSA@0------00OOOOOO@&&&&@@@@@@@@O&,,&&&,,;;;;;;;;;;;;,,,,,,,;,,;;;;&O00OO@&&&@OOOOOOOOO@@@@@@&;1uu1,-=X$XX*===>>>>>>--0O&,1u1,&SHfgw55w8gtfa7eerrimbj                                                                                                                                                                        ",
"                                                                    jbnz9637aftgw22qBVSK.%<<::<%#o$XXX$+o.oX>O,1uu1;,,,;1111;,,,&&@0--AHVBgq55wq888ghtsfffssssffffffffssthgqw5kk5q8vMVHS&0->>----00000OOOO@@@@@@@OO@@@@@&,,&&&,,,,,,;;;;,,,,,&&@&,,;;;;;;;&@OOOO&&,&@OOO00OOOOO@@@@@&,1uu1,-*X$$X*===>>==>--00O&,;;;,SHdhw55w8gtfa7337a7nbj                                                                                                                                                                         ",
"                                                                    xxFm96i3rdft85258BDAK#%<:::<.o$$$+o...+*>&;11;,&&&,1uuu1;;,,,,,@->0ANDMv85255wwwqghttthhhhtttttttthhg8w5522w8vMVHNA0->>>>----00--0OOOO@@@@@@@@@@@@@@&,,&&&&,,,,,,;;;,&&&&&@@@&,;;;;;;,,&@@OO@&,&@OO0-00OOOOO@@@@&,;111,-*X+$X*=======>---0O@&,,;SNVtq25w8gtfa7e377eGb                                                                                                                                                                           ",
"                                                                     jxFzi6637aft8w228BDJL%::::%.+++o.###o$*>&;,&0-O&;1uupp1;;;;;;,,@O0@ASHVB8w2kkkk5wqgg88q888g88g88g8qw5225q8vMVHuA0->>===>---------0OOOOOOOO@@&&&&&&&&&&&&@@&,,,&,,,,&@@@@@@&&&,;;1;;,,,,&@OOO@@@OOO0--0OOOOOOO@@@&&,;,&>*$+++X***===>>>>---0@&;NHVBq22w8gtfre3eraembj                                                                                                                                                                           ",
"                                                                     jjF9r36637aft8wk28BHJL%<::%.o+o.####oX=-&,@->>0&1upppu1;;;;;;;;,&@OO@SNVBgw5222255ww52255wwww5w55w52k2w8vMVHN,->=======>---->>>--0OOOOOOOOO@&&&&&&&&&&&&@@&&,&&,,,,&&@@@@&&&&,,;;;,&&&,&@@OOOOOOOO0---0OOOOOO@@@@@&,,@>*$+o+$X***====>>---0O&1HVB822wqgtfre33e7eGb                                                                                                                                                                             ",
"                                                                      xFrgdi6637aft8w228sHJL%<<%#...#%%#.+X=-OO>==>O,1pppuu11;;;;;;;;;,,&&ASHVBvvv88q52kkkkkkkkkkkkkkkkk25qvMDNSA->==*=====>>---->>>-0OOOOOOOOOO@@@&&&&&&&&&&&&&&&&&,,,&,,&&@@@&,,&,,;,,&@@@@@@@@OOOOOOOO0--00OOOO@@@@@&,,@>*X+++$XX***====-0OOOO@1HM82k5qgtfae33339nbj                                                                                                                                                                             ",
"                                                                      jFitsa36637aft8wk28fHJL%%%#####%#.o+X*>>>***=O,1uu1;;;;;;;;;;;;;;;,,,SSHDMMMMBv852kkkkkk22222kkk25qgBVHS@>=******==>>>>--->>>-0OOOOOOOOOOOO@@&&&&&&&&&&&&&@@@&,,,&,,,&@@@&,,,&,,,,&OOO@@@@@@@OOOO@@O00-00OOO@@@@@&,&@>*X+++$$XX*****=-O@@@OOAHM8225qghfa73ee39nbj                                                                                                                                                                             ",
"                                                                      jxFGfgd366ieaft8w5wgfHJL#%#######o+$$X**X$+X=-&,,,,&&,;,,,;;;111111111upylHHHDMBgqwwq8888888vvvg8vBMDNA0>**XX***==>>>>->->>--0OOOOOOOOOOOOO@@&&@@@@@@&&@@@@@@&,,,&,,,&@@@@&&,,&&,,@OOO@@@@@@OOOO@OOOOO--000OOO@@&&&&O>*X+$+$$$XX***=>-@&&@0>@SVvq55wqgtfa7e3e36mx                                                                                                                                                                             ",
"                                                                       jxF3tsa366i7aft8w5wgfHAKo.##%%#.o+++$$++oo$*>0OO@OO@&,,,,,;;11111uuuuuuuu1SSNDVBvvvBBBBBBBBMMMMMMDHSA0>=*****===>>>--------0OOOOOOOOOOOOOO@@&&@@OOO@@@OOO@@@&,,&&,,&&&@@@&&,,&&,,&@@@@@@@@@@OO@&@OO@O-----OOOO@&&&O->*X+++$$$$XX*==>-O&&@->JAHMvq22w8hsdae3e779b                                                                                                                                                                             ",
"                                                                        jxn6shd366ieaft8w558BDA=+.#%%%#.oooooo...+X=>>>---0O@@@@&,;;111uupppppuu1;1uyCZZZZZZDHDHDHHNNHHNSA@00->=====>>>>>--------0OOOOOOOOOO@@@@@@@@@@OOO@@OO00O@@@&&&&&&&&&&&@@&&&&@&,,&&&&&&&&&&@@@&,&@OOO-----OOOO@@@@0>=*X$++$$$$XX*==>>0@@0>=>JSDB82k5qgtfd73eee9b                                                                                                                                                                             ",
"                                                                         jxnesfa366i7aft8w258BDS>$o#%%%##.....##.o$*===>>--00O@@@,,;;;1uppyyyppuu11uplCZZCClpNuNNuSAS;A,A00-0-->>->>>>>>--00000000OOOOOOOOO@@@@@@@@@@@OOOOOO00OO@@@&&&&&&&&&&&@@&&&&@&,,&&&&&&&&&@@@@&,&@OOO----0OOOOO@OO->=*X$++$$$$$X**=>>-00->==JSHM82k2qgtsd733eezb                                                                                                                                                                             ",
"                                                                          jxn6dsae6637aft8w258BDSJKo#%%%###..###.+$X**==>----OOO@&,,,,;uppyyypppppppyyllllppuuu1;;,,,&&@00-0OO000000-----0OOOOOOOOOO@@@OOO@@@@@OOOO@@OO00OOOOOO@@@@@@@@@&&&&@@&&&&&&&&&&@@&&&&@@@@@@@&&&@O@O---0OOOOOOOO-->=*X$++$$$$$XX*=>>-->==**>AHM82k5qghsd73333zb                                                                                                                                                                             ",
"                                                                            bn3ffaei637aft8w258BDNAKo#%%%#######.o+$XX*=>>>>>-OOO@&&,,;1uuppppppyyyyyllllypuuuu11;,,,&@OO00O@@OOOOOOOOO00O@@OO0OOOOO@@@@@@@@@@@OOOO@OOO0OOOOOO@@@@@@@@@@&&&&@@&&,&&&&&&@@@@&&@@@@@@@@@&@OO@O---00OOO0OO0-->=*X$++$$$$XXX*=>>->=*XX*=ANM82k5q8hsd733339Fxj                                                                                                                                                                           ",
"                                                                             xm3dsd76637aft8w558BVNAKo#%%%######..o+$XX*===>>>--0O@@&&,,;11uppppyyyllCCCllyypppuuuu1;,&&&@@@&&@@@@@@OOOOOO@@O00OOO@@@@@&&@@&&@@OOOO@OOOOOOOOOOO@@@@O@@@@&&&@@&,,,,&&&&@OOOO@@@@@@@@@O@@@OOOO----00000OO-->>=*X$++$$$$XXX*=>-->=X++$*ANM82k5q8hsd73337eGnx                                                                                                                                                                           ",
"                                                                             jbm3dsdeii37aft8w258BVNAKL.##########.oo+$X***==>>>--00OO@&&,;1upppyyllCCCCllyyyppppppu1;,,,,&&&&@@O@@@@@@OOO@@@O0OO@@@@@@&&&&&&@@OOOOOOO@@@@OOOOO@@@OO@@@@&&@@&&,,,,&&&@OOOOOOO@@@@@@@O@@@OOO0---------00--->=*X$+++$$$XXX*>-0->*+oo+*0NMg5k2q8hsdre3eraa6b                                                                                                                                                                           ",
"                                                                               xm3fsaeii37aft8w558BVNAK$o.#%%%%%%%%##.o+$$XX**===>>-----0@&,1uppyyylCCCllyyypppupupuu1;;;;,,&&@OOO@@@@OO@OO@&@OOO@&&&@@&,&&&&@@OOOOOO@@&&@@@OOO@@OOO@&&&&&@@&&&&&&&&@@OOOOOOOO@@@@@@@@@@@O0------>---0O0-->=*X$+o++$$XXX=>0O-=$o..oX-SVvwk2w8hsfa73eas8fF                                                                                                                                                                           ",
"                                                                               jbm3dfai9637aft8w258BVHSJ=$o#%%%%%<<%%#.oo+$$XXX**======>-O@&;1uppyyllllyppppuuuuu111u11;1;;,&&@OOOOOOOO@@@@&&&@@O@&&&&&&,&@@@@OOOOOOO@@&@@@@OOO@@OOO@&&&&&@@@&&&,&&&&@OOOOOOOOOOOO@@@@@@@O----->>>--0OOO0->=*X$oooo+$$XX*>00>*+.#.o$>SDBq2k5qgtsdree7dgfnj                                                                                                                                                                          ",
"                                                                                 xnidd6z9637aft852wgBMDNAJK+.#%%<<:<<%%#.++++$$XX******=>O@@,1upppyyyyppu111;;11;;,;111111;,&&@@OOOOOOO@&&&&&&&@O@&,,&&&&@OOOOOOOOOOO@@@@@@@@OO@@OOO@&&&&&@@@@&,,,&&&&OOOOOOOOOOOOOO@@@@OO---->>>>-0OO@@0>=*XX$oo.oo+$XX*>--=Xo.#.o+=AHMv5k2w8htfa7337drmbj                                                                                                                                                                         ",
"                                                                                 jbnmGmm96637afh8w5w8vBMDNAJ$o#%<:::<<%%#.ooo++$XXXXXX*=>O@O&;1uuuuuuuu1;;,,,,;;;,,;;1111;;,&&&&&&@@OO@&&&&&&&&@O@@&&&&&@@OOOOOOOOOO@@@@@@@@@@@@@OOO@&&&&&@@@&,,,,&&&@OOOOOOOOOOOOO@@@@O0----->>>>-00OOO0>=*XX$+o.oo+$XX*=>>*$o##..+XJSDBq22wqghsd73i3aa7GFj                                                                                                                                                                        ",
"                                                                                  jjjxbFz69637aftgqw52wgsVHSJK+#<::::<<<%%##.o+$XXX$XX*=>0OO&,;;;;;1;;;,,&@@@&,,;;;;;;;;;;,,&&,,,,&@@@@&,,&&&&@OOOOOOOO@@OOOOOOOOOO@@@@OO@@&&@@@@OO@@&&&&&@@&,,,,&&&@OOOOOOOO@OOOO@@&&O0->---->>>>>-0OO0->>=*X$+ooo++$XX*===X+.##...+KANVvw22wqgtfre33rsqtGbj                                                                                                                                                                       ",
"                                                                                       bnm96637aftgq52258vBVHSJKLP::::::<<%#.o+$XX$$$XX*=-0O@&&&&,,;,&&&@OOOO@&&,,;;;;;;;,,&&,,;;,&@@OO@&&@@@OOO00--00OOO0--00OOOOOO@@@O@@@&@@@@@@@@&&&&&&&&,,,,&&&@OOOOOOOOOOOOO@@@&@O0->>--->>>>>--00->>==*X++oo+++$XXX==*$oo.....+X>AHMvq55wqgtdree7dggaGFj                                                                                                                                                                      ",
"                                                                                       jxFm99637aftgqw5222wgsVNAKLP<:444:<%%.o+$XX$$$XX*=>-OOO0-0@&,&@OO00-0OO@@&&,,,,;;,,&@&,;;;,&@O00OOOO00--0--->--0O0->>--0OOOOOO@@@@@@@@OO@@&&&&&&&@@&,,&&&&&@OOOOOOOOOOOOOOO@@@@O0->->>>>>===>-0->>===*X+oo++++$XX*=*X$oooooooo$*-SDMvq55wqgtfa7e7asqsmbj                                                                                                                                                                     ",
"                                                                                        jxFmz9637astg8q52k258tfDHSJKP<:44:<%#.+$$$$$$XX*=>0OOO->>-O@0-00---0OOO@@&&&,,,,,&@@&,,,,,&@OO0OOO0------->>>---->>>>--0OOOO@@@@@@@@@OO@@@&&&&&@OO@&&&&&&@@OOOOO00000000OOOO000-->>>>>=====>-00->===*$+ooo+++$XXX**$+oo++++oo+X=ANDMvq555qgtfa7e7d8smbj                                                                                                                                                                     ",
"                                                                                         jxFmz9637dsthg8w55225qgsVHSJKP::::<%#o+$$$+$X*=>-0O0->>>>>>>>------OOOOOO@@&&&&&&@@&&&&&&&&@@OOOO-------->->>>-->>>>>--0OO@@@@@@@@OO@@OOO@&&&&@O0-0O@@@@@@@@@OO0--------------->>->==*===>>-00->>==*$o..oo++$XXX*X+ooo+$$++oo+X>ANDMvw22w8hsfa7e7frnbj                                                                                                                                                                     ",
"                                                                                          jxFmz6i3rdfsth88q52k258vBVHSJKP<:::<#o++++$X*=>---->=====>==>>>>>-0OOOOOOOO@@@@@@&&&&@@@&&&&&&@O---------------------0OO@@@@@@@@OOO@@OOO@&&&@O0---0OOOO@@@@OO00---------------->>>=****===>>--->==*$o...o++$X*XX$+o.o+$$$+ooo+*-ANDMvw22w8htfa7ereGFxj                                                                                                                                                                    ",
"                                                                                           jxFm96i37adfsthg8w52225w8BMDSJL<:::<.o+++$X*=>>>>>=****=====>>>>>---------0O@O@&&&&@@@@@@&,,&@O--------------0000--0O@@@@@@@OO@O0O@@@@@@&&@OO0----00OOOOOOOOO0-------->->---->>>=**XXX**===>-0>>=*$o...o++$$XX*$o..o+$$+oooooX>0ANDMvw225qgtda7e36zFbj                                                                                                                                                                   ",
"                                                                                            jbFmz9637radfsth8qq52k22wgBVHJKLP<<%.oo++$X*=>>==*XXXX*=====>>==>>>>-----0O@O@&&&&@@@@@@&&,&O0-0OOOOOOOOOOOOO00OOOOO@@@OOOOOOOO0O@@@&&@@@O00--->--000OOOOOOOO0---------000->>==**XXXXX**===>->>=*X+o..o++$$XXX$o.#.o+++oooooX=>0ANDMvw225qhsda7ee6mnFFbxj                                                                                                                                                               ",
"                                                                                             jxFm96ii37radfsthgqw52kk2qvBDNAK.%%#..oo+$X*==**XX$$X******==**==>>>>---0O@OO&&&&@O@@@@@@&@O000O@@@@OOOOOOOO00O@OOOOOOOOOOOOOOOO@@&&&@O0---->>>-----0OOOOO@@O0------00OO0>>==**XXX$$$X****>>>>=*X+o...o++$$XX$.###..oooooooX=>-0ANDMvw22w8hsda7736999Gnj                                                                                                                                                               ",
"                                                                                              jFmiei99i37radfssh8qq52kk58vMDNJLP%%#..o+$X**XX$$$$$XX**********===>>>--OOOO@&&@@OO@@@O@@O000O@@&@@@OOOOOOO00OOOOOOOOOOOOOOOOOO@@&&&@0----->>->----0OOOO@@&@OO00---000-->=***X$$$$$$XXX**=====*X$o..oo+++$$$+.######....oo$*=>-0ANDMvq22qghsdr73iedfamx                                                                                                                                                               ",
"                                                                                               bG7a79996i3eraddsthg8q2kk25qvMHJKP####.o+$X$+++++++$XXXXXXXXXX***===>>-0OOO@@@OOOOO@@OOO000OO@&&@@OO0---000-0OOOOOOO@@OOOOOO@@@@&&@O-->>>>>>>>----00OOOO@&&@OO00----->>=**XXX$$$$$$XXXX***===*X$+ooooo+++++o.##%%%####..o+$*>>-0ANDBg5k5qghfa73irhqh6x                                                                                                                                                               ",
"                                                                                               bGrsfe699996ie7rdffstgq552kk28MHJKL###.o+$$++o+ooo++$$$$$$$$XXX****===>-00OOOOO0OOOOOOOOOOOOO@@@@@O0----------0OOOO@@@@OOOOO@@@@@@O0-->->->==>>----00OOOO@@@@OO0--->>>>=*X*XXXXXX$$XXXXX***==*X+oooo.oo++o..####%%%%####.o+*=>>>-ANVvwk5q8hsdrei7sgh3Fj                                                                                                                                                              ",
"                                                                                               bm3ftf7i699z9i3e7radfsh88wkkkkgMHAKL.#.o+++ooooooooo+++++++$$XX******==>---00---0OOOOOOOOOOOOOO@OO0-->>>>>>>>-0OOO@@&&@@OO@@@@@@@OO00-->>>>==>------0OO00OOOOO00->>>>>>=*XXXXX*XXXXXXX******==X+ooo...ooo.#######%%%#####.oX=>>==>ADBqk2wqgtfd7i3astrmbj                                                                                                                                                             ",
"                                                                                               jbn3fhsrei69966i3e7radsthgq5kk5gMDAK+...oooo....oooooooo+++$$$X***X**==>>>>------00OOO@@@@@OOOO00--->>>>>>>>>-0OOOO@@@@@@@@@O@@OOOOOO0->>====>-000---00---------->>==>>=*XXXX*****XX****======X$o.....oo..############%%##.$*==*X*JHM82k2w8htfre37dttamx                                                                                                                                                             ",
"                                                                                                 bn3ffarr7i69996i3e7adffstgq5228BDA>X+o.ooo.##..o......o++$$$$X**XX**=>===>>>----0OO@@@@@@@OO0-->>>>>======>0OOOOOOO@@@@@@@OOOO-00OO0->>==*=>0OO0------>>>>>>--->>==>==**XXX*===*****=====>==*$+.##..o....########..#%%##.+X*=X$$JSVv5kkw8gtfa7e3rs8q3x                                                                                                                                                             ",
"                                                                                                 jxFnmGrggsr6zz996i3eraadfshgw228BDSJK$+o..###########.o+$+++$XXXXXX*======>>-----0OO@O@&&&@O0-->>>>==*=*==-0OO0000OOOO@@@@@OO-------->===>>-O@OO0000-->->==>>-->>>>>>==******===******=====**$+o.#..oo.....#########%##.o$***$+LKSDtwkk58ghsdreiedgwex                                                                                                                                                             ",
"                                                                                                     xF6tgtd7i669996i3e7radftgw228BDNSJ*+o.############.+$+oo++$$$$X******==>>-----0OOO@&&&@O0-->>>==*****=>-000--00OOOOOOOOO-->>>>>>>>==>>-0@@@OOO00-->>>===>-->>>=>=====*****===******===**X$+o....o........######%%#.o+X**$o.LKAHsqkk2qghsdrei3atqex                                                                                                                                                             ",
"                                                                                                      xFmmG7thtaizzz96i3eraaftgw55qvBVHA=Xo#%####%%%%%##oo..#.+$$$$$XX*XX*===>>>---00OO@@@@@OO-->>>=******==>-----0000-------->>>>========>-0@@@OO00-->->>===>>>>>==>>==********=*******===*$+++oo....################.+$$XX+o##LKAHf82k2q8hsdrei3atqex                                                                                                                                                             ",
"                                                                                                        xxbGsghf7i999996ie7raftgq525qvMHAJKo###%%%<<<%%#####%#o++$++$$XX$X*=====>>---0OOOOOOO0-->>==*******==>>-------->>>>>>>>>==****====>>-OOOO00-->>>>->>==>>>===>>=***************X**=*X++oooo..################.oo+$X$+.#%%LKAHfg2k2wqgsdrei3atqex                                                                                                                                                             ",
"                                                                                                          jFmmG3dttde9zz96i37aftgq525qvfDSJXo.#%<<<<<<<%%%%%%#.oo++++$XXXXXX****==>>-0O0--0OO0->===****XXXX*===>>==>>>>==========**XX**====>>--0000---->>>>>>>=>=====>=****===*******XXX**X$+++++o..#####%%%%######.o+++++o.#%<%LKAHfg2k2wqgsdrei3atqex                                                                                                                                                             ",
"                                                                                                           jxxbmrh8sri999996i7aftgqw5wq8sDSJK+.%<::::::<<%%%%%#...oo++$$$$$$$XXX**==>-0->>-00->>=*****XXXXX****==**======****===**XXXX***====>>------->>>>->>>>>====>>=****===*******XXXXX$$$$$$+o..#####%%%%#####.o+$$oo.#%%<<%LKSDf8kkkwqgsdrei3ahqex                                                                                                                                                             ",
"                                                                                                            j jFmGi37fsdri999i7aftgqqwwwgsr6JJ+#<:4:::::<<<<<%%##..oo++++++++$$$XX**=-00----->>==****XXXXXX******XX**===***XX*****XXXXXX****==>->>>>>>==>>>>->>>=====>=**************XXXX$$$$$$$$+o.#####%%%#####.oo++oo.#%%<<<%oJSVtqkk2wqgsdr363dgwex                                                                                                                                                             ",
"                                                                                                               jbbFm6fgsr6zz96ieastgg8q5w8sriSJ$#::444::::::<<<%%#..ooooooooo++$$$X*=>0OOO0-->>===**XX$XXX*****XXXXX*******XXXXXXXX*X*XXXXX**=>>>>==*===>>>>>>->====>==*****=*******XXXXX$$$XX$$$+o.#####%%#####..oooo..#%<<<<%#$JNMvw2k5q8hsa73i7fhh6x                                                                                                                                                             ",
"                                                                                                                jjxbn6eiGmm6366ieasthh8qww8hfDNAKL<:444::::::::<%%##......ooo++$$$$X*>-0O@@OO-->=**XX$$$XXX***XXX$$XXX****XX$$XXXXXXXXXXXX***======***==>>==>>>>>======*******==***XXXXXX$$XX$$$++o#############.....###%<<<<<%o=SDB8225w8hsdre3rftf3nj                                                                                                                                                             ",
"                                                                                                                   xbnnnFFF93666i7afsstgq55w8BMHSJK#:44444::::::<%%%%##....oo++$$$$X*=>-O@&&@@0>==*XX$$$XXXXXXXXX$$XXXXXXXXX$$$XXXXX*XXXXX*==*====*****===**=>>>>>=====******===**XXXXXXXXXX$$$++o.###############.###%%<<<<:<#$AHMvw25q8hsdre37dsf3nbj                                                                                                                                                             ",
"                                                                                                                    jxxxxjbm6ii6637radftgq525qvBMDSJL:c444::::::<<%%%%###..oo+++$$$$X*=>-O&,,&@0>==*XX$$$XXXXXXXXXXXXXX*XXXXX$XXXXXXXXXXXX*==*******X********==>>>====***********X$$$$XXXXX$$$$+o.########%%%%%%%##%%%%<<::::<LJSVvw25w8hsdr33eafd3mbj                                                                                                                                                              ",
"                                                                                                                          jFm63i6ii3e7aftgw2225w8vVNJ#:444::::::<<<<<%%###.oo+++++$$$X*=>-@&,,&&O-==*XX$$$$$$$XXXXXXXXXXXXXXXXXXXXXXXXXXX**==*****XXXX**XXXX**==>=====**********XX$$$$XXXXX$$$$+o.###..###%%%%%%%%%%%%%<::44:#KAHB822wqgtfa7iiafdembj                                                                                                                                                               ",
"                                                                                                                           jbm6ii666637aftgqw5kkk2vMNJL:44444:::<<<:<<%%%#..oooooo++$$$X*=>0@&,,&O->=**X$$$$$$XXXXXX$$$XXXXXXXXXXXXXXXXX********XXXXXXXX$$XXX**=======**==***XXX$XXXXXX*XXXX$$$+o......###%%%<<<<<<<%%%<:444<LJNVvwk5q8hsdre6estaGbj                                                                                                                                                                ",
"                                                                                                                            jFm6ii699637afth8q5kkk5vMNJL<:4:44::<<<:<<<<<%#...###..oo++$X*=>-O&,,&@->=**X$$$$XXXXXXXX$$XXXXXXXXXXXXXXXX********XXXXXXXX$$$$XX***======*===**XXX$$X***XXXXXXXX$$$+o.....####%%<%<<<<<%%%<44c4PKSDB822w8gtfa73irhh7mx                                                                                                                                                                 ",
"                                                                                                                            jjbm63i999637afthhg8w225gMHJLP::444:::<<<::<:<%##%%%%%###.oo+$X*=>-O&&&@0>=**X$$XXXXXXXXXXXXXXXXXXXXXXXXXXX*******XXXXXXXXX$$$$X*******=====*==*XXXXXX*=*X$$XXXXXX$$$+oo....####%%%<<:::<<<:44c4PJNahw25q8htdre3edgt3nx                                                                                                                                                                 ",
"                                                                                                                              jFm633i666i7adfsttgq5258MHAKL#P::4::<<:::::<<%%<<<<<<%%#...o++X*=>0&,,&0>==**XX*XXXXXX***XXXXXXXXXXXXXXXX*XXXXXXXXXXXXXXXXX$$X****XX**=======*X$XXXX***X$$XXXXXXX$$+ooo....####%%<:::::::44c4:LJesq22wqghsa7i3aff7mFj                                                                                                                                                                 ",
"                                                                                                                              jjbmiaae699i7radfsstgw22gBVHSJKL<:4::::44::::<<<:::::<<%%##..o++$*>@,;,&0->>==***XXXX**==*X$$XXXXXXX*XXXXXX$XXXXXXXXXXX$$XXX$XXXXXXXX**======*$$XXXXXXXXXXXXXXXX$$+oooooooo.###%<:::4c4444c44PK6ag5k5q8htfr363ssembj                                                                                                                                                                  ",
"                                                                                                                                jFm9699666ie7radfftgw25qvBVHSJL%:44444::::::::::::::<<<%%##...o$*-&,,,&@0->>===*****===*XXXXXXXXXXXXXXXX$$XXXXXXXX*XX$$XXXXXX*XXXXXX***===*X$$$XX$$$XXXXXXXXXX$$+oooo++++..##%<<::44ccccc4:LGesq22w8gtsd7367ghinj                                                                                                                                                                   ",
"                                                                                                                                 xxbbnG7e996i3eradftgw52k28Br6JL%:4444:::::::::::::::::<%%%##..+X*>0&,;,&@O-->>>======****==***XXXX$$$$XXX*XXXXXXXXXX$$$X*****XXX$$$$X****XXX$$$XXXXXXXXXXXXXX$$+oooo++$+o.##%%<<:44c4ccc4PKNMhw25q8htdre3edw83nx                                                                                                                                                                   ",
"                                                                                                                                    jxn63i6999ie7raftgw2kkkqtrSJL:4444::::::4::::::::::::<<%%##.o$*=-@,,,&&@O0-->>>===***=====***XXX$$$XXXXXXXXXX$XXXX$$X******XXXX$$$XX*XXXXXXXXXXXX$XXXXXXXX$$+oo.ooo+o.##%%%%<<:444ccccPJHBq55w8gtfaei3ashdGFj                                                                                                                                                                   ",
"                                                                                                                                     jxnGe39zz963e7rftgqw2k2qtDSKP:4444::::::::444444::::::<<%%%#.o$*>-O@,,&&&@O0-->>>>==>======***XX$$X$$X*XXXX$$$XXXXXXX***XXXXXXX$$XXXXXXXXXXXXXXX$$XXXXXX$$++oo......##%%%%%%%<<::ccc4PJDvwk5q8hsd7363ssembj                                                                                                                                                                    ",
"                                                                                                                                      jxn93ii66996ieafthgq5258BHJL:444444444::444:::::::4::::<<<<%#.+X*=-O&,,,&&@O0--0->>>>=======*XX$$X$$XXX*X$$$$$$$$XXXXXXX*****XXXXXXXXXXXX*XXXXXXXXX*XXX$$++oo.....##%%%%%%%%%%<:4cc4PJHvw25q8hsdr363ffembj                                                                                                                                                                    ",
"                                                                                                                                       jxnGrdae9zz9ieafsth8w558MNKP4c4c44444444444::::444::::::::<%%#o+X*>0&,,,,,&@OO@@00->>===>>>=X$$$XXXXXXX$+$$$+++$XXXXXX*******XXXXXXXXX*XXXXXXX***XXXXX$$$+oo....####%%%%%%##%<:4cc4PKNMvw55qgtfa733rdd3nbj                                                                                                                                                                   ",
"                                                                                                                                        jxni7e3i6996ierdfshgw5wvVSKP:4444c4444c444::::4444::::::::<<<%#o+*>0&,,,,&&@&&&@OO->>>>>=>**X$$XXXXX$$++$$++++$XXXXX*********XX$$XXXXXX*X$$XX***X*XX$$$$+o.....######%%%####%<4444:LADBgw5w8gtfa7eerfa9nbj                                                                                                                                                                  ",
"                                                                                                                                         jbnmm9err366ieradftgw5qtrSKLPPP:44c4c4c44444444444::::::::::<%#.+X>0@&&&&&&&&&@@@O-->>>===*X$XXX$$$$++++++++$$XXXXX*=******XX$$$$XXX*XXX$$XX***XXX$$$$$+o......###.########%<:444<.JSDBgw5wqgtfa73eadainbj                                                                                                                                                                 ",
"                                                                                                                                          jbbbn6rfd73ii3eraftgww8tVNAJJKP:4444ccc4444444c44:::::::4:::<%%#oX=-00O@@&&&@OO@O0-->>==**X$$X$$$$++++$+++$$$XXXXX===*****XX$$$$XXXXX*XXXXX****XX$$$$++..##...###..#######%%<::::%$JNVBq22w8hsfa7e7ada6nbj                                                                                                                                                                ",
"                                                                                                                                           j jbm3stsri66i37aftgqwqhfVHNSKL<:444444c444c44444444444444::<<<%o$==>>-0O@OO00OO-->>==**XX$$$+++++++++++$$XXXXXXX**==****X$$$$$XXX*XXXXXXXX***XX$$$++o..##...###..########%%%<::<.XANMg5k2wghsfa73eada6nbj                                                                                                                                                               ",
"                                                                                                                                              jbm7fsri666637aftgw5q8vBM7GJLPP<:44c4ccc4ccc4444444c444:::::<%.+X*=>>------0-->>==**XX$$++ooo++++++++$$XXXXX$XX*==***XX$$$$XXX**************X$$+++oo......###############%<<::<o=ADBq2258ghsfa7e7rdr6nbj                                                                                                                                                              ",
"                                                                                                                                               jFG3r3996996ierftgq555w8s79JKKLPP:44cccc44ccccc4c44c44::::::<%.o$X*===>>>>>>>>===**X$$++ooooo+$+o++$$$$$XX$$$$X****X$$$XXXXX**===*******==*X$$++++oo.....#####%%%%#######%<:::%+JNVvw25qgghtfa7i3rddinbj                                                                                                                                                             ",
"                                                                                                                                                jbnnmnz69zz9ierftgq52258srHSAJKL<44ccccccccccccccc4444::4:::<%#o$XX***===>>=====*XX$$++oooo++$+o++$$$$$XX$$+$X***XX$$$XXXXX**====*****===*X$++++++ooooo.#####%%%%#######%<:::<#XAHMvq2wq8ghtsae3erdrinx                                                                                                                                                             ",
"                                                                                                                                                 jjjxbm9zmzz9ierftgqw2258hBVHSAKLP:ccccccccccccccccc444::::::<%.o++$$XXX*==******XX$$++oooo+++++++++++$XX$$+$XXXXX$$$$XXXXX**=====***===**X$+++++++oooo..###############%%<:::%oKAHVvw55wq8ghsa7ii7afiFxj                                                                                                                                                           ",
"                                                                                                                                                     jbFFFm996ieaftg8qwwwq8vBVHSJKP4cccccccccccxccccccc4444:::<%#.oo+$$$X********XX$$++ooo++++++++++++$XX$$+$$XXX$$$$$XXXXXXX*******===**X$+o++++++ooo...##...###########%%<<:<#LKANMvw225wqgtfae33rdainx                                                                                                                                                           ",
"                                                                                                                                                     j jjxn9999i7afthggqw225qhsaHAKL:4cccccccccccccccccc444444:<%%#.o+$$$XXX*****X$$$++oo+++oo++++++++$XX$$$$$XXX$$$XXXXXXX$$XXXX**====*X$++o++++++oo....#.ooo.############%<:<<PLKJNVg5kk2wqgtfa733eds3Fx                                                                                                                                                          ",
"                                                                                                                                                         jbnm996ieafsthgq5kk5wqhBV6GKL:44cccccxccxccccccccc4444:<<%#.++$$+$$XXX*X$$$++++oooo..++$+++++$$XX$$$$XXXX$$XXXXXXXXXXXXX**====*X$++++++++++ooo..#.....####%%%%###%%<::<<PLKJHMvq5225qgtsd7337da6nx                                                                                                                                                         ",
"                                                                                                                                                           xnz996i7adfstgqw552k58hf76GKP:44cccccccccxcxccc4c4c44:<%#..+$$+++$$$X$+++++++o...#.o++++o+$$$XXX$$$$XX$$$$XXXXXXXX******====*X$+$++ooo++++++o.......####%%%%#%%%<<:::::PLKJNVBvq225w8hsa73i3asiFxjj                                                                                                                                                      ",
"                                                                                                                                                           jbnm966ieraaftg8qq5225w8td76JKLP4ccccccxjjccccccc4c44:<%###o++oo++++$++ooo+++o.###.o+++++$XXXXXXX$$$$++++$XXX$$XX*====***===**$+++oooooooo++ooooo.....##%%%##%%<<<<::::<PLKJSHVBvw22w8hsd73i7f7GGmnbj                                                                                                                                                    ",
"                                                                                                                                                            jbnG966i3e7rfthggqw5222w8td76GmL<<:4cccxjxccxcccc4c4:<%%###.ooooooo++oooo+++o.##..o+++$$XXXXXXXX$$++ooo++$XX$$X*==>==*X******$+oooooooooo++++++ooooo.#######%<<<<<<:::<<#oXKJAHMvw22w8hsa733e7rfsenbj                                                                                                                                                   ",
"                                                                                                                                                             jbnm966996eaffshg8qw2225qgtfr6GKnLP4cccxccjjccccc444:<<%%%#....oooooooo+++o.###...o+$$XXXXX$XXX$+oooooo+$XX$$$X*===**XXX****X+oooooooooo++$$+++oooo.#######%%<<<%<<:::<%%.oLKAHMvw22wgtsd73i3rfsd3mbj                                                                                                                                                  ",
"                                                                                                                                                              jbnm99zzz67aadsthg8q552225qhd76GmnL:4ccccxjxcccccc444::<%%###..oooooo++++o.##.....o+$$$+$$$$$$+o..ooooo+XXX$$XX***XXXXXXX**X$+ooooooooo+$$$++++ooo..#######%%<%%%<<:::<<%%%#KJHMvwk2qghsa7iie7aff3mbj                                                                                                                                                 ",
"                                                                                                                                                               jbFm96999ie7rdssthg8qw5222wgtdriGmnPFbbxcxccxccccc4444:<%%%##..oooo++++oo.#......o++$++++++++o...oo...o$XX$$$$XXXX$$$$XXXXX$+++oooooo+++++++$++ooo....####%%%%%%%<<:::::<<<#KAHMvw22w8hfae3333afd3mbj                                                                                                                                                ",
"                                                                                                                                                                jbnGi3i666ieraddsthggqw5222w8tf76GmnFFF44ccccccccc4c44:<%%%##...ooo+++oo...ooo...oo+oo++++oo....o..##.o$$$+++$$$$$+++$XXXX$$+++oooo+++++++$$$$+ooooo..########%%%%<::::::<<#KAHMgw22wgtfa73iieafd3mbj                                                                                                                                               ",
"                                                                                                                                                                 jbn6ra769963e7rdfsttg8qw5k25w8tde6GGmmnLP::4cccccc4c44:<<%%%##...ooooooo.oo++o...ooo+++oo........##%#.o++++++$$++oo++$$$$$$$++++++++++++$$$$$$++oooo...#######%%%<<:::::::<#KAHMvw25qgtfareee7afdembj                                                                                                                                              ",
"                                                                                                                                                                  xFG7sf39z996ie7addfthhgq52222w8sar7e3GmKKLLP<:4444c44::<<<<%%##....oo+ooo+++oo...oo++oo.........#%%##.o++++++++oooo++++$$$$$+++++++++++$$$$X$$++++o..o.#######%%%<<:::::4:<#KAHMvw25qgtfdaa737aff3mbj                                                                                                                                             ",
"                                                                                                                                                                   xFGdtd7i99996ie7radssth8qw5k258ghttfri69GJJJKPP:444444:::<<<%%###..oooooooooo....o++o......#####%%%#..ooooo+ooo...oooo+$$$+++++++++$$$$$$$X$$$+++o.o+o.######%%%%<<::::44:<#KAHMv52wqgtsffa7e7afd7mbj                                                                                                                                            ",
"                                                                                                                                                                   jxniftfr369z996i37rddfshggq5225555w8tdar7DDHSJKLP<:4c44:::::<<%%##..oooooo........oo.###..######%%%##..ooooooo....oooo+$$++$+++++++$$$$$+$XX$$$++o.o+o..#####%%%%%%<::::44:<#KJNM855wqghttfa73eassembj                                                                                                                                           ",
"                                                                                                                                                                    jxF9sgsa7i699966ie7radstth8qw52kkk2q8gghttfriGmnLP:4444:::::<<%%###.........#####...########%%###%%#...oooooooooooooo++$$++++++++$$X$$$$$XXX$$$+o..oo...####%%%%%%<<<<<<<:::PLJNMgw5wqgghtfa7eeaffrmbxxj                                                                                                                                        ",
"                                                                                                                                                                     jxFefaraarei9999i3e7rddfsthgqw22k2252255w8hf7i9mKP<:44444::<<<%%%%###########%%%##########%%%%###%##........ooooooooo+$$+++++$$$$XX$$$$XXXXXXX$+o...oo...##%%%%%%<<%%%%%<:4:<LJHMgw5wq88gtfa73erst3mnnbj                                                                                                                                       ",
"                                                                                                                                                                       xFnFmah8ta39zz96iierradfsthg8qqw52kkk225w8hsVHAKLP44444::::<<<%<<%%%%%%####%%###########%%%%%##%#########.....ooo..o+$$$$$$$$$XXXX$$$XXXXX***X+o.o+++o.#####%%<<%#...#%::4:%KADfgw5wwwqgtfa7eerdfssdGbj                                                                                                                                      ",
"                                                                                                                                                                          jb6dttdrei69999i3e7rddfstthhgqw222222225qvMHSJLP4444:::::::<<:<<<<%%%%%##############%%%%%##############....o....o+$$$$$XXXXXXXXXXXXXX**==*$ooo+$+o.#####%%<<%#.o.#%<:::<.KSDfgw555wqgtfa7337swkqrmbj                                                                                                                                     ",
"                                                                                                                                                                           xFnnmesghd3zzz966ierradfsssth8qqqqqw5222qgtMHAKLP:444::::::::::<<<<%%%%############%%%%%#######%%#####......oo...o+$$$$$XX$$$$XXXXXX******$+++$$+o.######%%%#####%%<:::<#+JSHMvw2225qgtfa733rdfstdGFj                                                                                                                                    ",
"                                                                                                                                                                            jj bGrhhfr3ii6996i3e7rddddfshggggggqw5225wgBDSJKLP::4444::::::<<<<<<%%%###########%%%%########%###.........oo....+++++$$$$$+$$XXXXX******X$$$$$+o.###########%%%%%<<<:<%#+KANVvqw25wqgtfa73333rtgrmbj                                                                                                                                   ",
"                                                                                                                                                                               jbnmG6aggs7699966ierrarafstttssthg8w52258ta39mKLP:444::<<::::<<<<%%%###########################...............ooo+++$$$$$$XX$$XX**XX**XX$$$+ooo..#########%%%%<%%<<:<%#oKJSDBvq222qgtfa7e3i3assaGFj                                                                                                                                  ",
"                                                                                                                                                                               jjxxbn3hgf3zz66696i3eee7adfffddfsth8qw525qhfriSJLP::4::<<<:::<<<<%%%########################.....oo............ooo++$$+$$XX$$$$XXX$XXXXX$$X$+oooo.#########%%<%%%%<<:<<%#LKSHMvq2k2qgtfa7e33erstrGFj                                                                                                                                 ",
"                                                                                                                                                                                  jxbn99mnFG7r369966666erraarradsthg8qw5wq8hfrNJKLP::::::::::::<<%##########################...oo..............oo+++++$XXX$$$$$$$$$XXX$$$X$++ooo..########%%%%%%%%<<::<<<LKANVtq2k2qgtsdr7e3eaffrGFj                                                                                                                                ",
"                                                                                                                                                                                    jbFFbxxn3369z966999i33eeee7adfsthh8qw5558sVHSJKP<<::::::::::<%%##########%%%%##########..ooo......###.......oo++++$XXXX$$$$+++$$$$$$XXX$+ooo...#######%%%%###%%<:::::<LKJSrs85k5q8hsdaree7asf7GFxxx                                                                                                                             ",
"                                                                                                                                                                                     jjxxjjFmmnm93ei6666666666ieradfstth8w2k58vBVDSJLP<::44:::::<%%%########%%%%%%###.####..oooo.....##########..oooo++$XXXX$$$++++$$$$$XXXX$+ooo...#######%%#####%%::::::<PLKAHMv522w8hsffare7add79mmnx                                                                                                                            ",
"                                                                                                                                                                                           xbbbnzie699996999966iee7adffshq5225wqvBDSJLP<:444::::<<<%%#######%%<<%%###...#..o++o......###########...oo+++$$XXX$$+++++$$$$XX**X$+++ooo.....##########%<:::44::PPKJNMvwk2w8hhtsd7e7rddarr9Fj                                                                                                                           ",
"                                                                                                                                                                                           jjjjbnG9mmmG63i666666iiie7addsh8qw5225qvVSJLP<:44:::::::<%%######%%<<%%####....o+$+o......####%%#####....oo+++$$X$$$$$++++++$$X***XX$$+++ooooooo..####..#%<::4:4:::<LJNMvw25w8gghsa7e37afthdGFx                                                                                                                          ",
"                                                                                                                                                                                               xbFnFFFn93i666996966iie7rdshhgq52228vVSJLP<:4::::::::<%%##%#%%%%%%%####....o+++o......#######.........o+o++$$$$$$$$$+++++$X****XXXX$$++++++++oo.....##%<:44444444LJNMvw25wqqgtfa7337dstsa9Fx                                                                                                                         ",
"                                                                                                                                                                                                jjjjjxbm69GGGGG9966996i3rdfstg8qw55qvVSJLP:444444::::<%%%%%%%%%%%%######...ooooo.....#####..oooo.....o+oo+$$$+$$$$$++oo+$X*****XXXXX$$$$XXXX$+ooo...#%<:4:4444444PJNMg5225wqgtsa73i3erfgfGFx                                                                                                                        ",
"                                                                                                                                                                                                      xFnnnnnFnm9ii69996eradfthh8q55qvVSJLP:4:4:44::::<<%%%%%%%%%%######.....oooo....####.oo+++o.....o+o+++++++$$$$+ooo+$X*****XXXXXX$$XX***XX$+oo..#%%<44:4:44c4:LJNM852k2wqgtfa73ii3ahhaGFx                                                                                                                       ",
"                                                                                                                                                                                                       jxjjjjjxnG37ei9z9ie7rafsthgq52wvVSKLP:4444::::::<<<<%%###############..ooo....####o+++++o.##..oo++++ooo++++oooo+$XX*****XX$XXXXXXX*****X$+o..#%%<:44::::444:LJHM82kk2wqgtfa77e3erfgfGFx                                                                                                                      ",
"                                                                                                                                                                                                              jbn6rfa3696i3e7addftgq52qvVSJLP:4444::::::<<<<%%%%####%########..o......#..o+++++o.###...o+++ooooooo.oo+$XX******XX$$$$XXXXX****X$+oo..#%<:44::::::4:<LJHMgq522w8gtfdar7e3rhhaGFx                                                                                                                     ",
"                                                                                                                                                                                                                bmehgaei66663e7radshq52whaSJLP:4444::::::::<<<<%%##%%#########........ooooooooo..######.ooo..ooo....o$XX*******XX$$$$$XX$X***X$+ooooo#%<::44444::::<%LJNVsgw22w8gtsfdar337f8fGFj                                                                                                                    ",
"                                                                                                                                                                                                                 Fmiei3ar69z9i33erdshq52qhaSJLP:4444::::::::<%<%%%%%%###########.....o+++o.ooo......###......oo.....o+$XX*******X$+++$$$$XX*XX+ooo++o.%<<::::4::::::<<LJSHVt8w5wqghtsfd733rhtembj                                                                                                                   ",
"                                                                                                                                                                                                                 jxxbF9tte9zz966ierdsh852whaSJL<44c44::::::<<%%%<%%%#############...oo+++o.oo......o.##............ooo++$XXXX***X$+o++++$X$$$$+ooo++o.#%%<<:4:<<<<:::::<LJSDBgw5wq88gtsa73erar6nbj                                                                                                                  ",
"                                                                                                                                                                                                                    jxn3dda7i6996ieaftgw2kqtDAKP:44444::::::<<%%<<%%#############...ooo+++ooo..oooooo...###............o+$$XXXXXX$$+++++$$+++$$++o++o.##%%%<::<<<<::::44:PKAHMgw555q8ghfa73e7r3Gnbj                                                                                                                 ",
"                                                                                                                                                                                                                     jxF6tqgd399963rdsgq2k5gVSJL<44c444::::::<<<<<%%##########.........++++o.oo++++oooo.###.....oo..####o+XXX$$$XXX$$+++$$+o++$$++oooo.##%%%<<<<<<::::4444<KADMg52k5wq8hsa7e3e36Gnbj                                                                                                                ",
"                                                                                                                                                                                                                     jjxnedaare6996eaftgw2kqBHAKP44ccc44::::::<<<%%##########..........o++oooo+$$$++++o.###.....oo..###.o+XXX$$$XXXX$++++++++$XX$+ooo...###%%%%<<<::::44444PKSDBg5kk25q8hfa7e3336Gnbbbx                                                                                                             ",
"                                                                                                                                                                                                                        xnnm9ad7i99i7dsh85k2vVNJL:4444c44:::::::<%%#########..ooooooooooo..oo++$$$$++++o.##.............o$$$$$$$$XX$$+$$$+++$$$$$+o...o...###%%%<<::::4444:PLKSDs82kk25q8hsar7ee36Gmmmbj                                                                                                            ",
"                                                                                                                                                                                                                        jxbbn6ra7i663rdshq2kqvVSKP:4444444::::::<<%%%#######.ooo++++ooo.....o+$$X$$++++o.............o..o$$+$$$$$$$$$+$$+++$$$$$+o....o....##%%%%<<<:::4444:PLJSDBgq5255w8tfaar7ei6669mbbFFFbj                                                                                                      ",
"                                                                                                                                                                                                                         j  xn9adri963rdtgw22qBDSKLP<:4444::::::::<%%%#####..oo++$$++oo..##.o+$$$$++++++o............o..o++o+$$$$$$$$+++++++++++oo..o......##%%%##%<::::4::44PLJSHVBgq525qgtsfda7333e39mGieembj                                                                                                     ",
"                                                                                                                                                                                                                            jxn6ra7i963rdtgw228BDSJKP<:::4:::::::::<<%%%%%##..oo++$+++o.###.o++$$++++++++..##..##....o..o+ooo++++$$$$++o++++++oo...ooo..####%%%####%<::::::444PLKANVMv8525qgttsda7eeee3irsghrmFx                                                                                                    ",
"                                                                                                                                                                                                                             jbn6ra7i963rdtgw258BVNAKP<:44::::444::::<%%%%####..oo+++oo.##...o+++++oo++$+o.##.###..ooooooo...ooo++$X$$+o++++++o....ooo.###%%%%######%<:<<<:4c4:PLKJSDVBq55w8gghsfar7e3erfhw2grmbj                                                                                                   ",
"                                                                                                                                                                                                                              jbn6rd7696eaftgq5w8BVNJL#<:::::::4:::::<<%%%%%%%%##..ooo..##...o++++oo+++$+o..#####..ooo++oo......o+$XX$++++++++o....ooo.##%%%%%#######%<%%<:4444:PLKJSHVv8w5wqq8htfdar777rash8henx                                                                                                   ",
"                                                                                                                                                                                                                                bn6daei9ieadtgq55qvVSJ+%<::::44::::<<<<<<<<<<<<%%###.........oooooo++++++oo..####..oo++$+o......oo$XXX$$++++++oo..oooo.##%%%%#####...#%%%<::::44:PLKJSHVB8w555w8gtsfddrei63rhqfGb                                                                                                   ",
"                                                                                                                                                                                                                                jbn9rd766ieadtgq558BDSJL#%<<::4:::<<<<<<<<<<<<%%%%%%%%##......ooooo++++++++o.####..o++$$+o......o+$$XXX$$+++++oo.oooo...##%######....#%#%%<<<<:44:PLKJANDBvw2k2w8ghtssd73663dtrGb                                                                                                   ",
"                                                                                                                                                                                                                                  xF6fd369ieadtgq5w8BDSK$o#%<:4::<<<<<<<:::<<%%%%%%%<%%#........ooo++++oo++o..###..o++++++o...oo++$$$XX$$$++++ooooooo........####..o..######%%<:::<#oLKJSDBgw225w8gghtsd7e337rimFj                                                                                                  ",
"                                                                                                                                                                                                                                   xn6afr66ieafth8ww8BVSJ*+#<::::<<<<::::::<%%%%%%%<%%%#...##%##.oooo+ooooo....#..oo+$$$++ooo++$+++$$$$$$$$$$+o...............####........###%%<<<<%##L$JSDMv8w55wq8ggtfdr77e339mFx                                                                                                 ",
"                                                                                                                                                                                                                                    xFitd366ieadshq55qvVN0*o#<::<<<<::444::<%%%%%%<%%%#####%%<%%.oooooooo.........o++$$$++++++$$$+++$$++$$$$$+oo..............#######.ooo....####%%<<%#.$JSHVMv8w55wq8hsfdda73ee6mFxxxj                                                                                             ",
"                                                                                                                                                                                                                                    jxn9afri6ierdsh8w5qvVNA=+#<<<<<:::444:<<<<%%%%%%%%%###%%<<%#..ooooo.......##..o+$++o+++oo++$$++++ooo++++++++oo............######...ooooo....##%%<<%%#+KJASDBgw2k258httsfa7ee36GGGnb                                                                                             ",
"                                                                                                                                                                                                                                      xF6sde6963rdshq52wvVNA*o%<::::::444:<<:<<<<%%%%%%%%%%%<%%#..ooooo.......##..++++o.o++ooo++++$+o...oooo+++++ooo.........######....o++oooo...##%<<<<%###oKAHMg5kk2w8gghtsd7e33rddenx                                                                                            ",
"                                                                                                                                                                                                                                       xFG37i99i7aftgw228BDS>$.%::::::::::<:::::<<%%%#%%%%%%%%###....ooo..........o+oo...ooo+++$$$$$+o.#....+$$+++++oo.....o...###.....oooo.....##%%<<<<<<<:<%$AHMv8w255q8ggtsa7e37rre9nx                                                                                           ",
"                                                                                                                                                                                                                                        xFGre999eafsh8525gMNA*o%<:::4::::::::::::<<%###%%%%%%%#######.ooo....oooo..o......o+++$$$XX$$o.#..#.+$$+oo+++o....ooo...........o....######%<<<%%<::::P$JNDMv8w25wq8gtfa733i33e6Fxjjj                                                                                       ",
"                                                                                                                                                                                                                                         x9fai99irdstgw22qsDS>+#<::::4:::::::::::<<%####%######%%%%%##.oooo..oooooooo....o+$$$$$XXX$$+.....o+$++oooooo....oo..............#########%%<<%%<::::<#$JANDMv5kkk5qgtfa7eiiieimnnnbj                                                                                      ",
"                                                                                                                                                                                                                                         xGfde69ierdsh852wgdHAX#<:44::4:::4::::::<<%##########%%<<%%###.o+ooooo+++oooo...+$X$$$XXX$$$+o.oooo+$++oooo....oooo..........o..########..##%%##%<<<:<%#oXJSHMg5kkk58gtsd7e33336ieinbxjjj                                                                                  ",
"                                                                                                                                                                                                                                         jn6ad7i6ieadshq55whVNJL<4444:::::::<<<::<<%%#######%%%<<<%%##..oo+ooo+$$$+o..##.+$X$$$XXX$+++o.oooo+++++oo..##.oo+oo.........o...#..............#%%%<<<<%#LKAHMvq2k25qgtsdr7e3i37a7GmnFFxj                                                                                 ",
"                                                                                                                                                                                                                                         jbnidd7i6ierdtgq55qtrSKP:4444:::::<<<<<:<<%%%#####%%%%%<<%##....o+ooo+$$$+o..##.+$$$$$XXX$++o..o+oo++++++o..##..o++oo.......................ooo.#%%%%%<<::<.KANVBvq525qghsfdae3e7r7i99GmFxjjj                                                                              ",
"                                                                                                                                                                                                                                          jbm3ad73663rdsgq558sDAK<4c44:::::<<<<<::<<%%%%%%%%<<%%%%##.....ooooo+++++oo.##.o+$$$$$XX$$+o..ooooo++$$$+o.....o+++o.#######.##...oo......o++o.##%%%%<<:::<PLKAHVBgw25qghtsfa7ee333er76mFbFbj                                                                             ",
"                                                                                                                                                                                                                                            bm3aa76963rdtgw228BHJL4c4444:::<<<<<:::<%%%%%<<<<<%%####......oooooo+oooo.##.o++$$$$$XX$$+o.oooooo+$$$$+ooo..o+++o.###########...o.....oo++o.##%%%%%<::44::PLKAHMhw25q8ghtfd73ii37aae9mmmnx jj                                                                          ",
"                                                                                                                                                                                                                                           jjbm3rri996erdt8w25gMNK<44c444::::<<<:::<<%%<<:::<<%%#####.........ooo...oo.#..o+$$$$XXXX$+ooooooo++$$X$$+++o..o++o.############........ooo...#%%%%%%<::4:4444PLJSVvq55w88gtsdr7eeeee3i3e7Gbxbxj                                                                         ",
"                                                                                                                                                                                                                                             jbm6ei999i7afhq2k5hVAL:4c444:::::<<:::<<%%<::::<<%%#####..oo......oo....o....oo+$$XXXXX$$++++oo++$$XXX$++++..o++o..###########.....oooo.....##%%%%%<:::4444444PKSVvq55qq8ghsfdar733i3rad3nnnFxj                                                                        ",
"                                                                                                                                                                                                                                              jbnG6369ieafh85228MHJP44c44::::::<<::::<<<<<%<<%%%###...ooooo....oooo.ooo....o+$XXXXXXXXXXX$+o+$$XXX$$+++oooo+++o......#........oo++o.......####%%<::::::44444PKNMvq55wq8ghtssdar7e3eeei9ia6Fx                                                                        ",
"                                                                                                                                                                                                                                               jbmeai9ierftgq52wvVSKP4444::::::<<<<<<<%%%%#######..ooo++++oooooo++oooooooooo++X***********X$XX***XX$$$$+o+++++++++++oooooooo++$$$$+oo+++oooo.##%<<<<<<<<<:44:PJHMvw25wwq8ghhtsdar733ii3atambj                                                                       ",
"                                                                                                                                                                                                                                               jF6ft76637aftgwk2qBDAKP:44:<<<<<%%%%%%%%##.......oo+++++$$+++++++$$+++++++++++$X*========>>======**XXXX*X$+$$$$X****X$++++++XX*==*X$$X**X$+++o..#########%%<::<KAHB82kk2wq888ghtsfar7e3i37e6mbj                                                                      ",
"                                                                                                                                                                                                                                               jn3h8r663erdsgqkk2gVNKL<:4:<<<%%%#######..oooooooo+++++$$$$++++$$$$$$$$$$$$$++$X*=>>>>>>>>-->>>>==***K***$$$$$XX=>>=*X$$$$$$KK=>==*XX*==*X$$$+o...oo......#%<:<LJNMg2kkkwqqqq8ghtsfar7366633GFx                                                                      ",
"                                                                                                                                                                                                                                                                                                                                                                                                                                                                                                                    ",
"                                                                                                                                                                                                                                                                                                                                                                                                                                                                                                                    ",
"                                                                                                                                                                                                                                                                                                                                                                                                                                                                                                                    ",
"                                                                                                                                                                                                                                                                                                                                                                                                                                                                                                                    ",
"                                                                                                                                                                                                                                                                                                                                                                                                                                                                                                                    ",
"                                                                                                                                                                                                                                                                                                                                                                                                                                                                                                                    ",
"                                                                                                                                                                                                                                                                                                                                                                                                                                                                                                                    ",
"                                                                                                                                                                                                                                                                                                                                                                                                                                                                                                                    ",
"                                                                                                                                                                                                                                                                                                                                                                                                                                                                                                                    ",
"                                                                                                                                                                                                                                                                                                                                                                                                                                                                                                                    ",
"                                                                                                                                                                                                                                                                                                                                                                                                                                                                                                                    ",
"                                                                                                                                                                                                                                                                                                                                                                                                                                                                                                                    ",
"                                                                                                                                                                                                                                                                                                                                                                                                                                                                                                                    ",
"                                                                                                                                                                                                                                                                                                                                                                                                                                                                                                                    ",
"                                                                                                                                                                                                                                                                                                                                                                                                                                                                                                                    ",
"                                                                                                                                                                                                                                                                                                                                                                                                                                                                                                                    ",
"                                                                                                                                                                                                                                                                                                                                                                                                                                                                                                                    ",
"                                                                                                                                                                                                                                                                                                                                                                                                                                                                                                                    ",
"                                                                                                                                                                                                                                                                                                                                                                                                                                                                                                                    ",
"                                                                                                                                                                                                                                                                                                                                                                                                                                                                                                                    ",
"                                                                                                                                                                                                                                                                                                                                                                                                                                                                                                                    ",
"                                                                                                                                                                                                                                                                                                                                                                                                                                                                                                                    ",
"                                                                                                                                                                                                                                                                                                                                                                                                                                                                                                                    ",
"                                                                                                                                                                                                                                                                                                                                                                                                                                                                                                                    ",
"                                                                                                                                                                                                                                                                                                                                                                                                                                                                                                                    ",
"                                                                                                                                                                                                                                                                                                                                                                                                                                                                                                                    ",
"                                                                                                                                                                                                                                                                                                                                                                                                                                                                                                                    ",
"                                                                                                                                                                                                                                                                                                                                                                                                                                                                                                                    ",
"                                                                                                                                                                                                                                                                                                                                                                                                                                                                                                                    ",
"                                                                                                                                                                                                                                                                                                                                                                                                                                                                                                                    ",
"                                                                                                                                                                                                                                                                                                                                                                                                                                                                                                                    ",
"                                                                                                                                                                                                                                                                                                                                                                                                                                                                                                                    ",
"                                                                                                                                                                                                                                                                                                                                                                                                                                                                                                                    ",
"                                                                                                                                                                                                                                                                                                                                                                                                                                                                                                                    ",
"                                                                                                                                                                                                                                                                                                                                                                                                                                                                                                                    ",
"                                                                                                                                                                                                                                                                                                                                                                                                                                                                                                                    ",
"                                                                                                                                                                                                                                                                                                                                                                                                                                                                                                                    ",
"                                                                                                                                                                                                                                                                                                                                                                                                                                                                                                                    ",
"                                                                                                                                                                                                                                                                                                                                                                                                                                                                                                                    ",
"                                                                                                                                                                                                                                                                                                                                                                                                                                                                                                                    ",
"                                                                                                                                                                                                                                                                                                                                                                                                                                                                                                                    ",
"                                                                                                                                                                                                                                                                                                                                                                                                                                                                                                                    ",
"                                                                                                                                                                                                                                                                                                                                                                                                                                                                                                                    ",
"                                                                                                                                                                                                                                                                                                                                                                                                                                                                                                                    ",
"                                                                                                                                                                                                                                                                                                                                                                                                                                                                                                                    ",
"                                                                                                                                                                                                                                                                                                                                                                                                                                                                                                                    ",
"                                                                                                                                                                                                                                                                                                                                                                                                                                                                                                                    ",
"                                                                                                                                                                                                                                                                                                                                                                                                                                                                                                                    ",
"                                                                                                                                                                                                                                                                                                                                                                                                                                                                                                                    ",
"                                                                                                                                                                                                                                                                                                                                                                                                                                                                                                                    ",
"                                                                                                                                                                                                                                                                                                                                                                                                                                                                                                                    ",
"                                                                                                                                                                                                                                                                                                                                                                                                                                                                                                                    ",
"                                                                                                                                                                                                                                                                                                                                                                                                                                                                                                                    ",
"                                                                                                                                                                                                                                                                                                                                                                                                                                                                                                                    ",
"                                                                                                                                                                                                                                                                                                                                                                                                                                                                                                                    ",
"                                                                                                                                                                                                                                                                                                                                                                                                                                                                                                                    ",
"                                                                                                                                                                                                                                                                                                                                                                                                                                                                                                                    ",
"                                                                                                                                                                                                                                                                                                                                                                                                                                                                                                                    ",
"                                                                                                                                                                                                                                                                                                                                                                                                                                                                                                                    ",
"                                                                                                                                                                                                                                                                                                                                                                                                                                                                                                                    ",
"                                                                                                                                                                                                                                                                                                                                                                                                                                                                                                                    ",
"                                                                                                                                                                                                                                                                                                                                                                                                                                                                                                                    ",
"                                                                                                                                                                                                                                                                                                                                                                                                                                                                                                                    ",
"                                                                                                                                                                                                                                                                                                                                                                                                                                                                                                                    ",
"                                                                                                                                                                                                                                                                                                                                                                                                                                                                                                                    ",
"                                                                                                                                                                                                                                                                                                                                                                                                                                                                                                                    ",
"                                                                                                                                                                                                                                                                                                                                                                                                                                                                                                                    ",
"                                                                                                                                                                                                                                                                                                                                                                                                                                                                                                                    ",
"                                                                                                                                                                                                                                                                                                                                                                                                                                                                                                                    ",
"                                                                                                                                                                                                                                                                                                                                                                                                                                                                                                                    ",
"                                                                                                                                                                                                                                                                                                                                                                                                                                                                                                                    ",
"                                                                                                                                                                                                                                                                                                                                                                                                                                                                                                                    ",
"                                                                                                                                                                                                                                                                                                                                                                                                                                                                                                                    ",
"                                                                                                                                                                                                                                                                                                                                                                                                                                                                                                                    ",
"                                                                                                                                                                                                                                                                                                                                                                                                                                                                                                                    "
};
