/* XPM */
static char *result[] = {
/* columns rows colors chars-per-pixel */
"500 400 75 1 ",
"  c black",
". c #7A482C",
"X c #76452A",
"o c #734128",
"O c #6B3B23",
"+ c #6F3E25",
"@ c #7E4B2E",
"# c #663921",
"$ c #C9CCD8",
"% c #CBD0DC",
"& c #814E32",
"* c #945D41",
"= c #905A3E",
"- c #592F1A",
"; c #60351D",
": c #B8BCCB",
"> c #B2B6C5",
", c #BEC2D0",
"< c #C4C7D4",
"1 c #ACB0BF",
"2 c #976044",
"3 c #855135",
"4 c #73788D",
"5 c #AE7556",
"6 c #A6A9BA",
"7 c #787D92",
"8 c #82879A",
"9 c #A66E51",
"0 c #7D8297",
"q c #A0684B",
"w c #9A9DAF",
"e c #9FA3B4",
"r c #8B563B",
"t c #888B9E",
"y c #8C90A3",
"u c #9C6347",
"i c #B67C5D",
"p c #9195A7",
"a c #CFD3DF",
"s c #552B19",
"d c #BF8667",
"f c #491D12",
"g c #6E7389",
"h c #502416",
"j c #060607",
"k c #0E0E0F",
"l c #9699A9",
"z c #B39697",
"x c #18181A",
"c c #242427",
"v c #BFACAF",
"b c #BCA2A2",
"n c #313134",
"m c #676C82",
"M c #C9C4CD",
"N c #C79379",
"B c #C2B5BB",
"V c #9C7571",
"C c #C6BEC6",
"Z c #A7807B",
"A c #62636F",
"S c #56575F",
"D c #AA8A8A",
"F c #3C160D",
"G c #3D3D43",
"H c #6F6F77",
"J c #494A51",
"K c #774A3A",
"L c #906B67",
"P c #7B534C",
"I c #805D5A",
"U c #8F6359",
"Y c #6B4641",
"T c #603934",
"R c #8B7F85",
/* pixels */
"                                                                                                                                                                                                                                                                                                                                                                                                                                                                                                                    ",
"                                                                                                                                                                                                                                                                                                                                                                                                                                                                                                                    ",
"                                                                                                                                                                                                                                                                                                                                                                                                                                                                                                                    ",
"                                                                                                                                                                                                                                                                                                                                                                                                                                                                                                                    ",
"                                                                                                                                                                                                                                                                                                                                                                                                                                                                                                                    ",
"                                                                                                                                                                                                                                                                                                                                                                                                                                                                                                                    ",
"                                                                                                                                                                                                                                                                                                                                                                                                                                                                                                                    ",
"                                                                                                                                                                                                                                                                                                                                                                                                                                                                                                                    ",
"                                                                                                                                                                                                                                                                                                                                                                                                                                                                                                                    ",
"                                                                                                                                                                                                                                                                                                                                                                                                                                                                                                                    ",
"                                                                                                                                                                                                                                                                                                                                                                                                                                                                                                                    ",
"                                                                                                                                                                                                                                                                                                                                                                                                                                                                                                                    ",
"                                                                                                                                                                                                                                                                                                                                                                                                                                                                                                                    ",
"                                                                                                                                                                                                                                                                                                                                                                                                                                                                                                                    ",
"                                                                                                                                                                                                                                                                                                                                                                                                                                                                                                                    ",
"                                                                                                                                                                                                                                                                                                                                                                                                                                                                                                                    ",
"                                                                                                                                                                                                                                                                                                                                                                                                                                                                                                                    ",
"                                                                                                                                                                                                                                                                                                                                                                                                                                                                                                                    ",
"                                                                                                                                                                                                                                                                                                                                                                                                                                                                                                                    ",
"                                                                                                                                                                                                                                                                                                                                                                                                                                                                                                                    ",
"                                                                                                                                                                                                                                                                                                                                                                                                                                                                                                                    ",
"                                                                                                                                                                                                                                                                                                                                                                                                                                                                                                                    ",
"                                                                                                                                                                                                                                                                                                                                                                                                                                                                                                                    ",
"                                                                                                                                                                                                                                                                                                                                                                                                                                                                                                                    ",
"                                                                                                                                                                                                                                                                                                                                                                                                                                                                                                                    ",
"                                                                                                                                                                                                                                                                                                                                                                                                                                                                                                                    ",
"                                                                                                                                                                                                                                                                                                                                                                                                                                                                                                                    ",
"                                                                                                                                                                                                                                                                                                                                                                                                                                                                                                                    ",
"                                                                                                                                                                                                                                                                                                                                                                                                                                                                                                                    ",
"                                                                                                                                                                                                                                                                                                                                                                                                                                                                                                                    ",
"                                                                                                                                                                                                                                                                                                                                                                                                                                                                                                                    ",
"                                                                                                                                                                                                                                                                                                                                                                                                                                                                                                                    ",
"                                                                                                                                                                                                                                                                                                                                                                                                                                                                                                                    ",
"                                                                                                                                                                                                                                                                                                                                                                                                                                                                                                                    ",
"                                                                                                                                                                                                                                                                                                                                                                                                                                                                                                                    ",
"                                                                                                                                                                                                                                                                                                                                                                                                                                                                                                                    ",
"                                                                                                                                                                                                                                                                                                                                                                                                                                                                                                                    ",
"                                                                                                                                                                                                                                                                                                                                                                                                                                                                                                                    ",
"                                                                                                                                                                                                                                                                                                                                                                                                                                                                                                                    ",
"                                                                                                                                                                                                                                                                                                                                                                                                                                                                                                                    ",
"                                                                                                                                                                                                                                                                                                                                                                                                                                                                                                                    ",
"                                                                                                                                                                                                                                                                                                                                                                                                                                                                                                                    ",
"                                                                                                                                                                                                                                                                                                                                                                                                                                                                                                                    ",
"                                                                                                                                                                                                                                                                                                                                                                                                                                                                                                                    ",
"                                                                                                                                                                                                                                                                                                                                                                                                                                                                                                                    ",
"                                                                                                                                                                                                                                                                                                                                                                                                                                                                                                                    ",
"                                                                                                                                                                                                                                                                                                                                                                                                                                                                                                                    ",
"                                                                                                                                                                                                                                                                                                                                                                                                                                                                                                                    ",
"                                                                                                                                                                                                                                                                                                                                                                                                                                                                                                                    ",
"                                                                                                                                                                                                                                                                                                                                                                                                                                                                                                                    ",
"                                                                                                                                                                                                                                                                                                                                                                                                                                                                                                                    ",
"                                                                                                                                                                                                                                                                                                                                                                                                                                                                                                                    ",
"                                                                                                                                                                                                                                                                                                                                                                                                                                                                                                                    ",
"                                                                                                                                                                                                                                                                                                                                                                                                                                                                                                                    ",
"                                                                                                                                                                                                                                                                                                                                                                                                                                                                                                                    ",
"                                                                                                                                                                                                                                                                                                                                                                                                                                                                                                                    ",
"                                                                                                                                                                                                                                                                                                                                                                                                                                                                                                                    ",
"                                                                                                                                                                                                                                                                                                                                                                                                                                                                                                                    ",
"                                                                                                                                                                                                                                                                                                                                                                                                                                                                                                                    ",
"                                                                                                                                                                                                                                                                                                                                                                                                                                                                                                                    ",
"                                                                                                                                                                                                                                                                                                                                                                                                                                                                                                                    ",
"                                                                                                                                                                                                                                                                                                                                                                                                                                                                                                                    ",
"                                                                                                                                                                                                                                                                                                                                                                                                                                                                                                                    ",
"                                                                                                                                                                                                                                                                                                                                                                                                                                                                                                                    ",
"                                                                                                                                                                                                                                                                                                                                                                                                                                                                                                                    ",
"                                                                                                                                                                                                                                                                                                                                                                                                                                                                                                                    ",
"                                                                                                                                                                                                                                                                                                                                                                                                                                                                                                                    ",
"                                                                                                                                                                                                                                                                                                                                                                                                                                                                                                                    ",
"                                                                                                                                                                                                                                                                                                                                                                                                                                                                                                                    ",
"                                                                                                                                                                                                                                                                                                                                                                                                                                                                                                                    ",
"                                                                                                                                                                                                                                                                                                                                                                                                                                                                                                                    ",
"                                                                                                                                                                                                                                                                                                                                                                                                                                                                                                                    ",
"                                                                                                                                                                                                                                                                                                                                                                                                                                                                                                                    ",
"                                                                                                                                                                                                                                                                                                                                                                                                                                                                                                                    ",
"                                                                                                                                                                                                                                                                                                                                                                                                                                                                                                                    ",
"                                                                                                                                                                                                                                                                                                                                                                                                                                                                                                                    ",
"                                                                                                                                                                                                                                                                                                                                                                                                                                                                                                                    ",
"                                                                                                                                                                                                                                                                                                                                                                                                                                                                                                                    ",
"                                                                                                                                                                                                                                                                                                                                                                                                                                                                                                                    ",
"                                                                                                                                                                                                                                                                                                                                                                                                                                                                                                                    ",
"                                                                                                                                                                                                                                                                                                                                                                                                                                                                                                                    ",
"                                                                                                                                                                                                                                                                                                                                                                                                                                                                                                                    ",
"                                                                                                                                                                                                                                                                                                                                                                                                                                                                                                                    ",
"                                                                                                                                                                                                                                                                                                                                                                                                                                                                                                                    ",
"                                                                                                                                                                                                                                                                                                                                                                                                                                                                                                                    ",
"                                                                                                                                                                                                                                                                                                                                                                                                                                                                                                                    ",
"                                                                                                                                                                                                                                                                                                                                                                                                                                                                                                                    ",
"                                                                                                                                                                                                                                                                                                                                                                                                                                                                                                                    ",
"                                                                                                                                                                                                                                                                                                                                                                                                                                                                                                                    ",
"                                                                                                                                                                                                                                                                                                                                                                                                                                                                                                                    ",
"                                                                                                                                                                                                                                                                                                                                                                                                                                                                                                                    ",
"                                                                                                                                                                                                                                                                                                                                                                                                                                                                                                                    ",
"                                                                                                                                                                                                                                                                                                                                                                                                                                                                                                                    ",
"                                                                                                                                                                                                                                                                                                                                                                                                                                                                                                                    ",
"                                                                                                                                                                                                                                                                                                                                                                                                                                                                                                                    ",
"                                                                                                                                                                                                                                                                                                                                                                                                                                                                                                                    ",
"                                                                                                                                                                                                                                                                                                                                                                                                                                                                                                                    ",
"                                                                                                                                                                                                                                                                                                                                                                                                                                                                                                                    ",
"                                                                                                                                                                                                                                                                                                                                                                                                                                                                                                                    ",
"                                                                                                                                                                                                                                                                                                                                                                                                                                                                                                                    ",
"                                                                                                                                                                                                                                                                                                                                                                                                                                                                                                                    ",
"                                                                                                                                                                                                                                                                                                                                                                                                                                                                                                                    ",
"                                                                                                                                                                                                                                                                                                                                                                                                                                                                                                                    ",
"                                                                                                                                                                                                                                                                                                                                                                                                                                                                                                                    ",
"                                                                                                                                                                                                                                                                                                                                                                                                                                                                                                                    ",
"                                                                                                                                                                                                                                                                                                                                                                                                                                                                                                                    ",
"                                                                                                                                                                                                                                                                                                                                                                                                                                                                                                                    ",
"                                                                                                                                                                                                                                                                                                                                                                                                                                                                                                                    ",
"                                                                                                                                                                                                                                                                                                                                                                                                                                                                                                                    ",
"                                                                                                                                                                                                                                                                                                                                                                                                                                                                                                                    ",
"                                                                                                                                                                                                                                                                                                                                                                                                                                                                                                                    ",
"                                                                                                                                                                                       kxxkkkjjjjkkkjj                                                                                                                                                                                                                                                                                                              ",
"                                                                                                                                                                                      knJJGnnccccnnnck                                                                                                                                                                                                                                                                                                              ",
"                                                                                                                                                                                    jkcS44ASJJGGGJSSJcj                                                                                                                                                                                                                                                                                                             ",
"                                                                                                                                                                                    kcJgpy0gmAAAAmggAGcj                                                                                                                                                                                                                                                                                                            ",
"                                                                                                                                                                                  jkcJm0yy80744447004AGxj                                                                                                                                                                                                                                                                                                           ",
"                                                                                                                                                                                 jkcJA8044708888800004AGxj                                                                                                                                                                                                                                                                                                          ",
"                                                                                                                                                                                 kcGA7t0g47tpppppyt8084AGxj                                                                                                                                                                                                                                                                                                         ",
"                                                                                                                                                                                jcGA88778tpweeeeeewyt077mGxj                                                                                                                                                                                                                                                                                                        ",
"                                                                                                                                                                               kcGA7t878lwe61161116wp8087AGxj                                                                                                                                                                                                                                                                                                       ",
"                                                                                                                                                                               cJH0070tle611>>>>>>>6ep8777mGxj                                                                                                                                                                                                                                                                                                      ",
"                                                                                                                                                                             jcGH08078w611>>:::::::>1ey0780AGxj                                                                                                                                                                                                                                                                                                     ",
"                                                                                                                                                                             xSH7070tw61>:::,,,<,,,:>6ey8777mGxj                                                                                                                                                                                                                                                                                                    ",
"                                                                                                                                                                           jcJH0077tw6>::,,<<$$$$$<,:>6ey0787AGxj                                                                                                                                                                                                                                                                                                   ",
"                                                                                                                                                                           cSg7747tl61::,,$%aaaaaa%<,:>6ey8744AGcj                                                                                                                                                                                                                                                                                                  ",
"                                                                                                                                                                         jcJg80778l61:,<<$$%%%$$$%%$<,:>6ey0704AGck                                                                                                                                                                                                                                                                                                 ",
"                                                                                                                                                                         xSH7070tl61:,<$%%$<CCCBBCM$$$<:>1ey0074AJck                                                                                                                                                                                                                                                                                                ",
"                                                                                                                                                                    kxnnnGH0000yw61:,<$%$MCBvbbbbvBM$$$<:>6wy8004AJnccxj                                                                                                                                                                                                                                                                                            ",
"                                                                                                                                                                   jxGA4AA7070yw6>:,<$$$CBbzzDDZZDbBM$$$<:>6wy807gmHAAGk                                                                                                                                                                                                                                                                                            ",
"                                                                                                                                                                   kxJRp87008tw6>:,<$$$CvbDZZVV55ZDbBM$$$<:>6wy8070ylpAx                                                                                                                                                                                                                                                                                            ",
"                                                                                                                                                                   jxGHyy877tl61:,<$$$CvzDVV9999q5ZzbBM$%$<:>6wy078e>:7c                                                                                                                                                                                                                                                                                            ",
"                                                                                                                                                                   jknSH4770pe1>:<$$$CvzDV999999995ZzbBM%%$,:>6lt70l1:0c                      jkkkkkkkkkkkxkj                                                                                                                                                                                                                                                       ",
"                                                                                                                                                                    jxnJAm7yw61:,<$$MBzDV9999999999VZzvM%%$<:>6ey448l64c                     jxcnncccnnnnnGnxj                                                                                                                                                                                                                                                      ",
"                                                                                                                                                                   jkcJAAg8pe1>:,$%$CvDZ99999555599VZDbC%%$,:>6ey4g0p64c                     knSAmSSSSSSSA4HGxjjj                                                                                                                                                                                                                                                   ",
"                                                                                                                                                                   jxGm047tl61>,<$%<BbDV999555559955ZzbC%$<,:16wt4g0p67c                    kcS8llt770700p1lSnxxkj                                                                                                                                                                                                                                                  ",
"                                                                                                                                                                   jxGm770yw6>:,$%%MBzZ5555iiiii555idzvM%%$,:16wt4g0p64c                   jnSRppy8000000twtAJJJnxj                                                                                                                                                                                                                                                 ",
"                                                                                                                                                                  jkcGAg40yw6>:<$a%MvzZ55iiddddiiiiddzvM%%$,:16wt4g0p64c                  jcAypt74444444444gAm74SGx                                                                                                                                                                                                                                                 ",
"                                                                                                                                                                 jxGAHmg48pe1>,<%a$CbDi55iddddddddddNbBM%%$,:16wt4g0p64c                 jnA7yt8070000000074g4884AGcj                                                                                                                                                                                                                                               ",
"                                                                                                                                                                 knApw7g7tw61:,<%%MBzZi55iddddddddddNbB$%$<,:16wt4g0p67c                jcAly070typppyyyyyyt800ty8HJk                                                                                                                                                                                                                                               ",
"                                                                                                                                                                 knAyw040ye1>:<$a$CbDi55iidididdddddNbBM%%$,:16wt4g0p67c               knA0p870tpeeeeeeeewwlpyyplp8AGx                                                                                                                                                                                                                                              ",
"                                                                                                                                                                jxnS7t77tw6>:,$%%<BzZ55iiiiiiiiddiiddzvM%%$,:16wt4g0p67c             jkcApy0778pe61616161166ewwwwwp0AGk                                                                                                                                                                                                                                             ",
"                                                                                                                                                               kxGSm7008pe1>:<%%%CbD5555iiiiiiiiiiiidzvM%%$,:16wt4g0p67c             knS7pt70tle61>>>>>>>>>>166ewwlt4SGx                                                                                                                                                                                                                                            ",
"                                                                                                                                                               knA78740yw61:,<%%$BzZ555555555555555ZZzvC%%<,:16wt4g0p67c           jknA8t800tl61>>:,,,:,::::>>16ewly04AGxj                                                                                                                                                                                                                                          ",
"                                                                                                                                                               kGHyp7g0pe1>:,$%%MBzDi5iiiiiiiiii599VZDbM%%<,:16wt4g0p67c          jxnS7y870tw61>:,<<<<<<<<<,::>16ewpt87mJcj                                                                                                                                                                                                                                         ",
"                                                                                                                                                               xJ7lw4g8l61>:,$%$CvzDiiiiiiiiiiii59q9VDvMa$<,:16wt4g0p67c         jxnS0t877tl6>:,<$%%$$$<<$$<,,:>>1ewyttt8Scj                                                                                                                                                                                                                                        ",
"                                                                                                                                                             jxnAtlp4gtw61:,<$%$CvzddddddNdddddii9q9VzvMa%<,:>6ey4g0p64c        jxnS7p8478le1:,<$%aa%%%%$%%%$<,:>>1elytw68Sck                                                                                                                                                                                                                                       ",
"                                                                                                                                                             knA8lp847ye61:,$%%<BbNdddddNNNNddddi9q9ZzvMa$<,:>6ey440l64c       jxnSRyp0g0pe1:,<$$%%%%$$$$%aaa$<,:>>6eptw>6RSckj                                                                                                                                                                                                                                     ",
"                                                                                                                                                             xSy66y740l61>:,$$$MBbNdddNNNNNNdNddi59VZbB$%$<,>16wt77te17c      jxnS7py070pe1:,<$$$<MMMCCM<$aaaa$<,:>16lype110Jck                                                                                                                                                                                                                                     ",
"                                                                                                                                                             xH1:6847tw61>:,$$<CvbNdddNNNNNNNNNdi55ZDbC$%$,:>1ep870p617c   j  xnS7pl840pe1:,<$$<MCBvvvvBBM$%%a%$,:>>6elyye>e4Jck                                                                                                                                                                                                                                    ",
"                                                                                                                                                             xH61w7g0pe1>:,<%$MBbzDdddNNNbNNNNNddiiZzvM%%<,>16l8748e16Hc  jkkknS7yy008pe1:,<$%$MBvbzzzzzbvBM$%a%<,:>>1ewpyp617Gx                                                                                                                                                                                                                                    ",
"                                                                                                                                                             xAlwy4gtw61>:,$%$CvzDZZddNNNNNNNNdNdiiDbC$a%<:>1ey747teetSx  xGnnJgtp848l61:,<$$$CBbzDZZZZZDzbBC<%%<,:>>11el07e$wScj                                                                                                                                                                                                                                   ",
"                                                                                                                                                             xApwy4gtw61:,<$%<BbDZZiiidddNNNddddiidNvM%%$<:>6wy448yygJxj kGR8Hmm4008pe1:,<%%$CvbzZV599955ZDbvC$%$<:>>116w04e$wScj                                                                                                                                                                                                                                   ",
"                                                                                                                                                             kSRyt77tw6>:,<$$CvzZZ5555iidddddddiiidzvMa%$,:>6wt44ty8Sx  xnH61p7mm48pe1:,<$$$CvzDZV99uuuq95ZDbBM$$<:>>11ew84w<lScj                                                                                                                                                                                                                                   ",
"                                                                                                                                                             jGA4008pe1>:<$%MBzDZV9995iidiiiiii555dzvMa%$,:>6wt448y8Sx kGRwel04g78pe1>,<$%<BbzDZi559qu22uqVZzv,$%<,:>166w0gw<lScj                                                                                                                                                                                                                                   ",
"                                                                                                                                                           jkcGSm40yw6>:,<%$CvDZV9qq95iiiiiiii5955dzvM%%$,:>6wt448t8SxknH61p0770tpe1:,<$%$CbzZV55559qu222uLVDbC$%$,:>16el0mw<lScj                                                                                                                                                                                                                                   ",
"                                                                                                                                                           jGSAmg4tle1:,<$%<BbZV9qq9955ii5ii555995dzvM%%$,:>6wt448t7SnG7lwp808tpwe1>,<$$$CvzZV99955599qu22UVDbC$%$,:>16ep4ml,lScj                                                                                                                                                                                                                                   ",
"                                                                                                                                                           kJ47747yw1>,<$%$CvzV9qq9995555555559995dNvM%%$<:>6wy448t7SnJw6y00tpwe61:,<$$<CvzZVV999955599q2*ULDbC$%$,:>16wtgmp,lScj                                                                                                                                                                                                                                   ",
"                                                                                                                                                           xJg7708l61:,<%%MBzZ59qq9959555555559995dNvM%%$,:>1ey44ty8AcG8p07tpe61>:,<$$MCvNDZ59qqq999999qu2ULDbC$%$,:>1el8gmp,lScj                                                                                                                                                                                                                                   ",
"                                                                                                                                                           kJm470tw6>:,$%%MvDZ9qqq9999555i55555995dNvM%%$,:>1ey44tptAnG4870pe6>>:,<$$MCvNdi599qqqqqq9qqqu2UVDvC$%$,:>6wy0ggw<wScj                                                                                                                                                                                                                                   ",
"                                                                                                                                                           kGmg40tw6>:,$%$MvD59qqq999555ii55559995dNvM%%$,:>6wy448pp4SSm78ye61>:,<$$MCvbNdi59qquuuuuuuqu2uLZzBM%$<:>16l84401aeScj                                                                                                                                                                                                                                   ",
"                                                                                                                                                           kGAg40tw6>:,$%%MvZ9qqqq99555iiii5555995dNvM%%$,:>6wt4g0ty0mAg7yw6>>:,<$$MCvbNdi599qqu2222*2222UVDbC$%$<:>6ey7g0w:$lScj                                                                                                                                                                                                                                   ",
"                                                                                                                                                           kGmg47tl61:,$%%MvZ9quuqq955iiiiii555995dzvM%%$,:>6wt4gg700740tw6>:,<$%$MCvbNdi55559qu2******2ULZzBM$%<,:16lt7gy>,14Gx                                                                                                                                                                                                                                    ",
"                                                                                                                                                           kGmg478le1:,$%%CbZ9u2uuq95iiiiiiii55995iNvMa%$,:>6wy7mmm4708yl6>:,$%%%MCvbNddiiii559u2***==*2UVzvC$$$,:>6wy877l>e4Jck                                                                                                                                                                                                                                    ",
"                                                                                                                                                           kGmg478le1:,$%$CbZ9u**uq95iiiidiiii5999iNvMa%$,:>6wy7gmAmg0yw6>:,$aaa$CvbNddiiiidii5qu2**==*uVDbB<$$,:>6ep808ywwHGxj                                                                                                                                                                                                                                     ",
"                                                                                                                                                           xJmg478l61:,$a$CbZ9u**2u95iiididiii59q9iNvMa%$,:>6wy7gmmm4tl6>:,$%aa$CvbNdddidddddi59qu2*==2LZzBM$$<:>6ep807yepHGxj                                                                                                                                                                                                                                      ",
"                                                                                                                                                         jxnSgg478l6>:,$a%CbZ9u*=*u95iidddddi559q9iNvMa%$,:>6wy7gmg7tw6>:,<%a%$CvbNddddddddNdd59qqu*=*UVzvM%$<:>1elt747p64nxj                                                                                                                                                                                                                                       ",
"                                                                                                                                                         kGA47447tw6>:,$a%CbZ9u*=*u95iiddddii59qq9iNvM%%$,:>6wy7gg48pe1>:<$a%<CvbNddddddddNNddi59qu2*ULZbC%a$,:>6wy044704Jk                                                                                                                                                                                                                                         ",
"                                                                                                                                                         c41et740ye1>,<$a$BbZ9u**2q95iddddii559qq5izvM%%$,:>6wy7440yw6>::<$a$CvNddiiiidddNNNddi59qquULVzB$aa$,:16l80700Ankj                                                                                                                                                                                                                                         ",
"                                                                                                                                                         c7:6t77tl6>:,<$%<BbZ9u22uq95iddddii559qq5dNvM%%$,:>6wy070tl61::<$%$CvNddiiiiiidddNdddi599qqLVDbMaa$<:>6wy00tlwAx                                                                                                                                                                                                                                           ",
"                                                                                                                                                         xHwy078pe1>,<$$$MBzZ9quuq95idddddddi59qq9dNvM%%$,:>6wy00tpe1:,<$%$MvNddi5555555iiddddii59q9VDbB$%$<:>6wy048w1>Hx                                                                                                                                                                                                                                           ",
"                                                                                                                                                         xAy8778l61:,<$%$MvzZ9quuq55idddddddi5quu9dNvM%%$,:>6ly8tpw6>:<%a%<Bbdii5555559555iidiii59q9ZzBM$$<:>16p077yeetSx                                                                                                                                                                                                                                           ",
"                                                                                                                                                        jxAy0478le1:,<$%%,vzZLu2uq5iiiddddddi5quu9dNvM%%$,:>6lytywe1:,$aa$CvzZ555559999qq9955i55999iDvC$$<:>>6ey448w68Jxj                                                                                                                                                                                                                                           ",
"                                                                                                                                                         xSy0478le1:,<$%%,bDVU22uq5iiddddddii5quu9dzvM%%$,:>6wyyle6>:<%a%CvzD55999999qqquuqq9995955ZbB<%<,:>1el847l1>4cj                                                                                                                                                                                                                                            ",
"                                                                                                                                                         xAy8478le1:,<$%%CbDLU**2q9iddddddiii59qq9dNvM%%$,:>6wplw61:,<%aMBbDZ59999999qqu222uqq995ZDzBM$$<,>16wy04t6:BHx                                                                                                                                                                                                                                             ",
"                                                                                                                                                       kcJ4p8478pe1>,<%%%CzZL***2u9iddddddii59quu9iNvM%%$,:16wwe61>,<$$<BbDZ59959999qqqu2**22uq95ZzvC$%$,:>1ep808l16ySk                                                                                                                                                                                                                                             ",
"                                                                                                                                                      kxS8ll8478le1:,$%%$BzVq*=*2q9iNNNNddi55qu2u9iNvMa%$,:16ee61>:<$$<BbDZ99999599999qqu2**22u9VDbB<%$<:>>6wt70ywe8Snj                                                                                                                                                                                                                                             ",
"                                                                                                                                                      knR>6p070yw61:,$%$CvDV2==*2q5dNNNNNdd59q2*2qiNvMa%$,:16666>:,$$$CbDZ99q9955559999qqu2**2q9ZzvC$%$,:>1ep047tt7Snkj                                                                                                                                                                                                                                             ",
"                                                                                                                                                      knp%1t00tpe1>:<$%MBzZL*==*u9idNNNNNNdi9u**2q5NvMa%$,:1666>>,<$$MvzZ99qq99955555999qu2**uqVDbBM%%<,>16wt7447mSnk                                                                                                                                                                                                                                               ",
"                                                                                                                                                      kny<e740yw6>:,<$%CbDVU*=*2q5iNNNNbbNdi9u*=*u5DvMa%$,:1661>:<$%<BbZ99qq99595555599qu2***UVZzvM$%$<:>1ey7707AJnk                                                                                                                                                                                                                                                ",
"                                                                                                                                                     jkn0>ym48pe1>:,$%$CzZLU*2uq9idNNNNbbbNi9u*=*u9DbMa%$,:1111>:<$$CvD9qqq99555555559qu2*==ULVDbB<%%<,:16l847t7Snk                                                                                                                                                                                                                                                 ",
"                                                                                                                                                      kn76tm48pe1>,<$%$BzVLU2u95iidNNbbvvbdi9u*==u5dbMaa$,:>11>:,$%$BzZquq99555555599qqu*==*ULZzv,$%$,:>1ey040p8Snj                                                                                                                                                                                                                                                 ",
"                                                                                                                                                      knHetg48le1:,<$$<BDVLU2q5idddNNbbvvNdi9q2**u9dbCaa$,:>>>:,<$$MvDVqu99955555999qqu2*==2UVDbC$%$<:>1el8008p8Snk                                                                                                                                                                                                                                                 ",
"                                                                                                                                                      kcS0740yw6>:<$%$CbDLU22q5idNdNNNbbvbNi59q22u9dbCaa$<,:::,<<$MBbZ9uq95555555599qqu****UVDbB<%$<,>1elt40lp7Snxj                                                                                                                                                                                                                                                 ",
"                                                                                                                                                     jxnSmg7tl6>:,<$%<BzZLu22q5idNNddNNbbbNd599u2u9ZzB<%%$<,,<<$$MBbD5qqq55555555999qu2***ULZzBM%%<,:1ep8748eySnk                                                                                                                                                                                                                                                   ",
"                                                                                                                                                    kcJHmAg0yw6>:<$%$CbDVU2**u9idNNNddNNbbNNii5qu2qVDbB<%%%$$%%%$CvzZ9qq95555555999quu2**ULVzvM$$$,:16lt77tt7Snk                                                                                                                                                                                                                                                    ",
"                                                                                                                                                   jcJ4l7m4tle1:,<$$MBzZLU*=*u95ddNddddNNNNNdi59u2uqVDbB$aaaaaa%MvzDVqq99995959599quu2222LVDvC$$$,:>6wy0g06lSnk                                                                                                                                                                                                                                                     ",
"                                                                                                                                                  kcJ48t748le1>:<$%<BbDVU=rrr2q5idddddiddNNNdi59quuu9ZDbB<%%$%$MBbDZ9qq999555555559quu2uqVDbB$%$<,:16l87gt:6Scj                                                                                                                                                                                                                                                     ",
"                                                                                                                                                jknJ4lt478pe1>:<$%$CvzVL*r33r*q5iiddddiiidNddi59quuuu9ZDbBCCCCCBbzZ599959555iii55559qquq9ZzvM$%<,:>6wp870l:eScj                                                                                                                                                                                                                                                     ",
"                                                                                                                                                xGA0pl840ye1>:<$%%MBzZL*r333r*q95iiddiiiiidddi59quu2uq9VDzbbbbbbNNd5555955iiddiiii559q99ZzvC$$$,:>6wy80y66lHnkj                                                                                                                                                                                                                                                     ",
"                                                                                                                                                nAt6et77tl6>:,$%a$CbZ9*3&&33r*u955iiiiii5iddi59qu2222uu9VVZdNNNNddii55555iddddddiii5995ZzbC$$$<:>6ep070p16HGxj                                                                                                                                                                                                                                                      ",
"                                                                                                                                               jGHe>w770yw1>:<%a%MvDV*3@@&3rr*u9995555i55iiii59q22*22222Uq95iiiddii5555iiddNddddddi559iDbB<%$<,:16lt7g40ygnkj                                                                                                                                                                                                                                                       ",
"                                                                                                                                                G4e>pg4tle1:,<aa$BzVU3@.&3r==2qq999999555iiii59q22*2222*=*uq995ii555555idNNNNddNNdi555ZzBM%%$,:>6wy04gggHJcjj                                                                                                                                                                                                                                                       ",
"                                                                                                                                               jnAyetg7yw6>:<$a%CbZLr@.@3r=**uq999qq9999555i559qu222222****2uq999999955ddNNNNNNNNdi59iDbC$%$<,>1el874gmAJGGnxj                                                                                                                                                                                                                                                      ",
"                                                                                                                                                nS7y840pe1>,<$%<BzV=&@@&r=**2uq999qqqqq995555599qu22222****22uqqqquqq95dNNNNdNNNNd599izvM%%$,:>6wy8774gAJJHAGxj                                                                                                                                                                                                                                                     ",
"                                                                                                                                              jknSg800yw6>:<$$MBbZU3@@&3r=*2uuq9999qqquq995555559quu222222222uuu2222uq5dNNNNdNNNdi9q9izBMa%<,:16wpt8007gm7ewAGxj                                                                                                                                                                                                                                                    ",
"                                                                                                                                             jkcGAg08yw61:,<$<BbDLr&@&3r==*2uuqq9q99qquuq995555599qu22222222222****2uq5dNNNdddNdi9qq9izB$a%<:>16elpyyt880y11yAGxj                                                                                                                                                                                                                                                   ",
"                                                                                                                                            jkcJAg78pe6>:,$%$CbDL=3@&3r==*222uuqq99qqquuuqq95555599qu2*222222*****2uuq5ddNdddddi5quu9izB$a%<:>>166eewwly88tl1wHGx                                                                                                                                                                                                                                                   ",
"                                                                                                                                            kcJA408yw1>:,$%$CvDV*3&@3r=***2222uuqq9qqquuuuq99555555qu22222222****22uuq9iddiiiii5q2*u9izB$a%<:>>>>>1166ewy04811pHnxj                                                                                                                                                                                                                                                 ",
"                                                                                                                                           jcSmg78pe1>:,$%$CbDL*3@&3r==*2222222uuqqquqqquqqq9955ii59qu22***222222***2q9iiiiiii59u==29izB$a%<:::,::>>>>>6wt77tw1eHGk                                                                                                                                                                                                                                                 ",
"                                                                                                                                          kcJm778yw1>:,$%$CvDL=3&&3r=***22222222uuqquqqquqqqq995i559qqu2**=*22222***2u95555iii5q2rr=qVzB<a%<<,<<<,,::::>6lt07y11lHnk                                                                                                                                                                                                                                                ",
"                                                                                                                                         jcSmg70yw6>:,$%$CbDLP&@&3r==*22222222222uuqqquqqqqqq9999999qquu2***2uuuu***2uq99555ii5q*3&32VzB<aa$$%%a%$<,,,,:16ly00yw1w4Gk                                                                                                                                                                                                                                               ",
"                                                                                                                                     jxnnnJg770yw61:,<$$CvDV=@.@3r=****2222222222uuuqquqqqqqqq9999qqquuuu2***2uuu2**2uuuq995ii5q*3@&=LDvMaaa%%aaa%$$<<<,:16wy00y61wHnk                                                                                                                                                                                                                                              ",
"                                                                                                                                    jcSR8mm478pw61:,$$$CvDV23.@&3r=**********2uuuu2uuqqqqquqqqqqqqqqquuuu2****2222222222uqq95i592r&@32ZzB%aa$$<$$%aaaa%<,>16wy08yw6wRJk                                                                                                                                                                                                                                             ",
"                                                                                                                                jkcnGStC>8440yw61>,<%%MBzVUr&@&3r==**===*****2uuuu22uuqqqquqqqqqqqqqqquuu2******222222222uq95i592r&@&rLDbCMMCBBBBCM$%%%$<,>16wy80ye6e4Gx                                                                                                                                                                                                                                            ",
"                                                                                                                                kGARl6Ca:8g78le1>:<$a$CbZL=3&3r==*===r==******22222222uuuqqqqqqqqqqqqquu22222****222222*2uq95i59ur3@@3*VDbvvbzzzzbvBCM<$$<,>16wy88tw6wRJk                                                                                                                                                                                                                                           ",
"                                                                  kkcccccccccccccccccccccxj                             kxccccccnA86CC<$67g0yw6>:,$%$MvDVI3&3r=****=rr==*******222222222uuqqqqqqqqqqqqu222222****22222**2uq95i592r3@@&3UVZDDZVVVZZDzbvBC<$<,:16wy80tw664nxj                                                                                                                                                                                                                                         ",
"                                                                  xnSHHHHHHHHHHHHHHHHHHHAJk                            jxJHHHHAAHRp6116etgg8l61>,<$$CvDVI3&3r==*****====****==****22222222uuuuuuuqqqqqu22***************2uq9555q2r3&@&&3IULUU**2uqLVZDzvC<$$,:16wy00tw1w4Jk                                                                                                                                                                                                                                         ",
"                                                            kxxxxxnS7plppppppppppppppplptAnxxxxkkj                 jkxxcG4llppptttyppyt04g7ye1>:<$<,vzVUP&&3r=*******==****===****22222**22uuuuuuuqqqquuu2**************2uq9559q*3&&&&&&3PPP3333rr=*u9ZzvC$%<,:16lt00ye6eHnxj                                                                                                                                                                                                                                       ",
"                                                            cGJJGGSHye6eeeeeeeeeeeeeee6ew0SJJJJnck                jkcGJJAt66eeeelt74gggmg0ye6>,<$$MBzVUPK@3r====**22******====******2222***222222uuqquuqu2*******======**2u9999u=3&&&33&&@@..@@@&&&&3=qZzvM%%$,:>6wy88te>lHGxj                                                                                                                                                                                                                                      ",
"                                                          jxJg07HHH7tyyyyyyyyyyyyyyyyyypy8gHHgHSGckkkkkkkkkkkkkkkjkcJH0448yyyyyyt04gmggg7yw6>:<$$<BbZUr@@@3r=====********=====******2222****222222uuuuuqq2*******======**2uq99q2=3&@&333&@...@@@@@..@3*9Zz><$%<,:>6wy80p66lHnxj                                                                                                                                                                                                                                     ",
"                                                         jxGge1ely87gmmmmmmmmmmmmmmmmmmmg7tppll7SGcccccccccccccccccJmp6w8gmmmmmmmg700008yw6>:,$a$CvDV*3@@3rrrr==================*****2222***22222222uuuqq2*==******====***2uq9q2=3@.@&&333&@&&333&@@@&r2VZw><%%$<:>6wy808e>lAGxj                                                                                                                                                                                                                                    ",
"                                                        jxJ4p6elyt874gmgmgmgmgmgmgmgmgmmg48ytyy7ASJJSSSSSSSSSSSSSJSAgywp8gmmmmmm47typpple6>:,<aa<BzZU=3&3rr=rr==================******2222*22222222**2uuqu2*==*****===****2uqqqu=3@..@&&3r333rrrrr3&&&r*UVDw><$%$<:>6wy07y66lHnx                                                                                                                                                                                                                                    ",
"                                                       jxGg16y7gg4478tttttttttttttttttt8874gggggg4770000000000000074ggg470088t88tpweeee61>::<$aaCbDLU=rr=***==rrrr====rrrr==rr==**==**222222222*****=*2uuuu2*==*2**==******2uqqu=3@XX.@&3rrr=**22*=rr3r=ULVDw><%%$,:>6wt0706$lScj                                                                                                                                                                                                                                   ",
"                                                      jxGgl6w84g470tpwwwwwwwwwwwwwwwwwwlpt744444770008888888888888074gg78yplllllwe611111>::,<%a$BzZLU*=*2u22*=rrrr=====rrrrrr==***=**2222222222*****=**2uuu2*==****==******2uuqu=3@XX..@&3r=*2uqqqu*=rrr=UUVy6,%%$<,:1ep0ggea6Scj                                                                                                                                                                                                                                   ",
"                                                      xGg168008ttyple66e666e66ee66ee6666ewyyyyyt0744g4444444444444g4708ylwe6666e611>>>>>::,<$%$CbDVU2222uquu*=rr========rrrr==******2222222222*==******2uuqu*====**======***2uu2=3@.....@&r=*2q999qu2=rrrrILRe:$%%<,:1ep8gml<lScj                                                                                                                                                                                                                                   ",
"                                                    jxGHp6l77tylwwe61>11111111111111111116ewwwwlyt0777077700077007708ypwe61111111>::,:::,<$$%$CvzZVquuuuqqu2=rrr===============*****222222222***=*******2uuu2=============**2uu2=3@......@3=*2q99999qu=r3&PIRl:$%$<:>1ep8gmp,lScj                                                                                                                                                                                                                                   ",
"                                                    xG4668778pw66661>::>:>>>>>>>>>>>>>>>>116666eelpyyyyytyyyyytyyyyyple61>>>>>>>::,,,,,,<%aa$CvzDV9qqqqqqu*=rrrr====rr====**====****222222222******2222**2222*=====rr======*2uu*r3@....@.@3r*2uq99559q*r&KPIRl:$%$,:>6wy0gmp,lScj                                                                                                                                                                                                                                   ",
"                                                  kxJHp6l778pe6111>>:,,,,,:::::,,::::,,:::>1111166eewwwwwwwwwllwwwwwe61>>,::,:,,,,<$$$$<$%%$CvzDV9qqqquuu2*==rr====rr=====***==******22222*222****22222***222***===========*2uu2=3@....@..3r=*2uq9559q=3KKYIRl:$%$,:>6ep8gmp,lScj                                                                                                                                                                                                                                   ",
"                                                 jcJgeey008pe1>>::::,<<<,<<<<<<<<<<<<<<<<,:>>>>>>1116666666666e666611>::,,<<<<<<<$$%aaa%$<MCvzDZ9qquuu2***========rr======******22****222*=*22222222222****2222**==========*2qqu=3@XX..@..3r==*2uq999u=3KKPIRw:$%$,:>1ep8gml,lScj                                                                                                                                                                                                                                   ",
"                                                jcJgpel008pe1>:,,,,<$$%%%$$%%%%$$$$$$%%%$$,,,,,,::>>1>>>1111111>>11>>:,<<$$$$%%%%%$$%%$MCBvbzDZ59qquu2*=***==============**2222222*****2**=**222222222******22**=======rrrrr*uuu*r@.X.....&rr===*uqqu*rPPPIVp1,$%$,:>6wy0401%eScj                                                                                                                                                                                                                                   ",
"                                                cJ4lwy808pe1>:,<<<$$%%aaa%%%aaa%%%%%%aaaa%$<<<<<,,:::::::>>>:::::>>>:,$$%%%%aaaaa$<MMMCBvbzDZZ59qqqu2*==****============**22222222********==*2222**************=======rr3333r2uu2r3.......&3rrrr==**=rPPIUVD6:<$$<,>16l877y>%eScj                                                                                                                                                                                                                                   ",
"                                              kcJ4pwp008pe1>,<$$%%$$<M$MMMMM$$$$$$$$$$%%$$$%%%$$$<<<,,<,,,:,,<<<<,,,<$%aa%$$$$$$MCBBBvvbzDZZ599qqquu2*==***========**===***2222222****====*****2**======****=========rr3333rr*2u2=3&..XX..&3rrrrr==rrPIILZzb:<$$,:>1ely8044ye4Jx                                                                                                                                                                                                                                    ",
"                                             jcJglwp870pe1>,<$%%a%<CBBBBBvvBBCCCBCBCBCCMMM$%$%%%%%%$$$$$<<<<<$%$$$<$$%aa%MMMCCBBBvbbzzDDZZ559qquuuu22*==**====rr==****==****222222****====*******========**=========rr3&&333r*22*=r&@XXX.@&3333rr==r3PUVDbvC$%$<:>6ept08tgSSAJck                                                                                                                                                                                                                                    ",
"                                            jcJ4pwp808ye1>,<$$%$$MBvbzzzzzzzbbvvbbbbvvvvBCMMMM<$%%aa%%%%%$$$%%%%%%%$%%$<CBBvvbbbzzzDDZZ55599quuuuu2222****===rr====****==****2222******===******======rr=**=========r3&&&&&3r=**=r3&.XooX.&3333r===r3rLDbBM$$$<,>6wy877pegncnckj                                                                                                                                                                                                                                    ",
"                                            xJHlep870pe1>,<%$$MCBvbzDZZZZZZDdNNNNNNNNNNbbvBBBBCC<$%%%%$$$$%$$$$$$$$$<<CBvbzzzDDZZZZi559999qqu222222222****==rr======****==*********===**==*****======rrrr=*==**=====r3&&&&&&3rr=r3&@XooooX@&&3rr=*=r3*VzB<%%$<,:1el8747w>4cjj                                                                                                                                                                                                                                       ",
"                                          jcJ4pwp808ye1>,<%%$CBbzDZV99LL9995iiididdddNNNNNNbbbvvBCMMMMMMMM<MMMMMMMMCBBvbzDZZZZViiii5599qqqu2*******22***============*********==========********==========**=========r33&@@@@3rrr3&.Xo+++ooX.@&3r**=rr*ZzB$a%$<,:1ep8747w:8Gxj                                                                                                                                                                                                                                       ",
"                                          xJ4w6p070pe1>,<%%$CvzDZVq2*****2uqq99955iiiiddddNNNNNbbvvBvBvBBBBBBBBBvBvvbzDDZVVVV955555559quu2*====*******==============********====rrrrrr==*******========****========rr33&@@@@&333&.Xo+OO+++oX.@3r**=rr*VzvM$$<<,:>6wy070l1pAGxj                                                                                                                                                                                                                                      ",
"                                          c06wp808ye1>,<$%$CvzDVL2=333333r=*22uuq95555555iddddNNNNNNNNNNNbbbbbNbNNNNdZV599q9999555559quu2==rrr=========rrrrr==================rrrrrrrrr==*****==rrrr==**2**===rr===r3&&@@@..@&&@@.Xo+OOOO+oXX.3=2*=3&3UVzvC$$$<<:>6wyt8tylpHGxj                                                                                                                                                                                                                                     ",
"                                          nw:y708pe1>,<$%%MvzDVU*r3&&@@@@&3r===*2uq9999995iiiiddddddidddddNNNNNddii5999qqqq9995955599uu2*rrrrrrrrrrrrrrrr=rr====rr============rrrrrr3rrr==*====r=rrrr=**2**==rrrrrr33@@@@@...@@@...XoOOOOO+oX.3=2*r@..&*VzvC$%%$<,>1ept07p1yAGxj                                                                                                                                                                                                                                    ",
"                                          c4p008pe1>,<$a%MBzZVL2*=r333&@@@3rrrrr=*2uuqqq995555iiii55555iiiiddddii59qqqqqq9999999999qu2*=rrrr333rrrrrrrrrrrrr====rrr======rrrrrrrrrr3333rr===rrrr===rr=======rrr3333&@....@@..@......X+OOOO+oo.3=*=&X++X&2VzvC$aa%<,>6ep870tppHGx                                                                                                                                                                                                                                    ",
"                                          xSg48yw6>:,$aa$CbZVU222****=r3&@333333rrr=*uqqq99955555595999955555ii559quuuuqq9999qqqqqu2**=rr33333333333rrr3rrrrr===rrrr====rr=rrrrrrr333333rr=r333r===rrrrrrrrrr33&@@@@...X..@@@@...@@@.o+OOO++o.3==r.+##+X&2VzvC$a%$<:>6ep84gy6pAGxj                                                                                                                                                                                                                                  ",
"                                          xJm48yw6>:<$aa$BzZL222uuq999q2r&&33&@@@&3r=2uqqq9999999999qqqqqqqqq9999quqqqqqq99qququuu2==rrr33333&&333r333333r33rr=rrrrrrrrrrr=rrrrrr33&&&&&3333&&&333r33333r3333&&@@......X..@@@@..@@&@.X+OOO+oo.&r3&XO##Oo.32VDbC<$%$<:>6ep040ylpHGx                                                                                                                                                                                                                                  ",
"                                          xJm48yw1>:<$aa<BzVU***2u95559ur@&&&@.XX.&3r*2uuuqq999q9qqqu2222**2uuqquuuuqqqqqquuu222**=rr3333&&3&&&3333333333333rrrr3333rrrrrr=rr3rr33&@@@&&&&3&&&&@&&333333333&&@@@.........@@@@@@@@@@@.o+OOO+ooX.@@X+O##OoX@32VDbBC<$$<:>6ey047p6lHGkj                                                                                                                                                                                                                                ",
"                                          xJA48yw1>:,$%a<1zVU=rrr=2uu2=3@.@@.XoooX@3r*22222uqquuuuu2*===*=r==*****2uuu222222222*=rr33&&&&&&3&&&3333&33&&33&&3333333r3rrrrrrr33333&&@@@&&&&3&&@@@@@&&3333333&&@...........@@@@@@@@...XoO#O++++++o++####O+o.@rUVZzbBM$$<:>6wp878plyHJx                                                                                                                                                                                                                                ",
"                                          xJA48pe1>:,$%a<1zVU=3&&&333&.o+oX.Xo+++o.&r======******==r33rrr333rrrrr==***====**22*=r333&@@@&&&&&&&&&&&&&&&&&&&&&33&&3333333rrrr3&&3&&&&&&&&&&&&&@@@@@&&33333333&@.............@@@&@@XXoo+O#O+OO######;;;#O+oX.&PILVDbB<%$,:>6wp800pwtAn                                                                                                                                                                                                                                ",
"                                          kJA48pe1>:,$%a<1zVU=3.Xoooo+#;#O+oo++OO+X@33rr33rrrr333&@....@@.X.@@@@&3rrrrrrrrr====r33&&@@@@@@@@@@@&&@@@@&@@&&&&&3&&&&3333&33333&&&&&&&&&&&&&@@&&@@@@@&&33333&&&&@...........X..@@@@.Xoo+OOOOOO##;;;;;--;#OooX..@3rUVDvC%%<,:>6wy04twyHn                                                                                                                                                                                                                                ",
"                                          xSH40pw6>:,<%%<BzZL*3X+O##;;-s-;#O+OOO#O+o.@@@@@&&&@@.Xo+OOO+oo+++oooX.@&&&&&33333rr33&@@@@@@@@@@@..@@@@@@&&@@@&&&&&&&&&&&&&&&&&&&&&&&&&&&&&&&@@@@&@@@@@&&3333&&@@@@@@@....@@.XXX...@..Xo+OOOOOO###;#;;;--;;O+oooXX.KPLZbB$%$<,:16l048ptHGxj                                                                                                                                                                                                                              ",
"                                          cHt77tle1:,<$%$MvDVU3X+#;;-sshs-;;####;;#O+++++oX..Xo+O##;;;######OOO+oXXXXX..@@&@@@@@@@@@@@@..@@.......@@&3&@@&@@&&&&&&&&&&&&&&&&&&&&&&&&&&&@@@@@&&@@@&&&&&&&@.....@@@@..@@@@.........XXo+OOOOO####;;;;---;;##O+++ooKIVzvM%%$<:>6wt708t0AJx                                                                                                                                                                                                                              ",
"                                          c4p070tw6>:,<$%$BbDLP.+#;-shhhhs--;;;;;-;;;;;;;#+++O##;;;----;;;;;####OOOOO++oXXXXXXXX............XXX...@&333&&&@@@&&&&&&&&&&&&&&&&&&&&&&&&&&@@@@@&&&&&&&&@@@@..XX..@@@@@@@@&&&@.....XXXXo+OOOOO#####;;;----;;;;#####YPLDbC$a%<,:1ep8748ytgGk                                                                                                                                                                                                                             ",
"                                          cAtt808yw6>>,<$%<BbZUKoO;-shffhhs----s------ss--;;;;;----------;;;;;;;;;;;;##O++++++ooXXXXXXXXXXXXXoXX..@&3333&&&&&&&&&&&&&&&&&&&&&&&&&&&&&&&&@@@&&&&&&&&@@@...........@@@@@&33&@@@..XXXXoo+++OO####;;;;;----s-------TYIVz><aa$,:>6lt4g0p6eHnk                                                                                                                                                                                                                            ",
"                                          xJH8t008yw61:,$%%<BzVIPKo#-shfhhhshsssshhhhhhhhs--ssss-----------;;---;-;-;;;####OOOO+++++ooo+ooo+++ooX..@&33&&&&&&333333333&&&&3333333&&&&&&&&&&&33&&&&&@@.............@@@.@33&&&@....XXXoo+++OO#####;;;;--ssssssshhsTPLD6,aa$,:>6wy4m7p1>yAnk                                                                                                                                                                                                                           ",
"                                           xGH88800yl61:,$%%,6zVLIPPYT-sshhhhhhhhhhhfffffhhhhhhsssssss------------------;;;;#####OOOOOOOOOOOOO++oXX..@@@@@@@&3333333333&&333333333&&&&&&&&&&3&&@@@&@@....@........@@..@@&&&&@......XXoo++++++OO##;;;;-sssshhhfffsYIR6,aa$,:>6wy7g48w6e8Sck                                                                                                                                                                                                                          ",
"                                            xJH08800tw6>:,$%<:vzDRRLIPYT;-shhhhhhhffffffffhhhhhhhssssss----s-----ssssssss-;;;;;;;#############O+++oooXX.XXX.@&33&&&333&&&&&&&&&&&&&&&&&&33&&&&@@@@@@....@........@@@@...@@&@@..@.....Xo++o+++++O##;;;--ssshhfFFFhTPRe:aa$,:>1ep8777tplygSckjjjjj                                                                                                                                                                                                                    ",
"                                            jkGH8yt77tl6>:<$$<,:B1epRHIPYTT-shhhhffffffhhhhsshhhhhssssss-sssss-ssshhhhhhss---;;;;;;;;;;;;;######OOOO++oo++oX.@@@@@&&&&@@@@&&@@@@&&&&&&&33333&@@@@@@.......XXX...@@&&@@.@@@@@...@....@@X+++++oo+OO###;;---shhfFFFf-YLl:%a$,:>1ewpt807447y8Jxxxxxxk                                                                                                                                                                                                                   ",
"                                              xJH8t077tw6>:,<$$%$<,>epRHIPPYT;-ssshhhhsss-;;;-sss---------sss--shhhfhhhfhssss---;;;;;;;;;;;###########OO##O+oXXXX.@@@@...@@@....@@@@&&33333&@@@@@@@..XX..XoooX..@@@@@@@@&&&@...@....@@.o+++++++OOOO##;;;-sshhfFFfsYLp>%a$,:>16ewlyt74g4yyAGJSASGck                                                                                                                                                                                                                  ",
"                                               xGA8y8g4yw61:,<%aaa%$,>6ltRVLIKYTTTTTTTTTTYYYYYYTTTTT##;;TT-T;;-shffffffffhhhss--------;-;;;;;;;;;;;;##;;;;#OOOO++oXX..XXX....XXX.@@@&&33333&@@@@@@@..XXXo+++ooX.....@@&&&&&@@@@@....@@.o+OOOOOOO+++OO##;--ssshfffsYIDv$a%<,:>116eelyt807gAA8e:1RJx                                                                                                                                                                                                                  ",
"                                                xGA08770yw61:,$%%aaaa$,>6ezDZLIIIIIIIIIIIIILLIIIIIIIIPKKPYKYYYO-hfffffffffhfhsss--------;-;;;;;---;;;;;--;;;;;;;#O+ooooooXXXoooXX..@@&&&&&&@@@@@@@..XXoo+OOO+ooXXX....@&&&@@@......@@&@Xo++++OOO++++OO##;---sshhh-TPVzC$a%<,,:>116ewlpt4mmgp1<,eHGxj                                                                                                                                                                                                                ",
"                                                jknS7pt47yw6>:,,<$$%%%%$<,CB6wytttDDDDDttttttttttttDZZVVVVVVLIPT-hhhhhfffffffhhss--------;;;;;------------------;##O###O+oo++++ooXX..@@@@..@@@@@@..XXo++OOO##O++oXX..XX...@@......@@&3&.Xooooo+++ooo+O###;;--ssss-;YIZbCaaa%<,::>116eelt7gg40ylepHGx                                                                                                                                                                                                                ",
"                                                  xnA8y800tw61>::,,<$%aaa%$<,:1v1vvvv61v1v1v1v1v1v1vvbbbbbbzzZLIYTT;;-shffffffhhss-------------------sssssssss---;;;;;;#O+++OOO+oooXXX.XXX.......XXXo+OOOOO##OO++oXXXooXXX......XX.@33&@.XXXXXXXXXoo+OOOO#;;---;--;OKUZbM%aa%$<,::>>11elt74gg40pp7AGnncj                                                                                                                                                                                                            ",
"                                                  jxnA8wp47tl61>>>::,<$$$$$$$$$<<<,M<M<<<<<<<<<<<<<<<M,,M,MCB6lRLIPPY+#-hffffffhhss--------;--------sshhhhhhssss------;;#O++##O+++++oooooXX..XXXooooo+O##O+##OO+++ooo++ooXX....XXXX@&33&@.....@@.XXo+OO++O#;;;;;;;-;OKUZbC$aaa%$,,:::>1ely8077777gmgggSx                                                                                                                                                                                                            ",
"                                                   jxGAtp807twe6111>:,<<<<<$%aaa%%%%%%%%%%%%%%%%%%%%%%%$%%a%$,>6zDRVLIPYTshhffffhhhssss------sssssssshhhhhhhhssssssss--;;######OOOO+++ooooXXXoo++++o++O##OOO#OOO+++++++ooooX...Xo+o.&333&@..@@&&@.Xo++++++O#;;###;-;;+KUZzvCM$$$$$<<,,:1ewpyt8074g40ttgGnGck                                                                                                                                                                                                        ",
"                                                    jxnA8wy47ylwee61>>:,,,,,$$%%$$$$$$$$$%$$$$$%$%$%$$$$$%%%$$<,:16bzZVIPYT-hhhffffhhhs-----ssssshhhhffffhhhhhhhhhssss--;;;;;;;####O+++oooooo+OOOOO++OO####OOOOOOOOOOO+oo+++X.Xo+++X.&&&&@@@@&&&&@.Xoooo++OO######;;;#oPUVDzbBC$%aa%$<,>16eewpy8744777747tHnkj                                                                                                                                                                                                      ",
"                                                     jxnAty0008typle61>>::::,<$$<<<<<<,,<<<<<<<<<<<<<<,<<<$$$%%%$<,CBbzDRLIYTT-hhfffffhssssssshhhfhfffffffhffffffhhhhsss---;;#;####O++++oo++++OOOOOOOOO####OOOOOOOOOOO+oo+O+oXXo+O+oX.@&@@@@@&&3&&@.Xoooo++OOOOOOOO#OO+XKPUVZzbBM%aa%%$,>>166ewyt0774g48l6tSGncxk                                                                                                                                                                                                   ",
"                                                      jxGA0yt74708tywe611>>>::,,,,,,,:::,,,:,:,:,,,,,:,,,,,,<$$aaaa$<MBvblRLIPYT-hhffffhhhhhhhhfffffffffffffffffffffhhhhss-;;###;#OO++O+++OOO++OOOOOO####;##OOOOOOOOO++o+OOO+oo++OO+oX..@@@&&&&3&&@..Xoooo++OO+oooooooo+ooKPUVZzvC$%aa%<,:>1166ewpt7gmg0yel74RAGcj                                                                                                                                                                                                  ",
"                                                       jxGA8t0777008tpwe66111>>::>>:>>>>>:>:>:>>>>>>>:>:>>:::,<$%aaa%%$<C>6zZVUPYTTshhfhhffffffffffffFfffFfffffffFFffffhhss-;##;;;#OOO#OO####O++OOOOO####;;#OOOOOOOOO++o+OOOO+++OOO++oXX.@@&@@&&&&@@.XXXXXo+++XXXXXXXXXoOOOoKPUVDbBM<$%$<,,:>>166ep87gg478tyleyAGxj                                                                                                                                                                                                 ",
"                                                         kGA0tt8077770tplwe6611111>11>11>11111>1>1>1>1111>11>>:,<<$$$%aa%$MBvzDZLIPYTshhhfffffffffffFFFfFFFfffffFFFFffffhhs-;;;;;;;###;;;;;;;#O++OOOO####;;#O++++++OO++++OOOOOOOOOOO++ooX.@&@@@&&&&@....XXooooX...XX...X+O#OO+KPUZzvBCM$$$<,::>>16elt04gmmgte>6tAnxj                                                                                                                                                                                                ",
"                                                          xGA8t04gg447088tylwee666e66e66e66666e6e666e6666e6661>::,,,<$$%%%$$MBvbzDRLPYTT-hhhhffffffFFFFfFFFfFFFFFFFFfffffhhss------;;;;;;;;;;#OO+OOOOO###;;#OO+++++OO++++OOOOOOOOOOOO++ooX.@@.@@@&&&@@@@.XXooX....XX..@.o+O##;#+KIVDzbBM$%%$<,,:>>16wy87gmg7tlwp4Snxkkj                                                                                                                                                                                             ",
"                                                          jkGH4mASAm47744708ylllpplpplpplppppplplppplpppplplw61>>>>::,,<<<$%a$<,:vbyRHAPYTTT-shhffFFFFFfFFFFFFFFFFFFFfffffhhhhssssss--;---;;;;#OOOOOOOO##;;#OOO++++OO++++++OO++++OOOOO++oo.@....@&&&&&&@..XXXX..XXXXX.@.XXo+#;-;#YPLVDzvC$%%$$<,,:>16elyt74gmg7t0mJnncxj                                                                                                                                                                                            ",
"                                                            xGGGnnJS4t87gg478t88888888888888888888888888888tyle6111>>::::,<$%%$%$<C1ep8RLIIPYYTT-hffFFffFFFFFFFFFFFFFFFffffffhhhhhhss----;;;;;##OOOOOO#####OOOOO++OOO+++o++++ooo+OOOOOOO+oX.XXX..@@&&&&@@.XXXX.XXooX..@@.XXoO#;;;#YPULZzb><$%%$$<,::>16ely874gg74gAASSnkjkj                                                                                                                                                                                         ",
"                                                            jjjjjkcJgppt0444774444444444444444444444444444440tpwee611>>>>>:,,<<%aa%<,>6eptRRLIPPYT-shfffFFFFFFFFFFFFFFFFffffffffhhhhss--;;#;;;;#OOOOO####OOOOOOOOOOOO++ooooooXXXo++OOOO#+ooXXXXX..@&&&@@@@..XXXXoooX...@@.Xoo+#;;;OXKPUVDw1:M$$%$<,,:>166ewpt04gmm48t0Scccxj                                                                                                                                                                                        ",
"                                                                  kcS7e>6wly0ggmmgmmgmmgmmgmmgmmgmmgmmgmmmmgg78yplwwe6111>>>:,<<$%%$$$<:>16bzyRVIIYYT;shffffFFFFFFFFFFFFFFFFFFffffffhhs-;;;;-;;#OOOOO###OOOOOOOOOOOOOO+++ooooXXXoo+++OOOO+++ooXXX.@@&&@@@@@@@..XooooXXX...XXXo+##;#OoKPILRDzvBC<$$$<<,:>116ewpt74g4004AJSAGxjj                                                                                                                                                                                      ",
"                                                                   kcSl<,16l84444g44g44g44g44g44g44g44g44gggg4408ttypwe66661>:,,,,,<$aa%$<<<,>6ltRHIPPYT-ssshfFFFFFFFFFFFFFFFFffffFFfhs-;;;-s-;#OOO##OOOOOOOOOOOOOOOOOOO+oooooXXXXoo++OOOOOO+oXXX..@@...@&&&&@..Xooo++oX..XXXXo+O#;#O+XKPULVZzbBM$$$$<,,:>116ewpt04mmmAmtlHGcxxkj                                                                                                                                                                                   ",
"                                                                    xnSgHHAHte11111111111111111111111111116ept0774478ylwewe66>>::::,<$%%%a%%%$,:>6ltRVLIPPYT;shhffFFFFFFxFFFFFFFFFFfffhs---ss-;;######OOOOOOOOOOOOOOOOOO+oooooXXXXoo+++++OOO+oXX....XXXX@@&&@@@..Xo+OO++ooXXXoo+OO###O+o.&PIUVZzbvCM$$$<,::>>116wp84mAAm7t0HgHSnk                                                                                                                                                                                   ",
"                                                                    jkxxcxxn0:$aaaaaaaaaaaaaaaaaaaaaaaaaaa%:6y74gmgg708yyypwe61>>::::,<$$%%%%%aa%<:1elDDZVUPYYTT-shfFFFFxxFFFFFFFFfffffhssss---;;;;;;###O++OOOOOOOOOO++++ooXXXXXXXo+++ooo+OO+oXX.@..XooX.@@@@@@..Xo+OOOOO+oooo+OOOO###O+oXKKKPUVZDzvC<$$<,,:::>16ept4mmAmm0l>:tScj                                                                                                                                                                                  ",
"                                                                     jjjjj xJ4R8tRtRtRtRtRtRtRtRtRtRtRtRtt84HSSAg08074g4470ylwe611>>>:,<<<<<$%aaa%$,::BBvbDVVLHIPYTnnnnhFFFFFFFFFFFFFFffhhhs----;;;;;;;;;OOO########OOOO+oooXXXXXooo+oooooo+oooX....XooX......@@..Xooooo+oooo+OOOOOOOO+OO+oooXKPUUVDzvC$a%$<,::>16elt74gmm7ye6pHJcj                                                                                                                                                                                 ",
"                                                                           kxnnnnnnnnnnnnnnnnnnnnnnnnnnnnnnncxcJH8pt04gggg40tylwe6611>:,,,,,,<$$$$$$%%%%<Cvbwlpt4HASJJJJ-hfFFFFFFFFFFFfffffhs-----;;;;;--#O#;;;;####OOOO+ooooXXXooooooooXXooooooX....XXXXXX...@@@..XXX.XXXXoo+OOOOOOO+o+OOOOO+ooXKPILDbMaa%$<,,:>116wpt04gg470t0AGxjjj                                                                                                                                                                              ",
"                                                                            jkkkkkkkkkkkkkkkkkkkkkkkkkkkkkkkkjknJSAH0pwpyt84g70tplwe661>:::>:,,,,<<$%%aa%$MCC:>1wy87444HSTGnnnnhfFFFFFffFFFfsssss--------;;;;;;;#OO++++++oo+ooooooXXXoXXXXooooooX..............@@@@...@..XXXooo++O++++++OOO++OOO##OXPUZbCM<$$$$<,:>16ewpt8074477mSGnnnk                                                                                                                                                                             ",
"                                                                                                               xccnJHe:1elt4mg478tyylwe11>11>>::::,<<$$$$%%%a%$<:>66eewy4ASSSSJJ;hfFFfffFFFfhhssss--------;;;;;##++oooooooo++oo+oXXXXXXXXooooooXXXXX.@@@.......@@&&@@@&@..XXXXXo+++ooo+OOOO+o+O#;;;;OYIZzvB,<%%%$,,:>16ewly80444mmAAAScjjjj                                                                                                                                                                         ",
"                                                                                                               jkkxnSRpt7448t80077770tle666661>>>>::,,,<<<%aaa%$$<,,,,:1ep88804HSYTTTT-shfFfhhhssss------;;;;####++ooooXXooooooooXXXXXXXooooooXXXXXXX.@@@......@@&&&@&&&@.XXXXXXoooXXo++OOO+o+O##;;;;#KUVDzvB<%%a%$<,:>16ewly874gmgg4mGnnnx                                                                                                                                                                         ",
"                                                                                                                   xnJASSJAtwp87gggg47tpwwwwe661111>>::::,<%%%$$$%%aa%$<:>1116epRHIPIPYYTsffhhhhssss----;;;;##O##O+o++oXXXoooooooXXoXXXXoooXooXXXXooX..@@@..@@@@@&&&&&&&@.XXXXXXXXX..Xoo++++o++OO##;;;OKrLVDb1,<%a%$<,:>>166wpt04g477gSSASnkkjj                                                                                                                                                                     ",
"                                                                                                                   jkccccxnHt0gAAm4007708t88ylwee6611>>>>:,<<<,,<$%aaaaa%$<<<<,>eptRRRVLPTshhffhhss----;;;;;#######OOO+oXooooooooooooooXXXXXXoXXXoooX..@@@..@@@@@@@@@&3&@.XXXXXXXX...XXoooooo++++++O##Oo.rULZzbBC<%%$<<,:>>16ewy807774gg04SGnnxk                                                                                                                                                                    ",
"                                                                                                                         jxJAAJGJA4t84g447747tyylwe6666111>:::::,<$$$%%aaaaaaa%<:>6666zDVP#shfffhs-----;;;;;;####;;###O+oo+++ooooo+++ooXXXXXXXXXooooX..@@@@@@@@@@@@@@@&&@.XXXXXXX.....XXXXXoo++++oo++OO+o.&PUVDzbBC<$$$$<,:>>16ely800008t8HAASGckjjj                                                                                                                                                                ",
"                                                                                                                          jccccxcSgt8gg4777447708tplwwewe61>>>11>:,<<<<<$$%%%$$$<<,,,,CvlVPThfffhss----;;;;;;;;#;;;####O+OOOO+ooo++++oXXXXXXXXooooXXX..@...@@@@@@@@@@@&&@..XXXX......XXXXXXXo++++oXoo++++oXKPILVDzbBC<%%$<,,:>>16wlppyt8770tltAGcxxxj                                                                                                                                                               ",
"                                                                                                                            j  jkGSmmAm088007444408tyyyyple666661>::::::,<<<,<<<<<<$$%$<1yLY-hffhhss----;;-;;;;;#;#####OO###O++++++++oXXXXXooooooXXXXX..XX.@&&@@&&&@@@&@@...XXX...@..XXXXXXXoo++ooXXo+++++O+YKPULVZzvCM$$<<<,,:>166eeelt4g8l6e7AJJJnk j                                                                                                                                                             ",
"                                                                                                                                jxcnnGAylyyt804gg47000000tpwwllwe61>111>>::::::,,,:,,<$$<1tIY-hhhhhss--------;;;##OO###O#####OOOOO++++oXXoooooooXXXXXXXXXX.@&&&@&&&&@@&&@@@......@@.XXoX..XXXoooooXoo++++OOO+YK&rIUVDbvC<$%%$<,:>>>1116l87708047tt0Sckkk                                                                                                                                                            ",
"                                                                                                                                    jcJ484440tt800774ggg478ttttylw6666661>>>>>>>>>>>>:,$%,6RIY#-hhhss--------;;;;#OOO##O##;##OOOOO++++oooo+++++ooooXoXXXoX.@&&&&&&3&&&&&&@@.....@@..XooX..XXXXXXXXXoo++++##OO+oX.KPPLZzbB,$%%$<,:::::>16lt7gmmg0e6w4JnGnk                                                                                                                                                           ",
"                                                                                                                                     kxnnnnnAl1>1ey0gmmmmg477470tylwwllw6111111111111>>,$$,6yLPT-ssss--------;;;;######OO####OO#O++ooooo++OOOOO+++oXXXXooX.@&3&&&&3&&&&&&@@........XXooX..XXoXX..XXXoooooOOOOO+++ooKPLVZz6:$%a%$<,,,,,:>6wy874g4088040yAcjjjjjj                                                                                                                                                     ",
"                                                                                                                                        j  jG0e6ey8000700774ggg478tttttywe666eee6eee661:<$%<>lVPY;-------------;;;;####OO####O##O++ooooo+OOOOOOOOO+oXXXoXX.@&&&&&&&&&&&@@@.........XXooXX.XXoXX...XXXXXXo+OOOOOOOOO+KPIUVDbBM$$$$$<<<<,:>6ely87gmmg7ye1tJnnnnnxk                                                                                                                                                    ",
"                                                                                                                                            xnJJJGSgw,<,>6y7gggg44444470ylwwlplppplllw6>:<$%$>lVIY#;-------------;;;;;####;;#####O++oooo+OOOOOOOO++ooXXXXX..@&&&&&&&&&@@@.....@@@@@.XooXX..XXXXX......XXo+O+++OOO##OoXKKILZzbBC$%aaa%$<,:>1ewpt874gg40t8778pl4Jx                                                                                                                                                    ",
"                                                                                                                                            jjkkjkcSyCMC1l7mAAAAmm44444708tt80888008tpw6>:<%a<1lVIKO;--------------;;;;#;;;;;##;;##O+oo++OOOOOOO+++++oX.XX...@&&&@&&&&@...X...@@@@@.XooXX....XXXX.@@....o++++o++O#OOO+O+KPUVZzvBM$aaaa$<,:>16ewly874mmm7ye6:,wHGcxxj                                                                                                                                                ",
"                                                                                                                                                  xnJAAASJGnnncnJm8yyt87ggggggggmgmm40yw6>:<$%<1lVIK#-sssssss----------;;;;;;;;;;;;#OOO#OOOOOOOO+++++oXXXXX..@@@@@&&@@@...XX.......XXXoXX.@@@.XXX.......XooooXoo++O+OO#;OKPILVDzbBM$aaa%<,:>>16ewpy874g4008yly7gmSJc                                                                                                                                                ",
"                                                                                                                                                  jkxcccxxkkkkkxnS4807744444444444gg447tw6>:<%%<1lVIY;sssssss----------;;;;;;;#;;;;##O###OOOOOOO++++++oXXXX......@&@@@@....XX.....XXXXXXX.@&&.XXXX......XXXXX..Xoooo++#;#+XKPIUVZzvCM%aa$<<,:>116ewpt0774ggg700ty7AGxkxxckj                                                                                                                                         ",
"                                                                                                                                                   jjjjjjjjjjj jxnJJJJSHywwwwwwwwwwly7g7yw6>:<%%<>lRIY-sshhss-----;-;-;;;;-;;;;###########OOOOOO++OO+oXXXXX......@@&@@@@....X....XXXXX...@&33@.XXX.....XXX......XXXXXo+O#OO+oXKPUVDbvCM$aa%$<::>116ewpyt07ggg44007mSJJJAAGk                                                                                                                                         ",
"                                                                                                                                                                kkccccnJ8wwwwwwwwwwly8447tl6>,$a%<>lVPYT-shsssss--;;;;;;;;;;;;##OOOO##OO##OOOOOO++OO+oXXXX.......@@&&@@@@........XXXX.@@@&&33&@XXX....XooX..@@........Xo+O#O#O+XPUVZzbvC<%a%$<,::>>16ewly80744444ggmAAmtyScxxxxccxkj                                                                                                                                ",
"                                                                                                                                                                 jjjjjknSHHHHHHHHHHH7tp8g4tw1:,$%%<1lVIYTT-shhhss--;-;;;;;;;;;#OOOOO##OO##OOOOO+++++++oXXX.......@@@&&@@@@..........@&&&&&333&@.......X++oX............Xo+O####+XPILVZDbBC$%%%$<<,:>1166ewlyt0744ggg447yyAGGGJAAASnk                                                                                                                                ",
"                                                                                                                                                                       knGJGGGGGGGGJARwy440ye1:,$%$,1lRIPYTshhhhss--;-;;;;;;;;#OOOOO##OO##OOOO+++++++++ooXX........@@&&@@@@@......@@&333&&&33&@@......X++oX....@@@@@....o+O####OoKPPULVZzvBM$%a%%$<,:>>1666ewpt8077777780mSSA4tlp7Snkkxxkj                                                                                                                          ",
"                                                                                                                                                                       jkkkxxxxxkkkxnAtly870pe1:,<$$,1w8HIK;hfffhss----;;;;;;#######OOO###OO##O+oooo+OOOooXX.@@.....@@&@@@@@.....@@&3333&&&&3&@@......XooX.....@@@......Xo+OOOO+oX.K3rULVDbvCM%aaa%$<,:>>1166ewwly807774gmmg0yw66p4SGGGGnk                                                                                                                          ",
"                                                                                                                                                                                  jjxGA8ly078pe1:,<$$<>eyRUY-hfffhss----;;;;;########O####OOO#O++oo++O##+ooX........@@@@@@@@.....@&3333&@@&&&&@@...XXXXXX......@@@..XX..Xo+++ooooooXXKKPULZzbBC$%aa%%$<,:>>>>1666wpt8884gg478tpwwy84HHHHSckkkkkjj                                                                                                                   ",
"                                                                                                                                                                                    jknAplt078pe1:,<$%$,>bDLY-hffhhss----;;;;;;;;;#####;##O+OOOO++++OO#O+oooXX......@@@@@@@@@...@@&&&33&@@@&&@@..XXXXXX...@@...@@@..XXX.XooooXXXoo++++oK3=LVZzbBC<%aaa$<,,:::>>116ewlwlt00074gggg40pllll7Jnccnnckj                                                                                                                  ",
"                                                                                                                                                                                      knA8lt778ye1>,<$%%$CvDLY;shhhhss------;;;;;;;###;;;#O++OOOOO++OO##+oooooX.........@...@...@@@@@&&@@@@@@....XoooXX........@@@..XX..XXXXXXXXo+OOOO+o.&rIUVZzbBC<%aa%$<<,,::>>>1166elyyy874gmmg7ylppp8ASJSAAJcj jjjkjj                                                                                                           ",
"                                                                                                                                                                                       kcAlwt770yw6>:<$aa%,6tLYT-hhhhss--------;;;;;;;;;;#OO++OO##OO++##+++++oX..@@.....@...@@@@@.....@@@@@..XXXXXoooXXX......@@.............XXoo+OOOOoXX.@&KPULZzbBC<%a%$$$<,,::::>>116eeelpt807744gmmg4477telHJxkxxcccxj                                                                                                          ",
"                                                                                                                                                                                        knHtly070yw6>,<$%a%,6DLPY-hhhhss----------;;;;;;;##OO+OO##O+++OOO+++ooX..@...XX...X.@@@@@..XX...@...XXXXXXXXoooXX.XXX....XX...@@@.....Xooo++++oooXXooXKPUVZzbvC<$%a%%$<<<,,,::>16666ewppyt04gmmg4008yel7SGGJSAHAGxj                                                                                                         ",
"                                                                                                                                                                                         kcHeet747yw6>,,<$%%MvzVPTshffhss------------;;;;;##OOO#OO++oo++O++oooXX....XXX...X.@@@@@@..XXXXXX...XXooXXXXoooXXXoooooooXX.@&&@..@@..XXXXoo+++ooo+OOoKPILVZDbBC<%%%%%$$$$<,,,:>>1116eeewpt8888074g474mmmgte:,:4nxkjj                                                                                                      ",
"                                                                                                                                                                                         jjGHtpt070ye1::,<$%%MvzLPTsfffhss-s-----------;;;###O###OO++++OO++ooXXX....XXXXXXX.@@...@@.XXXXXXX...XXooXXXXooXXXooo+++++oX.@&@...@@...XXXo++++++OO#O+X&r2qVZzbvBCM$$%aa%$$$$,::>>>11166ewlllly0774ggmmg0ye1:>yASJnxj                                                                                                     ",
"                                                                                                                                                                                           kcApwp040pe1>::,<%a<1yLY;hfffhssss----------;;;#####;;###OO#O++++ooXX....XXXXooXX.....@@@.....XX....XXooXXXXXXXo++++OO#O+oX.......@@..XXo++++O#OOOO#O+X&r=2LVZDzbvBM$%%aaaaa$,,::::>>>1166eeewpyyt04gmmmgg447tleegGxj jjj                                                                                                ",
"                                                                                                                                                                                            knA8ly870ye61>>,$a%,6tLY;hfffhshs-----------;;####;;;;;##OOO++++oooX...XXoooooXX.XX..@&@@@@.........XXXXX..XXoo++++OOOO+ooXXX.......XXXXoo+O##OO++OO+oX@3rrULLVZDzvvBCM$%aa%$$<<<,:::>>111116ewwlyt074ggmmmm0lee0SGnGGGnk                                                                                               ",
"                                                                                                                                                                                            jkcAtwl0g0pwe61:,$%%,6tLY-hffhhhs------------;;##;;;;;;;##O+++oo++oXXXXXoo+++o..XXX.@@&&&&@@@...@...........Xo++++++++++++ooXX..XXXoXXX.Xo+O##OO+o+++oX..@&3Pr=ULVZDzzbBCM$$%aaa%<,,,::>>>>>>1166elpyt804ggg4444gmmg087Ac                                                                                               ",
"                                                                                                                                                                                             jkGA8ly070tple1:,$a%,6tLY;hffffhsssss-------;;#;;;;;;;;##+++++++++ooooooo+++o...XX..@@@@&&@...@@.....@@@@..Xo+oo+++ooooo++oXX..XXoooXXXXo+++++oooo++ooXXX....@&PIULLVDzbvBCM$$%%$$$$<<,:,,,:>>>166ewwly80007ggmgg40ty8HJccnGGck                                                                                        ",
"                                                                                                                                                                                              jxnA8ww8440tpe1:,$%$,6tLY;hffffhhssss-----;;;;;;####;;##++++OOOO++++++oooooXX...X......@@@..@@@@.....@&&@.XooooooooXXXooooXX..XXXXXXXXXXooooooXoooooXXXXoooooooKKPPILVZDzbvBBCM$%aaa%<<<<<<,:::>11166elpppt7444444777gASSA80Jxj                                                                                       ",
"                                                                                                                                                                                               jxGA8wp87g40pe1:,$%$,6tLY;hffffhhsss-----;;;;;;#OO####O++++O##OO+OOO++ooooX............@...@@@@.....@@&@@.XXXXoooXXXXXXXXXXXXXoXXXXXoXXXXXXXXXXooooXXXooo++O#O+oXKKPIULVZDzzbvBM$%%%$$%%%%<<<,::>>>166eeelyt8077444ggmHm4wlAnccnnGGncj                                                                               ",
"                                                                                                                                                                                                jxnA8ww7mmg0pe1:,$%$,6tLY;hffffhhss--;---;;;;;#OOO##OO+++O#;;#OOOOOO++oooX..........XX.X..@@@......@@@@@....XooooX.....XXXXXoooXXXXooXXX..XXXXXXXXXXXXXo+O###O+ooooKKPILLLVVDzbBCMM$%aaaa%%%$<,:::>>11166wwwpt8074gg4440ppHJJSAHRRHJx                                                                               ",
"                                                                                                                                                                                                 jxGA0yHAm478pe1:,$%$,6tLY;hffffhhss-------;;;#OOOOOOO+++O#;;;#OOOOO++oooX...........XXX..@..........@@@@...XXoooXX.......XooooXXXXooXXXXXXXXXXXXXoooXXXo+##OO+++++OoKKPPPPIUVZzbbv:,<<$$%aaa$<<,,,::>>>1666ewlyt807777707mAA48l66pHGccccxj                                                                         ",
"                                                                                                                                                                                                  jxnSHSSH0778pe1:,$%%,6tLY;shfffhhss------;;;##OOOO++OO+O#;;;##OOOO++oooX....@.......X...@...........@@@@...XoooXXX......Xo++oX..XXXXXXXXXXXXXXXooooX..XoOO++++++O#O+oYoYoKKPULVZDw611>:<$%%%$$$<<<,:::>111166ewlpt0777gmmm48le1>6tASSSSGxj                                                                        ",
"                                                                                                                                                                                                   jxnGnGH80778pe1:,$a%,6tLYT-hfffhhssss---;;;;#OOO+++OOOO#######OO+oooooXXXX.@..XX.....@@@........X...@@@@..XXXXXXXXXX...XooooX..XXXXoooXXXXX..Xoo+oX..Xooooo+++OOO#OO####OoXKP=ULRRttpwvBCC<$%%%%$<,,,:>>>>>>116ewyttt7gg44708yypy808ttHnxxxxxkj                                                                  ",
"                                                                                                                                                                                                      jjcS700478pe1:,$%%,6tLPT-hfffhhssss--;;;;##O++oo+OOO########O+oXooXXXXX...XXXX...@@@@@@......XX..@@@@@.....XXooooXX.XXooXX...XXXXoXXXXXX..XXo+oX..XXXoXooo++OOOO##;;;##O+oXKKPIILHRDzbvBC$%%%%$<$$<,,,,::>>>16ewwwy8004gmmmm48lwe668SGnnGGnxj                                                                 ",
"                                                                                                                                                                                                        jnJ4t0770pe1:,$a%<6tHPT-hffhhsss------;##OO+oo+++O#########+oooooooooX....X....@@@@@@......XX...@@@.......Xoo++ooX...X....XXXXXXXXXXXX...XooXX..XXXXXXXoo+OOOO##;;;###OO++oXKKPPILVVDzb>:M<$$%a%$<<<<,,::::>1666wlpy874gggg408ttt7mAAH07Ankjkkkkkj                                                          ",
"                                                                                                                                                                                                          cA887448pe1:,$aa<6tLPT-hhhhss-------;####O+ooo++######;##O++O+ooooooXX........@@@@@..................@..Xoo+++oX..@....XXXX....XXooXXXXXXXXXXXXXoooXXXo+OOOOO####OOOOOOOOOO+oX.&PIUVDpwvB:<$%%%$$$$<<,,,,,:>>>666ewpytt07gmmmmmm708w>68SccnnGGnxj                                                         ",
"                                                                                                                                                                                                          jnSg80440pe1:,$%%<6tLPY-hhhss-------;#####+oooo+O##;;###OO+OOO+++oooooXXX....@@..............XXXXX.......XXXoooX.............@.XoooooooooooXXX.Xooooooo+OO#OOOOOO+ooo++O##;#O++oXKPIULVZDzvB:,<$%aaa%$$<<<,:::>1116eewwpt04477gg4478pp0ASA48pltScj                                                        ",
"                                                                                                                                                                                                            xS707gg0pe1:,<%a<6yVPT-hhss------;;;;;##O+++o+O##;;#OO++++OO++++o+++ooXX..@@...............XoooXX.........XXXX.......@@......XXoo+++++++ooXX.Xoo+oooo+O##OOOOOOooXooo+#;;;#OOO+oXKKPPIUVZDz6>,$$%aa%%%%$<,<,:>>>11166elpyyppt04gmggggg4y6,aa$8Jxj                                                       ",
"                                                                                                                                                                                                            kcJH00740pe1:,$a%,vzVPY-hhss------;;;;##OOO+++OOOOO+++ooo++OOO++OOO+ooXX....................XooX.........XXX........@@..XX.@..XXXXoo+++ooXXXXXooooXoo++OOOOOOOOoooooo+O#;;#OOOO++++oXKKPIUVRp61>CM$$aaaa%$%$<,:>>>>>116eweeewy80774gmmg0tle11w7Jcj                                                      ",
"                                                                                                                                                                                                              cS48844tle1:,$%%MvzVPT-hhss------;;;##OOOOOO++++oooooooo+O#O+O#OO+ooXXX..XXXX...XX..@@@@...XX.........XXX..@@@...@@..XXX.....@@.XoooooXXXXXo+ooXXXoo++OOOOOOO+ooooo+O####OOOOOOOOO+++ooKPIHRypbvBCM$%%%%%%$<,,::::>>1166166elppy87ggmmmmm48weHGxj                                                     ",
"                                                                                                                                                                                                              kcJH8t808pe1:,$%$MvzVPO-hhs------;;;##OOOOOOOOO++oo++oo+++++++OO++oooXXXXXXXXXXXX...@@@@...XXXX.......XX..@@@....@@.XXXX.....@&&@.XXX..XXXoo+oXXXXXXoo+O#O+++ooooooo++O##OOOOOOOO+OO###O+YPILVRDzzbv>:,M$%aa%$<<,,::>>>>>>166eewyt0074gmmg48t4SGxj                                                    ",
"                                                                                                                                                                                                              jjcJHtt448pe1:,<%%MvDLK;shs------;;;##OOOOOOOOOO++++++o+O+oo+++++oooooXooooXXXXXX...@@@@..XXXXX..@...XXX.@@@...@@@..XXXX.....@&&&@@@...XXXoo+ooXXXXXXXo+#O++ooooooXXoo+OO++##OOOO++O##;###+KPIILLVZZDlbvBC$aaa%$$<,,,,,:::>>1166wlppyt07444gg4mSnxj                                                   ",
"                                                                                                                                                                                                                kcJAgmg7tw6>:,$%$CbZIT-ss-------;;##OOOOOO##OOOOO+++++O++++++++ooooooXXooooooXX........XX..XX.......XX..@@.X......XXXXX.....@@@@@@..XX.XXoooooooX..Xo+O##OOOO+oooXXoo++++O##OOOOOO###O####oXKPPIIUULVDzbBCM$%%a%%$$<<<,,:>>>>116eewlpyt88744gmSnxj                                                  ",
"                                                                                                                                                                                                                jkcGSmg48pe1:,<%%MvDLYT----------;;#OOOOOO##OOOOOO++++OO++++++++oooooXXoooooooX......XXXX............X...@.XX....XXXXXX.........@..XXXXXXXXooo+oXX.Xoo+######O++ooooooo++OO##OOOOOO#O+O##;#O+oXKKXXKPUVZzbvBC<%a%%%%%$$<,:::::>>1166ewllpt0744mSnxj                                                 ",
"                                                                                                                                                                                                                  knS70g7yw6>:,$%$BbVP+;-ss------;;#OOOOOO##OO##OO++o+OOOOOOOOO++++++oXoooooooX...XXXXXXX................@....@..X..........XXX....XooooXXXXooooXXXXooo+#####OO++++ooo++++++OOOOOOO#O+O##;;##O++O#;;OKPULZDzbvCMM$%aaaa%$<<<<<,:>>>>1666ewpt804mSnxj                                                ",
"                                                                                                                                                                                                                  knSplggtle1>,<$$MvDUK#-ss------;;##OOOOO##OO##OO+oo+OOOOOOOOOOOO++++ooooXooXX...XoooooXXX......@@@.....@...@@..X...@..@@..XoXX...Xoo+ooXXXXooXXXXXoXooOO###OOOOOO++++OO+o++OOOOO##O+O#;;;;#OOO#;-s-#+KPPUVZzbvBBM$%aa%%$$%%$<<,,,:>>1116ewpt04AJnxj                                               ",
"                                                                                                                                                                                                                  kGH114m0yw61:,$%$CzVPo;sss-----;;#############O++oo+OOOO#####OOOOOOO+ooXXoXX....Xoo+ooooXX.....@@@.............X..@@@@@@@@.XXX....Xo++oooXXXXX.XXXXXXoo+OOO++OOOOOOO##O+ooo+++OO##OOO#;;;###OO#;-s-;#OOoKPUVZDDzbB:,CMM$%aaa%$$<<,::>>>166ept7gmSnxj                                              ",
"                                                                                                                                                                                                                  kG4:>0m48pe1>,<$%MvDLK#ssss----;;;;;;;########O+ooo+OOOO######OOOOOOOoXXXXX.....Xoo++oooooXX....@@..XXX.....XXXX...@@@@&&&@.......Xoo+++oooXXX.....XXXXo+++++OOOOOO####++oooo+O####O##;;;###OOO#;--;;;;;#oKIILLVZDlebvvCM$%%%%%%$<,,:::>>>1ep874mJnxj                                             ",
"                                                                                                                                                                                                                  xnH61y4g4tw6>:,$$$>bZIo-sss-----;;;;;;;;;#####OO++++OOOO######OOOOOO+oXooXX.....XXo++ooooooXXXX....XXXXXXXXXXoXX......@@&&&@........Xo+++++ooX.......XXoooo++OOO++O##;#O++ooo+O####OO##;;####OOO#;;;;;;;##oKKPPIULLVVZDbvBCM$%aaa%$<<,,:::>1ey87gmSnxj                                            ",
"                                                                                                                                                                                                                  kcJ0lwtgg8pe1>:<$$<BzLK#-ss------;;;#;#;##OO##OO++++OOOO#####OOOOOO++ooooX.....XXXoooooooXooooXX..XXXXoooXXXXoXX.......@&&&@@@....@@.Xo++OO+oXX..@@@..XXooo++++++++O###++++o+O##;#OOO+O#####OO++O###;;;;;#O+oXXK.KPPPILZDzbvBC<$$%%$$<<,,,,>1wy874mJnk                                            ",
"                                                                                                                                                                                                                  jkcG41e4g0ye61:,<%$MbZIY-hhs-----;;###;;##OOOO##OO++++++OO##OO+++++ooooooX.....XXoooXXXXX..XXooX..XXooooXXXXXX..........@@&@@@@@@@@@@.Xooo++ooX...@@@@..Xo++++ooooo++OO+oooo+OO##OO+ooo++OOOO++o+++O#;;##OO++++ooXXKKKPIULVDzbvBCM$$$$$$<<<,:1ep87ggSx                                            ",
"                                                                                                                                                                                                                    jcA::840twe1>:<$%$BzVPTsss----;;#######OOOOOOO+++++oooo+OOO++oooXXXXXoX...@@@..XXXX....@..XXX..@..........@@@@@@@@@@@@@&&&&&&&&&@&&&@..XXXXX...@@@&&@@@XooooXX...XXoooooooo++++++oX..XoooooooXXXo+O##OO+++++ooo+ooXX.KKPILVDzzvBC,M<$$%%$<,:1ep870Ac                                            ",
"                                                                                                                                                                                                                    jcHM$w808pw6>:<$%%,1DUK#;-;;#;####O+O+++++++oooooooXX..o+++ooXX....X....@@&&33&&K.X.K@@@.K...@&33&&&&&&&&33333333333&&3333333333333333&&&&KK&&&KKK&3333&&KX..&&&&&&KXXXXXXooooooXXKKKK..XXX.....Xo++++++oXXYXKXYXXX.XXoKKr2LVZDzbvBCM$aa%$<,:1ep87Ac                                            ",
"                                                                                                                                                                                                                    kcH<a6y00yw6>:<$%a$:zLP+#;;;##OO##+++Y+Y+Y+YXXXoooXXKK@Xo+ooX.K@@@@KK@@@@&333333K.XKK&@@@KK@@&3333333333r3333333333333333333333333333333333&PK&KKK&333333KK.@333333KK.XXXXXXXXXX.KK&3&&@...@@@KK.Xo+Y+Y+oXKKKKKK....XoooK&r=ULVDzbvBC$aaa%$<,>1wt7Sc                                            ",
"                                                                                                                                                                                                                                                                                                                                                                                                                                                 j                                                                  ",
"                                                                                                                                                                                                                                                                                                                                                                                                                                                                                                                    ",
"                                                                                                                                                                                                                                                                                                                                                                                                                                                                                                                    ",
"                                                                                                                                                                                                                                                                                                                                                                                                                                                                                                                    ",
"                                                                                                                                                                                                                                                                                                                                                                                                                                                                                                                    ",
"                                                                                                                                                                                                                                                                                                                                                                                                                                                                                                                    ",
"                                                                                                                                                                                                                                                                                                                                                                                                                                                                                                                    ",
"                                                                                                                                                                                                                                                                                                                                                                                                                                                                                                                    ",
"                                                                                                                                                                                                                                                                                                                                                                                                                                                                                                                    ",
"                                                                                                                                                                                                                                                                                                                                                                                                                                                                                                                    ",
"                                                                                                                                                                                                                                                                                                                                                                                                                                                                                                                    ",
"                                                                                                                                                                                                                                                                                                                                                                                                                                                                                                                    ",
"                                                                                                                                                                                                                                                                                                                                                                                                                                                                                                                    ",
"                                                                                                                                                                                                                                                                                                                                                                                                                                                                                                                    ",
"                                                                                                                                                                                                                                                                                                                                                                                                                                                                                                                    ",
"                                                                                                                                                                                                                                                                                                                                                                                                                                                                                                                    ",
"                                                                                                                                                                                                                                                                                                                                                                                                                                                                                                                    ",
"                                                                                                                                                                                                                                                                                                                                                                                                                                                                                                                    ",
"                                                                                                                                                                                                                                                                                                                                                                                                                                                                                                                    ",
"                                                                                                                                                                                                                                                                                                                                                                                                                                                                                                                    ",
"                                                                                                                                                                                                                                                                                                                                                                                                                                                                                                                    ",
"                                                                                                                                                                                                                                                                                                                                                                                                                                                                                                                    ",
"                                                                                                                                                                                                                                                                                                                                                                                                                                                                                                                    ",
"                                                                                                                                                                                                                                                                                                                                                                                                                                                                                                                    ",
"                                                                                                                                                                                                                                                                                                                                                                                                                                                                                                                    ",
"                                                                                                                                                                                                                                                                                                                                                                                                                                                                                                                    ",
"                                                                                                                                                                                                                                                                                                                                                                                                                                                                                                                    ",
"                                                                                                                                                                                                                                                                                                                                                                                                                                                                                                                    ",
"                                                                                                                                                                                                                                                                                                                                                                                                                                                                                                                    ",
"                                                                                                                                                                                                                                                                                                                                                                                                                                                                                                                    ",
"                                                                                                                                                                                                                                                                                                                                                                                                                                                                                                                    ",
"                                                                                                                                                                                                                                                                                                                                                                                                                                                                                                                    ",
"                                                                                                                                                                                                                                                                                                                                                                                                                                                                                                                    ",
"                                                                                                                                                                                                                                                                                                                                                                                                                                                                                                                    ",
"                                                                                                                                                                                                                                                                                                                                                                                                                                                                                                                    ",
"                                                                                                                                                                                                                                                                                                                                                                                                                                                                                                                    ",
"                                                                                                                                                                                                                                                                                                                                                                                                                                                                                                                    ",
"                                                                                                                                                                                                                                                                                                                                                                                                                                                                                                                    ",
"                                                                                                                                                                                                                                                                                                                                                                                                                                                                                                                    ",
"                                                                                                                                                                                                                                                                                                                                                                                                                                                                                                                    ",
"                                                                                                                                                                                                                                                                                                                                                                                                                                                                                                                    ",
"                                                                                                                                                                                                                                                                                                                                                                                                                                                                                                                    ",
"                                                                                                                                                                                                                                                                                                                                                                                                                                                                                                                    ",
"                                                                                                                                                                                                                                                                                                                                                                                                                                                                                                                    ",
"                                                                                                                                                                                                                                                                                                                                                                                                                                                                                                                    ",
"                                                                                                                                                                                                                                                                                                                                                                                                                                                                                                                    ",
"                                                                                                                                                                                                                                                                                                                                                                                                                                                                                                                    ",
"                                                                                                                                                                                                                                                                                                                                                                                                                                                                                                                    ",
"                                                                                                                                                                                                                                                                                                                                                                                                                                                                                                                    ",
"                                                                                                                                                                                                                                                                                                                                                                                                                                                                                                                    ",
"                                                                                                                                                                                                                                                                                                                                                                                                                                                                                                                    ",
"                                                                                                                                                                                                                                                                                                                                                                                                                                                                                                                    ",
"                                                                                                                                                                                                                                                                                                                                                                                                                                                                                                                    ",
"                                                                                                                                                                                                                                                                                                                                                                                                                                                                                                                    ",
"                                                                                                                                                                                                                                                                                                                                                                                                                                                                                                                    ",
"                                                                                                                                                                                                                                                                                                                                                                                                                                                                                                                    ",
"                                                                                                                                                                                                                                                                                                                                                                                                                                                                                                                    ",
"                                                                                                                                                                                                                                                                                                                                                                                                                                                                                                                    ",
"                                                                                                                                                                                                                                                                                                                                                                                                                                                                                                                    ",
"                                                                                                                                                                                                                                                                                                                                                                                                                                                                                                                    ",
"                                                                                                                                                                                                                                                                                                                                                                                                                                                                                                                    ",
"                                                                                                                                                                                                                                                                                                                                                                                                                                                                                                                    ",
"                                                                                                                                                                                                                                                                                                                                                                                                                                                                                                                    ",
"                                                                                                                                                                                                                                                                                                                                                                                                                                                                                                                    ",
"                                                                                                                                                                                                                                                                                                                                                                                                                                                                                                                    ",
"                                                                                                                                                                                                                                                                                                                                                                                                                                                                                                                    ",
"                                                                                                                                                                                                                                                                                                                                                                                                                                                                                                                    ",
"                                                                                                                                                                                                                                                                                                                                                                                                                                                                                                                    ",
"                                                                                                                                                                                                                                                                                                                                                                                                                                                                                                                    ",
"                                                                                                                                                                                                                                                                                                                                                                                                                                                                                                                    ",
"                                                                                                                                                                                                                                                                                                                                                                                                                                                                                                                    ",
"                                                                                                                                                                                                                                                                                                                                                                                                                                                                                                                    ",
"                                                                                                                                                                                                                                                                                                                                                                                                                                                                                                                    ",
"                                                                                                                                                                                                                                                                                                                                                                                                                                                                                                                    ",
"                                                                                                                                                                                                                                                                                                                                                                                                                                                                                                                    "
};
