/* XPM */
static char *result[] = {
/* columns rows colors chars-per-pixel */
"500 400 58 1 ",
"  c black",
". c #6B3B23",
"X c #945C40",
"o c #975F42",
"O c #673921",
"+ c #8F593D",
"@ c #7C4A2E",
"# c #79472C",
"$ c #62361F",
"% c #6F3E26",
"& c #572C18",
"* c #734127",
"= c #76442A",
"- c #834F33",
"; c #A56C4F",
": c #5D321B",
"> c #A6A5B6",
", c #804D31",
"< c #A0684B",
"1 c #9D9FB1",
"2 c #ABACBE",
"3 c #986146",
"4 c #4E2216",
"5 c #AA7152",
"6 c #875337",
"7 c #9B644A",
"8 c #B17656",
"9 c #888DA2",
"0 c #9296AA",
"q c #8B563A",
"w c #050607",
"e c #0D0E11",
"r c #7E8397",
"t c #5A5E6D",
"y c #A598A4",
"u c #73788A",
"i c #4B4E5B",
"p c #9D848B",
"a c #22242B",
"s c #16181D",
"d c #B77D5D",
"f c #2D3039",
"g c #676C7D",
"h c #A28E98",
"j c #3C3F4A",
"k c #987373",
"l c #BF8666",
"z c #997B80",
"x c #855F5F",
"c c #996C61",
"v c #C99373",
"b c #7A5554",
"n c #401810",
"m c #8B6B6E",
"M c #744C47",
"N c #6B433E",
"B c #552E29",
"V c #5F3A36",
/* pixels */
"                                                                                                                                                                                                                                                                                                                                                                                                                                                                                                                    ",
"                                                                                                                                                                                                                                                                                                                                                                                                                                                                                                                    ",
"                                                                                                                                                                                                                                                                                                                                                                                                                                                                                                                    ",
"                                                                                                                                                                                                                                                                                                                                                                                                                                                                                                                    ",
"                                                                                                                                                                                                                                                                                                                                                                                                                                                                                                                    ",
"                                                                                                                                                                                                                                                                                                                                                                                                                                                                                                                    ",
"                                                                                                                                                                                                                                                                                                                                                                                                                                                                                                                    ",
"                                                                                                                                                                                                                                                                                                                                                                                                                                                                                                                    ",
"                                                                                                                                                                                                                                                                                                                                                                                                                                                                                                                    ",
"                                                                                                                                                                                                                                                                                                                                                                                                                                                                                                                    ",
"                                                                                                                                                                                                                                                                                                                                                                                                                                                                                                                    ",
"                                                                                                                                                                                                                                                                                                                                                                                                                                                                                                                    ",
"                                                                                                                                                                                                                                                                                                                                                                                                                                                                                                                    ",
"                                                                                                                                                                                                                                                                                                                                                                                                                                                                                                                    ",
"                                                                                                                                                                                                                                                                                                                                                                                                                                                                                                                    ",
"                                                                                                                                                                                                                                                                                                                                                                                                                                                                                                                    ",
"                                                                                                                                                                                                                                                                                                                                                                                                                                                                                                                    ",
"                                                                                                                                                                                                                                                                                                                                                                                                                                                                                                                    ",
"                                                                                                                                                                                                                                                                                                                                                                                                                                                                                                                    ",
"                                                                                                                                                                                                                                                                                                                                                                                                                                                                                                                    ",
"                                                                                                                                                                                                                                                                                                                                                                                                                                                                                                                    ",
"                                                                                                                                                                                                                                                                                                                                                                                                                                                                                                                    ",
"                                                                                                                                                                                                                                                                                                                                                                                                                                                                                                                    ",
"                                                                                                                                                                                                                                                                                                                                                                                                                                                                                                                    ",
"                                                                                                                                                                                                                                                                                                                                                                                                                                                                                                                    ",
"                                                                                                                                                                                                                                                                                                                                                                                                                                                                                                                    ",
"                                                                                                                                                                                                                                                                                                                                                                                                                                                                                                                    ",
"                                                                                                                                                                                                                                                                                                                                                                                                                                                                                                                    ",
"                                                                                                                                                                                                                                                                                                                                                                                                                                                                                                                    ",
"                                                                                                                                                                                                                                                                                                                                                                                                                                                                                                                    ",
"                                                                                                                                                                                                                                                                                                                                                                                                                                                                                                                    ",
"                                                                                                                                                                                                                                                                                                                                                                                                                                                                                                                    ",
"                                                                                                                                                                                                                                                                                                                                                                                                                                                                                                                    ",
"                                                                                                                                                                                                                                                                                                                                                                                                                                                                                                                    ",
"                                                                                                                                                                                                                                                                                                                                                                                                                                                                                                                    ",
"                                                                                                                                                                                                                                                                                                                                                                                                                                                                                                                    ",
"                                                                                                                                                                                                                                                                                                                                                                                                                                                                                                                    ",
"                                                                                                                                                                                                                                                                                                                                                                                                                                                                                                                    ",
"                                                                                                                                                                                                                                                                                                                                                                                                                                                                                                                    ",
"                                                                                                                                                                                                                                                                                                                                                                                                                                                                                                                    ",
"                                                                                                                                                                                                                                                                                                                                                                                                                                                                                                                    ",
"                                                                                                                                                                                                                                                                                                                                                                                                                                                                                                                    ",
"                                                                                                                                                                                                                                                                                                                                                                                                                                                                                                                    ",
"                                                                                                                                                                                                                                                                                                                                                                                                                                                                                                                    ",
"                                                                                                                                                                                                                                                                                                                                                                                                                                                                                                                    ",
"                                                                                                                                                                                                                                                                                                                                                                                                                                                                                                                    ",
"                                                                                                                                                                                                                                                                                                                                                                                                                                                                                                                    ",
"                                                                                                                                                                                                                                                                                                                                                                                                                                                                                                                    ",
"                                                                                                                                                                                                                                                                                                                                                                                                                                                                                                                    ",
"                                                                                                                                                                                                                                                                                                                                                                                                                                                                                                                    ",
"                                                                                                                                                                                                                                                                                                                                                                                                                                                                                                                    ",
"                                                                                                                                                                                                                                                                                                                                                                                                                                                                                                                    ",
"                                                                                                                                                                                                                                                                                                                                                                                                                                                                                                                    ",
"                                                                                                                                                                                                                                                                                                                                                                                                                                                                                                                    ",
"                                                                                                                                                                                                                                                                                                                                                                                                                                                                                                                    ",
"                                                                                                                                                                                                                                                                                                                                                                                                                                                                                                                    ",
"                                                                                                                                                                                                                                                                                                                                                                                                                                                                                                                    ",
"                                                                                                                                                                                                                                                                                                                                                                                                                                                                                                                    ",
"                                                                                                                                                                                                                                                                                                                                                                                                                                                                                                                    ",
"                                                                                                                                                                                                                                                                                                                                                                                                                                                                                                                    ",
"                                                                                                                                                                                                                                                                                                                                                                                                                                                                                                                    ",
"                                                                                                                                                                                                                                                                                                                                                                                                                                                                                                                    ",
"                                                                                                                                                                                                                                                                                                                                                                                                                                                                                                                    ",
"                                                                                                                                                                                                                                                                                                                                                                                                                                                                                                                    ",
"                                                                                                                                                                                                                                                                                                                                                                                                                                                                                                                    ",
"                                                                                                                                                                                                                                                                                                                                                                                                                                                                                                                    ",
"                                                                                                                                                                                                                                                                                                                                                                                                                                                                                                                    ",
"                                                                                                                                                                                                                                                                                                                                                                                                                                                                                                                    ",
"                                                                                                                                                                                                                                                                                                                                                                                                                                                                                                                    ",
"                                                                                                                                                                                                                                                                                                                                                                                                                                                                                                                    ",
"                                                                                                                                                                                                                                                                                                                                                                                                                                                                                                                    ",
"                                                                                                                                                                                                                                                                                                                                                                                                                                                                                                                    ",
"                                                                                                                                                                                                                                                                                                                                                                                                                                                                                                                    ",
"                                                                                                                                                                                                                                                                                                                                                                                                                                                                                                                    ",
"                                                                                                                                                                                                                                                                                                                                                                                                                                                                                                                    ",
"                                                                                                                                                                                                                                                                                                                                                                                                                                                                                                                    ",
"                                                                                                                                                                                                                                                                                                                                                                                                                                                                                                                    ",
"                                                                                                                                                                                                                                                                                                                                                                                                                                                                                                                    ",
"                                                                                                                                                                                                                                                                                                                                                                                                                                                                                                                    ",
"                                                                                                                                                                                                                                                                                                                                                                                                                                                                                                                    ",
"                                                                                                                                                                                                                                                                                                                                                                                                                                                                                                                    ",
"                                                                                                                                                                                                                                                                                                                                                                                                                                                                                                                    ",
"                                                                                                                                                                                                                                 wweeeeeeeeeeew                                                                                                                                                                                                                                                                     ",
"                                                                                                                                                                                                                                eeaaafaafaafaase                                                                                                                                                                                                                                                                    ",
"                                                                                                                                                                                                                               wsfjiiiiiiiiiiifse                                                                                                                                                                                                                                                                   ",
"                                                                                                                                                                                                                               eaituuuuuuuuuugtfse                                                                                                                                                                                                                                                                  ",
"                                                                                                                                                                                                                             weaigr99999999099utfsw                                                                                                                                                                                                                                                                 ",
"                                                                                                                                                                                                                             eaigr0010010100009utfsw                                                                                                                                                                                                                                                                ",
"                                                                                                                                                                                                                            eajgr0>>>>>>>>>>>>19utjae                                                                                                                                                                                                                                                               ",
"                                                                                                                                                                                                                          weaigr0>222222222222>19utjsw                                                                                                                                                                                                                                                              ",
"                                                                                                                                                                                                                          efigr01>>>>>>>>>>>>2>>10utjsw                                                                                                                                                                                                                                                             ",
"                                                                                                                                                                                                                         waigr01>>yhpppppppph01>>19utjs                                                                                                                                                                                                                                                             ",
"                                                                                                                                                                                                                        eajgr01>yhpzzkkkkkkkzphy1>19utjsw                                                                                                                                                                                                                                                           ",
"                                                                                                                                                                                                                      weaigr0>>yhzkkmc7<7<77cckpy>>19utjsw                                                                                                                                                                                                                                                          ",
"                                                                                                                                                                                                                     weajgr0>>1hpkcc73ooooooo3ckpy>>19utjaw                                                                                                                                                                                                                                                         ",
"                                                                                                                                                                                                                     eaigr0>2>ypzc73oXXXXXXX+X3czpy>>19utjsw                                                                                                                                                                                                                                                        ",
"                                                                                                                                                                                                                     eftu9122>ypkc73oXooooooXX37czph1>19rtjaew                                                                                                                                                                                                                                                      ",
"                                                                                                                                                                                                                    wsjgr9122yhzkc7733377777oXo37ckpy>>10rtjsw                                                                                                                                                                                                                                                      ",
"                                                                                                                                                                                                                   weaiu9012>hpkc<777<<<;<;<73333cczhy2219uiae                                                                                                                                                                                                                                                      ",
"                                                                                                                                                                                                                  wesjtu91>>ypzk;<<<<;555555;<7777mkpy2219rtfew                                                                                                                                                                                                                                                     ",
"                                                                                                                                                                                                                  wsftu91>>yhzk;;<;;5558888855;<<<ckpy2219rtfew                                                                                                                                                                                                                                                     ",
"                                                                                                                                                                                                                 wesjg90>2>ypkc;;;558888dddd8855;;ckpy2219rtfew                                                                                                                                                                                                                                                     ",
"                                                                                                                                                                                                                  wsjg90>2>hzk;55558888ddddddd8855ckpy2219rtfew                                                                                                                                                                                                                                                     ",
"                                                                                                                                                                                                                  esjgr0>2>hzk555888888ddddddd88555kpy2219rtfew                                                                                                                                                                                                                                                     ",
"                                                                                                                                                                                                                  wajg90>21pk5588888888888dddd885;;czh2219rtfew                                                                                                                                                                                                                                                     ",
"                                                                                                                                                                                                                 wefiu90>>yzk55888888888888ddd885;;5zh>219rtfew                                                                                                                                                                                                                                                     ",
"                                                                                                                                                                                                                wsfig91>>ypzc;;55555555555888dd85;;5zh>219rtfew                                                                                                                                                                                                                                                     ",
"                                                                                                                                                                                                                eajgr012>hzkc;;;;;;;;;;;;;58888d85;5zh>219rtfew                                                                                                                                                                                                                                                     ",
"                                                                                                                                                                                                                eaig90>21pkc<;;;;;;;;;;;;;;5555855;kpy2219rtfew                                                                                                                                                                                                                                                     ",
"                                                                                                                                                                                                               wsfiu901>yzc<<;;;;;;;;;;;;;;;;;55555kpy2219rtfew                                                                                                                                                                                                                                                     ",
"                                                                                                                                                                                                              wsfigr01>yhzc;;;;;;;;;;;;;;;;;;;;;;;ckpy2219rtfew                                                                                                                                                                                                                                                     ",
"                                                                                                                                                                                                              eajgr01>1hzkc;;;;;;;;;;;;;;;;;;;;;;;5kpy2219rtfew                                                                                                                                                                                                                                                     ",
"                                                                                                                                                                                                              efiu91>21pkc<;;;;;;555555555;;;;;;;;ckpy2219rtfew                                                                                                                                                                                                                                                     ",
"                                                                                                                                                                                                              sftr01>>yzc7<;;;;;55558555555;;;;;;;5kpy2219rtfew                                                                                                                                                                                                                                                     ",
"                                                                                                                                                                                                            weaigr0>>yhk77<;;;;5588d8dd88855;;;;;;ckpy2219rtfew                                                                                                                                                                                                                                                     ",
"                                                                                                                                                                                                            wajtu91>1hzc737;;;5588dddddddd855;;;;;5kpy2219rtfew                                                                                                                                                                                                                                                     ",
"                                                                                                                                                                                                            eftu91>>yzc7337<;5588ddddlllldd85555;;ckpy2219rtfew                                                                                                                                                                                                                                                     ",
"                                                                                                                                                                                                            ejtr0>>>yk<3Xo7;5588ddddllllllldd8855;ckpy2219rtfew                                                                                                                                                                                                                                                     ",
"                                                                                                                                                                                                            ejtr0>>>hk7oXo7;588ddddlllvvllllldd855ckpy2219rtfew                                                                                                                                                                                                                                                     ",
"                                                                                                                                                                                                           wejtr01>>hk7XX3<58dddddllllvvvvlllld8555kpy2219rtfew                                                                                                                                                                                                                                                     ",
"                                                                                                                                                                                                           wsjtr0>>1hk7Xo7;5dllllllvvlvvvvvvvldd85ckpy2219rtfew                                                                                                                                                                                                                                                     ",
"                                                                                                                                                                                                          wsfig90>>ypc3Xo<;8dlllllvvvlvvvvvvvlld85ckpy2219rtfew                                                                                                                                                                                                                                                     ",
"                                                                                                                                                                                                          efiu91>>ypk7oXo<58dlllvvvvvvvvvvvvvvld85ckpy2219rtfew                                                                                                                                                                                                                                                     ",
"                                                                                                                                                                                                          sjgr0>2>yzc3XXo<58dlllvvvvvvvvvvvvvvld85ckpy2219rtfew                                                                                                                                                                                                                                                     ",
"                                                                                                                                                                                                          sjgr0>2>yzc3XXo<58ddllvvvvvvvvvvvvvld855ckpy2219rtfew                                                                                                                                                                                                                                                     ",
"                                                                                                                                                                                                          sjgr0>2>hkc3XX3<558ddllvvvvvvvvvvvlld855ckpy2219rtfew            wssssssssssssssse                                                                                                                                                                                                                        ",
"                                                                                                                                                                                                          ejgr0>21hk7oXo7<;;58ddllllllvvvvvlld885ckzpy2219rtfew            sfjiiiiijjjijjjjaw                                                                                                                                                                                                                       ",
"                                                                                                                                                                                                        weaiu90>>ypc3XX37;;;558dlllllllvvllldd885kzphy>>0ruiae           wsfitgggggttggttgtjassew                                                                                                                                                                                                                   ",
"                                                                                                                                                                                                        eajgr01>ypk7oXo37;;;;58dllldlllddlddd855ckphy>>19utjsw           sjtgrrrrrrrrrrrrrrtijfaew                                                                                                                                                                                                                  ",
"                                                                                                                                                                                                       wsjtu91>1hzc3XXo37<<<;58ddldddlddd88885555kpy>>10rgjaew         wefiu900101011111110rggtjaew                                                                                                                                                                                                                 ",
"                                                                                                                                                                                                       wsiur022ypk7oXXXo377<<;58ddddddddd8855;;;ckhy2219rtaew          efig91>>>>>>>2>2>22>099utjaew                                                                                                                                                                                                                ",
"                                                                                                                                                                                                       wsiu9122ypk7XXXXXoo7<<<;588dddddd885;;;;;5kpy2219utaw         wefig90>>>2>>222222222>110rgjaew                                                                                                                                                                                                               ",
"                                                                                                                                                                                                        siu9022ypk7X+XXXXX3<<<;588ddddd8885;;;;;ckpy2219utaw        wsfiu911>>>>>>y>>>>>222>>2>1rtjaew                                                                                                                                                                                                              ",
"                                                                                                                                                                                                       waiu9022ypc3XXXXXXX3<<<;55888dd8885;;;;;;;kpy2219utaw       wsfig91>1hhpppphphphhyy1>22221rgiae                                                                                                                                                                                                              ",
"                                                                                                                                                                                                      wsftu90>>hz7oXXXXXXo7<;;;5588888885;;;;;<<ckpy2219utaw      wsfiu901>yzmmxmmcck5kkzphy>222>19giaw                                                                                                                                                                                                             ",
"                                                                                                                                                                                                      sfigr0>>ypc7XXXXXXXo7<;;55888d88885;;;<<77ckpy2219utaw     wsfig91>1hzmbMMb+3777<cckzphy1>221rgjae                                                                                                                                                                                                            ",
"                                                                                                                                                                                                     eaiur022ypk7oXXXXXXXo3<;558888d88885;;;<7337cpy2219utaw     efiu90>>yzmbN*=,q+Xoo377ccckzhy>2>0rgiaw                                                                                                                                                                                                           ",
"                                                                                                                                                                                                     eatu9122ypc3XXXXXXXo37<;;5588d888855;;<73o37cpy2219utaw   wefig91>>ypmbN%%=,6+XXo77777<ckzph1>>1rgjae                                                                                                                                                                                                          ",
"                                                                                                                                                                                                     eatr9022hzc3X+XXXXo37<<;;5588888885;;<<77337cpy2219utaw   eaigr0>21hkxM..%#-qXX37<<<<<77cckphy>>0rgiaw                                                                                                                                                                                                         ",
"                                                                                                                                                                                                     eatr9022ypc3XXXXXX377<<;;55888d8885;<<<77337cpy2219utaw   efiu91>2yzmb=OO%#-+o37<<<<<<<777ckph1>>1rgjae                                                                                                                                                                                                        ",
"                                                                                                                                                                                                     eatr9022ypk7oXXXXo37<<<;558888d8855;<<<77337cpy2219utaw   sjtu91>2ykx6=..*@qX7<<<<<<<<<<77cckzh1220rgiaew                                                                                                                                                                                                      ",
"                                                                                                                                                                                                     watr9022ypc7oXXoXo37<<<;58888888555;<<<77337kpy2219utaw wsfig90>>1pmx,=*=,qo7<<<<<<<<<<<7337ckph>>>1rgiaew                                                                                                                                                                                                     ",
"                                                                                                                                                                                                    weftr902>hzc3XXooo37<<;;;55888888555;<<<73o3<kpy2219utaw eaigr01>1hzxb,##,+3<<;;;;;;;<<<<77337ckph12>0rgiae                                                                                                                                                                                                     ",
"                                                                                                                                                                                                    eajg901>ypk7ooooo377<<;;55588d88885;<<<<73oo7kpy2219utaw ejtu91>21pk36@@,q3<;;;;;;;;;;<<<<73377ckpy22>9uiae                                                                                                                                                                                                     ",
"                                                                                                                                                                                                   wsjtu01>yhzc3oooo377<<<;555588dd8885<<<<<3oXX7cpy2219utaw sjgr01>2yzcX-@,qo<;;;;;;;;;;;;<<<<73o37czh>2>0rtfsw                                                                                                                                                                                                    ",
"                                                                                                                                                                                                   eaiu9022yzc73oo3377<<<<;58888888885;<<<<<3X+X7cpy2219utaw ejtr01>2yz7+-@-+7<;;;;;;;;;;;;<<<<73oX+3cpy>>19gjae                                                                                                                                                                                                    ",
"                                                                                                                                                                                                  wsftr012>hk73oooo37<<;<<;88888888885;<<<<<o++X7cpy2219utaw sjtr01>>hk3q-,qo<;;;;;;;;;;;;;<<<<73X+6q3khy>>0uifsw                                                                                                                                                                                                   ",
"                                                                                                                                                                                                  wajgr0121pc3XXXXo37<;<<;;5888d88885;;<<<<<3X+X7cpy2219utawwajgr0>>1hk3q6qX7<;;;;;;;;;;;;5;;;<73Xq--6xkh>219uifew                                                                                                                                                                                                  ",
"                                                                                                                                                                                                 wsfig91>>hk3X+XXXo37<;<<;;5588dd8885;;;<<<<3X+X7cpy2219utaesftu91>>ypc3q+X7<;;;;;;;;;;;;5555;<73Xq,@@6mp>2219tjsw                                                                                                                                                                                                  ",
"                                                                                                                                                                                                wefigr0>>yzc+qq+XXXo7<<<<<;55888888855;;;;<<3X+X7cpy2219utfajtu91>1ypzc3Xo7;555;;;;;;;;;55855;<73Xq,@@6mp>2>19gjsw                                                                                                                                                                                                  ",
"                                                                                                                                                                                                wsjtr012>hmX66q+XXXo3<<<<<;55888888855;;;;<<3X+X7cpy2219utjjtu91>>yhzkc737<5885;;;;;;;;55585;<773Xq,@-qmp>2219tjsw                                                                                                                                                                                                  ",
"                                                                                                                                                                                                 ajgr012>zx+66q+XXXo3<<<<<;5588d8885555;<<<<3X+X7cpy2219rgtgu91>>ypzkc7337<55555;;;;;;5555;<<3ooX+6,,6Xmp>2219tjsw                                                                                                                                                                                                  ",
"                                                                                                                                                                                               wefiu91>>ykxq66q+XXXo3<<<<<;5588dd855555;<;<<3X+X7cpy2219rrrr9011ypzkc7337<;5555;;;;;;5555;;73oXX+q-,-q3kh22219gjsw                                                                                                                                                                                                  ",
"                                                                                                                                                                                               sfiu90>>hpc+6-6q++XX37<<<<<;55888885555;;;;<<3oXXxcpy221999901>yhpkkc7337<;55;;;;;;;;;5555;;73X++q-,,6+mzh22219gjsw                                                                                                                                                                                                  ",
"                                                                                                                                                                                             wefiu911>ypc3q6-6q+XXo37;;<<;;55888888555;;;;<<3oXX3cpy22100001>>hpkcc3337<;;5;;;;;;;;;;5555;<73X+q-,@,6xmpy22>0utfsw                                                                                                                                                                                                  ",
"                                                                                                                                                                                             sfig9111yhk7+q66q+Xooo37;;<<;;5588ddd8855;;<<<73ooo3czh>222222>1hzkc73337<;;;;;<;555;;55855<<773X+6-@@,qxzy>2>0uifsw                                                                                                                                                                                                   ",
"                                                                                                                                                                                            waigr0>>yhzcXq66q+XXooo37<;<<;55888dddd885;;<<733oooo7kpy>2>222>hpk<73337<<;;;;<<;555555888;<7733Xq6,@@-+mp>221rtjsw                                                                                                                                                                                                    ",
"                                                                                                                                                                                            waig91>2yzmXq6-q++XXXXXo7<<;;55888dddldd85;;<<73oooXX3ckphphhhhhzkc73337<<<<<<<<<<<;;5588885<733oXq-@@,bxzh22>0rtfsw                                                                                                                                                                                                    ",
"                                                                                                                                                                                           weftu91>>ykxq6--6+++XXXXo7<<;;55888ddllldd85;<<73ooXXXX37cmmkkzzkkc77337<<<<<<<<<<<<;;5888885;<73o+6,@,6xkpy2219uiae                                                                                                                                                                                                     ",
"                                                                                                                                                                                          weaigr01>ypcq6---6q+XXXXX37<;;;5588ddddllldd85;<733oXXXX+qqq+X3777777<<<<<;<<<<<<<<<;;55888855;<77oq-@@-Xkpy>2>9utfsw                                                                                                                                                                                                     ",
"                                                                                                                                                                                          wajtu91>yhk36----6q+XXXXo37;;;;5588dddllllld85;<<73oXXXXq-,@-66+Xo77<<<<<<;;<<<<<<<<;5588885555<73X6@#,qcpy>2>19gifseeeewww                                                                                                                                                                                               ",
"                                                                                                                                                                                           ftur1>>ypc+-,,-6q++XXXXo37<;;;5588ddllllllld85;<<3oXXXXq6@@,-6qX37<<;;;;;;;;<<<<<<;55888885;55<3oq,##,xkh>2210rgifaaaaaase                                                                                                                                                                                               ",
"                                                                                                                                                                                          efgr912>hzxq,@,6q++XXXXXo37<;;5588ddllllvllld85;;<73XXXX+6,,-6q+o7<<;;;;;;;;;;<<<<;;5888888;;58;3+-#*=Mmpy22>109utiiiiiijfaw                                                                                                                                                                                              ",
"                                                                                                                                                                                         esjgr0>>1hkx6,@,6++XXXXXoo37<;5588ddlllvvvvvldd85;<73oXXX+q66q+Xo7<<;;;;;;;;;;;;;;;5588d8885;;58;7q@*%%Mmh>22>>>10ruuuguugtjsw                                                                                                                                                                                             ",
"                                                                                                                                                                                        wsjtu91>1ypmx-@,-q+XXXXXoo377<;558ddlllllvvvvlldd85;<3oXXXX+++XXo7<<;;;;;;;;;;;;;;;5888ddd855<<5557q@%.NMkh2222222>0009099ruifsw                                                                                                                                                                                            ",
"                                                                                                                                                                                        wftu91>>ypkxb-,-6q+XXoooo37<<<;558dlllllvvvvvvlldd85<7ooooXXXXoo37<;;;;;;;;;<<<<;;;5ddddldd5;<7;55<+@*.NMmp>2222222>1>1>>119utfsw                                                                                                                                                                                           ",
"                                                                                                                                                                                        ejgr0>2>hzcxb--6q++XXooo37<<;;;5558dllllvvvvvvvlld85;73oooXXo3337<;;;;;;;;;<<<<;;;58ddlllld8;<<;5;7+,=%NMxkhyhyyy>>22222222>9utfsw                                                                                                                                                                                          ",
"                                                                                                                                                                                       wsjgr0>2>hk7q--6q++XXXooo37<;555;;;58dlllvvvvvvvldd88;<3oooXXo337<;;;<<;;;;;<<<;;558dlllvvvl85;;55<3+-#=NNbxmmkkzzp0>2222222210rtfe                                                                                                                                                                                          ",
"                                                                                                                                                                                      wsftu91>>hpcoq66q++XXXXXoo3<;5555;;;;8dlllvvvvvvvlld85;<73ooXXoo37<<;;<<;;;;;;<<;;58dlllvvvll8;<<;5;7+6@=*NNNMb+Xxxmzhyy>1>>>>>>0rtfsw                                                                                                                                                                                        ",
"                                                                                                                                                                                     wsjtu91>1hpk7+q6q++XXXXXXo37<;555555;;58dlvvvvvvvvvld85;;73oXXXooo377<;;;;;;;;;;;;;;8lllvvvvld5<77;5;<X6,#%O$O*#,-66bxmkzpzphhy>2>0rtjsw                                                                                                                                                                                       ",
"                                                                                                                                                                                    wsjtu91>>ypk<o+qq++XXXXXXXX37<;555555;;558lvvvvvvvvvld855;<3oXXXooooo3<<<<<;;;;;;;;;58lllvvvvvl8;<<;55;o6,#%$::$.*=##MM+xxccckzpy>2>0rtfsw                                                                                                                                                                                      ",
"                                                                                                                                                                                   wsjtu91>>0hzc3X+q++XXXXXXXXo37<;55888855;58dlllvvvvvlld8855<3oXXXooooXo3777<<;;<<;;;588dllvvvvvvl8;;5885o6,#*O:::$O.%=#@,-6qqxxmkph>2>0utfsw                                                                                                                                                                                     ",
"                                                                                                                                                                                 wesftu91>>yhzm7X++++XXXXXXXXXo37<;588888855558ddllvvvvldd885;<3oXXoooooXoo377<<<<<;;<;;58ddlvvvvvvd8558885o6-@=%$$$O.%%=#@@@,--6bxxkpy>219uifsew                                                                                                                                                                                   ",
"                                                                                                                                                                                 wsjtu91>>yhzmxX++++XXXooXXXXoo37<;58ddddd855588ddllvvvldd85;;<73oooooooooo3<<<<<<;<<<<<;58dlvvvvvldd858d8;X6-,@=%%%**==#@@@,---6-6qxkp0>2>0utjse                                                                                                                                                                                   ",
"                                                                                                                                                                                 eaigr0>21hzmxxqqq+XXXXoooXXooo37<;58dddddd8555588ddllllld55;;<733ooooooooo37<<77<<<777<<;5dllvvvlld8558d8<X--,@@#===####@@@,,---,,,qxzh12219giae                                                                                                                                                                                   ",
"                                                                                                                                                                                 efiu90>2yzmx+q6qq+XXXXooooooooo3<;5588dlld885555588ddlld85;;;<<733oooooooo33777777333777<;8dlllllld5588d57q-,@@@@@##@@@@@@@@@,-,,@@Mbmzy22>0uife                                                                                                                                                                                   ",
"                                                                                                                                                                                wsjtr01>>hkx3q66q++XXXXXoooooooo37<<;;58dlld885555;558dd855;;;;<773ooooooooo3333333ooo3337<;88ddlld855588;o6@@@@@,@@#@@@@@@@@@,,,@#=#Mxmh22>1rtjsw                                                                                                                                                                                  ",
"                                                                                                                                                                               wsfig91>>ypc3+qqq+++XXXXXXooooXXo33777<;8dllld8855;;;558885;;;;;<733oooooooooooooooooXXooo37<;558ddd5;;5857+,##@@@@@@##@@@@##@@@@@@#**#Mxp1>>19gifsw                                                                                                                                                                                 ",
"                                                                                   weeeeeeeeeeeeeeeeeeww                                                                      wsfigr0>>yhzc3X+q++XXXXXXXXoooooooo3337<<;8ddlldd85;;;;55555;;;;;<73oooooooooooooXXooooXXXXo377<;58885;;585o6@###@@@@@@@@@@@@@@@@@@@#**=Mxkh12>1rgiae                                                                                                                                                                                 ",
"                                                                                 wesaaaaaaaaaaaaaaaaaase                                                                     wsfig91>>1hzkc3X++XXXXXXXXXXooooooooooo3<<<;58llld85;;;;;;555;;;;<<3oXXooooXXooooXXXXooooXXXXoo37<;555;;555;X,#=#####@@@@@,,----,@@@@#===Mbmzy2220rtjs                                                                                                                                                                                 ",
"                                                                               w esfiiiiiiiiiiiiiiitiijaewwwww                                                               sfigr1>>yhzkc7oX+XXoooXXXoooooooooooooo3377<;5dllld85;<<<;;55;;;;<73XXooooXXXoooooXXXXooooooXXXX3<;;;;;5555<+,@#####@@,,--66qqq66-@@@@###Mbxkh2221rtjs                                                                                                                                                                                 ",
"                                                                             weeeajiuruuuuuuuuuuuuuurutjassasew                                                            wefiu91>>1hzkc7oX++XXoooXXooooooooooooooooo337;;5dlld85;<77<;55;;;;<7oXooooXXXXooooooXXXXXXooooXXX3<<;;;55555<q@@@@##@@,--6q+XooXX+6,@@@@@#Mbxkh22>0rtjs                                                                                                                                                                                 ",
"                                                                             eajjitu909999999999999099utiiiiifew  www                                                      sfig91>1yhzkc3oX+++XXXXXXXXooooooooooooooooo37<;;5ddd85;<77<<;;;55;<73oooooX+XXXooooooXXXXXXoXooXX37<<;;588557q@####@@,-6q+Xo77<77o+6-,@@@@@bxkh22>0rtjs                                                                                                                                                                                 ",
"                                                                            eajtgur90111111111111110109ruuurgiaseessseew                                                 wefiur0>>yhzkc3X++q++XXXXXXXXXooooooXXooooooooo3<<<;55855;<777<<<;555;<773ooo++XXXXooooooXXXXXXXXoXXo7<<<;588857q@#=#@@,,-q+X3<<;;;<7o+6,@###Mbxkh22>0rtjs                                                                                                                                                                                 ",
"                                                                           waitur901>22>2>22>22>22222>109999rgiijjijjjae                                                 efig91>>yhzmxX+q66q+XXXooXXXXoooooooooooooooooo33777<<;;;;;<<7777<;555;<73oooXXXXXXXXXooooooXXXXXXXo37<<<;58dd536@###@@,,-6+o7;555;<7o+6,@####Mxkh22>0rtjs                                                                                                                                                                                 ",
"                                                                          wsigr9001>22222222222222222221000009uugugugtiawww                                              aigr0>21hzmx+q6---6+XoooooXXooooooooooooooooXXooooo3777<;;5;<7337<;5555;<3oooXXooXXXXXXooooooXXXXXXo7<<<<<58dl536@###@@,--6+3<5585;<7o+q-,@#=Mbxkh22>0rtjs                                                                                                                                                                                 ",
"                                                                         eajtr01>>>>>1yyyyyyyyyyyyy1>>>>>2>2>09rrrr9rugiffae                                             atu9122ypkx+q6-,,-6qXoooooooXXoooXXooooooooXooo333oo3337<<;;<7o37<;5555;<3oooXXoooXXXXoooXXXooXXXXXo7<<<<;5ddd5o6@@###@,-6qX7;5885<773X+6,@##Mxmzy22>1rtjs                                                                                                                                                                                 ",
"                                                                       weajtr01>22>yhppzpppppppppppphhy>22222>10900009rgttiaew                                         weftr91>>hzm+q6-,,,-6q+oooooooXXooXXXXooooooXXooo333ooooo377<<<7337<;5555;<3oooXXooooXXooooXXXXooXXXXo7<<<<;8dd8;X6@@###@,-q+X7;585;7773oXq-,@,qxkp122>0utfs                                                                                                                                                                                 ",
"                                                                       eajtr01>1yyhpzkccc7c<cccckkcckkphy>>>22>>>>>>>10ruugife                                         eaig90>>ypk3q6---,-6q+XXooooooooXXoXXXXoooooXXoooooooooooo3377<7337<;;;55;<73ooooXoooXXXooooXXXoXXXXXX37<<<;5885<+6,@##@@,6q+o7<;;;<<7733Xq6-6qxmpy>2>0utjae                                                                                                                                                                                 ",
"                                                                     weajtr01>yhpzkkc3+qq+++Xo3777333<czphhy1>22222222>099rgiaeeww                                   weaigu0>>yhzcX6------6++XXXoooooooXXooXXXXooooXXooooXXooooooo33733o37<;;;555;<7333oXXooXXXXooooXXoX+XXXXo37<<;58857+6,@###@,-q+X377<<<<773o+666+ockh1>10rtjse                                                                                                                                                                                  ",
"                                                                     eajtr011ypzc73+q6,@@,--66+++++++X3cckkzpyy>>>>>22>>>10rgiffase                                  efitur02>hzmxq------6q+XXXXXooooooooooXXXXooooXXoooooooooooooo333ooo37<;55855;;<773ooooX+XXXXXXXXXX+XXXoo337<5888;3+6,#==#@,-6+XXoo333333oXq66qXckpy>10utjse                                                                                                                                                                                   ",
"                                                                   weajtr01>ypk7Xq-,@#====@@@,66666666+X37cckphhhhhyy1>222>0rgtijfaw                             wwweaigur912>hkxb-------6++XXXXXooooooooooXXXXooooXXooooooooooooooooooooo37;5888855;<733oooX++XXXXXXXXXXXXXoo337<5888;3q6,#===@@,-q+++XXoooooX+6--63kpy>>1rtjse                                                                                                                                                                                    ",
"                                                                  weajgr011ypmxq-,##=**%**=##@,,,,,--6q+XX37cckzzzpzph01>>>>0ruugijsw                           wesaajtur901>yzm+-@,-----6++XXXXXooooooooooXXXooooooooooooooooooooooooooooo3<5888885;<733oooXXXXX+XXXXXXXXXXo337<<;588;3q6,#===#@@,-6+++XXXooX+q-,@-3kh>210uiaew                                                                                                                                                                                    ",
"                                                                  eajtr011ypmb,###==*%%%%%*=#@@@@@@,--6q+XXo37cc;cccmzphhy1>1099ruifswwwwwww           wwwwwwwwwsafjitu99911ypkx6@@@-----6++XXXXXooooooooooXXoooooooooooooooooooooooooooooo37;58885;<7733oooXXXXX++XXXXooXXXo377<<;588;3q6,#===#@@,,6++++XXooX+6,@@-xzy2219ujsw                                                                                                                                                                                     ",
"                                                                 wsfiu912>hkb#%%*===*%.O..*=@@@@@@@@,-6+XXXXoo3773333mmkzph1>11109uifsssssssew       wesssssssssfitgur9001>ypkxb,@@,-----6++XXXXooooooXooooXXooooooooooooooooooooooooooo33337<;555;<7333ooXXoooXXXXXoooooX+XX377<<;555;3q6-@#####@,,6++++Xo33Xq-@#@6xzy2219uiaw                                                                                                                                                                                     ",
"                                                                 wsjtr012>pxM.OO%****%O$O.*=@@@@###@@-6+ooXXXooooXX+Xxxxckzhy1>>119utjffffffaew     weaffffffffjigr9901>>1yhkxbM,@@,-----6+XXXXooooooXXooooXXooooooooooooooooooooooooooo373o37<;;;;<3oooooXXooooXXXXoooooXXXXo37<<;555;3q-,@####@@,-6++++Xo3o+6@#=@67zy2219uiae                                                                                                                                                                                     ",
"                                                                 wsjtr012>px#O$OO....O$$$O*#@@@@###@@-6+ooXXoooooXXXX+XX3ckzh1>22>19ugttttgtiaswwewweaitgttgtttgur901122>ypc7+-,@@@,----6q+XXXoooooooooXXooXXXXooooXXXXXXooooooooooooooo7<7oo377<<<<3oooooooXXoooXXXXoooXXoXXXo37<5588;o-,@@###@@@,-6q+++XXoXq-#==@q7zy2219uiae                                                                                                                                                                                     ",
"                                                                 wsftr012>zb*$$$$$$$$$::$.=@######@@,6qX3oXXooooooXXXX++X3cczhy>>>119rrrrrrrgjfaafaafigrrrrrrrrr9011>>>1ypcXq-,@@@,,---6q+XXXooooooooooXXooXXXXooooXXXX+Xooooooooooooooo773ooo37<<<<73ooooooXXooooXXXXoXXXoXXXX37;5888;X-@#####@@@,-qq+++XXX+6,#==,qczy2219uiae                                                                                                                                                                                     ",
"                                                                 wsftr012>zb%:::&&&&&&&:O*#@##===#@,-+o773XXXooooooXXXXXX337ckzphy>119900009rgtttttttgr0000000991>22>yhpzm+6-,@@@,,---6q+XXXXoooooooXXXXXooXXXXooooX+++XXXXXXXoooooooXoo33oXooo37<<<<73oooooooXXoooXXXXX+XXXXXo3<;5888;X-@#####@@@@,6++++XX+6,@###,qcpy2219uiae                                                                                                                                                                                     ",
"                                                                 esjtr012>kM.:&&&&&&&&&$.*=###===#@-qX777Xq+XXoo33ooXXXXXooo3<cczpy>>11111119rrurrrur90111111111>>>>yhzmxb-,@@#@@,,---6+XXXXXXoooooXXXXXXXoXXXXXooXX+++XXXXXXXooooooXXooooXXooo37<<;<<3oooooooXXooooXXX+++XXXXo7<;5555;X-@########@,6++++XX+6@###@,6cpy2219uiae                                                                                                                                                                                     ",
"                                                                 wsjtr012>kM.:&&&4&&&&$$.%*=@@###@,6X373X6-6+XX3333ooooXXooXo377ckpy>22222221099999990>222222222>yhpzzmxq-,@@@#@@@,,--6+XX++XXXXXXXXXooX+XX+++XXX++++XXXXXXXXooooooXXoooooXXooo337<<<<3oooXXooooXXooooX+++XXXXo7<;;;5;<+-@#######@,-6q+XX++q-,@#@@,67zy2219uiae                                                                                                                                                                                     ",
"                                                                  efigr0>1pxN:&4&&4&&:$O.%*=####@,-+ooo+6-,6+XXo3333333ooooooooX3<kpy>>>2>22>111011111>>22>222>>yhzmmxxb-,@@@@#@@@,,--q+X+++++XXXXXXXXX+++++++++++++XXXXXXXXXooooooXoooooooXoooo377<<<73ooXXooooXXooooXX+XXXXXo3<<;;;<7+-@##@#####@-6q+XX+q6-@###@,6xky2219uiae                                                                                                                                                                                     ",
"                                                                  wsfig901ypM&44&4&&&:$O.*###=*=@-q+X+6-,,-qXXXXoo3377773oo33ooXo37czphhhhhy>2222222>1yhhhhhyyhpzkmx+6-,,@@@@##@@,,--6q+X++++++++X++++++++++++++++++XXXXXooooXoooooooooXoooooooo3777<;<7oXXXooooXXXXXXoooXXXXXXo37<;;;7+-@#@@@##==#,6q+XX+6-@#=*=#,6xkh2219uiae                                                                                                                                                                                     ",
"                                                                  wesftr01>yxO&44&4&&&:$.*##*%%*@-q++6,##@-qXXXXXXo37<<<7337773oXX37cckzzzpph>>22222>ypzzzzzpzkccxxb-@@@@@@@@#@@,,--66+XX+++++++++++++++++++++++++++XXXXoooooXoooooooooXoooooooo3337<<<7oXXXooooXXXXXXoooXXXXXXXo7<<;;7+-@#@@@##==#,6q+XX+6,@=**=#,-+mp>2>0rtfsw                                                                                                                                                                                    ",
"                                                                   weftr012>kM$44444&&&:$.%*%..%#,-66,@=*#-q+XXXXX37<;5;<<<<<<73oXXXX37<;5ckphhyyyyyhpzcc<ccc;73o+6,#####@@@@@@,,-66q++XXX++++XX++++++++++++++++++++XXXoooooooooooooooooooooooooo3o377<7o+XXXXoooXX++XXXXXXXXXXXo37<<<7+-@##@#####@,6q+XX+q-@===#@@,6xzy>219uifew                                                                                                                                                                                   ",
"                                                                   weaiu912>hmNB44444&&::$O.OOO%#@,,@@#==#,6q+XXXo3<;55;;<<<<<73oXX+++Xo7<<cckzppppppzc73o33oXX++6-@##@@@,,,,,,--6qq+++XXXXXXXXX+++++++++++++++++++XXXXoooooooooooooooooooooooooooooo377X+XXXXoooXX++XXXX+++XXXXo337<<7+-@########@,6q+XXq6-@===#@@@,bmpy221rgiasw                                                                                                                                                                                  ",
"                                                                   wesfiu01>ypxN&44444&&&:$$$O.*#@@##===#@,-qq++Xo7<;55;<;<77773oXX+++XXo3777<ccccccccc7X+XX+qqqq6-,,,,--66666666qq+++XXXXoXXXX++++++++++++++++++XXooXXXXoooooooooooooooooooooooooXXXXooX+XXXXXXXXXX+XXX+++++XXXXo3377oq-@####===#@,6q+X+6-,@==#@@##@-xky22>0utjfsw                                                                                                                                                                                 ",
"                                                                   wwesftu901yzbV&4444&&&&::$O%=###=***=##@,-6qq+X3<;;;<<<<7333oXXX+++XXXo333377x7c7x773X+++qqqqqq666666qqqqqqqqqq+++XXXXXoXXXX+++++++++++++++XXXXooXXXXXoooooooooooooooooooooooooXX++XXXXXXXXXXXXXXXXXX+++++XXXXXoo3oXq-@###==*==#,-qqq6,@@#==##@#=#,qmp>2>0rutifsw                                                                                                                                                                                ",
"                                                                      esfiu91>hzbN&444&&&&&:$O%=##=*%%%**==@,--6q+o7<<777<<3oooXXX++++XXXooooo33ooXoo33oXXXX+qq++++XXX++++++++++++++XXooXXXXX++++++++++++++++XXXXooXXX++XXXXXXooooooooooooooXXXXooXX++XXXXXXoXX++XXXXX+++++++XXXXXXXXX+6,#=##==**=#@,666,#===**=##=*=@Mxzy>>199rgifew                                                                                                                                                                               ",
"                                                                       wsftu011hzxV&444&&&&:$O%=##=*%%%.%%*=@@,-6q+o7333377oooXXX+++++XXo33oo333oXXXo333ooooXXXXXoooooXX++XXXXXXXXXXXoooXXXXX+++++++++++++XXXXXXoooX++++XXXXXXoooooooooooooooXXXoooXXXXXXXXXooX+XXXXXX+++++++XXXXXXX+q6-,#=##=*%%*=@,--,#=***%*==#=**=Mbmzy>1110rgifsw                                                                                                                                                                              ",
"                                                                        wsjtu911hzbN&4&&&&&:$O%=@#=*...OOO%*=#@@,-q+XXXo33oXXXXXX+++++Xo333o33733ooo3373333333oo33ooooXX++XXXXXXXXXXoooXX++++++++++++++++XXXXXXooooX+++XXXXXXoooooooooooooooooXXooooooXXXXXXooXXXXXX+++++++++XXX+++++6-,@#===**%%*#@,,@#=**%%%*===*%%*NMbmpy>>>>19gifew                                                                                                                                                                             ",
"                                                                         wajtu911hzxNBBB&&&:$O%=##*%.OOOOO.%*=##@,-q++XXXXXXXXXXX++++XXoo3333777773777777777773333ooooXXXXXXXXXXXXXXXooX++++++++++++X++++XXXXXXXoooX+++XXXXXoooooooooooooooooooXooooooXXXXXXXXXXXXXX+++++++++XX+++qq66-,@#===*%%*=#@@@#*%%%.%**==**%%%*NMxmpy>22219gifsw                                                                                                                                                                            ",
"                                                                          wsjtu911hzxMVV::&::O%*=*%.OOOOOO..%*=#@@,-qq+qq++++++++++++XXXXo337<<<<<<<<<<<<<<<733oooXXXXooXXXXooXX+++++XXX+++++++++++XXX+++XXXXXXXXooXX++XXXXooooXXXoooooXXXXXooooooXXXXXXooXXXXXXXX+++++++++++++++q66-66,###==*%%*=#@@@#%...O.*===***%%*=Mbxmpy>22219gifew                                                                                                                                                                           ",
"                                                                           wsjtu011hzmbNNO$::$O...OO$$$OOOOOO%=#@@@,-----6qqq6qq++++++XXXo3<<<<<<<<<<<<<<7<<773ooXXXXXXXXXXooXX+++++XXXXXX+++++++++++++++XXX+XXXXXXXX+++XXXoooXXXXXooooXXXXXXoooooXXXXXXooXXXXXXX+++++qqq66q++++qq66---@###==*%%*=#@,@=%..OO.====***%%%*=Mbxmphy>>>19gife                                                                                                                                                                           ",
"                                                                             sjtu901ypmbbN%O$:$$$$$::::$$$$$O%=#@@#@@@@@@@,--,,6q+++++++Xo7<<<<;<<<<<;<<737<733oXXXXXXXXXXooXX+++XXXXXXXoXXXXX++++++++++XXX+++XXXXXXX++++XXXXXXXXXXXooooXXXXXXooooXXXXXXXXXXooXX+++++qq6---66q+qq6666-@#=====*%%%=#,,#=%%.OO.*###=****%%*@Mbxmkzhy>>19giae                                                                                                                                                                          ",
"                                                                             wsjtu911ypkxbMNNO:&&&:::::::::$$.*=====****==##@@,-66q++++XXo7<<<<;;<<<<<<73o3773ooXXXXXXXXXooXX+++++XXXX+XXXXXXXX+++++++++++++++XXXXXXXX+++XXXXXXXXXXXXoooXXXXXXXooooXXXXXXXXoooXX++++q6------66q66666--,#==*****%*=@--#=*%.OO.=####==##=*=#@MMbxmzhy1>19giaew                                                                                                                                                                        ",
"                                                                              weftu0111hzmxxbN$:&&::::&&&&&:$OO..%%%...%%%%*=@@,,-6q+++XXX3<<<<;;;;;<733ooooooXXooooXXXXooXX++++++++++++++++XXXXXX+++++++++++XXXXoooXX+++XXXXXXoooXXXoooXXooXXXXooooXXoX++XooXX+++++q-,,--------------,@#=***==**#,6-@#=*.O$.*#####@,,,@##@@,,bxmkzh>219gifew                                                                                                                                                                       ",
"                                                                              wwsjtu91>1hppkxbNV$$$:B&B&&&&:$OOOOOOOOOO...%%*#@@@,--66q+XX3<<<;<<;;<73oooooXXoXo3333oXXoooXXXXX++++++++++q++XXXXXXX+++++++++XXXXoooXX+++XXXXXXoooooooooooXXXXXXXXooXXXoo++XXXX+++++q6-,,--,------------,#=***==**#,-,@##*.O$O%*===##,-,@#####=#Mbxmzh>>19gifsw                                                                                                                                                                      ",
"                                                                                esftu01>>>1hkmbbMNVVBBBB&&::$$$$$$$$$OO....%*#@@@@@,,-6q+X3<<;<<<<<<7oooooXXXXoo3773ooooXXoooooX+++++++q++++XXXXXXXX+++++++XXXXooooX+++XXXXoooooooooXXXXooXX+XXXXXXXXXoX+++++++++qq6-----,,,-----------,@=**===**#@@@#=#=.O$O.%****=@,,##===*%%*NMbmzh>219gifew                                                                                                                                                                     ",
"                                                                                 esjtu91>2>yhpzkmbMNNVVV$V$$$$$$$$$$$$OOOO..%*=####@@-6q+Xo7<<<777773oXXXXXXXXXXo33ooooXXXXooooX++++++++XXXXXXX++XXXX+++++++XXXXooXX+++XXXooooooooXXXXXXoooXXXXXXXXXXooX++++++qq666---,--,@@,,,,,-----,@#=****%%*==##===*.OOO..%%%%*=###=***%%..%NMbmzy2>19gifse                                                                                                                                                                    ",
"                                                                                 wesftu011111>1ypkmxbbbMNNN%.OO$$$:::$$$$OOO.%*====#@,6q++Xo7<<7773oXXX+++XX++++XXXXXXXXXXXXooXX+++++++XoooXXX+++++XXX+XXX++++XXXXXXXXXXXooooXXXXXX+XXXXooooooXXXXXXooXX+++++qq6-----,,,-,@@@@@@@,---,@#===*%..%%**====*%..........%%**=*%%%%%..%%NMbmp12219gifsw                                                                                                                                                                   ",
"                                                                                   esjtu9001>>>>1hpzzkkxxbbMN%.OO$$::$$$$$OOO.%****=#,-qqq+Xo77333oXX++qqqq++qq+++XXXXXXXXXXXX++++++++XXoooXX++++++XXXXXXX+++XXXXXXXooXXXoooX++XXX+++XXXoooooooXXXXXXXXX+++++qq6-----,@@,,@@@@@@@@,--,@#===*%...%%*==#=*%....OOOOOO...%*%%%%%%%..%%Nbxzh>220rtjsw                                                                                                                                                                   ",
"                                                                                   wesfiurr91>>>>>1yyyhpkmxxbMN%.O$$$$$$:$OOO..%%***=@,666q+XoooooXX+qq6--666666q+++++++XX++++++++++++XoooXX+++++++XXXXooX+++XXXXXXooooXXoooX++++++++XXXooooooooXXXXXXXXX++++qq6-----,@@@@@@@@###@@,-,@#=##*%....%%*=##*%....OOOOOOOOO.%%%%%**%%...*Mxmp>2219gjaw                                                                                                                                                                   ",
"                                                                                     esjttgu9011>222>>1yhpzzkmbMN%.O$$$::$$OO..%%%%%%=#@,-66q+++++++q6--,,,-----66qqqqqq+++++++++++++XXoXXX++XXX+++XXXXXXX+XXXXXXXooooXXXXoXX++++++++XXXXXXooooooXXXXXXXX+++++qq6----,@##@@@@@####@,--,@###=*%%.%%**===*%....OOOOOOOOO.%%**==**%%%.*Mbmp>22>9gjaw                                                                                                                                                                   ",
"                                                                                      esfjjiurr91>222>>>1yhhhpmxbMN%.O$$:$$OOO.%%....%*=#@,,-6666666--,@@@@@@@@,,-6666666qq++++++++++XooXX+++XXX+++XXXXXXX+XXXXXXooooXXXXXXXX+++++++XXXXXXXXooooooXXXXXXXX+++++qq6---,@#=#@@######@,---,@@#=*%%%%****=*%%....OOOOOOOOO.%*=###=**%%%*Mbmp>2219gjaw                                                                                                                                                                   ",
"                                                                                       esssftggu9011111>2>>>>yhzmxbMN.O$$$$OOOO..OOOOO.%*===#@@@@@@@@@@@@@@@@@@@@,,-----,-6qqq+++qqq+XooXX+XXXXX+++XXXX++++XXXXXXXooX++XXXXXX++++++XXXXXXXXXXXXooooXXXXXXX+++++qq6---,@#=#@@###@@@@@,--,@@#=*%%********%.....OOOOOOO..%*#@,,@##=*%%%Mbmp>2219gjaw                                                                                                                                                                   ",
"                                                                                           sfjiturr9r9912222>>10pzmbMN%.O$$$$$$OOOOOOOO..%%%*=*****=####@@@######@@@@,,,@@-666qqqq6qq+ooXX++XXXX+++++++++++++XX++XXXX+++++++++++++XXX+XXXXXXXXXXooooXXXXXX+++++q66---,,@#######@@@@@@,-,@@#*%..*===***%..............%*=@--,,@@#*%%*Mbmp>22>9gjaw                                                                                                                                                                   ",
"                                                                                           wssajiguuuur901111>>>1ypmxMN.O$$$$$$$$$OOOOOOOOOO......%*==###@@@@#####@@@@,@@@,,,,-----66q+XX++++q++++++qqqqqqq+++X++XXX++++++++++++XXXX+++XXXXoXXXXXXXXXXXXoX+++++q6-,,--,,@@###@@,,,@@@@,#===*...%===***%........%%%%%%*=#,-,@@@@=*%%%Mbmp>2219gjaw                                                                                                                                                                   ",
"                                                                                               sfiitttgur99901>22>ypmbN%O$:::::::$$OO.OOOOO$OOOOOO.%*===##@@@########@@@@####@@@@,,--6q+++qq666q++qq6666666q++++++++++++++++++++XXX++++XXXXoXXX+++XXXXXXooX++++q-,,,-----@###@@,-,@@#@@=***%.OO%*==*%%%........%%%%%*=#@,,@@@@#=*%%%Nbmp>2219gjaw                                                                                                                                                                   ",
"                                                                                               wsaaaafjturrrr901111hpxMN$:::$$$:::$OOOO$OOO$$$$$$OO.%***=#@@@#@@@@####@@####@@@@@@@@@,666666---6666-------66q++++++++++++++++++++++++++X+++XXX++++++++XXXXXX++q6,@@,--,,,@##@,,--,@@#@#=***%...%%**%%%.......%%%%%%*=#@@@,@#@@=*%..%Nbmp>2219gjaw                                                                                                                                                                   ",
"                                                                                                     wsjtgttgur90011hkbMV$$$OO$$:::$$$$$OOO$$$$$$$OO.%%**=#@@@@,,@@########@@@@######@---------------------6qq+qqqqqqqqqq++qqq++++++++++++++++++++++++XXXXXX+qq6,,,,-,,,@@##@,---,@@###=***%%..%%%%..........%%%%%*=#@@@@@@###=%...%Nbmp>2219gjaw                                                                                                                                                                   ",
"                                                                                                      wsfffffturr9011yzxMNNNN.O$$::::::$$OO$OOOOO$$OO.%%=##@,,,,,,@@##@@###@@@#######@,,,,,,-,,,--6--------666666666666666666qq+++++++++++++++++++++++XX++++++qq--,,--,,,,@,,--,,,@@@@##===*%%%............O....%*#@,,,@@@##==*.O$$.Nbmp>2219gjaw                                                                                                                                                                   ",
"                                                                                                       weeewefttgur01>yzmxbbM=*%O$::&&&::$$$OOOOO$$$OO.%=###@----,,@@@@@###@@@@######@@@@@@,-,,,--6--------66----------------6q++++qqq++++++++++++++++XX+++++++qq6-------------,@@@@@@#####=*%%............OO...%=@,-,,@@#==*%.O$:$%Mxzh>2>0utjsw                                                                                                                                                                   ",
"                                                                                                           wwsaffitr011yhhzmxbMMN.$:&&&&::$$$OOO$$:$$O..%**=#@@@,,,@@@@@@@@@@@@@######@@@@@@,,,,,,,------------------6-----66-6qq6666qq+++++++++++++++XX+++++++++qq6---------,,@@@@@@@######=*%%...............%%=#,@#@@##=*%.O$:$O=bmh>>>0rtjaew                                                                                                                                                                   ",
"                                                                                                             weweajgr01>>>ypkmmxb#%O:&&&&::::$$$$:::$OO..%%*=###@@@@@@@,,,,@@@@@@@@########@@,,,@@@,-----------------66----66--6-----6qq+++++++++++++++X+++++++++++q---------,@@#@@@@@#######=*%%..............%*=#@#=====*%%O$::$%@xzy2>19gjae                                                                                                                                                                     ",
"                                                                                                               wweajtr01>>1yhhpzmxMN%$&4&&&&&:::::::$OOOO.%%*==##@@@@@,--,,,,,,,,,@@#@@@####@@,@@#@,-----,,,,-------------------------6qqq+++++++++++++++++++++++++q6------,,@@##@@@@@#######=**%....OO....%..%*=###=**%%%%%.O$::$%Mxz12219gjsw                                                                                                                                                                     ",
"                                                                                                                 weajgr0111>>>1hpkmxM%:44&&&&&&::::::$OOOO.%%**=##@@@@,-----------,@@@@@#####@@@##@,----,,@@,,-------------------------666q++++++++q+++++++++++++++qq6-----,@@###@@@@@#######=*%%...OOO....%%%%=##==*%%.O...OO$:$ONbmp>2>0rtfsw                                                                                                                                                                     ",
"                                                                                                                  wsfitr9001>>>yyhpzmMV:&&&4&&&&::&::$$OOOO.%%**=##@@@,,,,------666,@@@##@@@##@####@,,,,,@@@,--------,,-------------------6qqqqqqqqqq+++++++++++++++qqq6-,,@@####@@@@@#@@@###=*%.OOOOOOOO..%***===*%%..OOOOO$$:::.Mxpy>>0rgjaew                                                                                                                                                                     ",
"                                                                                                                   esajtuur011>>>>>hzxM.:&&&&&&&&&&&::$$$$OO.%%**=##@@@@@@,-----666-,@@#@@@@@##@@#@@@@@@@@@@,,------,@,,-------------------66666666qq++++++++++++++++++6-,@@#####@@@@@#@@@###*%..OOOOOOOOO.%*===*%..O.OOO$$$::&&:.bmh>219gifsw                                                                                                                                                                      ",
"                                                                                                                    eeajittr9001>221hzxMV:&B&&&&&&&&:::$$$$OO..%%*=#######@,--,,-666-,@@@,,,@@@@@@@@@@@@@@@@@,,,,,,,,@@,,---,,,,,-------,,---,,,--6qq++++++++++++++++++6,@@@######@@@@#@@@##=*%..OOOOOOOOO.%=#=*%.OOOOO.O$$::&&&BNxzy2>0rtfsw                                                                                                                                                                       ",
"                                                                                                                     weaffjturr01>>>yhzxMNVVB::&&&&&::::$$$$OOO..%*=======#@,,@@,-66--,,,---,,,,,,,,@@###@@@@@@@@@@@@@@@,,--,@@@,,-----,,@,,,@@@,-6qq+++++++++++++++++q6,@@@@######@@@#@@@#=*%%..OOOO.OO$O.%===*.OO$OOO.O$::&&&&BNxp>2>0rtaw                                                                                                                                                                        ",
"                                                                                                                      weeeajttgr90011>hzmxbMNV$:&&&&&&&::$$$$OOOO..%****===#@@@@@,-66666666666---,--,@###@@@@@@@@@@@@@@@@,,-,@@@@,,---,,@@@,@@@,-6qq++++++++++++++++++q-,@@@@@######@##@@#=*%....OOOOOO$$$O%***%.OO$OOOO$::&&&&BVMmp>2>0rtfew                                                                                                                                                                       ",
"                                                                                                                          eafjiturr90>1yhpkxbbNO$::&:&:&:::$$$$$OOOO...%=====####@,-66qqqqqqqqq6-----@@##@@@##@@###@@@@@@@,,,@@@@@,,,,,@##@@@#@,-qq+++++++++++++++++++6-,,,,,@@#######@@@#*%....OOOOOOOO$$O%%%%.OOO$OOO$$:&&4&BBNbkh>2>0rtfew                                                                                                                                                                       ",
"                                                                                                                          wweeajtggur0>>>>hzkmxMNV::&&&&:::::$$$$OOOOOO.*=****====#@-6q+qqqqqqqq666--,@@#####@@@@###@@@@@@@@,@@@@@@@@,@#==#@##@,-qq++++++++++++++++++q6--,---,@@#####@@@#=*%%..OOOOOOOOOOOOO..OOOO$$$$$$:&4444BVMxz0>219uiae                                                                                                                                                                        ",
"                                                                                                                              wafjitg912221yhhkxMNV$::&&::&&::$$$$$$$$O.%*%%%**====#@-6qqqq++++qqqq6--,@@@@@@@,@@@@#######@@@@@@@@@###==*==###@,-6qqqqqqqqq+q++++++++q66----,,@@#####@@@#=*%%..OOOO..OOOOOOOOOO$$$$$$$::&44444BNbkh1>>0utjsw                                                                                                                                                                        ",
"                                                                                                                              wweeafiu90001>2>yzmbNN.$:&&&:&::$$$$$$$$$OO..%%******=#@,,,-qq+++++++qq66-,,,,,-,,@@@@#=####@@@@@@@@#==******==#@,---------66q+++++++++q66---,,@@######@@@#=*%%...............OO$$::::&:&&444444BNxp12>0rtfsw                                                                                                                                                                         ",
"                                                                                                                                  wsftur990>22>hzmbMN.$:&:&&&:::::$$$$$$OOO.%%%%%%%**=##@,-qq++++++++qq66--66--,,@@@#=####@@@####===*%**%%*===#@,,----,,,--6qqqqqqqqqq6----,,@@######@@@#=*%%............O..OO$::::&&&&4444444BNmh>2>9uiaw                                                                                                                                                                          ",
"                                                                                                                                   wsfiurr9011>1ypkxMN.$::&&&&&:&::$$$$$$$OO...OO.%%***=#@,-q+++++++++qqq66qqq6-,,@@######@@@##==***%%*=******=@@,,-6-,@@,,,,----66qq6-------,@@#####@@#==*%.......%%%.OOOO.OO$::&&&&&&4444444BMmh>2>0uiaw                                                                                                                                                                          ",
"                                                                                                                                    wefittgr99011ypkxMN.$$&&&&&&&&:::$$$$$$OOOOOOO.%%%.*=##@,6qq+++++++++qq++qq6-,@@@@@###@@@@#==***%%*==***%*=#@@,-6-@#@@,,@@,,,-----------,,@@@####@@#==*%........%%.OO$OOO$$::&:&&&&44444n4$Mmh>2>0uiaw                                                                                                                                                                          ",
"                                                                                                                                     wsaaaigur901>ypkxMNVV:&4&&&&&&&&::$$$$OOOO$$O....O.%***=#,6qq+++++++++++++q6---,@@#####@@@##=**%*=#=***%%=#@@@,--@##@,,,@@@@,,,,,--66-,,@@@@@###@#=***%%..OOOO..OOO$$OOO$$::&&&:&&&444444VMkh>2>0uiaw                                                                                                                                                                          ",
"                                                                                                                                      weeeaittgr0>>ypkxbNVB&&&&&&&&&&&:::$$$$$$:$$OOOOO..%%%%=#@-66qq+++++++++++q66--,@@####@@@#==****=#=***%*=#@@@@,,@###@,@@##@@@@@@,---,,@@@@@@@@@##*%%%%%.OOOOO..OO$$$OOO$$$::::&&&&&44444Vbky22>0uiaw                                                                                                                                                                          ",
"                                                                                                                                          saffigr0>>ypkxbNVB&&44&&&&&:&&&::::::::$$OOOOO.%%%%**=#@,-q++++++++XXX++q66-,@#######==****===******=#@@@@@@@@#=#@@########@@,,,,@@#@@@,,,@#=*%%%..OOOOO.%%.OO$$$$$$$$$$$::&:&&4444&Vbky22>0uiaw                                                                                                                                                                          ",
"                                                                                                                                          weesajgr0>>ypkxMNBB&444444&&&&&&::::&&:::$$$$OO..%%%%**=@,-6q++++XXXXXXX+q6-,@#######=*****===******=#@@@#@@@@#############@@@@@@@###@@,,,@#=*%%%..OOOO..%%.OO$$$$$$$$$$$$::&&&&444BVbkh>2>9uia                                                                                                                                                                           ",
"                                                                                                                                           w weajgr0>>ypkxMNVB44444444&&&&&&&&:&&&&::::$OOO.%%%%*==#@,6q+++XXXXooX+q6-,@#######=*******=******=#@@@##@@@####=====####@@@@######@@@@@@#=*%....OOO......OO$:::$$$:$$$$$:&&&&444BVMmh>2>0uiaw                                                                                                                                                                          ",
"                                                                                                                                               eaigr011ypkxMNVB444444444&&4&&&&&&&&&:::$OO$O.%%%***==#@-6q++XXXXXX+q6-,@#######=***%%%*==*****=#@@@##@@@@@#==****=###@@@@@@@@@@@@@@@@#=*%...%.....OOOOOO$:::$$:::$$$$$:&&&&4&BVMmp12>0rtfew                                                                                                                                                                         ",
"                                                                                                                                               weaigr01>ypkxMNVB&&4444444&44&&&&&&&&&&&:$$:$O.%%******=#,6qq++++++qq-,@######===**%%%%*=======##@@@##@@@@@#=******=####@@@@@@@@@@@@@@@#=%..%**%..OOOOOOO$::$$::&::$$$$$::&&&&:VMxzy>>1rgjaew                                                                                                                                                                        ",
"                                                                                                                                                weajtr01>ypmxMNV$:&444444444&&&&&&4&&&&:$:::$O.%%%%%%%%=#,-6666qqq6-,@@######==**%%%%%*==######@@@@###@@@#=**%%%%**=####@,,,,,,,,,@@@@#=*%%***%%.OOOOOOO$$$$$$:::::$$$$::&&&&:VNbmh1>>0rtjsw                                                                                                                                                                        ",
"                                                                                                                                                wweajgr0>>yzmxbMNVBB4n444444&4&&4&&&4&&:::&::$O..%%%%..%*#@@,,,----,@@#######=**%%%..%*=######@@@@@######=**%%%%%%%*===#@,-------,@@###=*%%*=*%..OOOO..OO$$$$$$::::::::::&&&::$Nbmpy>2>0utaw                                                                                                                                                                        ",
"                                                                                                                                                   eajtr011ypmmxbMNVB44444n44444444&&&&&&&&&::$OO.......%*=####@@@@@@@@######=*%%%..%*=#######@@@@@@@##=***%%%%..%%*==##@@,,-----,@@###=*%%**%%%...OO..OOO$OOOO$$:::::::&&&&&::VMxzh>2>0rtfe                                                                                                                                                                        ",
"                                                                                                                                                    eajgr0>>09rugtMNVB4444nn444444444&&&&&&&&::$$OO......%*=====####@@#=======*%%..%*=#########@@@@@@#==*%**%%....%*=#@@@#@,-----,@@###=***%%..%%%%.....OOOOO.OO$::&&&&&&:&&&&&$Nbkh>2>0rgjsw                                                                                                                                                                       ",
"                                                                                                                                                     eajgr0>119rugtiiVB44nnnnnnnn4444444444&&::$$OOOOOOO.%*******=####=******=*%%..%**##########@@@#===*****%%...%%%*=##@@@,-----,@@###=***%%%%%***.....OOOOOOOO$$::::::&&&&&4&:VMmp>2>00rtjsw                                                                                                                                                                      ",
"                                                                                                                                                      eaigr0>>1yrugttiV4nnnnnnnnnnn444444444&&:$$$$$$$OO.%*%%..%*====**%%*%%*=**%..%%*=############=****==*%%%..%%%%%%*=@,,------,@@###=*****%%*==*%.....OO..OOO$$$$$$$:&&&&44&:VMxzy2>110rtjsw                                                                                                                                                                     ",
"                                                                                                                                                       eajgr0>>>10rutijB4nnnnnnnnnn4nnnnn4444&&:::$$$$$O.%%%.%%%%*****%%%%%.%**%....%%=#@@@###=====*%%%%**%%%....%...%%*=@,,-----,@@####=====**=##=%%%%..O...OOOOOOOO$::&&&&&&4&$Nbmpy>2221rtjae                                                                                                                                                                    ",
"                                                                                                                                                        esigr01>2219gtijB444nnnnnnnnnnnnnn4444&&&::$$$$OO....%%%%%%%**%......%%......%=#@@@#==*****%%...%%............%%*=#@-----,@@#####@@@#**###=*%%%.............O$:&&&&&&&&&:.Mxmpy222>0rgjaeww                                                                                                                                                                 ",
"                                                                                                                                                         waigr01>>109utiiVB4nnnnnnnnnnnnnnn4444&&&::$$$OOOO..%%%....%%%..%%%......%%%%*#####=*%%%%%%...............%%%%%**=#@,,---,@@@####@@@#=###=*%**%%......OOOOOOO:&&::&&&&&:$%Mbmzhhy>>0rtjfaas                                                                                                                                                                ",
"                                                                                                                                                          eajgr0011119uggtVB4444nnnnnnnnnnnn4444&&&::$$$$OO..%%....O.%%..%%%%....%%%%%*=====*%%%%%................%%%%%%***=#@@,---,@@#==##@@@####=*%%**%......OOOOOOO$&:::&&&&&&::ONMxxmzy>>0ugtiife                                                                                                                                                               ",
"                                                                                                                                                           eajtr900111099utijVBB44nnnnnnnnnnn4444&&&::$$$OOO.....OOOO....%%%.OO..%%%%%******%........%%............%%%%%%%***=#@,,,@@@#==#####@@@#=*%%%%%.O...OOOOOOOO$::::&&&&&&&:$.N#MMxzy>10ruugifs                                                                                                                                                              ",
"                                                                                                                                                            eajtur9011>>>0ugtiMNVB44nnnnnnnnnn4444&&&::$$$$OOO...OOOO.OOO%%.OOO..%%%%*%%%%%%..OOOO..%%%%................%%*%%*=#@@@@####=##==#@@@@#**%%%%OO....OO$OOO.$::::&&&&&&&::$O%%VNmpy>>109rgife                                                                                                                                                             ",
"                                                                                                                                                             efjitgu91>22109rukmbNB&44nnnnnnnnnnn444&&&::::$$OOOOOOOOOOOO....O...%%%%%%%%%%...OOOOO.%%%%............OOO..%%%%%*=#@@@#@@####==#@@@@@#=**%%...%%..OOOOO.O$:::&:&&&&&&::$$$$Vbmpy>22>1rgiae                                                                                                                                                            ",
"                                                                                                                                                              saafjtu01>>>111yhpzxNVBB44nnnnnnnnnn4444&&&&&::$$OOOOOOOO$OOO......%%%%%%%%%....OOOO..%%%%............OOOO..%%%%**=#@@#@@@####=#@@@@@@#==**%%%%%%.OOOOO.O$$::&&&&&&:&&::::$.Nxkhy>2221rgjae                                                                                                                                                           ",
"                                                                                                                                                              weesajtu9001>2>2>1hrgbNVVB4nnnnnnnnnnnn44&&&&&::$$$$OOOOOOOOO..%%%%%%%%.%%%%.....OO...%%%%.OOO...%%....OOOO..%%%%**=####@@#@@##@@@@@@#####==**%%%%.OOOOOO$$$::::::&&&&&&&:$ONMxkpy>22>1rgiaew                                                                                                                                                         ",
"                                                                                                                                                                 weajturr91>222>>0rgbbMNB4nnnnnnnnnnnn44&&&&&::::$$OO$OOOOO..%%%%%%%...%%%..%%......%%%.OOOO..%%%%....OOOO..%%%%**====###@@@#@@@@@##@@@@@#=**%%%.OO$OOO$OO$::::::&&&&&&:$O%NMxmzhy1>>19gjaew                                                                                                                                                        ",
"                                                                                                                                                                  weajtggu900101>10rkmgbMVB44nnnnnnn4nn44&4&&:::::$$O$OOOOO..%%%%...........%%.........OOOOOO.%%%%.....OOO...%%%%%%%%**=#@@@#@@@@####@@@@#==**%%..OOOOOOOOO$$$$$::&&&&&:$$O.NMbxmzh1>>19giaew                                                                                                                                                       ",
"                                                                                                                                                                   weajiiturrrr9011199ruxbNV&4nnnnn44nn444&&&::&&:$$$$OOOOO..%%%......OOO...%%........OOOOO$OO.%%.......OO....%%%%....%*=#@############@@@#==**%%..OOOOO...OO$$$$::&&&::$$:$O%NNMxzh1>>19gjaew                                                                                                                                                      ",
"                                                                                                                                                                    wessaftguuuu901>>109zmtbNVB44444B444444&&&:&&:$$$$OOOO.......OOO...OOO.....OOO....OOOOO$$OO..OOO.....OOO...%%%%....%*=#==#@@@@##==#@@@##==***%..O...%%.OO$$$$$::::$$$:::$$$.*Mxkpy>>1rgiaew                                                                                                                                                     ",
"                                                                                                                                                                         sjiiiitgr0>22>1h9rmbMNVVVVBVBB&4444&&&&&::$$$$$$O......OOOOO...OOO...OOOOO..OOOOOO$$OOOOOOO.....OOO....%%%.....%*=**=#@@@##==#@@@####===*%...%%%%%.O$$$$$$:::$$$::&:::$O*Mxmpy>119gjfasew                                                                                                                                                  ",
"                                                                                                                                                                         wssasafig90111>>>19ugtttttiiNVVBB44&&&&&&&:$$:::$OOOOOOO.........OO...OOOOO..O$OO$OOOOOOOO..OOOOOOOOOO.....O...%%**%*=#@@@####@@@#@@@@@#=*%%%%%**%.O$OOOO$:::$$:::::&&&:$%Mbmzh>>0rgtijfs                                                                                                                                                  ",
"                                                                                                                                                                               efigr900122210rruuruugbMMNVVB&&&&&&&&:::&:$$$$$$OOO........OO....OOOOOOO$$$$OO.OOOOO..OOOOO..OOOO...OOO...%%%%%*=#@@@##@@@@@@,,,@#=**%%%***%.OOOOOO$::$$$$::::&&&&:$.Nbmzy>>0rrugife                                                                                                                                                 ",
"                                                                                                                                                                               weajtrrr911>>>>111110rmxxxbMNVVBBBB44&&&&&:::$$$OOOOO.....OO...OOOOOOOO$$$$$O..OOOOOOOOOO.....OOOO....OO......%%=##@######@,,--,@#==*******%.OOOOOOO$$$OO$$$$::&&&&::ONbmzy>>000rgife                                                                                                                                                ",
"                                                                                                                                                                                 eajtggu90012222222>0pzzzkmxbNVVBBB44&&&&&&::::$$$$OOO..OOO...OOOO..O$$$$$$OOOOO$$$OOO.......OOOOO...OO......%%*=######==#@,--,@#===****%%%%.OOO..OOOOOOOOO$$::::&&&:$Nbxzy11>>19gife                                                                                                                                               ",
"                                                                                                                                                                                 weaffjtrrr9111>11>1>1111yhpmxbMNNV:&&&4444&&&::::$OOOOOOOOOOOOOO...O$$$$$$OOOO$$$OOO.OOOO..OOO$OOO..........%%*=######**=#@,,@##=******%.%*%%......OOOOOOOO$$$$$:&&&&:VNbkh122219gife                                                                                                                                              ",
"                                                                                                                                                                                  wweesjtggu900000001>2222>0pzmxbMN.$:&4444&&&&&&::$$$$OO$OOOOOOO..OO$$$$$$$OOOOOOOOOOOOOO.OOO$$OOOO.........%%*=######***=@@@@@##=*****%%*=*%%.....%%.O....OOOOO$:&&&&&VNbkh>>2>19gife                                                                                                                                             ",
"                                                                                                                                                                                    wweafjjtur99999901>>>>>>1yhzmxbMNVBB444&&&:&&&&:::$$$$$$$OOOOOOOO$$$$$$$OOOOOOOOOOOOO..OOOOOOOOO.....OO..%%*****=##*%%=@@@@@@@##=**=*%*=*%%%%%%%**%.....OO.OO$:&&4&&&VMxzphy>>19gife                                                                                                                                            ",
"                                                                                                                                                                                      wesssjtggggggur011111>>>1ypzmxbNVBB444&&&&&&&&::$$$$$$$$OOOOOOO$$$$$::$O...OOOO$$O....OOOOOOOO.....OOO..%%%%%%*==*%%*#@@@@@@##=*===**=*%%%%%%%**%..........O$:&&&&&$%Mxmkpy>>19gifeeew                                                                                                                                        ",
"                                                                                                                                                                                       wwwwajjijijiigr999901>2>>1yhzmbNVBB44444&&&&&::$$$$$$$$$$O$$$$$$$$$::$OOOOOOOOO$O....%%%.OOOOOOOOOOOOO..%%%%%%**%%.%=##@@##=**==#=***%%%%%%%%**%%%%%%%%%%%.O$::&&::$%#Mxmzh1>19gifffsw                                                                                                                                       ",
"                                                                                                                                                                                           eaaaaaaafituuuur911>>>>>0pmbNVBB44444&4&&&::$$$$$$:$$$$$$$$O$$$::$OOOOOOOOO$O...%%%%.OOOOOOOOOOOOO..%%%%%%%%%..%*=###==***==#=***%%%%%%%%%*%%****%%%*%%.O$:&:::::O%Nbxzh1>19gttifsw                                                                                                                                      ",
"                                                                                                                                                                                           wwwwwwweeajiiiitur901>22>ypmbNVBnn44&&&&&&&::$$$$$:$$$$$$$$OO$:::$OOOOO...O$O...%%%.OOO$$$$OOOO.OO..%%%%.......%**====*****====**%..O..%%%*%%%****%%%*%%.$:&:$:&&:$.Nbxzhy>19ruuifsw                                                                                                                                     ",
"                                                                                                                                                                                                   wwaffffjtgur901>>10pmbNB4n4444&4&&&&::$$$::$$$$$$$$O$$::$$OOOOO...OOO.......OOO$$$$OOO..OOO..%%%..OO...%%*=====*****====*%.OOO.%%%*%%%%**%%%%%%%.O$::$:&&&::ONbxzh1>1009uifsw                                                                                                                                    ",
"                                                                                                                                                                                                     weeeesjitgur90111ypmbNB44444&&&&&&&::::::$$$$$$$$$$::$$$OO.............O....O$$$OO.%..OOOO..%%%.OO.%%%%*==#####====###=%.OOO.%%*%%.%%*%%.......O$::::&&::::$Nbxzh>>>>19uifsw                                                                                                                                   ",
"                                                                                                                                                                                                          waffjigur90110pmbNB44444444&&&::::::$$$$$$$$$$$$$$$OO............OO..%.OO$OO.%%%.OOOOO..%%%..%%%%%%*=############=*%....%%*%%%%**%.......OOO$$:::::::::$Nbxzh1>2219gifsw                                                                                                                                  ",
"                                                                                                                                                                                                           weesfitgur01>ypmbNB444444&&&&&&::::::$$$$$$$$$$$$$OOOOOOO..%%...OO.%%%.OOO.%%%%.OOOOOO.%%*%%***%..**===##@@@#####=**%%%%%%*%%*=*%.O....OOOOO$::::$$$$::$NMxkh>22219uifseew                                                                                                                               ",
"                                                                                                                                                                                                              wsajjigr0>>0pmbNB&4444444&&&&:::::$$$$$$$$$$$$$$OOOOOOOO.....OO.%%%....%%%%..OOOOOOOO.%%%%%%.OO.%**====####======**%%%%%%%%*%%.O...OOOO.%O$:$$$OO$$:$ONMbkhyy>>19gijfase                                                                                                                              ",
"                                                                                                                                                                                                               weesajg901>ypmbNVBB4444444&&&&&::$$$$$:$$$$$$$$$OOO.OOOOOOO.OOO....%%%*%%......OO$$$$OO...OO$$O.%**%%%**==***====**%%..........%%.OOO.%%%OOOO$$$$$$$$$VNbxmzh>>19ugtijswww                                                                                                                           ",
"                                                                                                                                                                                                                   eaigr0>>0pmbMVBB44n44444&&&&:::::::$$$$$$$$OOOO.O$$$OOOOOOO...%%****%.......O$$$$$OOOO$$$$$O.%%%%%%******=####==*%.......%%%.OOOO%%*%%%.OO$$$OOO$:$VNMbxzh1>109rutjaase                                                                                                                          ",
"                                                                                                                                                                                                                    eaigr01>yputiVBB4nn444&&&&&&&:&:&:$$$$$$$OOO..OO$$$O..OOOO..%%****%%...OO..OO$$$$$$$$$$$$$OO.%%%%******=#@,,-,@=%...%%%%%%.OOOOO%%**%%%%OO$OOOOO$$:$ONbxmhy>1009rgttjsw                                                                                                                         ",
"                                                                                                                                                                                                                     eaigr0>>0rutiVB444444444&&&&&&&&&::::::$OOOOOOO$OO..OO$$O.%%%%%%%%%.%%.OOOOOOOOOOOOO$$$$$$$O.%%****%%*=#@,,--,#*...%*%%%%.......%%%%%%%OOOOOOOOO$:::$NMxkpy>>>>0ruugjaasew                                                                                                                     ",
"                                                                                                                                                                                                                      eaig901>yrutiVBB444444&&4&&&:&:&&:&:::$$$$$$$$$O.%.OO$$O%%%%%%%%%%%**%.OO...OOOOOOOO$$$:::$O.%%***%%*===#,,-,#*...%*%%..%%**%%....O....OOOOO...O$:&:$NMxmpy>22>009rgttiasw                                                                                                                    ",
"                                                                                                                                                                                                                       eaigr011yrutiVBB444444&&&&&&&&&&&&&::$$$$$$$$$O...O$$$O%%%......%%==%.OO.....OOOOO$$$$$:$$O.%%*%%**==**=#@,@#*...%%%%O.%***%%....OO....OOO....OO$:::$NMxkpy>22>>>0ruugifassw                                                                                                                 ",
"                                                                                                                                                                                                                        eajgr01>0rutiVBB44444&4&&&&&&&&&&&&::::::$$$$OOOOO$$$O...OOOOOO.%=#%.OO......OOO$$$$$$$$$O.%%*%%=##=*%*=###=*%..%%%%..%*%%..%%.................OO$::$Nbxzpy1>2222109rgtijfsw                                                                                                                ",
"                                                                                                                                                                                                                        weaigr011y9utiVBB44444&4&4&4&&&&&&&&::::::$OOOOOOO$$OOOOOOOOOOOO%*=%...%%...OOO$$OOOOOOOOO.%%***=#=**%**====*%%%%%%%%%%%%...%%....O......%......OO$::ONbxkzph1222>>>0ruugifsw                                                                                                               ",
"                                                                                                                                                                                                                          sfigr01>09utiVBB44444&&&&&&&&&&4&&&:::::$OOOOO$$$OOOOOOO$OOOOOO%*%.%%%%..OOOO$$OO.......%****===****%%**==**%%%****%%%....%%...OOO....%%%.......O$$$.NMxmmzpy1>222>109rgifsw                                                                                                              ",
"                                                                                                                                                                                                                           sfigr01109utiVB444444&4&&&:&&&&&&&&::::$$OOOO$$$OOOOOOO$$OOOOO.%%%*==*%.OO$$$OOO.%%....%***=#=***%%%%**==****=====**%%..%%%...OOOOO..%%%%%......O$$O.NMbbxmzph1>2>>>>19uifsesw                                                                                                           ",
"                                                                                                                                                                                                                            sfigr01>09utiVB444444&&&&&&:&&&&&&:::::$OOOO$$$O...OOO$$$O.OO.%%*=#=*%%OO$:$OOO%%%%..%*=**=#=***%%%%*===***=####==*%%%%%%%....OOOO......%%%.....OOOOOVVNMbxmzphyy>22219uijffsw                                                                                                          ",
"                                                                                                                                                                                                                             sfigr01109ubNB44444444&&&&&&&&&:&:::::$$OO$$$$$OOOOO$$$$O.OO.%*=##=*%%.O$:$$OO.%%%%%*=#=*=====**%**====**==####===**%%%%%%...OO$O..OOO.%%%......O$$$$$V%NMbxmzzpy>22219uttijseew                                                                                                       ",
"                                                                                                                                                                                                                              sfigr01>0pmMVBBB44444&4&&&&&&&&&&&&::$$$$$:::$$OOO$$$$$O.OOO.*===*%%%%.$$$$$O.%%***=###=**=##=***=========####====*****%%%%.OOOO..OOOO.%%......OO$::$$O.%NMbxxkpy>22>10rrutjfasww                                                                                                     ",
"                                                                                                                                                                                                                               sfigr0110uxMNVB444444&&&&&:&&&&&&&&:$$$$::::::::$$$$$OOOOOO.%%%%%.%%%%O$OOOO.%%**=#####=*=####==#===##===###=**==******%%%%OO....OOOOO.......OOOO$$$$OO..NNMbxmzpy1>2>109uttifsewww                                                                                                  ",
"                                                                                                                                                                                                                                sfigr01>9umbNB444444&&&&&&&&&&&&&::$$$::&&&&&&&::$$$$$O$$O...OO..%%%%.OOOOO%%%*==######=##@@@###==####=*###=**====*******%O.%%%.OOOOOOOO.%%.OOOO...OO.OOOO.NMbxmzhy>2>>10rrutfaseew                                                                                                 ",
"                                                                                                                                                                                                                                 sfig91110rgMVB44444&&&&&&&&&&&::::::::&:&&:&&&&::::::::$$OOOO..%%%%%...OO...O.%**==#,@###@@@@#==*=#@@==####===##==***%%%%...%..OOOOOOO..%*%OOO.....OOOO$OO%NMbxmkph12221009utijfae                                                                                                 ",
"                                                                                                                                                                                                                                  sftr01>>0utMVB44444&&&&&&&&&&:::&&&&&&&:&&&&&&&&&&&&&::$$$OO.%%%%........OO$O..%%*#,@###@@@@#=***=#@#=##########==*%%%%%...............**%.OO......OOOO....NMbxxmkh>22>>>10rugtjaeeew                                                                                             ",
"                                                                                                                                                                                                                                  eair91220rgbNVB44444444&&&&&&:::::&&&:::::&&&&:::::::::$$$OO.........OO..OO$$O.%%*=#====#@@@@@#=**=========#####==*%%***%%%.........O..%*.OOO..%%*%%%%%*%..%NMMbxxkphh1222>109rgijffe                                                                                             ",
"                                                                                                                                                                                                                                  eaig90>21rutbNVB444444&&&&&&&&::::&:&:$$::&&&::$$::$$:::$$OO.OOOO....OO..OOOOO.%%*******=#@@,,@#=*%%*=****==####=*****=**%%........OOO.%%.O....%*==****=*%%.%NNMMbxcckh>222>>109ugtifeww                                                                                          ",
"                                                                                                                                                                                                                                   sfiu91>>1rutbNB44444444444&&&&::&&&&::::&&&&&::$:::::::$$OOOOOOOOO...OOOOO.....%%%%****=#@@@@@#=**%***==#===##=********%%%..............%%%%%%%*=#*******%...%NN#,6xxzhyy>222>19rruijfaew                                                                                        ",
"                                                                                                                                                                                                                                   wsfiu90>>0rutMV&444444444&&&&:&&&:&&&&&&&:&&:&:::&&&::::$$OOOOOOOO....OO.%%%%%.%%**====########==**%*=#@@#=====*****%%%%%...............*=*%%%%*=#**%****%.OOO..%*@,bxkzp01222>1109ugtifew                                                                                       ",
"                                                                                                                                                                                                                                    wsfig90110rubNB444n4444444&&&&:&&&&&&&&&&&&&&&:&&&:&::::$$OOOOOOOOO....*=#=**%%*=######==####===****=#@@@###==*****%......OOO.....O....%**%%%%*==*%%%%%%.OOOOOO.%*=#Mbxmzphy1>222>9rruifsw                                                                                      ",
"                                                                                                                                                                                                                                     wsfiur01>0pmbVB4444444444&&&&&&:&:&&&&&&&&&&:&&:&&&&&&::$$OOOOOOOO...%=#@#=*%*=#@@####===###===**==####@@@#==*****%.....OOOOO...OOO...%%%%%%%*%**%.%%%.OOOOOOOOOO.%*=Mbxmkzpy>2221009utfseww                                                                                   ",
"                                                                                                                                                                                                                                      wsfig91>10pmbNVB&44n44444&&&:&&&::&&&&&&&&&&&&&::&&&&&::::$OOOOOOOO.%=#@#=%%%*=#######==###=****=##==##@@@#====**%%....OOOOO...........%%%%%%%%%%%%%%.OOOO.OOO$$$OOO.N#Mbxmzhy1>>22>0uijfase                                                                                  ",
"                                                                                                                                                                                                                                       wsfiu91110pmbNVB&444444&&&&&&&:::&&&&&&&&&:&:&::&&&&&&&&:$OOOOOOOO.%*=#=*%..%**====###=###=*%%*##====#@@@@#====**%%...OOOO............%***%%..%%%%%.OOOO...O$$:$$$::$O.%NMxmzpy>222>0gtiifaeww                                                                               ",
"                                                                                                                                                                                                                                        wefig91>10pmbMVB&444444&44&&&&:&&:&:&:&:&&&::$$:&&&&&&&:$O.....O..%%*%%.OOOO.%%**=#@#####=*%*=##====#@@@@@=====**%%..OOO.%%...%......%****%....%%..OOOO...O$$:$$$::::::$ONMxmzy>22219uugtjasse                                                                              ",
"                                                                                                                                                                                                                                          sfiu91110pmbMVB&44444444&&&&&&&&&&&&&&&&:&:$$:&&&4&&&:$O.%%......%%..OOOOOO..%*=#@@####=**==##===###@@@#======*%%..OO.%%%%..%......%%%%*%..OO%%..OOOO...OO$:$$$$::&&&&&:ONMxzhyy>>1009utijfaewww                                                                          ",
"                                                                                                                                                                                                                                           sftu91>>0pmtiVB444444444&&&&&&:&&&&&:&&&::$:::&&&&&&:$.%%%..**%%..%..........*=#############===#@#####=**====*%.....%%*%%...%%...%%%.%%%....%%%........OO$$$$$$$$::&&&&:ONMxmzpy>>>>19rggtjassew                                                                         ",
"                                                                                                                                                                                                                                           wsjtu91>>0rutMV&44n4444&&&&&&&&&&&&&&&&&&:::::&&4&&::$.%%%O.*=*%..%%.%%%%%.O.%***==####@@##====@@@#===***===**%.....%%*%%...%%..%%....%%...%%%%%........OOO$$OOOO$$:&&&:$.NMbxmph1>22>09rrgjffasww                                                                       ",
"                                                                                                                                                                                                                                            wsfig91>>yrmbNB4nnnn4444&&&&&&&&&&&:&&&&&&&:&&&&&:$$$O....%*==*%%%%%%%**%O$O.%...%*=#@@@@#====@@@@==***===**%%%%%....%%%%..%%.O.%....%%%%%**=**%%%%%%%%.OOOO....OO$::::$OO.NMxmzh1222>110rgttifseww                                                                     ",
"                                                                                                                                                                                                                                              sfiu91>>ypmMVBnnnn44444&&&&&&&&&&&&&&:&:&&&&::::$$$OOOO.%****%%%%%%**=%O$$OOO$OO.%=#@@@#####@@@@#=*====******%%%....%%%..%%.O.%%..%%%%%%**===*%%%%**%%..OO.%...OOO$$$$$$:$NMbxzhy>>222>19rrgijfaew                                                                    ",
"                                                                                                                                                                                                                                               sftu91>>0utNB4nnnn44444&&&&&:&&&&&:&&&&&:&:$$::::$$OOO..%%%%..O.%*==*%OO$$O$$O..%%=#@#@@,@@@@@@@#####=*%*=#=*%%%%%.....O....%%%%%%**%.%%*=##=*%%%%*****%OO..OOOOOOO$$$:::%#Mbxkzhy>222>1009gttifs                                                                    ",
"                                                                                                                                                                                                                                               waig90>2>rtNB44nn444444&4&&&&&&&&&&&&&&&&&:$O$:&::$$OO.......OO.%*==*%.O$$$$$O...%*=##@,-,@@@@@@@@###=*%*#@#=%%%%%%...OOO...%*%%%*=*%.%%%*##=*%%%%**===%OO.OOO$OOOOO$$:&:.=Mbxxkz012222>>>0ruutjsw                                                                   ",
"                                                                                                                                                                                                                                                         www                                                                                                                                                                       www                                                                              ",
"                                                                                                                                                                                                                                                                                                                                                                                                                                                                                                                    ",
"                                                                                                                                                                                                                                                                                                                                                                                                                                                                                                                    ",
"                                                                                                                                                                                                                                                                                                                                                                                                                                                                                                                    ",
"                                                                                                                                                                                                                                                                                                                                                                                                                                                                                                                    ",
"                                                                                                                                                                                                                                                                                                                                                                                                                                                                                                                    ",
"                                                                                                                                                                                                                                                                                                                                                                                                                                                                                                                    ",
"                                                                                                                                                                                                                                                                                                                                                                                                                                                                                                                    ",
"                                                                                                                                                                                                                                                                                                                                                                                                                                                                                                                    ",
"                                                                                                                                                                                                                                                                                                                                                                                                                                                                                                                    ",
"                                                                                                                                                                                                                                                                                                                                                                                                                                                                                                                    ",
"                                                                                                                                                                                                                                                                                                                                                                                                                                                                                                                    ",
"                                                                                                                                                                                                                                                                                                                                                                                                                                                                                                                    ",
"                                                                                                                                                                                                                                                                                                                                                                                                                                                                                                                    ",
"                                                                                                                                                                                                                                                                                                                                                                                                                                                                                                                    ",
"                                                                                                                                                                                                                                                                                                                                                                                                                                                                                                                    ",
"                                                                                                                                                                                                                                                                                                                                                                                                                                                                                                                    ",
"                                                                                                                                                                                                                                                                                                                                                                                                                                                                                                                    ",
"                                                                                                                                                                                                                                                                                                                                                                                                                                                                                                                    ",
"                                                                                                                                                                                                                                                                                                                                                                                                                                                                                                                    ",
"                                                                                                                                                                                                                                                                                                                                                                                                                                                                                                                    ",
"                                                                                                                                                                                                                                                                                                                                                                                                                                                                                                                    ",
"                                                                                                                                                                                                                                                                                                                                                                                                                                                                                                                    ",
"                                                                                                                                                                                                                                                                                                                                                                                                                                                                                                                    ",
"                                                                                                                                                                                                                                                                                                                                                                                                                                                                                                                    ",
"                                                                                                                                                                                                                                                                                                                                                                                                                                                                                                                    ",
"                                                                                                                                                                                                                                                                                                                                                                                                                                                                                                                    ",
"                                                                                                                                                                                                                                                                                                                                                                                                                                                                                                                    ",
"                                                                                                                                                                                                                                                                                                                                                                                                                                                                                                                    ",
"                                                                                                                                                                                                                                                                                                                                                                                                                                                                                                                    ",
"                                                                                                                                                                                                                                                                                                                                                                                                                                                                                                                    ",
"                                                                                                                                                                                                                                                                                                                                                                                                                                                                                                                    ",
"                                                                                                                                                                                                                                                                                                                                                                                                                                                                                                                    ",
"                                                                                                                                                                                                                                                                                                                                                                                                                                                                                                                    ",
"                                                                                                                                                                                                                                                                                                                                                                                                                                                                                                                    ",
"                                                                                                                                                                                                                                                                                                                                                                                                                                                                                                                    ",
"                                                                                                                                                                                                                                                                                                                                                                                                                                                                                                                    ",
"                                                                                                                                                                                                                                                                                                                                                                                                                                                                                                                    ",
"                                                                                                                                                                                                                                                                                                                                                                                                                                                                                                                    ",
"                                                                                                                                                                                                                                                                                                                                                                                                                                                                                                                    ",
"                                                                                                                                                                                                                                                                                                                                                                                                                                                                                                                    ",
"                                                                                                                                                                                                                                                                                                                                                                                                                                                                                                                    ",
"                                                                                                                                                                                                                                                                                                                                                                                                                                                                                                                    ",
"                                                                                                                                                                                                                                                                                                                                                                                                                                                                                                                    ",
"                                                                                                                                                                                                                                                                                                                                                                                                                                                                                                                    ",
"                                                                                                                                                                                                                                                                                                                                                                                                                                                                                                                    ",
"                                                                                                                                                                                                                                                                                                                                                                                                                                                                                                                    ",
"                                                                                                                                                                                                                                                                                                                                                                                                                                                                                                                    ",
"                                                                                                                                                                                                                                                                                                                                                                                                                                                                                                                    ",
"                                                                                                                                                                                                                                                                                                                                                                                                                                                                                                                    ",
"                                                                                                                                                                                                                                                                                                                                                                                                                                                                                                                    ",
"                                                                                                                                                                                                                                                                                                                                                                                                                                                                                                                    ",
"                                                                                                                                                                                                                                                                                                                                                                                                                                                                                                                    ",
"                                                                                                                                                                                                                                                                                                                                                                                                                                                                                                                    ",
"                                                                                                                                                                                                                                                                                                                                                                                                                                                                                                                    ",
"                                                                                                                                                                                                                                                                                                                                                                                                                                                                                                                    ",
"                                                                                                                                                                                                                                                                                                                                                                                                                                                                                                                    ",
"                                                                                                                                                                                                                                                                                                                                                                                                                                                                                                                    ",
"                                                                                                                                                                                                                                                                                                                                                                                                                                                                                                                    ",
"                                                                                                                                                                                                                                                                                                                                                                                                                                                                                                                    ",
"                                                                                                                                                                                                                                                                                                                                                                                                                                                                                                                    ",
"                                                                                                                                                                                                                                                                                                                                                                                                                                                                                                                    ",
"                                                                                                                                                                                                                                                                                                                                                                                                                                                                                                                    ",
"                                                                                                                                                                                                                                                                                                                                                                                                                                                                                                                    ",
"                                                                                                                                                                                                                                                                                                                                                                                                                                                                                                                    ",
"                                                                                                                                                                                                                                                                                                                                                                                                                                                                                                                    ",
"                                                                                                                                                                                                                                                                                                                                                                                                                                                                                                                    ",
"                                                                                                                                                                                                                                                                                                                                                                                                                                                                                                                    ",
"                                                                                                                                                                                                                                                                                                                                                                                                                                                                                                                    ",
"                                                                                                                                                                                                                                                                                                                                                                                                                                                                                                                    ",
"                                                                                                                                                                                                                                                                                                                                                                                                                                                                                                                    ",
"                                                                                                                                                                                                                                                                                                                                                                                                                                                                                                                    ",
"                                                                                                                                                                                                                                                                                                                                                                                                                                                                                                                    ",
"                                                                                                                                                                                                                                                                                                                                                                                                                                                                                                                    ",
"                                                                                                                                                                                                                                                                                                                                                                                                                                                                                                                    "
};
