/* XPM */
static char *result[] = {
/* columns rows colors chars-per-pixel */
"500 400 14 1 ",
"  c black",
". c #653720",
"X c #6E3D24",
"o c #592E19",
"O c #7B492D",
"+ c #965E42",
"@ c #8E583C",
"# c #754329",
"$ c #834F33",
"% c #3A180E",
"& c #4D2314",
"* c #A1684A",
"= c #240E08",
"- c #B67C5D",
/* pixels */
"                                                                                                                                                                                                                                                                                                                                                                                                                                                                                                                    ",
"                                                                                                                                                                                                                                                                                                                                                                                                                                                                                                                    ",
"                                                                                                                                                                                                                                                                                                                                                                                                                                                                                                                    ",
"                                                                                                                                                                                                                                                                                                                                                                                                                                                                                                                    ",
"                                                                                                                                                                                                                                                                                                                                                                                                                                                                                                                    ",
"                                                                                                                                                                                                                                                                                                                                                                                                                                                                                                                    ",
"                                                                                                                                                                                                                                                                                                                                                                                                                                                                                                                    ",
"                                                                                                                                                                                                                                                                                                                                                                                                                                                                                                                    ",
"                                                                                                                                                                                                                                                                                                                                                                                                                                                                                                                    ",
"                                                                                                                                                                                                                                                                                                                                                                                                                                                                                                                    ",
"                                                                                                                                                                                                                                                                                                                                                                                                                                                                                                                    ",
"                                                                                                                                                                                                                                                                                                                                                                                                                                                                                                                    ",
"                                                                                                                                                                                                                                                                                                                                                                                                                                                                                                                    ",
"                                                                                                                                                                                                                                                                                                                                                                                                                                                                                                                    ",
"                                                                                                                                                                                                                                                                                                                                                                                                                                                                                                                    ",
"                                                                                                                                                                                                                                                                                                                                                                                                                                                                                                                    ",
"                                                                                                                                                                                                                                                                                                                                                                                                                                                                                                                    ",
"                                                                                                                                                                                                                                                                                                                                                                                                                                                                                                                    ",
"                                                                                                                                                                                                                                                                                                                                                                                                                                                                                                                    ",
"                                                                                                                                                                                                                                                                                                                                                                                                                                                                                                                    ",
"                                                                                                                                                                                                                                                                                                                                                                                                                                                                                                                    ",
"                                                                                                                                                                                                                                                                                                                                                                                                                                                                                                                    ",
"                                                                                                                                                                                                                                                                                                                                                                                                                                                                                                                    ",
"                                                                                                                                                                                                                                                                                                                                                                                                                                                                                                                    ",
"                                                                                                                                                                                                                                                                                                                                                                                                                                                                                                                    ",
"                                                                                                                                                                                                                                                                                                                                                                                                                                                                                                                    ",
"                                                                                                                                                                                                                                                                                                                                                                                                                                                                                                                    ",
"                                                                                                                                                                                                                                                                                                                                                                                                                                                                                                                    ",
"                                                                                                                                                                                                                                                                                                                                                                                                                                                                                                                    ",
"                                                                                                                                                                                                                                                                                                                                                                                                                                                                                                                    ",
"                                                                                                                                                                                                                                                                                                                                                                                                                                                                                                                    ",
"                                                                                                                                                                                                                                                                                                                                                                                                                                                                                                                    ",
"                                                                                                                                                                                                                                                                                                                                                                                                                                                                                                                    ",
"                                                                                                                                                                                                                                                                                                                                                                                                                                                                                                                    ",
"                                                                                                                                                                                                                                                                                                                                                                                                                                                                                                                    ",
"                                                                                                                                                                                                                                                                                                                                                                                                                                                                                                                    ",
"                                                                                                                                                                                                                                                                                                                                                                                                                                                                                                                    ",
"                                                                                                                                                                                                                                                                                                                                                                                                                                                                                                                    ",
"                                                                                                                                                                                                                                                                                                                                                                                                                                                                                                                    ",
"                                                                                                                                                                                                                                                                                                                                                                                                                                                                                                                    ",
"                                                                                                                                                                                                                                                                                                                                                                                                                                                                                                                    ",
"                                                                                                                                                                                                                                                                                                                                                                                                                                                                                                                    ",
"                                                                                                                                                                                                                                                                                                                                                                                                                                                                                                                    ",
"                                                                                                                                                                                                                                                                                                                                                                                                                                                                                                                    ",
"                                                                                                                                                                                                                                                                                                                                                                                                                                                                                                                    ",
"                                                                                                                                                                                                                                                                                                                                                                                                                                                                                                                    ",
"                                                                                                                                                                                                                                                                                                                                                                                                                                                                                                                    ",
"                                                                                                                                                                                                                                                                                                                                                                                                                                                                                                                    ",
"                                                                                                                                                                                                                                                                                                                                                                                                                                                                                                                    ",
"                                                                                                                                                                                                                                                                                                                                                                                                                                                                                                                    ",
"                                                                                                                                                                                                                                                                                                                                                                                                                                                                                                                    ",
"                                                                                                                                                                                                                                                                                                                                                                                                                                                                                                                    ",
"                                                                                                                                                                                                                                                                                                                                                                                                                                                                                                                    ",
"                                                                                                                                                                                                                                                                                                                                                                                                                                                                                                                    ",
"                                                                                                                                                                                                                                                                                                                                                                                                                                                                                                                    ",
"                                                                                                                                                                                                                                                                                                                                                                                                                                                                                                                    ",
"                                                                                                                                                                                                                                                                                                                                                                                                                                                                                                                    ",
"                                                                                                                                                                                                                                                                                                                                                                                                                                                                                                                    ",
"                                                                                                                                                                                                                                                                                                                                                                                                                                                                                                                    ",
"                                                                                                                                                                                                                                                                                                                                                                                                                                                                                                                    ",
"                                                                                                                                                                                                                                                                                                                                                                                                                                                                                                                    ",
"                                                                                                                                                                                                                                                                                                                                                                                                                                                                                                                    ",
"                                                                                                                                                                                                                                                                                                                                                                                                                                                                                                                    ",
"                                                                                                                                                                                                                                                                                                                                                                                                                                                                                                                    ",
"                                                                                                                                                                                                                                                                                                                                                                                                                                                                                                                    ",
"                                                                                                                                                                                                                                                                                                                                                                                                                                                                                                                    ",
"                                                                                                                                                                                                                                                                                                                                                                                                                                                                                                                    ",
"                                                                                                                                                                                                                                                                                                                                                                                                                                                                                                                    ",
"                                                                                                                                                                                                                                                                                                                                                                                                                                                                                                                    ",
"                                                                                                                                                                                                                                                                                                                                                                                                                                                                                                                    ",
"                                                                                                                                                                                                                                                                                                                                                                                                                                                                                                                    ",
"                                                                                                                                                                                                                                                                                                                                                                                                                                                                                                                    ",
"                                                                                                                                                                                                                                                                                                                                                                                                                                                                                                                    ",
"                                                                                                                                                                                                                                                                                                                                                                                                                                                                                                                    ",
"                                                                                                                                                                                                                                                                                                                                                                                                                                                                                                                    ",
"                                                                                                                                                                                                                                                                                                                                                                                                                                                                                                                    ",
"                                                                                                                                                                                                                                                                                                                                                                                                                                                                                                                    ",
"                                                                                                                                                                                                                                                                                                                                                                                                                                                                                                                    ",
"                                                                                                                                                                                                                                                                                                                                                                                                                                                                                                                    ",
"                                                                                                                                                                                                                                                                                                                                                                                                                                                                                                                    ",
"                                                                                                                                                                                                                                                                                                                                                                                                                                                                                                                    ",
"                                                                                                                                                                                                                                                                                                                                                                                                                                                                                                                    ",
"                                                                                                                                                                                                                                                                                                                                                                                                                                                                                                                    ",
"                                                                                                                                                                                                                                                                                                                                                                                                                                                                                                                    ",
"                                                                                                                                                                                                                                                                                                                                                                                                                                                                                                                    ",
"                                                                                                                                                                                                                                                                                                                                                                                                                                                                                                                    ",
"                                                                                                                                                                                                                                                                                                                                                                                                                                                                                                                    ",
"                                                                                                                                                                                                                                                                                                                                                                                                                                                                                                                    ",
"                                                                                                                                                                                                                                                                                                                                                                                                                                                                                                                    ",
"                                                                                                                                                                                                                                                                                                                                                                                                                                                                                                                    ",
"                                                                                                                                                                                                                                                                                                                                                                                                                                                                                                                    ",
"                                                                                                                                                                                                                                                                                                                                                                                                                                                                                                                    ",
"                                                                                                                                                                                                                                                                                                                                                                                                                                                                                                                    ",
"                                                                                                                                                                                                                                                                                                                                                                                                                                                                                                                    ",
"                                                                                                                                                                                                                                                                                                                                                                                                                                                                                                                    ",
"                                                                                                                                                                                                                                                                                                                                                                                                                                                                                                                    ",
"                                                                                                                                                                                                                                                                                                                                                                                                                                                                                                                    ",
"                                                                                                                                                                                                                                                                                                                                                                                                                                                                                                                    ",
"                                                                                                                                                                                                                                                                                                                                                                                                                                                                                                                    ",
"                                                                                                                                                                                                                                                                                                                                                                                                                                                                                                                    ",
"                                                                                                                                                                                                                                                                                                                                                                                                                                                                                                                    ",
"                                                                                                                                                                                                                                                                                                                                                                                                                                                                                                                    ",
"                                                                                                                                                                                                                                                                                                                                                                                                                                                                                                                    ",
"                                                                                                                                                                                                                                                                                                                                                                                                                                                                                                                    ",
"                                                                                                                                                                                                                                                                                                                                                                                                                                                                                                                    ",
"                                                                                                                                                                                                                                                                                                                                                                                                                                                                                                                    ",
"                                                                                                                                                                                                                                                                                                                                                                                                                                                                                                                    ",
"                                                                                                                                                                                                                                                                                                                                                                                                                                                                                                                    ",
"                                                                                                                                                                                                                                                                                                                                                                                                                                                                                                                    ",
"                                                                                                                                                                                                                                                                                                                                                                                                                                                                                                                    ",
"                                                                                                                                                                                                                                                                                                                                                                                                                                                                                                                    ",
"                                                                                                                                                                                                                                                                                                                                                                                                                                                                                                                    ",
"                                                                                                                                                                                                                                                                                                                                                                                                                                                                                                                    ",
"                                                                                                                                                                                                                                                                                                                                                                                                                                                                                                                    ",
"                                                                                                                                                                                                                                                                                                                                                                                                                                                                                                                    ",
"                                                                                                                                                                                                                                                                                                                                                                                                                                                                                                                    ",
"                                                                                                                                                                                                                                                                                                                                                                                                                                                                                                                    ",
"                                                                                                                                                                                                                                                                                                                                                                                                                                                                                                                    ",
"                                                                                                                                                                                                                                                                                                                                                                                                                                                                                                                    ",
"                                                                                                                                                                                                                                                                                                                                                                                                                                                                                                                    ",
"                                                                                                                                                                                                                                                                                                                                                                                                                                                                                                                    ",
"                                                                                                                                                                                                                                                                                                                                                                                                                                                                                                                    ",
"                                                                                                                                                                                                                                                                                                                                                                                                                                                                                                                    ",
"                                                                                                                                                                                                                                                                                                                                                                                                                                                                                                                    ",
"                                                                                                                                                                                                                                                                                                                                                                                                                                                                                                                    ",
"                                                                                                                                                                                                                                                                                                                                                                                                                                                                                                                    ",
"                                                                                                                                                                                                                                                                                                                                                                                                                                                                                                                    ",
"                                                                                                                                                                                                                                                                                                                                                                                                                                                                                                                    ",
"                                                                                                                                                                                                                                                                                                                                                                                                                                                                                                                    ",
"                                                                                                                                                                                                                                                                                                                                                                                                                                                                                                                    ",
"                                                                                                                                                                                                                                                                                                                                                                                                                                                                                                                    ",
"                                                                                                                                                                                                                                                                                                                                                                                                                                                                                                                    ",
"                                                                                                                                                                                                                                                                                                                                                                                                                                                                                                                    ",
"                                                                                                                                                                                                                                                                                                                                                                                                                                                                                                                    ",
"                                                                                                                                                                                                                                                                                                                                                                                                                                                                                                                    ",
"                                                                                                                                                                                                                                                                                                                                                                                                                                                                                                                    ",
"                                                                                                                                                                                                                                                                                                                                                                                                                                                                                                                    ",
"                                                                                                                                                                                                                                                                                                                                                                                                                                                                                                                    ",
"                                                                                                                                                                                                                                                                                                                                                                                                                                                                                                                    ",
"                                                                                                                                                                                                                                                                                                                                                                                                                                                                                                                    ",
"                                                                                                                                                                                                                                                                                                                                                                                                                                                                                                                    ",
"                                                                                                                                                                                                                                                                                                                                                                                                                                                                                                                    ",
"                                                                                                                                                                                                                                                                                                                                                                                                                                                                                                                    ",
"                                                                                                                                                                                              ==%=%====                                                                                                                                                                                                                                                                                                             ",
"                                                                                                                                                                                             =%&&&&o&&%=                                                                                                                                                                                                                                                                                                            ",
"                                                                                                                                                                                          ===%oX##X##Xo%=                                                                                                                                                                                                                                                                                                           ",
"                                                                                                                                                                                         =%&&o#$@@$@@$#o%=                                                                                                                                                                                                                                                                                                          ",
"                                                                                                                                                                                       ==&..X#$@+@@+++$#o%                                                                                                                                                                                                                                                                                                          ",
"                                                                                                                                                                                     =%%&.O$$@@++++++++$#&=                                                                                                                                                                                                                                                                                                         ",
"                                                                                                                                                                                    =%oX#$@@@@+++++++++@$Xo%                                                                                                                                                                                                                                                                                                        ",
"                                                                                                                                                                                   =%.O$@+++++++++++++++@$#&=                                                                                                                                                                                                                                                                                                       ",
"                                                                                                                                                                                  =&.#$@++++++++********++$Xo%                                                                                                                                                                                                                                                                                                      ",
"                                                                                                                                                                                 =%oO$$@+++++++***********+$X%=                                                                                                                                                                                                                                                                                                     ",
"                                                                                                                                                                                  %o$@@+++++++++++++******+@X&=                                                                                                                                                                                                                                                                                                     ",
"                                                                                                                                                                                 =%.$@+++++++++++++********@#&=                                                                                                                                                                                                                                                                                                     ",
"                                                                                                                                                                                =%.#$@@++++++++@@@@++++++**+O&=                                                                                                                                                                                                                                                                                                     ",
"                                                                                                                                                                               =%o#O$@@@+++++++@@@@+++++++**$&=                                                                                                                                                                                                                                                                                                     ",
"                                                                                                                                                                              =%oXO$@@+@@@++++++++++++++++++$&=                                                                                                                                                                                                                                                                                                     ",
"                                                                                                                                                                             =%oXO$@@+++@+++++++++++++++++++$&=                                                                                                                                                                                                                                                                                                     ",
"                                                                                                                                                                              &.O$@@++++++*******+++++++++++O&=                                                                                                                                                                                                                                                                                                     ",
"                                                                                                                                                                             =&XO@@@+++++**********++++++++@O&=                                                                                                                                                                                                                                                                                                     ",
"                                                                                                                                                                            =%oXO$@@++++****------*******+@@#&=                                                                                                                                                                                                                                                                                                     ",
"                                                                                                                                                                            %&.O$@@++++******-*-*---*****+@@#&=                                                                                                                                                                                                                                                                                                     ",
"                                                                                                                                                                           =&.O$@@++++********------*--**++@O&=                                                                                                                                                                                                                                                                                                     ",
"                                                                                                                                                                           =oXO$@@++++********-*-------***++O&=                                                                                                                                                                                                                                                                                                     ",
"                                                                                                                                                                           =oXO$@@+++***-*********-------**+$&=                =============  ==                                                                                                                                                                                                                                                                    ",
"                                                                                                                                                                           =&X$@@@++++************-*-----***$&=              =%&&oooooooo&&&%%%%==                                                                                                                                                                                                                                                                  ",
"                                                                                                                                                                           =&#$@@@+++++*************-----**+$&=             =&.#$$@@+@+@@$O#XXX.o%=                                                                                                                                                                                                                                                                 ",
"                                                                                                                                                                          =%o#$@@++++++*************-*----**$&=           ==%.#$@+********+@$$$OXo%===                                                                                                                                                                                                                                                              ",
"                                                                                                                                                                         =&.XO$@++++++******-*********---***$&=          %%&oXO@+++*******++@@$$O#Xo&%                                                                                                                                                                                                                                                              ",
"                                                                                                                                                                         =o#OO$@+++++*****************-***++$&=         =%&oXO$@@++*******+++@@$$OO#.o%=                                                                                                                                                                                                                                                            ",
"                                                                                                                                                                         =o#O$@@++++**********************++O&=        =%&o.#O$@@++********+++@@$$OO#Xo%=                                                                                                                                                                                                                                                           ",
"                                                                                                                                                                         =o#$$@@++++*+*******************++@O&=      ===%&oXO$@@++*******++++++@@$$OOOXo%=                                                                                                                                                                                                                                                          ",
"                                                                                                                                                                         =o#$$@@++++++++***********++****++@#&=     =%&%&&.XO@@++*******++++++++@@$$$O#Xo%=                                                                                                                                                                                                                                                         ",
"                                                                                                                                                                        =%.O$$@@@+++++++**********++++**+++@#&=     =&&&&o.#$@@++********+++++++@@@$$$O#Xo%=                                                                                                                                                                                                                                                        ",
"                                                                                                                                                                        %oXO$$@@@@++++++++***+++**++++++++@@#&=    =%&o&&o.#$@+++**********+++++@@@@$$OOOXo%                                                                                                                                                                                                                                                        ",
"                                                                                                                                                                       =&.#O$$@@@+++++++++*++++***+*++++++@@X&=    =%&o&&o.#$@@+++********+++++@@@@@$$OOO#.&=                                                                                                                                                                                                                                                       ",
"                                                                                                                                                                       =o#OO$$@@++++++++++++++++*****++++@@$#&=    =%&o&&oXO$@@++++*******++++@@@@@@$$OOOOXo%=                                                                                                                                                                                                                                                      ",
"                                                                                                                                                                       %o#OO$$@@+++++++++++++++*++***++++@@@#&=    =%&ooo.XO$@+++********+++++@@@@@@$OOOOOXo%=                                                                                                                                                                                                                                                      ",
"                                                                                                                                                                      =%.#OO$$@@++++++++++++++++++++*++++@@$#&=    =%&oooX#$@++++********+++++@@@@@@$OOOO#Xo%=                                                                                                                                                                                                                                                      ",
"                                                                                                                                                                      =%.#OO$@$@@@@+++++*+++++*++@@+*+++@@$$X&=     =&oo.XO$@+++++***+*++++++@@@@@@$$OOOOOXo%=                                                                                                                                                                                                                                                      ",
"                                                                                                                                                                      =&.#O$@@$$@@@@++++*+++++*+++@++++@@$$$X&=     =%&o.XO@@++++++*++++++++@@@@@@$$$$$$O##o%=                                                                                                                                                                                                                                                      ",
"                                                                                                                                                                     =&.#OO$$$$$$@$@@@+++*+++***++@@@@@@$$$OX&=     =&oo.#$@@++++++*++++++++@@@@@$$$$$$OO#Xo%=                                                                                                                                                                                                                                                      ",
"                                                                                                                                                                    =%.OOO$$$$$$$$$$$@++++**+*****++@$$$$$$$X&=    =%&oo.#$@@++++++++++++++++@@@$$$$$$OO#X.o%=                                                                                                                                                                                                                                                      ",
"                                                                                                                                                                    =%XOOO$$$$$$$$$$$@++*******-***+@@@@$$$$X&=    =%o..XO$@+++@@@@@+++++++++++@@$$OOOOO#.&%=                                                                                                                                                                                                                                                       ",
"                                                                                                                                                                    =%.OOO$$$$$$$$$$$@++****-------*+@@@@$$$#&=   ==&.##O$@+++@@@@@@++++++*****+@@$OOOO#Xo%=                                                                                                                                                                                                                                                        ",
"                                                                                                                                                                    =%.OOOO$$$$$OO$$@@++***-----*-**++@+@$$$O.o&&&&o.#OO$$@@@@@@@@@+++*****----*+@$OO$OOX&=                                                                                                                                                                                                                                                         ",
"                                                                                                                                                                    =&XOOOOO$$$$OO$$@@+***----------**+++@$$$O##XX##O$$$$@@@@@@@@@@+*****-------*+@$$$O#X&=                                                                                                                                                                                                                                                         ",
"                                                                                                                                                                   =%o#OOOOOO$$$OO$$@@+**------------***+@@@@$$$$$$$$@@@@+++@@@@@+++**-*--------++@$$$O#Xo=                                                                                                                                                                                                                                                         ",
"                                                                                                                                                                  =%oX#OOOOOOO$OOO$$@@+*---------------*+++@@@@@@@@@@@@@+**++@@@@+++*----------**+@@$$OO#o=                                                                                                                                                                                                                                                         ",
"                                                                                                                                                                 =%&.#OOO$OOO$OOO$$$@@+*--------------**++++++++++@@@@+@++++++++++++**----------*++@@@$O#.%= ==============                                                                                                                                                                                                                                         ",
"                                                                                                                                                                =%&.X#OO$$OO$$OOOO$@@@+*---------------**+++++++++++@++++++++++++++++*---------**+++++$O#.%=%====%%&&&&&&&&=                                                                                                                                                                                                                                        ",
"                                                                                                                                                                =%oX##OO$$$$$$OOO$@@@++**------------*-**++++++++++++++++*+++++++++*++*---------******+$O.&%%&%&&&ooo.ooooo&=                                                                                                                                                                                                                                       ",
"                                                                                                                                                                =&.X##OO$$$$$$OO$@@+++++**----------*--**++++++++++++++++**+++++++*****---------****-*+@OXo&&&&&o..XX#XXX..o&=                                                                                                                                                                                                                                      ",
"                                                                                                                                                                =&.##OOOOOOO$$$$@@@+*++++*---------****-**++++++++++++++***++++++****+**------*-****--*@$Xoooooo..X##O##XX..o&=                                                                                                                                                                                                                                     ",
"                                                                                                                                                                =&.##OOOOOOO$$$$@@++**+++*---------*******+++++++++++++++*+++++++********-------*******@$#.ooooo.X##OOO##XXXXo&=                                                                                                                                                                                                                                    ",
"                                                                                                                                                                =&.X##OOO$$$$$$$@@@++**++***-------*******+@@@@+++++++++++++++++++**++***-----*-**+**++@$O#..oo.XX###OOO####XX.&%=                                                                                                                                                                                                                                  ",
"                                                                                                                                                               =%&.X##OO$$$$$$$$@@@@@+**+****-------*****++@@@@++++++++++++++++++++*++***-*-*---**++++@@$$O#X..XX#####OOOOOO##X.&%                                                                                                                                                                                                                                  ",
"                                                                                                                                                              =%&.XX##OO$$@@@@$$$$$$$@+*******------**++++++++++++++++++++++++++++++********---***++++@@$$$O#####OOOOOOO$$$$OO#X.&%=                                                                                                                                                                                                                                ",
"                                                                                                                                                              =&oXXX##OO$$@@+@$$$OOO$$@+*+***+**-----*+++++++++++++++++++++++++++++++*********--**++++@@$$$$OOOOOOOOOO#O$$$$$$O#X.&%                                                                                                                                                                                                                                ",
"                                                                                                                                                              =&oXXX##O$@@@@+@$$$OOOO$$@+++++++**-----*++++++++++++++**++++++@@@@++******+**---***++@@@@$OOOOOOO$$OO####$$$$@@$$#Xo&%=                                                                                                                                                                                                                              ",
"                                                                                                                                                              =&oXXX##$$@@@@+@$$$$OOOO$$$@++++++**----**+++++++++++++*+++++++@@@+++*****+++***-***++@@@$OOOOOOOO$OOOO##O$@@@++@$O#Xo&=                                                                                                                                                                                                                              ",
"                                                                                                                                                              %&.XXX##$$@@@@++@@@$$OOOOO$$@++++++**---*****++++++++++++@@+++++@@@++***+@++++******++@@$OOOOOOO$$OOOOOO$$@++*+++@$O#.&=                                                                                                                                                                                                                              ",
"                                                                                                                                                             =%o.X#X##O$@@@@++@@@@@$$OOOO$@@++++++***--****+++++++++++++@+++++++++****+@++++******+++$$OOOOOOO$OOOOO$$$@+*****++$$OXo=                                                                                                                                                                                                                              ",
"                                                                                                                                                            =&o.X#####$$@@@@++++++@@@$$$$$$@+++++++**-*******++++++++++++++++++******+++++++****++++@@$OOOOOOOOOOOOO$$@@+**---**@@OXo=                                                                                                                                                                                                                              ",
"                                                                                                                                                            %o.X#####O$$@@@@++++++++@@$$$$$@++++++++***-*****+++++++++++++++++******+++++++++****+++@@$OOOOOOOOOOOO$$$@++**-*--*+@$Xo=                                                                                                                                                                                                                              ",
"                                                                                                                                                            %o.X#####O$$@@@@+++++++++@@@@@@@@@@@@++++**-***++++++++++++++++++*****+++@@+++++++****+++@$OOOOOOOOOOO$$$@++****--*-*@$Xo=                                                                                                                                                                                                                              ",
"                                                                                                                                                           =&oX#####OO$$@@@@++++++++++@@@@@@@@@@@+++++**-***++++++++++++++++******++@@@++++++++****++@$OOOOOOOOOOO$$$@@+*****--**@OX&=                                                                                                                                                                                                                              ",
"                                                                                                                                                          =%&.X#####OO$$@@@@+++++++++++++++@@$$@@++@@++**-***++++++++++++++*****+++@@@@@++++++******+@$$OOOOOOOOOO$$$$@+******-*+@OX&=                                                                                                                                                                                                                              ",
"                                                                                                                                                          %&o.X#####OO$$@@@@++++++++++++++++@@$@@@@+@+++**-**++++++++++++++******++@@@@@@++++++*+***++@$OOOOOOOOOO$$$$@+********+$OXo%                                                                                                                                                                                                                              ",
"                                                                                                                                                          %.XX######OO$$@@+++++++++++++++++++@@@@@@@+++++--**++@@@@@@+++++********+@$$@@@@++++++++**++@@OOOOOOOOOO$$$$$@******++@@$Xo%=                                                                                                                                                                                                                             ",
"                                                                                                                                                         =&.XXX#####OO$$@@++++++++++++++++++++@@@@+@+++++****++@@@@+@++++++++*+*+*+@@$@@@@@@@@@+++***++@$OOOOOOOOOO$$$$@+****+@@@$$#.o%=                                                                                                                                                                                                                            ",
"                                                                                                                                                         %&...XX##OOOO$$@@++@@+++++++++++++++++++++@@++@@++**++++@@++++++++++++++++@@@@+@@@@@$@@+*****+@$$OOOOOO##OO$$$@++++++@@@@$OX.o%=                                                                                                                                                                                                                           ",
"                                                                                                                                                        =&oXXXX###OOO$$@@@+++@++++++++++++++++++++++@++@@@++*+*+++@@++++++++++++++@@@@+++@@@$$@@+*****+@$$OOOOOO###O$$$@++++++@@@$$O#X.o%=                                                                                                                                                                                                                          ",
"                                                                                                                                                        %o.X######OO$$@@@@+++++++++++++++++++++++++++++@@@@++****++@@+++++++++++++@@@+++++@@$$@@++****+@$$##OOOO###O$$$@+++++++@$$$OO#X.o=                                                                                                                                                                                                                          ",
"                                                                                                                                                        %.XX######OO$$@@@@++++++++++++++++++++++++++++++@@@+++***+++@++++++++++++++@++++++@@$$@@@+****+@$$O#OOOO###OOOO@++++++@@$$OOOOOX.&==                                                                                                                                                                                                                        ",
"                                                                                                                                                        %.XXXX##OOOO$$@@@@+++++++++++++++++++++@@++++++++++++++**++++++++++**+++++++++++++@@$$@@@@+***+@$$OOOOOO####OOO$++++++@@$OOOOOO#X.o%=                                                                                                                                                                                                                       ",
"                                                                                                                                                        %..XXX##OOOO$$$@@@@+++++++++@+++++++++++@+++@++++++++++++++@+++++++*+++++++++++++@@@$$$$@@****+@$$OOOOO##XXX##O$@@++++@@$OOOOOO##X.&%=                                                                                                                                                                                                                      ",
"                                                                                                                                                        &...XX##OOOO$$$$@@@@++++++++@@+++++++++++++@@++++++++++++++@@++++@@+++++++++@@@+@@@@$$$$@@+***+@$$OOOO##XXXXX#$$$@++*++@$OOOOOO##XXo&%=                                                                                                                                                                                                                     ",
"                                                                                                                                                       =&..XX####OOOO$$$$@@@@@@+++++@+++++@+++++++++@++++++++++++++@@@@@@@@@+@+++++++@@@@@@@$$$$@@+**++@$$OOO####XXXXO$$$@@+*+@@$O###OO###X.o&%=                                                                                                                                                                                                                    ",
"                                                                                                                                                       =&.XX######OOOO$$$$@@@@@@+++++++++@@@+++++++++++++@@++++++++@@@@@@@@@@@@+++++@@@@@@@@$$$$@@+++++@$$OO#########O$$$$@+++@$$O###OO##XXX..o%=                                                                                                                                                                                                                   ",
"                                                                                                                                                      =%&.X#######OOOO$$$$@@@@@@@+++++++++@+++@++++++++++@@++++++++@@@@@@@@$@@@@++++++@@@@@@@@$$@@@@+++@$$$O#########OO$$$@@@@$$OO###OOO##XXXX.o%=                                                                                                                                                                                                                  ",
"                                                                                                                                                      =%o.X#######OOOO$$$$@@@@@@@@+++++++++++@@@+++++++++@@++++++++@@@@@@@@$$@@@@+++++@@++@@@@$$@@@@++@@$$$O##OOO##OOOOO$$@@@@$OO###OOOOO#XXX#X.o%=                                                                                                                                                                                                                 ",
"                                                                                                                                                     =%&.X#######OOOOO$$$$@@@@@@@@@+++++++++++@+++@+++++++++++++@@@@@@@@@@$$$@@@@++++++++++@@@$$$$@@++@@@@$$O#######OOOOO$@@@@$OOO#OOOOO#######X.&%= ===                                                                                                                                                                                                            ",
"                                                                                                                                                     =&.XX####OOOOOOOO$$$$@@@@@@@@@@+++++++++++++@@++++++++++++@@@+++@@@$$$$$@@@@+++++++++++@@$$$$@@++@@+@$$OO######OOOOO$@@@$$OOOOOOOO####OO###X.&%%%%%=                                                                                                                                                                                                           ",
"                                                                                                                                                    ==&.XXX###OOOOOOOO$$O$$@@@@@@@@@@@@++++++++++@@@+++++++++++@@@@+++@@@@$$$@@@@@+++++++@++@@@@@@@@+++++@$OOO##########O$@@@@$$OO$$OOO###OOO####X.oo..o&===                                                                                                                                                                                                        ",
"                                                                                                                                                     %&.XXXX##OOOOOOOO$$OO$$@@++@@@@@@@@+++++++++@@++++++++++++@@@@++++@@@@$$@@@@@@+++++@@++@@@@@@@@++++@@$OOO##XX######O$@@@$$$$$$$$OO###OOO####OOOO$$O.&%%=                                                                                                                                                                                                       ",
"                                                                                                                                                    ==&.XXX#####OOOOOOOOOO$$$@@@@@@@@@@@++@++++++++++++++++++++++@+++++@@@@@@$$$@@@++@@@@@++@@@@$$@@+++@@$$OOO#XXXXXX##OO$@@@@@$$$$$$OO##O$$OO#O$$@@+@@$OX.o&=                                                                                                                                                                                                      ",
"                                                                                                                                                    =%&.XX######OOOOOOOOOO$$$$@@@@@@@@@++@@@+++++++++++++++++++++++++++@@++@@$$$$@@+@@@@@@++@@@@$$@@++@@@@$$OO##X..XXX#O$$@@@@@$$$$$$OOOO$$$$OO$$++**+@$$$$OX&=                                                                                                                                                                                                     ",
"                                                                                                                                                   =%&o.XX######OOOOOOOOOOOOO$$@@@@@@@@@+@@@+++++++++@@++++++@@+++++++++++@@$@@@@$@@@@@@@+@@@@@@@@@++++++@$$OOO#XX...X#OO$@@+@@@$$$$$$$O$$$$$$$@@+***++@@$$$O.&=                                                                                                                                                                                                    ",
"                                                                                                                                                   =&.XXXX######OOOOOOOOOOOOOO$$@@@@@@++@@@@+++++++++@@++++++@@+++++++++++@$$@@@$$$@@@@@@+@@@@@@@@+++++++@$$OOOO#XX..X##O$@@+@@$$$$$$$$$$$$$$@@++***++++@$$@$#.&=                                                                                                                                                                                                   ",
"                                                                                                                                                  ==&.XXXXX#######OOOOOOOOOOOO$$$@@@@@++@@@@+++++++++++++++@@@@++++++++++@@@@@@@@$$$$$$$@@@@@@@+++++++++@@$$OO####XXXX##O$@@$@$$OOO$$$@@@@@@@@@@+++@@@@$$$@@$OXo%=                                                                                                                                                                                                  ",
"                                                                                                                                                   %&.XXXXXX######OOOOOOOOOOOO$$$$@@@@+@@@@@+++++++++++++++@@@@++++++++++@@@@@@@@$$$$$$$@@@@@@@+++++++++@@$$OO####XXX###O$@@$$$OOOOO$$@$@$@@$@@@@@$$$$OOOO$@$OX.o%=                                                                                                                                                                                                 ",
"                                                                                                                                                  ==&.XXXXXX#####OOOOOOOOOOOOO$$$$$@@@@@@@@@++@++++++++@@@@@@@+@@@@@@++++@@+@@@@@@@$OO$$$$$$$$$@@@@@+++++@$$OOOOO#####OOO$@@$$OO###OO$$$$$$$$$$$$$$$$O#XXOO$$O##.o%=                                                                                                                                                                                                ",
"                                                                                                                                                   =&.XXX.XX#####OOOOOOOOOOOOO$$$$$$@@@@@@@@+@@@+++++++@@@@@@++@@@@@@+++@@@+@@@@@@$$OOO$$$$$$$$$$@@@+++++@$$OOOOOO####OOO$@$$OO#####OOOOO$$OOO$$$OO$O#XXXXO$$OOO#Xo&=                                                                                                                                                                                               ",
"                                                                                                                                                  ==&..XXXXXXX####OOOOOOOOOOOOOOOO$$$@@@@@@++@@@@+++@++@@@@@@@@@@@@@@@@@@@@@@@@@@@@$$$$$$$$$$OO$$$@@++++++$$$OOOOO######O$$$OOO######OOOOOOOOO$OOOOOOOX..X#OO$$$O#.&%=                                                                                                                                                                                              ",
"                                                                                                                                                   %&...XXX.XX#####OOOOOOOOOOOOOOO$$$$@@@@@@+@@@@@+@@++@@@@@@@@@@@@@@@@@@@@@@@@@@@$$$$$$$$$$OOOOO$@@+++++@@$$$OOOO######OO$OOOO######OOOOOOOOOOOOOOO##XXXX##O$$$O#Xo&%=                                                                                                                                                                                             ",
"                                                                                                                                                  ==&....XXXXX######OOOOOOOOOOOOOO$$$$$@@@@@+@@@@@@@@++@@@@+@@@@@@@$@+@@@+@@@@@@@@@@$$$$$$$$OOOO$$@@++@@++@@$$OOOO######OO$$OO#######OOOOOOOOOOOO#####XXXXX#OOOOO#X.o&=                                                                                                                                                                                             ",
"                                                                                                                                                   =&...X.XXXX######OOOOOOOOOOOOOO$$$$$$@@@@+@@@@@@@@++@@@@++@@@@@@$@@+@@++@@@@@@@@@@$$$$$$$OOOO$$@@@@@@++@@$$OOOO######OO$OO#########OOOOOOOOOOO####XXXXXX##OOO##X.o&=                                                                                                                                                                                             ",
"                                                                                                                                                  ==&.....XXXX######OOOOOOOOOOOOOO$$$$O$@@@@@@@@@@@@@++@@@@++@@@@@@@@@@@@@@+@@@@@@@+@@$$$$OOO$$$$$$$$@@@++@@$$$OOO######OOOOO#####XXX##OOOOOO############XXX#####XX..o%                                                                                                                                                                                             ",
"                                                                                                                                                   %&......XXX######OOOOOOOOOOOOOO$$$OO$@@@@@@@@@@@@@++@@@@@+@@@@@@@@@@@@@@++@@@@@@+@@@$$$O$$$$$$$$$$$@@@+@@$$$$OO######OOOOOO###XXXX###OOOOO############XXXX###XXX..&%                                                                                                                                                                                             ",
"                                                                                                                                                  ==&o......XXXXXX##OOOOOOOOOOOOOOOOOO$$$@@@@@@@@@+++@@@@@@@@@@@@@@@@@@@@$@@@+@@@@@@@@@@$$$$$$$$$$$$$$$$@@@@$$$$OO########OOOOO##X..XX#####OO######X#####XX#X##XXX..o&=                                                                                                                                                                                             ",
"                                                                                                                                                   =&o.o..o..XXXXX###OOOOOOOOOOOOOOOOO$$$$@@@@@@@@+++@@@@@@@@@@@@@@@@@@@@$$@@+@@@@@@@@@@$$$$$$$$$$$$$$$$@@@@$$$OOO########OOOOO##X..XX######O######XX####XXXX#XXX...o&=                                                                                                                                                                                             ",
"                                                                                                                                                  ==&o.........XXX####OOOOOOOOOOOOOOOO$$$$$@@@@@@@@@@@@@@@@@@++@@@@@@$@@@@@@@@@@@@@@@@@$$$$$$$$$$$$$$$$$$$$$$$OOOO####XXX#OOOO##XXXXXXXXXXX###XXXXXXX#####XXXXXX....o&=                                                                                                                                                                                             ",
"                                                                                                            = == = = =                            =%&o.o...o.X.XX######OOOOOOOOOOOOOO$$$$$$$@@@@@@@@@@@@@@@@@@+@@@@@@$@@+@@@@@@@@@@@@@$$$$$$$$$$$$$$$$$$$$$$$$OOOO####X#X#OOOO##XXXXXXXXXXXX##X#X#XX######XXXXX...o.o&=                                                                                                                                                                                             ",
"                                                                                                           =%&&%%%%%%%%%=                       =%%&ooo.......XX####XX##OO##OOOOOOOO$$$$$$$@@@@@+@@@@@+@@@@$$@@@@@@@@@@@@+@@@@@$@@@@@@@@$$$$$$$$$$$$$$$$$$$$$$$OOO#########O$OO#XXXXXXXXXXXXX######XXX######XXX.....o&=                                                                                                                                                                                             ",
"                                                                                                        ===%&ooooooo&&&&%== =                   =%&oooo......XXX####X###OO##OOOOOOOO$$$$$$$$@@@@+@@@@++@@@@$$@@@@@@@@@@@@++@@@@$@@@@@@@@@$$$$$$$$$$$$$$$$$$$$$$$OO#########OOOO#XX.XXXXXXX.XXX######XX#####XXXX.....o&=                                                                                                                                                                                             ",
"                                                                                                       =&&%&o.....oooo&o&&%%%%=                 =%&o......XXXXXXXXXXXX##OOOOOOOOOOOO$$OO$$$$$@@@@@@@@++@@@@$$@@@@@@@@@@@@@@+@@@@@@@@@+@@$$$$$$$$$$$$$$$$$$OOOOOO$OO#XXX###X#O###XX...XXX.XX.XXX##########XXXX.......o&=                                                                                                                                                                                             ",
"                                                                                                     ==%oooo.........ooooo&&%&%= =          ====%&o......XXXXXXXX#X#X####OOOOOOOOOO$$$OO$$$$$@@@@@@@@@+@@@@@$@@@@@@@@@@@@@@+@@@@@@@@@+@@$$$$$$$$$$$$$$$$$$OOOOOO$$O#XXXX##XX####XX...XXXXXXX.XX##########XXXX.......o&=                                                                                                                                                                                             ",
"                                                                                                    =%%&ooo.........o.oooooo&&&%%%===     ==%%&&oo...XXX..XXX.XX##########OOOOOOOO$$$$$$$$$$$$@@@@@@@@@++@@@@$$@@@@@@@@@@@@@@@@@@@@@@@@$$$$$$$$$$$$$$$$$$$$$OO$$$$O#XXX####X####XXX.....XXXX.XXXXXX####XXXXXX...o...o&=                                                                                                                                                                                             ",
"                                                                                                   =%&&oo........X.....ooooooo&&&&%%==  ==%&&ooo....XXXX.XXXXXXX##########OOOOOOOO$$$$$$$$$$$$@@@@@@@@@++@@@@$$@@@@@@@@@@@@@@@@@@@@@$@$$$$$$$$$$$$$$$$$$$$$$OOO$$OO###X##XXX#OO#X#X.....XXX..XXXX######XXXXXX....ooo&%=                                                                                                                                                                                             ",
"                                                                                                  =%&&oo.................o...ooooo&&%%%%%%&o........XXXXXX##XXXX##XXXX####OOOOOOOOOO$$$$$$$$$$$@@@@@@@@@+@@@@$$@@@@@@@@@@@@@@@@@@@@$$$@@$OO$$$$$$$$$OO$$$$$$OOOOOOOOO###XXXXOO$O#XXX....X..X.XXXX######X#XX...o.ooo&%==                                                                                                                                                                                             ",
"                                                                                                  =%&&oo..X.X.o.....X......o......oo&&&&&oo..XXXXXXXXXXXXX###XX###XXX#####OOOOOOOOOOO$$$$$$$$$$$@$@@$@@+@@@@@@@@@@@@@@@@@@@@@@@@@$$$$$$@$OO$$$$$$$$$OO$$$$$$OOOOOOOOOO##XX.X#O$O##XXX.......XXXXX######XXXX.....oo&&%=                                                                                                                                                                                              ",
"                                                                                                 ==%&&o..XXX.........X...o............o..X..XXXXXXXXX.X#XX#########XXX##OOOOOOOOOOOOOO$$$$$$$$$$$$$$$@@@@@@@@$@@@@@@@@@@@@@@@@@@@$$$$$$$OOO$$$$$$$$$$$$$$$$$OOOOOOOOOOO#XX.XXO$OO##XXX.....XXXXXX####XXXX.......oo&%=                                                                                                                                                                                               ",
"                                                                                                  =%&&o..XXX...........X....XXXXXXXXX..XX#XXXX#X#X#XXXX##X########XXX###OOOOOOOOOOOOOO$$$$$$$$$$$$$$$$@@@@@@@@$@$@$@@@@@@@@@@@$@$$$$$$$$$O$$$$$$$$$$$$$$$$$$OOOOOOOOOOO##XXXX#OOO###XX.....XXXXXX####XXX...o....oo&%=                                                                                                                                                                                               ",
"                                                                                                 ==%&&o..XXX.........X.....XXXX######XXXX###########XX##XX######XXXX####OOOOOOOOOOOOOOOO$$$$$$$$$$$$$$$@@@@@@$$$$$$@@@@@@@@@@$$$$$$$$$$$$$$$$$$$@@$$$$$$$$$$OOOOOOOO######XX.X#OO###XX.....XXXXXX####XX.........oo&%=                                                                                                                                                                                               ",
"                                                                                                  =%&&oo..X..X.XXXXXXXXX...X##OOOOOO##XXX###########XXX#XX#######XX#####OOOOOOOOOOOOOOOOO$$$$$$$$$$$$$$$@$$@$$$$$$$$@@@@@@@$$$$$$$$$$$$$$$$$$$$$$$$$$$$OO$$$O$OOOOOO######XX.XX#####XXXXX.XXXXXX####XXX........ooo&%=                                                                                                                                                                                               ",
"                                                                                                  =%&&oo...X...XXXXXXXXXXXX##O$$$$$$O##XX##OOOOO###XXXXXXX#OOO######OOOOOO##OOOOOOOOOO##OO$$$$$$$$$$$$$$$$O$$$$$$$$$$@@@@@@$$$$$$$$$$$$$$$$$$$$$$O$$$$OOOO$$$$$$OOOOO#X#O#XX...XX######XX..XXXXXXXXXXX.X......oooo&%=                                                                                                                                                                                               ",
"                                                                                                  =%&ooo.....XXX###########OO$$$$$$$$O####OOOOOO##XXX#XXX##OOOO####OOOOOO###OOOOOOOOOO#O#OOOOOO$$$$$$$$$$OO$$$$$$$$$$$@$@$$$$$$$$$$$$$$$$$$$$$$$OO$$$$$O$O$$$$OOOOOOO#X###XX..XXXX#####XXX.XXXXXXXXXX....XX..oooo&&%=                                                                                                                                                                                               ",
"                                                                                                 ==%oooo...X.XX##########OO$$@@$$$$$$OOOOOOOOOO##XXXXXXXXX#OOOOOOOOOOOOO####OOOOOOOOOOO######OO$$$$$$$$$$$$$$$$$$$$$$$$$$$$$$$$$$$$$$$$$$$$$$$$$$$$$$$$$$$$$OOOOOOOOOOXX##XX...XXXXXXXXXX....X#XX#XXXX.X.XX.ooooo&&%=                                                                                                                                                                                               ",
"                                                                                                  =%&oooo..XXXX#########OOO$$$$$$$$$$OOOOOOOOO##XXXXXXXXXXOOOOOOOOOOOOOO###OOOOOOOO###########OOO$OO$$$$$$$$$$$$$$$$$$$$$$$$$$$$$$$$$$$$$$$$$$$$$$$OO$$$$$$$OOOOOOOOO####XXX..XXXXXXXXX........XXXXXX......oooo&&&%%=                                                                                                                                                                                               ",
"                                                                                                 ==%&&ooo..XXXX########OOOO$$$$$$$$$$OOOOOOOOO#XXXX...XXXX#OOOOOOOOOOOOO##OOOOOOOO####XXX#####OOOOOOO$$$$$$$$$$$$$$$$$$$$$$$$$$$$$$$$$$$$$$$$$$$$$OOOO$$$$$$OOOOOOOOOO##XXXX.XXXXXXX.....ooo.....XXXXX....ooooo&&&%==                                                                                                                                                                                               ",
"                                                                                                  =%&&oooo..XXXX########OOOO$O$OOOOOO##########XXXXXXXX####OOOO#OOOOOOOO##OOO########XXX############OOOOOOOOOO$$$$$$$$$$$$$$$$$$$$$$$$$$$$$$$$$OOO$OOO$$$$$OOOOOOOOOOO##XXXXXXXXXXXX.X..oooooo.....XX...oooooo&&&&%==                                                                                                                                                                                               ",
"                                                                                                  =%&&ooooo....XXXXXXXX##OOOOOOOOOO##XXXXXX.XXXXXXXXXX#####OOO##OOOOOOOO##OO########XXXX####XXX###X##OO##OOOOOO$$$$$$$$$$$$$$$$$$$$$$$$$$$$$$$OOOO$$$$$$$$OOOOOOOOOOOO##XX.XXXXXXXXX.....ooooo.o......ooooo.ooo&&&&==                                                                                                                                                                                               ",
"                                                                                                  ==%&&oooooo....XXXXXXXX###OOOOOO#XXX...X...XXXXXXXXX#####OO###OOOOOOOO#####X#####XXXXXX###XXXX#XXX######OOOOOOOOOOOOOO$$$$$$$$$$$$$$$$$$$$$$$OOO$$$$$$$$###OOOOOOO####XXXX#XXXXXXX.X...oooo.oooooo.oooooooooo&&&%==                                                                                                                                                                                               ",
"                                                                                                    =%&&oooooooo.........XX##OOOO#XX.......X....XXXXXX##XX#O####OOOOOOOO##XXXXXXXXXX.....X##XXXXXXXXXXXXX#OOOOOOOOOOOOOOO$$$$$$$$$$$$$$$$$$$$$$$$O$$$$OO$O#X##OOOOOO####XXX###XXXXXX....ooo.oooooooooooooooooo&&&&%==                                                                                                                                                                                               ",
"                                                                                                    =%&&&ooooooo.....X.X..XXX####XX..X........X..XXXXXXX#XOO########OOOOO#XX#XXXXXXX..X.XXXXXXXXXXXXXXXXXX##OOOO#OOOOOOOOOOO$$$$$$$$$$$$$O$$$OOOOOOOOOOOOO###OOOOO######XXX###XX#XXX.XX..oooooooooooooo&&oooo&&&&&%==                                                                                                                                                                                               ",
"                                                                                                   ==%&&&&o&oooo.o.......X...XXXX..X...........X....XXXXXX#O########OOOOOOXX##XXXXXXX..XXX#XXXXX...XXXXX.XX##OO##OOOOOOOOOOOO$$$$$$$$$$$OOO$OOOO$$OO##OOOO##OOOOOO####O#XXX###XXXXXX.XXX...oooooooooooo&&ooo&&&&&%%==                                                                                                                                                                                               ",
"                                                                                                     =%&&&&o&&&ooo...X........X........o.........X...XXXXX####X#X#############XXXXXXXXXXXXXXXXX.....XXXXXXXXX#########OOOOOOOOOO$$$$$$$OOOO$OOOOOOO###OOOOOOOOOOOO#######XXXXXXXXXX..X#XXX..oooooooooo&o&&&&&&%%%%%==                                                                                                                                                                                               ",
"                                                                                                     =%&&&&&&&&&oo..............o.o.o.o........X....X.XXX.X#XXXXXX############XX#XXXXXXXXX.XXX.......XXXXXX..XXXXXX####OOOOOOOOOO$$$$$OOOOOOOO$$OO####OOOOOOOOOOO#####XX##XXXXXX....XX##XXX..........oooo&&&&%%%%%%==                                                                                                                                                                                               ",
"                                                                                                     =%%&&&&&&&&ooo...o.o...ooo..o...o..o..o..X..X.X...X..XXXXXXXXXX#X#XX#####XXXXXX####XX.XXX........XXXXX.X.XXXXXXXX########OOOOOOOOOOOOOOOO$$OO###OOOOOOOOOOO###XXXX#XXXXXXXXX.X..X#X#XXX..X........ooo&&&&%%%%%==                                                                                                                                                                                               ",
"                                                                                                      =%&&&&&&&&&&oooooo.o.o.ooo..o.o..o..o..........X..X.XXX...XXXXXXX#XX#####XXXXX##O#XX.XXX......X............XXXXXX########OOOOOOOOOOOOOOOO$OO##OOOOOOOOOOOO##XX#XXXXX.XXXXXXX...XX##XXXXXXX#XXX.....oo&&&&&%%%==                                                                                                                                                                                               ",
"                                                                                                       =%%%&%%&%&&&oooooooooooooo.....o..o........X.X..X..XXX..X.XXXXXXXX####XXXX#X#####XXXXX...o..X..X.X.X.....XXXXXXXX####XX######OOO$OOOOOOOOOOOOOOOOOOOOOO###XXXXX#XX..XXXXXX..X.XX##X.XXXXXXXXXXXXX...ooo&&%%%=                                                                                                                                                                                                ",
"                                                                                                        =%%%%%%%%&&ooooooooooooooo......o.oo..............XXX...X.XX..XXXXX#XXXXXXXXXX##XXXX.X...................XX....XX##XXXX######OO$OOOOOOOOOOOOOOOOOOOOOO##XX.XX##X.X.XXXXX.....XX#X...X..XXXXXXXXXX.....o&&%%==                                                                                                                                                                                               ",
"                                                                                                         ==%%%%%%&&&ooo&&ooooooo.....o.o.ooo...o..X.X.X.XXXXX.X........XXXXXXXXXXXX.XXXXXXXXX............X.X.....X.X.X.X#XXXX#XXXX###OOOO#OOOO##OOOOOOOOOO##OOO##XXXXXXXX.XXXX.....XXXXXX.o.....XXXXXXXX.XXXX..oo&&%%=                                                                                                                                                                                              ",
"                                                                                                          ===%%%%%&&oooo&&ooooooo.oo.o..ooooo.o.........XXXXX...X.X.....XX.....XXX...XXX.XXXXX......o..................XXXXXXXX#XX###OOO##OOOOO#OOOOOOOOOOO#OOOO##XXXXXX.XXXXX.....XXX...ooo.......XX......XX...ooo&%%=                                                                                                                                                                                             ",
"                                                                                                             =%%%%&&&oo&ooooooooooooo.oooooooo..o.......XXXX..X.XX........X.X.....X......XXXXX...........X.X.......X.X..XXXXXXXXX#####OOOOOOOOOOOOOOOOOOOOOOOO####XXX#XX.XXXXXX....XXX.X..........X..X.X...XXX..oooo&%%=                                                                                                                                                                                            ",
"                                                                                                              ===%%&&&oooooo&oooooooooooooooo.o.o.ooo...XX.....XXXXX..........X.X..X.X.X.XXXXX........................X.XXXXXXXXX######OOOOOOOOOOOOOOOOOOOOOOO####XXXXXX.XXXXXXXX..XXX.............X..XXX..XXX..ooooo&&%=                                                                                                                                                                                           ",
"                                                                                                                 =%%&&&&&oo&&oooooooooooooooooooooooooo.......XXXX.......X.................X....o...................XXX.XXXX.XXX#X######OOOOOOOOOO##OOOOOO######XXXXX..XXXXXXXXXXXXX.......X..........XXX.......o.oooo&&%=                                                                                                                                                                                          ",
"                                                                                                                  =%%&&&&&o&&o&o&oooooooooo.ooooooooooo.......XXXXXX.X.........X.X...X.X.X...X...o.o.....o...........XX..XX...XXXXX######OOOOOOOO###OOOOOO#######XXX.X.XXXXX.XXXXXXX.X......X.X.X.X.X..XX...........ooo&&%=                                                                                                                                                                                         ",
"                                                                                                                   =%%%%&&&&&&&&ooooooooooo.oooooo.oooo...XXXXXXXXXX......................X.X.......o......................X......XXXX####X##OO#####OOOO##########XXXX...XXXXXXXXX......XXXXX....XX..................ooo&&%=%%==                                                                                                                                                                                    ",
"                                                                                                                    =%%%%&&&&&&&&&o&o&o&oooooooooo..ooo...XXXX..XXXXXX.........X......X.X.........o..o....o.o.....X..........X.X.X..XXX#XXXX####XX##OOOO##########XXXX.X.XXXXXXXXX.X.X.XXXXXXX...XX..X.X.....X........ooo&&%&&%==                                                                                                                                                                                   ",
"                                                                                                                     =%%%%%&&%%%&&&&&&&&&oooooooooooooooo.....X.XXXXXX....XX..............X.X.......ooo..o.............o..X...........XXXXXXX#XXXX##OOOO###O##XXXXXXXX..XXXXXXXXXXX....XXXXXXX.....X...................ooo&&&&%%==                                                                                                                                                                                  ",
"                                                                                                                      ==%%%&&&%%%&&&&&&&&&oooooooooooooooo.o....XXXXXXXX.XXXXX.X.X...................oooo..o.o.o....o.o.....X.X.X.X.X.X#XXXXXXXXXXX##OOO##OO##XXXXXXXX.XXXXXXX.XXXXXX.XXXX.XXX......X.X.........o.......ooo&&&&%%==                                                                                                                                                                                 ",
"                                                                                                                        =%%%%&&%%%%%&&&&&&&&&oooooooooooooooo........XXX.XX#XXXXXXXX.......X.....ooo.ooooo.o..o....o......X.....XXX...XXXXXXX.X.XXXX######OO#XXXX......X##XX#XXXXXXXXXXX#XX###X....X....................oooo&&%%%%==                                                                                                                                                                                ",
"                                                                                                                         =%%%%&%%%%%%&&&&&&&&o&o&oooooooooooo.ooo.....XX.X###XXXXXXXX............oooooooooo.o.o.o.o..o......X.X.XXX.X.XXXXXXX.....XX########XXXX..X.X..X##X###XXXXXXXXX##XX#O#XX.X.....o.o.o....o........oooo&&%%%%==                                                                                                                                                                               ",
"                                                                                                                         == =%%%%%%%%%%%&&&%&&&&oooo&ooooooooooooo......XX#########XXXX....X.X..oooooooooooooooo...o..o.........XXX.XXX.XXXXX.X.X.XXXXX.XX#X#XX...XX...XX###O####XXXX###O##OO#XX...X....o..........XX....ooo&o&&&&%%%===                                                                                                                                                                            ",
"                                                                                                                          =  ==%%%%%%%%%%&%%%&&&&&&&oo&o&ooooooooooooo...XX############XXXXX.....oooooooooooooo.ooo.o..o.o..X.X.XXX.XXX.XXXXX....XXXXX..XXXXXX...XXX.X.XX###OO####X#X##OO#####X..X....o...o.......XXXXX.ooooooo&&&&%%%%==                                                                                                                                                                           ",
"                                                                                                                              ===%%%%%%%%%%%&&&&&%&&oo&&oooo&&oooooooooo..XXXXX###OOO#OO###XXX....oooooo&&&oooooooo..o..o...............XXXXX..XXXXXX.X........XXXXX..XXX#####O#######OOO####XX.X..X................XXX...oo.o.ooo&&&&%%%===                                                                                                                                                                        ",
"                                                                                                                               ====%%%%%%%%%%&&&%%%&&o&&&o&o&&&&ooooooooo...XXXX##OOOOO$$OO##XX....oooooo&&&ooooooooo.oo.......X.X.X.X.XXXXX.X..XXXXX.X.X.X.X.XXXXXX.XXXXX####O#####OOOOO#####XX..XX....XX...X.X..X.XXX........oooo&&&&%%%%==                                                                                                                                                                       ",
"                                                                                                                                   ==%%%%===%%%%%%%%&&&&&&&&&&&&oooooooooooo...XX#OO$$$$@$$OO#XX....ooooo&&oooooooooooo.o.............XXX.XXX..XXXXXXXXX..XXXXXXXX...XXXXXXXX######O$OOOO#X#O##XXXXXX..XXXX.X....X..XXX......oooooo&&&&&&&%%%===                                                                                                                                                                    ",
"                                                                                                                                   ====%%=%=%%%%%%%%&%&&&&&&&&&&&&&&&&o&o&oooo...X##O$$$@$$OO#XXXX...ooooo&oo&o&oooooooo..........X.X.XXX.XX....XX#XXXXXX.XXXXXXXXXXXXXXXXXXX######O$OOOO##O###XX#XXXXXXXXX...X.XX.XXXXXXXXXX..oooooo&&&&&&%&%%==                                                                                                                                                                   ",
"                                                                                                                                       ===%%%=%%%&%%%%%%%%%%%%%%%&%&&&&&&&&&&&oooo.X#OO$$$OOO#XXXXX...ooooooo&&ooooooo.oo...................X..XX###XXXX..XXXXXXXXXX#XX..XX###OOOOOO$OOOOOO###XXX####XX##XX.X.XXXXXXX###OOO##X...ooooooo&&&&&&%%====                                                                                                                                                                ",
"                                                                                                                                       ====%=%%%%%%%%%%%%%%%%%%%%%%%&&&&&&&&&&&oooo.X##OOO####XXXXX.o..ooooo&o&oooooooooo........X.X.X........X.XX##XXXXX.XXXX..XXXXXX..XXX#OOOOOOOO$OOOOOOO#########XX###XX.XXX#XXX###OOOO#XX....ooooooo&&&&&%%%=%====                                                                                                                                                             ",
"                                                                                                                                         ===%%%%%=%%%%%%%%%===%%%%%%&&%%%%&&&&&&oooo.X#OO#X###XXXXXX..oooo.oooooooooooooo.o.....................XXXXXXXX..XXX..XXXXXX..XXX#O$OOOOOOOOOOO$OOOOOOOOOO##XX#####XXX####X####OO#X..........oooooo&&%%%%%%%=%=                                                                                                                                                            ",
"                                                                                                                                         ====%%%===%%%%%%%%%==%%%%%%%&%%%%%&&&&&&&ooo.X###X#####X##XX..oooooooooo&oooooooo.o....X.X...............XXXXXX......X.XXXX...XX##OOOOOO#####O$OOOOOOOOOOO##XX####OO######X#######X...X.....o..oooo&&&&%&%%&%%%=                                                                                                                                                           ",
"                                                                                                                                             ====%==%%%=%%%%=%%%%%%%&%%%%&%%&&&&&&&&oo...XX#######O##X..ooo.oooooooooooo.oo.o........................................X.XX#OOOO####XXX##OOOOOOOOOOOO##XX###OOOOOO#######X##X.XXXXX.....ooooooooo&&&&&&&%%%%==                                                                                                                                                        ",
"                                                                                                                                             ==%====%%%%%%%%%%%%%&%%%%%%%%%%%&&&&&&&&ooo...XXX###OO##X....o.ooooooooooo.ooo.....X....o...o.....o.....X....o..X.........XXX#######XXXXX##OOOOOOOOOOOO#####OO$OOOOO#OOO#####XXXXXXXX...o..ooooooooo&&&&&%%%%%= =                                                                                                                                                      ",
"                                                                                                                                               =======%%%%%=%%%%%%%%%%%&%%=%%%%%%%&&&&&&oo....X#OOO##..o.o..ooooo&ooooo...............o.ooo...ooooo......o.............XXXXX##XXXXXX.XX#OOOOO$$OOOOOO##OO$$OOOOOOOO$OO#####XXXXXXX..o..o.........oooo&%%%%%%====                                                                                                                                                    ",
"                                                                                                                                               ========%%%%==%%%%%%%%%%%%%==%%%%%%&&&&&&&oooo..#OOOO#X....o..ooooooooooo.o......X..oooooooooo.oooooo...o.ooo..o.o.o.....XXXX##XXXXXXXXX#OOOOO$OO##OOO#OO$$O###O##OOOOO######XXXXXX......o.........ooo&&%&%%%%%%= =                                                                                                                                                  ",
"                                                                                                                                                    ====%%%==%%%%====%%%===%%%%%%%%%&&&&&&&&oo.XO$$O#XX....o..ooooooooo.o..........oooooooooo.ooooooo.oooooo.o..o..o....XXXX##XXXXXXXX.X#OO$$OO####OOOO$$O#XX######OOOO#####XXXXX..o.o.o.......X...ooo&&&&%%%%%%===                                                                                                                                                 ",
"                                                                                                                                                     ======%===%===%===%==%=%%%%%%%%&&&&&&&&&ooX#OOO###XX....o.oooo&oooo.....o....ooooooooooo.oooooooooooooooo.o.....o..XXXX#XXXXXX#XXXX#OOOOO#####OOOOOO#XX#X######OO######XXXX...........X.X......ooo&&&%&&%%%%%%=                                                                                                                                                ",
"                                                                                                                                                      ==  =%%====%%%=%===%%%===%%%%%%%&&%&&&&oo.X######XX...o...oooooooo.o.....oooooooo...ooo.ooooooooooooooooo..o.......XXXXXXXXXX##XX##OOOO##XX##OOOO##XXXXX###X###O#X###XX.............XX.....o.o..oo&&&&&&%%%%%%=  ==                                                                                                                                           ",
"                                                                                                                                                       =  =%%==%===%%%==%=%%====%%%%%%&%%%%&&&&o..XXX##XX....o.o.oooooooo.....ooooooo.o.o.ooo.oooooooooooooooooooo..........XXXXXXXX####################X.XX#X####X#####X#XX...X.XXXXXXXXXXXXX......o...ooo&&&%&&&&%%===%=                                                                                                                                          ",
"                                                                                                                                                          =========%%%=%%%===%=======%%%%%%&&&&ooo...XXX...o..o.......oooo.o.o.oooooo.o...ooo.ooooooooo..ooooooooo...............XXXX##########OO##XX##XXXXXX##OO##XX####XX..X..XXXXXXXXXXXX.......o....ooooo&&&&&&&&%%%%%=                                                                                                                                         ",
"                                                                                                                                                             = = ====%===%==%%==%======%%%%%&%&&&ooo.....oooo..o.o.o...oooooo.ooooooooooooooo.oooooooooooooooooooo...X........X.X.XXXX#X####OOOOO##XXXXXX#####OOO##XXXX#XXXXXXXXXXXXXXX##XX....X...........oooo&&&&&&&&%&%%===                                                                                                                                      ",
"                                                                                                                                                                  =========%%%=%%%=%==%==%%%%%%&&&&&oo..oooooo..o..o...oooooo...ooooooooooooo....oooooooooooo.ooooo..................XXXXXX#OOOOO##X..XX#OO##OOO###XX.XXXXXXXXXXXXX..XX###X......X.....X....ooooooooo&&&&%%%%==                                                                                                                                     ",
"                                                                                                                                                                   = = = ====%===%%%==%===%%%%%%&%&&&oo&ooooo.o..o.ooooooooo.o.o.oooooooooooooooooooooooooooooooooo............X.X.X.XX#XX.X##XXXXXXXXXX#OOOOOO#####X..XXXXXXXXXXX...XX##XX.......X.XXXX...ooooo.o..ooo&&&&&&%%===                                                                                                                                  ",
"                                                                                                                                                                          =======%%==%%%=======%%%%&&&&&&ooooo.o..oooooooooo.o..o.ooooooooooooooooooooooo.oooooooooo.................XX##.....X.XXX##X###OOOOO#XX##O#X..XXXXX.XXX..X.XX#XXXXX...o..XXXXX..oooooo.....oo&&&&&%&%====                                                                                                                                 ",
"                                                                                                                                                                           = = ====%==%=%=%===%%%%%%%&&%&&&&ooooooooooooooooooooooooooooo&&oooooooooooooooooooooooo..................XX##X.....XXX##OOOOOOOO####XX###XXXXXXXXXXXXXX...XX#XXXXX.....XXXXXX.....o......ooo&&&&%%%%%%%===                                                                                                                              ",
"                                                                                                                                                                                =========%%%=%%%%%%%%&&%%&&&&oooooooooooooooooooooooooo&&&ooooooo.oooooooooooo&oooo..............o.o..X##X..X..XX##OO$OOOO#####XXX###XX##XXXXXXXXXX.X.XXXXXXXX.....XXXXXXXXXX......o.oooo&&&%%%%%%%====                                                                                                                             ",
"                                                                                                                                                                                 = =  =  =%====%%%%%%%%%%%%%&&&&&ooooooooooooooooooooooooooooooooooooooooooooooooooo...o..o.....o....XX##X......X##OOOO#X##XXXXXXXXXXXX#XXXXXXXXXX...X.XXXXXXXXXXXXXXXXXXXXXX.o.....o..oooo&&&&&&%%%%======                                                                                                                         ",
"                                                                                                                                                                                          =========%%%=%%%%%%&&&&o&oo&oooooooooooo&oo&ooo&ooo.oooooooooooo&oooooooooo.o..o.....o..o..XXXXX.X.....X####XX.XX.XX#XXXXX#XXXXXX.......X........XXXXXXXXXXX.XXXXX....o.........ooooo&&%%%%%==%%%                                                                                                                         ",
"                                                                                                                                                                                           ====  ===%===%%%%%%&&&&&&&&&oo&oo&oo&ooooooooo&ooooooooooooo&oooooo&oooooooo......o..o....XX...XXXX....XXXXX.X...XX####XXXXXXXXX..XXXXXXX.X.X..XXXXXXXXXXXXXXXXXX..........X.......ooo&&&&%%%%&%=====                                                                                                                    ",
"                                                                                                                                                                                           ==    ========%%%%%%&&&&&&&&oooooooooooooooo&&&ooooooo.oo&ooooooooooooooooo........o.....XXX...X##XX...........X.X#####X.XXXXXXX.XXXXXXXXX...XXXXXXXXX..XXXXXXXXX.....X....XX.......oooooo&&&&&&%&%%%=                                                                                                                   ",
"                                                                                                                                                                                                     ==%%%%%%=%%&&&&&&&&&&&&&oooooooooooooooooooooooooooooo&oooo&oooooo......o..o....X....XXXX...o....X.X...XX#####.XXXXXXXXXX######XXXXXXXXXXXXXX..XXXXXXXX.X.X.....XXX.XXXX..ooo.oooooo&&&&o&&%===                                                                                                                ",
"                                                                                                                                                                                                     ===%=====%%%&&&&&&&&&&&&o&o&o&oo&ooooooo&ooooooooo&oooooooooooooo.o....o..o.o.........XX...o.o.......X..XX###XXXXXXX.XXXX######XXXXXXXXXXXXXX.XXXXXXXXX....X.X..XXX.XXXX.......oooo&&&oooo&&%%%=                                                                                                               ",
"                                                                                                                                                                                                      = =====%%=%%&%%&%%&&&&&&o&&&&oooooo&oo&&ooooooooooooooo&ooooooooooo....ooo...........o.......o..........XX#XXXXXXXXXX#XX#####X##XXXXXXXXXXXXXXXXXXXXXX.X.XXXXXXXXX.XXXX.........ooooooooo&&&&%%===                                                                                                            ",
"                                                                                                                                                                                                         ===%%%==%%%%%%%%&&&&&&&&&ooooo&oooo&&oooooooooo...ooooooooooooo..o.o.oo..........oooo..o.o...........XXXXXXXXXXXX##X#####XX##XXXXXXXXXX..XX.XXXXXXX...XXXXXXXXX.XXXXX......o...oooooo&&ooo&%%===                                                                                                           ",
"                                                                                                                                                                                                           ====%==%%%%%%%%%%&&&&&&&&&oo&oooooo&ooooooooooo..ooooooooooo....o.o.o......o...oooo.ooo.........o....XXXXXXXXXXXXXX#####X###XXXXXX#XX.X...XXXXXXXX..XXXXXXXX..XXXXXXXXX......ooooo&&oooooo&&%%===                                                                                                        ",
"                                                                                                                                                                                                           ========%%%%==%%%%&&&&&&&&o&&&oo&ooooooo.ooooo.oooo&oooo.......o..o..o...o....oooooooo....X..X.X...X.XXXXXXXXXXXXXX####XX##XXXX.XX#XXX.X.X.XXXXXX..XXXXXXXX...XX..XXXXX.......oooo&oo&oooooo&%%%==                                                                                                       ",
"                                                                                                                                                                                                             =%===%%%%%%=%%%%%%%%%&&&&&&&oo&ooooo.o.oooooooo&&&&oooo.o.o...o..o..ooo.o.ooooooooo.o.....XXXXXX...XXXXXXXXXXX#XXXXXXXXXXXXXXX.XXXXXX...XXXXXXXXXXX...XXX.....X.XXXXX.......o....ooo&&oooooo&&&%=                                                                                                      ",
"                                                                                                                                                                                                             ======%%%%==%%=%%%%%%%&&&&&o&&&&ooooo.ooooooooo&&&&ooooo.o.oo..o..o.oo....oooooooo.o....X.XXXXXX.X.XXXXXXXXXXXXX#XXX.XXXX..XXXXXXXXXX.X.XXXXXXXXXXX.X.XXX......XXXXX..X...........oo&&oo.oooooo&%==                                                                                                    ",
"                                                                                                                                                                                                               ==%==%===%===%%%%%%%%%%&&&&&&&&&ooooooooooooo&&&&&ooooooooo.o..o...oo.o.oooooooo...........X.X..XXXXX..XXXXXXX###XXXXX.X.XXXXXX###XX..XXXXXX....XXXXXXXXXXXXXXX...X..............oooo...oooooo&&&%=                                                                                                  ",
"                                                                                                                                                                                                               =============%%%%%&%%%%&&&&&&&&ooooooooooooo&&&&&oooooooooo..o..o.o..o..ooooooo..o...X.........XXXXX...XXXXXX#####XXXX...XXXXXX###XX..XXXXX..X.XXXXXXXXXXXXXXXX.X...X........X...ooo.....ooo.oooo&%=                                                                                                 ",
"                                                                                                                                                                                                                                                                                                                                                                                                                                                                                                                    ",
"                                                                                                                                                                                                                                                                                                                                                                                                                                                                                                                    ",
"                                                                                                                                                                                                                                                                                                                                                                                                                                                                                                                    ",
"                                                                                                                                                                                                                                                                                                                                                                                                                                                                                                                    ",
"                                                                                                                                                                                                                                                                                                                                                                                                                                                                                                                    ",
"                                                                                                                                                                                                                                                                                                                                                                                                                                                                                                                    ",
"                                                                                                                                                                                                                                                                                                                                                                                                                                                                                                                    ",
"                                                                                                                                                                                                                                                                                                                                                                                                                                                                                                                    ",
"                                                                                                                                                                                                                                                                                                                                                                                                                                                                                                                    ",
"                                                                                                                                                                                                                                                                                                                                                                                                                                                                                                                    ",
"                                                                                                                                                                                                                                                                                                                                                                                                                                                                                                                    ",
"                                                                                                                                                                                                                                                                                                                                                                                                                                                                                                                    ",
"                                                                                                                                                                                                                                                                                                                                                                                                                                                                                                                    ",
"                                                                                                                                                                                                                                                                                                                                                                                                                                                                                                                    ",
"                                                                                                                                                                                                                                                                                                                                                                                                                                                                                                                    ",
"                                                                                                                                                                                                                                                                                                                                                                                                                                                                                                                    ",
"                                                                                                                                                                                                                                                                                                                                                                                                                                                                                                                    ",
"                                                                                                                                                                                                                                                                                                                                                                                                                                                                                                                    ",
"                                                                                                                                                                                                                                                                                                                                                                                                                                                                                                                    ",
"                                                                                                                                                                                                                                                                                                                                                                                                                                                                                                                    ",
"                                                                                                                                                                                                                                                                                                                                                                                                                                                                                                                    ",
"                                                                                                                                                                                                                                                                                                                                                                                                                                                                                                                    ",
"                                                                                                                                                                                                                                                                                                                                                                                                                                                                                                                    ",
"                                                                                                                                                                                                                                                                                                                                                                                                                                                                                                                    ",
"                                                                                                                                                                                                                                                                                                                                                                                                                                                                                                                    ",
"                                                                                                                                                                                                                                                                                                                                                                                                                                                                                                                    ",
"                                                                                                                                                                                                                                                                                                                                                                                                                                                                                                                    ",
"                                                                                                                                                                                                                                                                                                                                                                                                                                                                                                                    ",
"                                                                                                                                                                                                                                                                                                                                                                                                                                                                                                                    ",
"                                                                                                                                                                                                                                                                                                                                                                                                                                                                                                                    ",
"                                                                                                                                                                                                                                                                                                                                                                                                                                                                                                                    ",
"                                                                                                                                                                                                                                                                                                                                                                                                                                                                                                                    ",
"                                                                                                                                                                                                                                                                                                                                                                                                                                                                                                                    ",
"                                                                                                                                                                                                                                                                                                                                                                                                                                                                                                                    ",
"                                                                                                                                                                                                                                                                                                                                                                                                                                                                                                                    ",
"                                                                                                                                                                                                                                                                                                                                                                                                                                                                                                                    ",
"                                                                                                                                                                                                                                                                                                                                                                                                                                                                                                                    ",
"                                                                                                                                                                                                                                                                                                                                                                                                                                                                                                                    ",
"                                                                                                                                                                                                                                                                                                                                                                                                                                                                                                                    ",
"                                                                                                                                                                                                                                                                                                                                                                                                                                                                                                                    ",
"                                                                                                                                                                                                                                                                                                                                                                                                                                                                                                                    ",
"                                                                                                                                                                                                                                                                                                                                                                                                                                                                                                                    ",
"                                                                                                                                                                                                                                                                                                                                                                                                                                                                                                                    ",
"                                                                                                                                                                                                                                                                                                                                                                                                                                                                                                                    ",
"                                                                                                                                                                                                                                                                                                                                                                                                                                                                                                                    ",
"                                                                                                                                                                                                                                                                                                                                                                                                                                                                                                                    ",
"                                                                                                                                                                                                                                                                                                                                                                                                                                                                                                                    ",
"                                                                                                                                                                                                                                                                                                                                                                                                                                                                                                                    ",
"                                                                                                                                                                                                                                                                                                                                                                                                                                                                                                                    ",
"                                                                                                                                                                                                                                                                                                                                                                                                                                                                                                                    ",
"                                                                                                                                                                                                                                                                                                                                                                                                                                                                                                                    ",
"                                                                                                                                                                                                                                                                                                                                                                                                                                                                                                                    ",
"                                                                                                                                                                                                                                                                                                                                                                                                                                                                                                                    ",
"                                                                                                                                                                                                                                                                                                                                                                                                                                                                                                                    ",
"                                                                                                                                                                                                                                                                                                                                                                                                                                                                                                                    ",
"                                                                                                                                                                                                                                                                                                                                                                                                                                                                                                                    ",
"                                                                                                                                                                                                                                                                                                                                                                                                                                                                                                                    ",
"                                                                                                                                                                                                                                                                                                                                                                                                                                                                                                                    ",
"                                                                                                                                                                                                                                                                                                                                                                                                                                                                                                                    ",
"                                                                                                                                                                                                                                                                                                                                                                                                                                                                                                                    ",
"                                                                                                                                                                                                                                                                                                                                                                                                                                                                                                                    ",
"                                                                                                                                                                                                                                                                                                                                                                                                                                                                                                                    ",
"                                                                                                                                                                                                                                                                                                                                                                                                                                                                                                                    ",
"                                                                                                                                                                                                                                                                                                                                                                                                                                                                                                                    ",
"                                                                                                                                                                                                                                                                                                                                                                                                                                                                                                                    ",
"                                                                                                                                                                                                                                                                                                                                                                                                                                                                                                                    ",
"                                                                                                                                                                                                                                                                                                                                                                                                                                                                                                                    ",
"                                                                                                                                                                                                                                                                                                                                                                                                                                                                                                                    ",
"                                                                                                                                                                                                                                                                                                                                                                                                                                                                                                                    ",
"                                                                                                                                                                                                                                                                                                                                                                                                                                                                                                                    ",
"                                                                                                                                                                                                                                                                                                                                                                                                                                                                                                                    ",
"                                                                                                                                                                                                                                                                                                                                                                                                                                                                                                                    ",
"                                                                                                                                                                                                                                                                                                                                                                                                                                                                                                                    ",
"                                                                                                                                                                                                                                                                                                                                                                                                                                                                                                                    ",
"                                                                                                                                                                                                                                                                                                                                                                                                                                                                                                                    "
};
