/* XPM */
static char *_764677226283[] = {
/* columns rows colors chars-per-pixel */
"512 512 159 2 ",
"   c #070706",
".  c #090703",
"X  c #070803",
"o  c #0B0B06",
"O  c #0D0D0D",
"+  c #120E06",
"@  c #100F0B",
"#  c #0F100B",
"$  c #121007",
"%  c #13120E",
"&  c #19150E",
"*  c #1B190F",
"=  c #0F0F11",
"-  c #110F10",
";  c #141413",
":  c #191712",
">  c #171813",
",  c #1B1A15",
"<  c #161618",
"1  c #1C1C1B",
"2  c #211D16",
"3  c #211E19",
"4  c #1F201C",
"5  c #232116",
"6  c #282117",
"7  c #24221C",
"8  c #2A251D",
"9  c #2C291E",
"0  c #30291F",
"q  c #1E1E20",
"w  c #1F2121",
"e  c #242424",
"r  c #2A2621",
"t  c #252925",
"y  c #2D2A23",
"u  c #262628",
"i  c #262A29",
"p  c #2C2C2C",
"a  c #322D24",
"s  c #382F26",
"d  c #332E29",
"f  c #382F28",
"g  c #2D302D",
"h  c #353126",
"j  c #393226",
"k  c #35322A",
"l  c #3A352B",
"z  c #3D392D",
"x  c #2E2F30",
"c  c #2E3231",
"v  c #333333",
"b  c #3B3631",
"n  c #363835",
"m  c #3E3A32",
"M  c #363638",
"N  c #363939",
"B  c #3A3A3A",
"V  c #433826",
"C  c #40372C",
"Z  c #423B2E",
"A  c #403730",
"S  c #433D33",
"D  c #483F33",
"F  c #433E38",
"G  c #3E403E",
"H  c #464135",
"J  c #4A4435",
"K  c #4F4836",
"L  c #464239",
"P  c #4B453A",
"I  c #4E493C",
"U  c #504736",
"Y  c #514937",
"T  c #50473A",
"R  c #534C3C",
"E  c #594F3E",
"W  c #57503E",
"Q  c #59503F",
"!  c #3E3E40",
"~  c #3E4241",
"^  c #424242",
"/  c #4B4640",
"(  c #474946",
")  c #4E4A41",
"_  c #4A4A4A",
"`  c #534D42",
"'  c #584F41",
"]  c #534F49",
"[  c #4E504D",
"{  c #565144",
"}  c #5C5444",
"|  c #5F5846",
" . c #565248",
".. c #5B554A",
"X. c #5E594C",
"o. c #515151",
"O. c #5E5A50",
"+. c #615746",
"@. c #615947",
"#. c #605748",
"$. c #645C4B",
"%. c #695E4D",
"&. c #645D52",
"*. c #685F50",
"=. c #67604E",
"-. c #6A614F",
";. c #70654F",
":. c #666053",
">. c #6D6352",
",. c #6F6855",
"<. c #666259",
"1. c #6C6559",
"2. c #6E685B",
"3. c #716655",
"4. c #736956",
"5. c #786D57",
"6. c #706758",
"7. c #756B59",
"8. c #796E5B",
"9. c #7A7057",
"0. c #77705B",
"q. c #7C715E",
"w. c #7F785E",
"e. c #6E6A60",
"r. c #756E61",
"t. c #796E62",
"y. c #767063",
"u. c #7E7361",
"i. c #777368",
"p. c #7D7569",
"a. c #7E786A",
"s. c #80755F",
"d. c #82785F",
"f. c #817662",
"g. c #847965",
"h. c #897D67",
"j. c #81766A",
"k. c #867C69",
"l. c #897E69",
"z. c #867E71",
"x. c #8A7E73",
"c. c #878066",
"v. c #8A8167",
"b. c #87806E",
"n. c #8D816B",
"m. c #91856E",
"M. c #94886F",
"N. c #878070",
"B. c #8C8372",
"V. c #8E8478",
"C. c #8F8979",
"Z. c #928671",
"A. c #958972",
"S. c #998D75",
"D. c #948B7B",
"F. c #9D9177",
"G. c #9D9179",
"H. c #948E80",
"J. c #9A9384",
/* pixels */
"4 w i v n g 4 > # > ; # O o o   o o o X o o $ o o # $ # # % & > > 4 4 , 4 7 t 7 8 4 4 , ; % # o $ O o o # o o # o o # o # o # # % $ $ * * * 4 8 9 9 9 a 9 9 9 y f u f r 3 3 3 2 & + . . o $ & * 2 2 2 2 2 6 6 2 2 6 2 2 2 & 2 2 2 6 6 6 * * & & & & $ $ % % % $ ; = ; ; < 1 1 4 q 1 q q 1 e q 3 e u u e 7 u u u p u u e e q e e u p p u e q e u x v v u r u e 1 1 q q 1 < 1 e 1 1 q q < < 7 1 < 1 < < < 1 < 1 < 1 1 < 1 < 1 1 1 < > ; ; ; - ; = ; ; ; - ; ; ; ; O ; < > ; - ; ; = O O O O ; ; ; ; ; > < < 1 e u 1 q e e e 1 1 1 1 , , > > * 4 5 * 4 5 5 5 9 9 9 5 9 5 5 5 9 5 5 5 5 5 5 5 5 5 5 5 5 5 5 5 5 5 9 8 y 8 9 8 7 8 9 4 4 5 5 6 7 4 5 * * & & % @ @ @ % % % % % % % % , : , 4 4 # & 4 & > : : & & $ $ 2 & $ @ + & & & & * , * * 5 5 5 4 5 7 7 5 5 , , 3 : 2 2 : 2 2 2 < 2 3 3 5 3 1 2 1 1 < > < > < ; < 1 1 < < 1 q < 1 1 < 1 1 1 1 1 e q q 1 1 < 1 1 1 1 1 1 q 1 1 3 1 1 1 1 1 q 1 < < < 1 < < ; = O ; ; ; = O = O = O ; O O O - ; ; 1 q e u u e e e e 4 > > > > > 4 4 4 7 7 7 e e 9 y g y y y 9 9 t y r 7 5 7 9 5 4 7 t 7 t t r 7 e 7 4 4 > % # o # ",
"w e i g g g w 4 4 > > ; ; # # # % % % o # % % $ o o # # % % > , r 9 r y d g g y y y t 7 5 , % % o o o o o o o o # o o o o o o o 4 * * 5 5 4 5 9 a a a h h h h h f f f f f f y r & & + + $ & & * 6 6 y 3 2 2 6 6 2 2 2 2 6 6 6 3 6 6 0 8 8 7 5 5 , 4 4 > > > & # ; - O ; ; > < < 7 q 1 e e e e e q e u q q e r t r t e e e w 3 e 1 e u u q 1 1 q u u u u q 1 4 < 1 1 1 1 1 1 1 < 1 1 3 < < < > ; ; ; ; ; > > ; ; < > < > ; ; ; ; = ; ; = - - = O = = - ; = = ; = O - ; ; = = O = O = O O = = = O O O = = ; ; < < ; ; ; ; ; = = = > > > > * * 5 4 5 9 9 9 9 0 0 0 0 0 6 6 5 9 9 9 9 9 9 9 9 9 5 9 9 9 5 9 t 9 9 9 8 8 8 5 5 5 5 7 6 9 8 5 5 5 4 5 5 4 , : , , , & O % % : * % : 1 , , 4 8 e 7 7 y 4 7 5 2 2 , 2 7 : : , 2 & , , , 2 2 2 6 7 9 9 9 9 y h y 9 9 9 9 r 3 3 3 2 2 2 & : - : - ; , 1 1 1 < ; = = - ; - - ; ; ; ; > > ; ; ; ; ; ; > < ; < < < < ; ; ; > ; ; ; > ; < < : 1 < ; ; ; < ; ; - > < > ; ; - - ; = O O O O = = O O = O = @ = ; = ; > < 1 e e 3 < > % % % % > 4 4 4 4 4 4 4 4 7 4 4 7 4 4 4 4 4 5 5 4 4 4 4 4 , 7 4 7 4 w 7 4 4 4 4 > > # # # > ",
"e 4 w w i i t 7 7 4 4 4 4 1 5 r 9 9 a a k k k k k z b m G z m m k y y z G j h k G l k a y d d k k g k g g g g a g y t r t t h a 9 a h h h a h j G H z G z G n h A A F / F / / F H F A A b m z z l S C f 6 6 6 0 8 8 r y 6 0 s f l f f f k k y 8 9 y r 7 4 4 > % ; ; = O = ; ; ; < < < 1 1 3 1 1 < 1 < < > < 1 < < < < > ; > < < < < < 1 1 < ; > ; < , < > < > ; > < < < < < < > - ; > = = - O O O O = = ; O = O = - ; ; - = ; ; ; ; ; ; > ; ; ; > < > > ; ; ; ; > ; ; ; ; - ; ; ; > ; ; ; ; ; = = = O O O O @ ; O O = o       o % % > 4 > 4 4 9 9 y h 9 0 j j j j 0 8 9 9 9 9 9 h h 9 j h 9 h h j h h h y h y y y a a d h h a a 9 9 a y 9 6 6 9 9 7 5 3 3 3 3 8 5 7 7 7 7 5 7 7 8 r y y 9 y p d y d s y a y k z a d k l l d f d a y 0 9 9 y y a h a h y y y h j f a r 3 e r 3 - 2 & @ O O @ < : > ; = O O O = = = = ; = = ; - = = ; = = = = ; - > > < ; ; ; ; < : ; ; < < < < < < < > < ; > > ; ; > < < , < > < = - ; ; ; ; ; ; ; > > ; ; ; ; ; ; = O = < < > ; ; % % % % % > > > % # % % > > > % & > & % > > * * ; : ; $ % * , # # % % % % % # # # # # X X # > ",
"4 > > > 4 4 7 4 4 4 4 4 r r g m h k z z m H L S S z m z j h k j k 9 y h h a h z h h a a h l m m z k k h 9 9 y t y 9 9 9 y a y y y a a a h k j a a j j h h k h 9 u f f A A A A A A A z l h k h h Z S S f s a a s a a f f V C C C L T / D L L m z z k k y 7 7 , % > ; O O O = = - ; = > > ; < ; ; > > ; = O O O O - O = O O O = = ; ; ; ; ; ; - O   O O @ = = ; ; ; ; ; - ; O ; ; O O O = O O O O o = = O O = = O O = ; > ; ; < 1 < < 1 < 1 < 1 < < < < < < > ; ; < < > < > < < < 1 < < < 1 < > ; > < ; ; = - = ; ; = = O o   O   > > , 4 9 t y y h h h h j j G H G h a h h 9 0 j h h h V G V j h j z h h h h y h a y a h h h a y 9 a h a 0 h 0 0 9 9 8 8 y r r 8 8 9 9 9 9 8 8 8 p k k d y d h y 9 y d d y y f b l b B m l f y r h d a a y a h k a h h h h h k z A M f f f v d r e 3 3 @ + @ @ : > ; O O O = ; ; ; > ; > ; > < ; ; ; ; ; = ; = - ; ; < ; ; ; ; < < < < < < 1 < 1 < < 1 q q q 1 < 1 < 1 < < < < < ; > > < < < > < < < < < 1 < < > < > ; ; ; ; - = , > > > > > > > 4 4 > > , 4 , , & > > > > $ 4 * ; > , > > > > > 4 4 > > , : > > % % > # X X o > ",
"> > % % 4 4 7 7 4 4 7 9 7 9 a H z z A z l z z z P H H S z G Z H m z z h 0 a C D G z S H S m b l l G k h h h h h h h h j l l l h h h h h j G G a j z Z H H H H H / D A D / D A A z m z h y h h y a f f f s C A C f f A A F D D S `  ..... .] _ ) L H G k y 8 4 $ < > - O O = = = = = ; < > ; ; ; < ; > ; - = = ; ; ; ; % = ; ; ; ; ; @ - ; ; @ - ; ; ; = = ; ; < @ O O = O O - - = = ; ; = = ; ; O ; > ; = ; ; O - < < < < < < 1 < < < 1 1 1 1 1 1 < 1 1 1 < < < 1 1 < 1 < e 3 1 e q e 1 1 q 1 1 1 1 1 < < < < < ; ; ; = =       > > 4 4 9 t a g h j z j j H K K S k h h h s l A h j G j G V G G G G G G G G h h z k j h h h h h j j h h h j j 0 a y a f a y r 3 9 9 y h j l k l a z z h k z z z S S L P P F F P ) _ ) P P L A f h h k j k z z z k z H H H m H H F / L S S F B b v f e 3 - @ @ : ; ; = = = ; > < < 1 < < < < 1 1 > < < < > > > > ; < > < < < < < < 1 1 1 1 1 1 1 u 7 1 q q 7 1 1 1 < < 1 < 1 1 1 < 1 1 < 1 < < < < < , < 1 < < ; < < > > > > < 1 1 1 1 1 1 1 1 1 4 4 , < 1 4 1 1 1 4 4 5 4 4 e 4 e 4 e e i r e 1 4 4 7 w e 7 e 1 1 > 4 < %   # ; ",
"> > > 4 4 4 t 7 7 9 t 9 7 5 9 a m H J J P K ` W I I R ` { } X.$.:.<.*.` D D ) ' } W I P P J P R j l j j j j j h 0 a h h l h h h h a 9 h j z k a z z z G G z z H / D D F A A A A m H H b z z m z D D A D D ` / D D / ` ' ' ] ` ` ..#.O.O.] P P I ) I H n h t 4 4 > ; ; = ; = ; ; - ; ; > < < < < > > < < 1 1 1 q < , < < < < 1 1 3 1 1 1 1 1 1 1 q 1 ; ; ; ; > < < ; > ; ; - ; < < > < > ; ; < 1 1 e q < > < 1 < 1 1 1 1 1 q 3 e e 1 1 e 7 q e e e e e e u u r t u u u u u u u u p u u u p u u p u e e 7 e 1 1 4 < < < > = O     > > 4 7 9 y a a a a j j j H K K Z z j z l l S D G G K G W |  .{ W K K I K W K K  .P z h j z m S j G j G G H G j f k l l f f a y y y y a h k k k z m H G m m m G b z m F F l l l ) ) ) P / P P b P P P L L H H H P I ]  . .{ {  . . . .) L / P L F b f r , ; @ % ; ; O - ; ; ; < < 1 1 , , 1 1 < < 1 1 1 < < < 1 1 1 1 7 1 1 1 e u y u u u u p u p u e 1 1 q e e 3 q e e r w e q e 1 e 1 3 1 e 1 w 3 1 e e e 1 < 1 1 1 1 < 1 1 q < 1 7 4 e e e e w 4 e 7 e 7 e e t p u u y i p g k p p k n v p i e e e e e 4 4 4 1 1 1 1 ; # # ; ",
"; > , 4 7 t 8 9 y h a 9 9 a 0 9 z J Y Q | *.1.6.1.6.t.u.p.a.k.b.j.j.k.j.7.$.+.;.:.$.{ K T } $.&.W W { { W K H G A H J P J P ` } =.X.X.:.>.&.X.X.:.} { X.X...} } O.o.o.&.6.*.#.#...&.:.O.X.:.:.&.&.&.&.&.&.&.#...&.$.&.*.*.*.&.&.&.&.&.&. .) I L ] ` P m h 9 5 4 ; ; O ; O ; = ; ; > > < < < < < q q w u u u u u u e e e e w r e i t p u u u u p u e q 1 q 1 q e u u u u e 1 1 q q < 1 7 1 e u p p v v e 1 e u u t r e e u p p p p p p u u p p x x x v n n B M M v n B N n v x v v v v v n n v v u u u u u u r q q e 1 < = O O   # > , e 8 t a a a h j a j Z K K R { ` K T W #. .| | =.=.,.0.e.<.=.| O.=.:.=.=.|  .I H H H J P K J K W I K I K G S S S S A A A C ..[ ` ` )  .) { I I { ] I I P ) { ` ` ....) P P ' X.&.X...O.&...&.&.X.X...}  .{  ...X.X.X.X.O.:.&.&.O.' ` ] ` ) F F b e 3 : & - O O O - ; > < > < 1 1 1 1 1 1 < q u u e e e e u u u u u u u u p v v v v b n n n n v u u u u p x p p p p t u e e e w e u u u u p p p u u p p p u u u u u e e e e 7 e t u y d v d c n N n n n b B k v v v c n v b M M N B B G N N n g g g p p p t 4 4 1 > = o # # ",
"# % * 4 4 4 8 4 y a h 9 a G H 0 H U +.=.6.8.j.j.p.j.b.B.C.V.B.B.k.j.x.D.x.>.+.%.q.0.8.8.y.0.t.8.,.0.2.,.$.W J V P E { } | $.1.y.0.2.e.i.w.<.2.0.i.:.=.2.i.0.2.y.t.6.t.t.t.t.t.3.$.2.r.r.y.i.y.e.&.1.e.1.*.1.*.&.t.e.e.e.e.e.e.2.1.*.&.&.&.O.O...] ) L k d 9 4 * O O O O O O ; - < < < < < 1 1 1 p p x v k p p v p u t p u u u p u u p p u u p t p u r u p x p v v v v v x e 7 q u e u u u p n ^ B ! B d u p v x x p u p n B ! B M n v x x v v n v n B B B B ^ B B B B B b v v n p v d M b M v x v k p p u i e e e e 1 > O O o O # > , 7 t y a a j H Z z Z J W W 2.r.2.<.>.2.e.6.;.,.,.,.0.i.0.e.| =.O.=.<.<.O.| :.$.$.:.,.1.1.:.@.,.,.O.W R K G I P T P P F D D { ) I I I )  .{  . ...&.<.X.&.2.<.&.O.1.1.&.X.X.P ..&.X. ...&.&.:.:.1.1.1.<.<.:.X.$.&.&.:.:.<.1.1.&.O.] ..O.O.` / / F d 3 & @ : O O = ; < < < < 1 q e 1 1 e e 1 u p d x p u p x p p p p u x d v x x v v c c v v v v B B B B B b M B n n p u e q e e r u u v n M M v v v n v v v v d p p p v x u p v k v v M N b k n B G n n B B M N B B N n B B B B B F B G ~ ~ n n b v v k p p p t 4 > ;   # O ",
"# > , 5 r y y y h h y j z a h z V V V U Q $.3.4.l.k.l.l.l.g.j.l.l.h.f.f.8.3.%.;.3.;.3.5.4.;.4.4.0.0.8.1.$.} | | $.%.>.,.7.0.a.a.i.7.8.y.y.t.j.j.i.a.b.b.u.<.,.y.x.j.t.j.t.t.t.t.%.3.3.t.3.3.3.3.>.>.*.&.$.&.$.$.&.#.#.$.$.$.&.>.1.>.&.$.X.X.....I L H l a 8 4 4 = o O = O O > > < 1 1 1 q e w q 1 q e u p p x p p p k p u u p p u u p p p e r t u r p p p x p x p ! _ ! x v n n M v x ! F M ! ^ ( ( N x u p n v v n B x v n B B B B v k p p x v x M B B B n B B x v v v v d p p u u x p u u p x v p u p c p u u 7 r q < ; O O   O ; , 1 7 d k k z z S R ` K T } ' E E ' %.*.%.*.6.*.*.*.6.s.s.s.=.=.O.=.%.%.X.} X.X.$.=.>.>.>.1.*.7.4.%.#.' ' +.*.&.*.&.#.' '  ...{ { X.&.$.X.:.<.:.:.1.:.&.&.*.r.6.>.&.#.&...' D } *.$.#.$.$.#.&.#.&.#.%.' ' #...X.X.$.$.*.&.>.2.2.:.} X.X.{ I D F A d e : & @ o O O O ; < 1 1 < 1 u e q 1 e u q q w e u u t u v p u p p p v v p d x v v p p p x v v v v v v v x v b v p u u u p d c v v v M B M n v n n n M M M v v v v x u r p p p x p p x v u p v M v n B B B M M ! ~ ~ c c c M M M N N N ~ ^ M v v v c p p t e 1 < > - = ; ",
"% , 7 8 y k k k 9 h h H K H H K E U E E E E Q +.$.$.%.-.*.$.$.%.$.$.@.@.+.E U E E E E E E E E Q K W W T K K K Y } @.%.>.>.>.4.4.=.%.:.,.8.8.y.f.c.a.i.u.7.$.| X.#.+.' ' ' ' ' ' T T ' T T T ' ' / D D / J J P P ` R P T T J P K P P L L S S A z h h a a 9 7 5 4 ; o O ; = - < < < < 1 q q w 3 q u u u u r u u e u u e e e 1 e e e e u u u e e e e e e e e e e e r x v v x v v x v v v B ! v B ! B B v e e u p p p n B B M v p p u u p u u e e r r u p p u u u u u e u e e e e q e e e 7 e 1 1 1 w 1 < 1 q 1 < 1 < < < ; = = O o o % , 7 y k b k Z H J W } Q Q | #.' ' ' ' ' ' ' ' ' ' ' ' ' / +.| | W W } Q E K T K K W E R R R ` ' ' E D D T E ......#...` ' ..X.R P R ` `  .$.&.X.$.X...` ` ` ` ' ` R R R T J S J P D Z D F U T T T T T D D T I K R T P T ` ] P K J G H H z h f a r r 3 3 & @ O O = = > < 1 1 < 1 1 1 3 e e q u e e e e u r u e e e e e e e e e e u u u r u u u u u r u u u u u u u u e q e q p u p x k v v n x x p p d v x k x x p p p p u e w q q q 7 q u y e e u e e e u x e e u x i t w w i i x i i t w c x y e u u q q q e < < < ; = O = ",
"& 1 r k b m L A 0 j z K } Q { | %.+.+.+.%.+.@.@.%.%.;.;.;.%.%.;.%.%.$.@.+.Y E +.+.+.+.+.Q Q Q Q } Q Q Q Q Q W Q R E } | +.+.} } } | +.$.$.$.%.%.} Q Q @.%.@.} } ' ' ' ' ' ' ' ' ' ' ' ' ' ' ' ' R ' ' ' E ` E E E R T R T J J J R T T P J S S A k h y y y 9 5 * ; o - < < < w 1 1 1 1 w e q w e p p r u u u p p u u e e r e e u 3 e e r e e e u e u u e u u u e u d x v B B B p v d p B M y c M v v v u e e t u q r v B v x p e u u p p u t u u u u p p p t u p r u e e q e 1 q u e e e r w q 1 e 1 e e e 1 1 q < 1 < ; - ; ; O ; , e y k B S S Z H J R } @.$.@.%.#.' +.#.' ' ' ' ' ' ' ' ' ' ' | | | | +.} } E } } } } } E E E +.' +.E ' ' ' ' T R R ' ' T / ' T K J P R K J J ` R E { ` R R R T E ' E ' E E U } E E E E E ' +.' E T ' T T T E } E E T R E } } W { W P J H H l y y y r r 2 : O O = ; ; < w e e 3 1 e e t p u u r e u r u e r u e e r u r u e 1 e e u u u r e e u e u e r e e e e e u e e e e e e e e r p u u t y u u u u p p u u t r e e e e q q q q q q q u u e u u r e e e u w w e i t > > 4 i w w c t t t 4 y p u u q q q q 1 < > > ; = O = ",
"& 5 g b H L P L H H H Y =.=.=.,.;.;.;.3.5.;.>.4.3.3.3.3.3.4.4.4.3.4.-.-.@.E U +.+.+.+.%.+.+.+.@.@.@.} } } | } } E E } } +.Q } } $.$.$.#.} } E E -.=.$.-.>.=.@.| ' +.' ' ' #.' #.#.#.+.' #.#.%.%.' ' +.#.| | { | { } } ..} } } Q ` ` ` ` I J H S H z j h h a 5 * - O ; 1 < 1 e e < 1 1 q e r r u t u u p p x v v g p x x p p u p e e u p u u u u u i r p p p p u v v x v B ^ B v v x p M N x v M x B B p u r p u q e u u i p p p p v v x p p x v p x d x v v v v p p t p u u u r u r u u i u u r e e 4 1 1 1 1 q 1 1 1 > ; ; ; O ; 2 r d m H ] ..J K R W @.-.-.$.*.%.%.%.>.%.%.%.%.%.%.%.*.*.%.#.=.=.@.| $.$.@.+.$.| | $.+.} +.+.@.@.+.' +.#.+.' E ' ' } ' R T R T J J E ` T J J K T R R E } } | $.%.>.-.$.%.$.$.%.$.$.,.3.%.$.$.#.#.#.#.#.' +.+.$.....+...#.$.%.| $.$.} W K K H l l f f r 3 & + O O ; > e r u p e e u u p p p p u u u u u r u t u p p u u u u t p t p p u u i u u t t u t u u r u u u e r u u i e e e u u u r u u u e e e u u t u u e e q e e q e e e u w q e e e r p v x u u u i i i x i t t t i i i x G g g G x x x c x y e e e w 1 < ; O O O ",
": 8 k S F P ) T H H K W =.;.,.2.5.6.4.7.0.6.4.,.,.>.,.>.3.3.3.>.,.5.4.,.;.$.Q $.+.+.+.+.$.@.$.$.@.| } } | =.| | $.@.$.@.@.$.=.=.-.>.>.-.%.$.%.%.;.%.$.$.@.+.E E +.#.#.+.#.#.#.#.#.#.' #.+.%.+.+.' +.+.+.' +.} Q } E } Q Q E E R ` ' ' ` R P J H H j j h h a 5 * ; o ; 1 1 3 u u 1 1 7 e e e u e p u u u p p x p n v v v v d p p u p x p d x v v p p p p p k x g v v v c M ! B B B v x B ^ ! ^ B v ! ! B p p p p x d p p u u p k u p p p u p d x p p u p d v x x u u p t u r e e w e e u u r u u 1 e q 1 1 q 1 7 e q 1 > ; > = O @ , e d b L &.r.R } } } $.4.5.>.%.%.%.#.3.%.#.%.%.%.%.%.%.%.s.s.;.:.>.3.3.-.3.3.-.%.%.$.$.+.@.@.+.+.+.+.#.%.%.%.%.#.%.%.$.#.#.#.$.| ' Q } } | @.} } } } | | | #.>.3.3.>.%.>.3.*.7.%.*.8.4.$.' +.#.+.+.' ' +.+.+.+.+.#.#.@.@.$.$.Q | | | | } ` I l l a y r 3 2 &   O ; < u u c v 1 e u u u r u p u u t p p u p p p p u u i u p u p x v p p p p p p r u u p p u u u r u r e u u r p i u p p p u p p u p r u u p u p r e e e e r e u u u q q q q e q e u x x p u p p i t g g g g t w i g g g c g g c v v M x M p u u q q < > = = = ",
", 8 l A D ) ' ..j J W @.0.9.,.0.f.8.q.y.0.7.4.,.7.7.6.,.3.4.3.,.-.3.,.4.0.4.-.>.%.;.;.;.>.,.>.4.4.>.:.-.-.-.,.;.=.-.=.=.$.=.=.,.4.7.4.3.%.;.;.%.;.3.;.3.4.4.4.4.3.3.3.3.3.%.3.3.3.%.%.3.%.%.%.+.$.$.$.$.$.$.$.%.+.@.+.} } } E E } } ..} { { I K J G j h h a 6 * O O ; < 1 1 u r < 1 1 q e 7 e e p p p x p p d x n v v v v v v p p v v v v v v M v v v v v v v c B B B v v b B B B B x F _ ^ _ ^ B / _ B v x x p x x p x d p u p t p p d x x p p x k p p p x x d u u p p u u u u u t p p p u t u u u r e u r u e e 1 1 < < < > % : 3 e y k H o.6.I } @.@.=.3.5.3.s.3.*.s.3.3.%.%.>.>.3.%.%.%.%.%.5.0.8.5.8.0.8.8.8.5.4.4.3.;.%.;.4.;.;.;.*.s.s.3.3.3.3.3.4.3.3.3.>.$.$.$.%.%.$.$.$.$.$.@.+.$.$.%.7.8.7.7.4.8.8.t.f.8.8.8.8.;.%.;.%.%.#.#.+.+.+.+.+.+.$.%.%.%.%.%.=.;.,.=.%.%.{ R A f a 8 8 3 : - @ O ; < e r u p < q e r e w u p p u p p u u t u x k p u u p p k u p p p p i p p p p u p p p p u p u p u t u u u p u p p u r u p x p p p p p p p p u u r u u u u u u u u u q e u e e e e e x x x p t 8 g g g t t i i t t g g G g v c x x M M x u e q < q < ; ; ; ",
"2 y f A F ` #.&.J W @.;.0.0.w.w.k.p.u.p.u.y.7.7.7.7.3.>.>.,.>.*.@.%.$.$.:.-.$.%.>.>.3.3.,.,.,.3.7.,.:.=.>.=.>.:.=.-.-.=.=.=.=.-.4.5.5.3.;.;.;.%.;.;.;.;.%.%.$.$.%.%.%.%.%.3.%.3.%.3.%.%.%.%.%.+.@.$.$.$.$.$.%.%.%.%.%.$.@.@.@.+.#.{ ` ' { } K K J H j j h 0 6 4 ; o ; 1 1 q t p 1 1 q e e e r u y p p d v v n n v v v v v v p u p d v p x v v B B B B B B v n v B B B B B n B B v v c B ^ ! ( ^ ! _ o._ B v d p u r u p v p p p v p x v n v v p v v v v x x v v v p p p p p p p v k p v v p v p e u u e e u u e e e < < < 1 < ; 3 3 r f v A P X.J T +.$.=.-.-.5.*.*.3.3.s.3.s.3.3.3.3.3.s.%.%.s.>.-.3.-.3.3.4.8.8.5.5.8.5.3.;.3.8.s.5.;.3.s.6.6.s.3.3.t.s.3.3.*.%.%.%.>.-.-.$.+.$.$.%.@.#.%.,.>.f.f.u.u.f.g.k.g.u.8.8.8.4.3.4.4.s.*.s.%.*.s.3.%.%.3.3.3.3.3.4.3.,.;.,.:.$.X.R S C f a a r 3 , $ @ O ; 1 e u u x e e u u u t u p p d p p p p u p c p p x d v v n p p p x p p p p v x d c v v k p k v c v u p x v p u p u u e u x x x p p p x x p p p p t p p u u x x p p u u u u x u u e u x v n p i t t i g g t c i t t t t t t x v v v ! M x u q q < < < = ; < ",
"3 y f A F } &.6.Y @.=.;.0.w.w.c.b.k.f.f.y.7.,.2.0.7.6.>.>.,.>.%.-.-.=.$.,.>.$.$.-.>.-.3.>.>.>.>.=.$.=.=.=.>.,.,.:.,.,.:.=.=.=.:.-.4.8.4.4.3.3.%.;.%.%.;.;.;.;.%.3.%.3.3.%.3.3.3.%.%.%.%.%.%.+.%.@.@.+.+.$.$.%.%.| +.$.} +.+.@.} $.#.' } X.| Q K H H G j h h 9 6 ; O ; < 1 q u p q w e e u u u p u u p p v p p x v x x x x p p u p v v x x v B v B v v n B B M B B v B B B v M v x M v ! ! ! ( _ ^ o.o._ M x x x u u p x v c x v n x p p c v v p p p x p p p v v p p i r u u p p x p u u c v p u u p t p p v p u 1 q < > < < ; O < : q f S L I { H T Q =.=.=.3.5.s.s.3.*.s.3.3.3.3.3.3.3.%.+.s.%.5.4.5.5.4.5.9.9.8.4.8.8.8.5.5.5.;.4.5.5.s.s.j.s.s.s.t.s.t.7.3.>.7.,.-.$.$.-.-.-.$.>.-.@.$.*.>.>.u.u.8.8.t.g.f.8.u.f.f.p.t.8.4.3.*.s.%.%.%.3.3.%.3.%.3.*.%.>.;.3.-.-.-.=.=.$.E Z l s y 0 y 8 2 % @ = ; q u u k v e q e e i u u r u t p u p p p d u u p x x x x x p v v v v x d p v v p x x c p u u u u u t r p v p v v p u u t b d x p p p p p p p p p t p p p u u u u u p u u u u u e u e u p u i i g g i t t G g i t w t t g t u v v v x M x x u e q q q < = = ",
"3 r f A / ' &.*.' +.3.5.s.d.d.h.h.h.k.f.s.%.%.3.s.3.3.*.*.*.*.*.>.%.$.%.=.:.%.$.%.-.>.>.>.,.,.6.*.3.%.3.*.*.3.3.3.3.3.3.*.*.*.3.-.-.>.>.:.-.:.-.>.:.-.-.%.=.$.$.>.>.>.3.>.3.%.%.3.%.%.+.%.+.%.%.+.+.@.$.#.| | | $.$.%.$.$.+.+.$.| } } +.} { W K z Z s j l 0 9 6 - O ; 1 e u u p 1 7 w e r u u t u u d v v v v v v v v x p x p u p p x v v v M M v n M M b M B B B B B B ! b M B v d M ! ! ^ ^ ^ _ _ o.[ B v c p x p x c n x x d M n v v M x d u M v v u p k v v u r u u p p p p p p p p p p p u p u p p k p u u q u 1 1 1 ; ; % < 2 y b f B ' ..D J E %.4.8.4.3.8.8.8.8.4.3.3.4.3.*.3.%.;.3.s.%.;.3.3.4.4.5.5.;.4.5.5.5.8.5.5.3.4.5.8.5.8.f.f.s.s.8.8.8.s.t.8.3.4.,.>.4.,.>.-.:.4.>.%.%.:.%.>.,.j.s.j.7.7.t.s.t.7.8.s.s.7.4.4.4.s.%.%.3.3.3.*.%.%.3.3.3.3.3.3.*.3.*.%.3.%.#.' ' z z a h h 7 5 , - O > 1 e p p u 1 e e q e u p p p p p p p p p p u u p p p v p v p p n v x p p u p k x p p c p p u u p p x v d p p x d t u r v n v x v v v p u p p p t u u u p p y u u u u p t r d p i p u e e r u t p p p p u u t e e e u p d p x v x M v v x p e d e < ; - O - ",
"2 q f A D ] 6.s.+.%.3.8.s.h.v.h.g.g.g.f.s.3.s.%.3.%.>.>.>.*.>.>.>.=.%.*.-.-.%.$.=.:.>.>.-.:.>.,.*.*.*.%.*.*.3.*.3.3.3.*.3.*.*.3.>.-.>.>.4.>.>.-.>.>.,.>.>.%.%.%.$.%.%.;.%.%.%.%.%.%.%.%.%.%.+.%.+.+.$.@.#.+.| | @.$.$.$.+.+.} | | | +.+.} Q R K J R S C l 0 9 2 ; o O < < e p p 1 e u e u u u u p x c v v M v v d v v x v c k p p x p v v k v n v n B n M B B B ! B B B B B n M x p M ^ F ^ ( ( _ _ _ _ ! v v d x d x M B v v v v v B v v v v M b v v p p v v v x p p p p u u u p p p p p p p p p p p p x p u u e p 3 < 1 ; ; ; : 2 y b f A ) ' J J ' $.3.3.-.%.4.4.4.4.3.;.3.4.s.3.%.%.#.%.%.%.;.;.5.3.5.5.5.4.3.;.3.4.4.5.5.3.4.8.5.4.7.s.f.t.f.s.8.s.s.s.s.4.6.,.:.>.>.>.:.>.>.-.%.=.=.%.=.,.s.j.s.s.s.t.s.s.s.t.7.8.7.4.4.4.*.%.%.*.3.3.3.3.%.3.3.3.3.3.3.3.3.3.%.3.*.#.' ' G K j j d 7 4 , ; = > q e x v p 1 e e 7 e t p p p p p p p t r u p p x p x p p u p p v v v d v p p p x p p x p p p p p p p x p u x p p u e u u p v x x v v p p p p u r u u r t t p p p u u p p u u e e u u e e e t u u u p p p i r e e e u x c v p u p u p d u u u p q < ; ; ; ; ",
"2 3 r f / &.j.j.+.;.5.s.g.h.v.d.k.k.g.f.s.;.3.3.%.%.%.%.:.:.-.%.>.%.-.-.>.>.%.$.>.-.>.%.%.%.=.>.s.#.*.3.*.*.3.3.6.6.3.*.%.%.*.*.>.-.%.=.,.4.,.-.>.>.3.,.>.-.%.%.%.%.%.%.%.%.%.%.%.%.%.%.%.%.+.%.| +.$.$.$.$.$.$.$.$.$.+.+.| | | +.@.$.+.} Q W K Z { P z s 0 9 2 : O O ; , e u p q r p p u p u u d x v v v v M v v M n v p p p p p p v c x v v v M B B B B B B B F B B B B M v M v p M ^ ^ ( _ _ _ ^ _ ] B v v x x x v B B v M M x x v v v v M B M M v x x c n v n x p p p t r u p p p p x p v p p p p p p p p p e v u 1 < < , O 2 : r A b A P ` D T ' %.3.4.4.3.-.3.4.4.3.*.*.3.*.3.;.%.%.%.%.%.3.3.3.5.4.5.4.;.;.;.3.3.5.5.8.5.4.8.8.8.s.f.f.f.f.f.s.8.s.f.8.8.6.>.%.>.-.%.$.=.>.=.$.=.%.%.=.>.7.s.s.7.7.s.s.s.7.7.3.3.3.7.4.8.s.#.*.*.%.3.3.3.%.3.3.3.3.3.3.3.3.3.3.3.6.#.' T H K G h 9 4 4 > ; O ; 1 e u v p q e u e e r p u p x x p p p u u p d x p k p p p v v g v v x p p p v p p p p k u t p u u u c v p p u u e e e u u x p p k v c p p u p p u u u p u p x p p p p p u q e e r u e e e r u 3 e t d p p w e e e u k v x u r u e u e e u u p 7 < ; ; ; < ",
"< 6 f A D &.j.x.$.3.8.s.g.h.h.h.x.l.g.8.3.s.%.%.%.%.%.%.-.>.=.%.=.%.>.-.=.%.$.$.-.:.>.=.%.%.-.>.*.*.3.*.3.*.*.3.6.*.3.3.*.%.%.%.>.%.$.%.>.>.-.-.*.%.>.*.=.%.$.$.$.%.%.*.3.>.>.3.%.%.%.%.%.%.%.%.+.$.$.%.%.$.%.%.$.%.%.$.$.+.@.| +.$.$.$.| { R K Z | R l 0 0 0 6 < O = > < e p u q u v p p p u p p x v M v v n v v v M n p p p u u p p v v v M M N B B B N B B ! ! ! ! B B B v n v x n ^ ^ ^ _ _ _ ^ _ _ ! v x v v x c b B v v v b B v v c v n M M M v x v n M v x p r p p u u u p p p p d p p p d p p p x c p p u n u 1 < > < O : 2 r A S P ` ..J T } $.3.7.8.8.4.4.4.4.3.3.;.;.s.3.3.;.;.;.s.3.3.;.3.4.5.4.4.3.5.3.3.4.5.8.8.8.8.8.5.s.s.f.f.f.f.f.s.t.8.8.8.8.4.1.%.>.%.%.%.%.>.%.%.%.%.$.%.>.3.6.s.3.6.3.3.s.7.3.;.3.3.4.4.6.#.s.s.#.%.%.%.3.3.3.%.3.3.3.3.3.3.3.3.3.6.*.' T G I H h 8 7 5 & = o ; 1 e p v p q e u u i u u p c x d p p p p p p p p p x p p p x p p p x x x p u p c p p x p u u r i r u p v p u u 1 e e e i u v u u p p p p p p p p p p p u p p p u r r u u e e e e e u e e e u e e u p c g u u e u u p p p x p u u q e e e q u p e < ; ; > < ",
": r f A D &.j.j.%.3.s.s.g.h.h.g.l.l.s.s.%.%.%.;.-.=.$.$.=.=.=.=.%.=.>.:.=.%.$.%.>.-.-.-.-.>.>.,.s.*.s.#.*.*.*.*.*.3.*.3.*.%.%.%.$.%.%.%.%.%.=.:.>.%.$.$.%.-.$.X.+.%.#.%.3.%.3.*.%.%.3.%.%.%.%.%.%.%.>.>.-.=.-.>.-.%.%.$.%.$.$.| +.$.%.$.+.Q { K P $.R l s 0 0 2 < @ ; < 1 u v u e u k x i u p p p p v v v v M n u p d c p p p v p p d v v v B B B B ! B B ! ! F F ! B ! B B v n b v M ! ! ^ / ^ _ _ _ _ B c v v v v v b B M M B B v v x v n v v n v x p x v M x x p u u p u u p u p p p p p p v p p x c v x p p u B p 1 ; ; < O 3 7 d A /  ...&.R ' #.#.*.4.7.4.8.4.3.3.8.8.3.;.s.%.3.%.3.3.6.s.5.;.3.5.8.4.4.4.5.4.4.4.5.8.8.8.4.;.;.s.s.s.f.f.f.s.s.s.s.8.8.4.7.>.>.=.=.$.$.%.:.%.%.%.=.%.$.=.*.3.3.3.3.%.3.3.6.3.3.;.3.4.4.3.%.%.3.3.3.%.%.3.3.3.%.%.%.%.3.3.6.6.3.3.*.#.' T L ..P h 9 8 7 , ; O ; 1 e p b c e e u r p p u p p p p p p p p p p p p p p p p x x p u p x d x p p p p p p v x p x d x u u p t u r e e u u k x p v x u p p p p p t u p u p t u t p t u e e u u e u u t e q e u u u r e e u u p u i u r u p p p p d p u e q e w q p p e < < ; ; 1 ",
": f A f F &.j.j.#.;.3.s.g.h.h.g.l.h.s.3.%.;.3.3.;.-.=.$.=.=.=.=.%.=.%.$.$.$.$.$.%.%.:.>.>.>.>.4.%.*.*.%.*.%.*.3.3.3.3.*.*.*.%.%.$.$.=.$.$.%.=.-.,.*.$.%.>.>.-.%.%.%.%.%.3.3.s.3.%.%.%.3.3.3.%.%.-.>.>.>.>.-.-.=.%.%.$.$.$.$.$.$.@.=.=.$.$.@.} K R $.P j s s 0 * ; = - < q p v p u u c p p p p p p x v v n v v v u u p p p u p p p x x v v n n B B B F ! B B B ! ! ! ! B B B B v B v n B ! ^ ^ ^ _ ^ _ _ B v v v v x v M N N B B B v p x v b b v x v p p d M v x v p p p p p p p p p p p p p x p p p x v v v u r u B u 1 > ; < ; 3 8 a b ) `  .*.' ' #.$.>.4.8.7.8.3.3.3.4.4.>.%.*.*.3.3.3.3.6.6.5.5.5.8.8.5.4.5.5.5.4.5.5.8.8.5.5.5.4.8.8.s.f.k.s.s.s.8.8.8.5.5.7.>.=.>.>.=.%.%.=.%.%.:.>.$.$.%.3.>.3.3.3.%.%.;.4.3.3.3.6.4.3.;.3.3.3.3.3.%.%.t.3.3.3.%.3.3.%.3.s.6.3.*.*.#.' ' I ..L g 8 5 4 & ; O > 1 u x M v 1 e u p d u p p p u u p p p p p v p x p p u p u p x p p p x v x p k v p p v v p p p p u u u p r u u u t p v v x n c k x p u p p p p p r p u p u u t u e e u u e p p t e 1 e e e u e e e r u u r u u u u p p x p p p y e q w 1 1 u p e ; ; ; ; < ",
"3 r r f D s.x.j.#.%.s.s.s.h.h.h.g.s.4.;.3.3.;.3.-.-.-.=.-.-.=.$.%.%.$.$.$.@.$.$.%.-.:.>.>.>.>.>.*.*.*.*.%.%.%.*.*.3.*.*.*.*.%.%.:.=.%.%.$.%.-.-.*.>.>.>.=.>.>.*.%.s.*.s.%.s.*.3.3.%.%.3.3.3.3.%.>.>.>.>.>.-.-.$.$.$.$.$.%.$.$.@.=.=.-.%.=.=.} K T ..J l h 0 0 6 > = ; < 7 x n x r u v p x x p p p x v n v v x d p u p p x u e u p x v v v v n B B B B ! B B B ! B ! ! B B B N M B x n B B ! ^ B B ! _ ! v M B x v c v n B b B B M v x v M B M M v v p p x B B v n p p p p u p p p p p p p p p p p p x v v p u u p n u 3 < = < > , y y M `  .` X.D +.$.%.>.8.s.8.4.3.3.;.;.;.>.%.*.3.3.3.3.s.6.s.f.8.8.f.f.8.5.8.8.5.5.5.8.8.8.8.8.4.5.8.s.s.f.f.7.8.s.s.s.8.8.4.6.,.:.>.>.>.:.>.>.%.=.>.>.%.$.$.3.%.3.3.4.3.>.3.3.6.s.t.7.4.3.>.*.%.%.3.3.3.%.3.3.3.3.%.%.3.3.3.3.6.*.*.*.#.' ' I ..G d r 4 4 % ; O ; 1 q p v x e q u p p p p p p p p p d p x p x x p p p x p p p d p v v x v v x x v p c x v x u u u u u p p p u u u d v v x c x p c x u u u k p p p u p p p p t p u u u u u e u u u 1 e e u e e u e e e q e e e e r e p p u u p p q q q q 1 1 r p e > < ; ; 1 ",
"3 r 6 r A s.x.j.#.%.*.s.s.h.h.h.f.s.s.;.3.;.%.%.-.;.:.-.-.:.=.=.%.%.$.$.@.@.$.%.$.:.>.3.,.>.:.-.s.%.s.*.%.%.%.*.*.*.*.3.*.*.#.%.>.>.$.$.>.>.>.%.$.>.,.,.-.$.%.>.%.#.#.s.*.*.%.%.%.3.3.3.%.3.3.3.,.>.>.1.-.$.$.$.%.$.$.$.$.%.%.$.=.-.-.=.-.,.$.K ..*.R Z j 9 8 6 > - - > 1 x B v e u v v v v k i u p v v n p u u p u u p d u u i u p x x v v M B B B ^ B ! B B ! B ! F B B B B B B p x B B B ^ B v ! ^ M d M B x x d x c v v v B M n v v v M n v B n x d v B B B x p r t p p u p d p v p v p v p p v p p x p r e x n u e 1 = ; 1 2 y d F  ... .&.D +.$.%.%.3.3.*.3.4.4.3.>.%.%.>.*.*.s.3.s.3.s.s.g.u.s.h.h.q.8.8.8.8.8.8.8.f.8.s.s.3.4.s.8.8.8.s.3.3.8.8.8.8.5.4.4.3.>.>.1.>.>.>.=.%.>.>.>.$.$.$.%.%.%.s.4.3.3.4.4.7.f.s.s.4.3.>.%.%.%.t.3.%.3.3.3.3.%.%.3.3.3.t.3.3.6.*.*.*.' T W { H h y 5 5 , ; = ; q e p n k q e i v v p p p v v v v v c x v p p p p p d p g u p v v p x x n x v v x v k x p p p i r r u u t u p p v v p p p u p p k u e u x p p p u u r p u u r e r u u r e u u r e e u r u 1 u u i e e w u t u u e r t u e u u u e e 7 q 1 e u e < < < > < ",
"2 3 y f A *.V.x.#.s.s.s.s.s.f.h.f.l.g.s.3.3.;.-.,.-.-.-.-.-.=.-.-.%.$.$.$.%.=.%.*.%.%.%.>.3.>.*.*.*.&.#.#.#.*.*.*.%.3.3.3.*.*.%.>.>.:.-.%.%.>.>.-.>.>.>.,.>.>.%.s.s.#.%.3.3.3.t.3.3.t.3.3.3.3.3.>.-.>.>.>.>.%.$.$.$.$.@.$.$.$.$.-.-.>.3.,.:.$.| 1.*.` l s a 6 & : O O ; < d M p q u v v n v x p d x x p u u u u p p u u p u p p x v x p x B n v B ! B B B ! ! B B ! ! ! B M B B B M n B ^ ^ ^ B ! ! B B B B v v c p v B B v v B b B M b v v v v B x v v v v n B v x p u p p p u u x v v x v v v v v v v v p u e d x u 1 > ; ; - 3 y f b P  .&.&.P ` >.>.;.4.*.>.s.s.7.6.;.%.%.;.4.4.4.s.s.t.3.3.q.f.g.g.q.4.8.f.f.s.8.f.f.8.8.f.s.4.3.4.8.8.8.s.8.s.8.8.5.5.5.8.8.8.6.6.6.,.%.$.3.>.>.>.>.*.%.%.%.%.3.3.3.%.3.s.4.4.8.4.4.3.*.;.3.3.%.3.3.3.3.3.3.3.%.%.3.3.3.3.s.*.%.3.-.@.R J { I L h r y 4 , ; ; ; 1 e x v v u i u p p p p p x v v x p x x v p p p v d p u u u u v v p p c v v v v g p p p u p u u r u u u u u p k v p u p v u u u p p t p n x p u p p u u v r u u e e u u u u u u u u p u y u 7 3 u i e e u r u r u p u u 1 e w e e e e 1 < u u e < > ; < < ",
"3 6 a A D *.j.t.%.%.s.s.s.s.f.h.g.h.g.5.;.-.3.3.,.,.>.-.:.-.=.=.:.=.$.=.-.-.-.>.>.*.*.*.*.*.>.6.6.s.s.*.*.*.*.*.*.3.*.3.3.3.3.*.%.%.$.$.$.%.>.:.,.4.6.6.6.,.>.*.%.*.3.3.3.6.3.3.3.3.3.3.3.3.3.3.,.>.>.>.>.*.$.$.@.$.$.$.$.$.%.%.-.=.-.-.-.=.} { &.&.' Z s s 0 2 < O O - 1 p v p e p d v v v x p x p d p p p p p x d p p p p x d d x d v v B B B B ! B B B ! L B ! F ^ B B B B B v v v B ! B B B B B B v M B B x x d x n B v x B M M M M B B M v b x x v v v v v v d p u p p p p p x d x v n v v v v v v v p t e g v u w < > > ; 3 y d F ] O.&.&.T ` *.%.;.4.;.3.t.8.7.3.3.%.3.%.4.3.3.3.7.6.7.3.f.q.f.g.f.8.8.h.f.8.f.f.f.s.8.f.8.8.;.4.s.8.5.8.8.8.8.5.5.4.5.4.6.,.,.,.,.>.%.%.*.*.*.>.>.>.3.3.%.%.%.s.%.3.3.%.4.4.4.4.4.3.;.;.3.%.%.3.3.3.3.3.3.%.3.%.3.3.3.3.3.*.*.*.-.} I J ) I ) k 9 9 4 * ; ; ; 1 u p v p r u u u p p p p d x v v v x v v v n v v v c p p p p v v c k d v v x v v p p p p p p u y e u r p p p p x p p p k v d x p u u r p v p u p u e r u e e u q e u t r u r u u p u t u u e e u u u t u u t e e p u r e 1 e e u q 4 1 1 e e q < ; ; ; > ",
"2 3 C b F *.j.t.%.%.s.;.s.s.j.g.l.f.s.3.;.;.3.3.,.,.,.,.:.=.=.=.%.$.%.$.$.$.%.>.%.>.>.*.$.$.*.6.s.s.*.*.%.#.%.*.3.*.*.3.3.6.3.3.%.%.$.$.$.*.3.7.7.8.7.0.8.7.,.,.3.3.3.3.3.3.3.3.3.3.3.3.3.3.3.3.1.4.4.,.>.-.$.$.$.$.$.$.%.-.-.>.;.-.-.-.=.=.} W ..$...D h s 9 2 : - O - 1 p c p u p v v x v v d x p p p p x v p p p p u t t p u p p c v n B B B B B F B ! ^ ^ ! ^ B B B N B B ! N b v M B B B n v M M b v B M d p p x v v v v n v M n M B v v n M v x v v v d x v x p p x d x p v v p p v B M x n v v v v x p r v p u q < ; ; ; 3 8 d F  .&.&.&.R ` %.%.%.4.;.4.7.7.4.3.>.%.%.;.7.3.3.7.6.s.s.6.f.8.4.9.f.u.f.f.f.s.f.g.f.f.s.s.s.4.5.s.s.4.4.;.4.5.5.5.4.3.4.5.2.>.>.>.>.*.%.%.$.%.*.;.6.>.3.6.3.3.%.%.;.3.3.3.4.8.4.4.3.3.3.3.3.3.3.3.3.t.3.3.3.%.%.%.3.%.3.3.s.#.*.s.%.} U D ) I ) z 8 7 , , % = ; 1 u p p p u u r u t p p x p x v v n v v v v v v v x k p p x x x v v v x p p v p p p p u u p p u t u r u u p p p p v v u p p x p v x v k u p r u u u u u p e u u e e e u t r u u p r u p u u u t u u u y u u u u u t u t p e e r e 1 1 1 1 e e 3 < - - ; ; ",
"3 3 a A F *.x.j.%.%.s.s.j.s.f.g.x.f.5.3.3.;.3.3.,.-.:.>.-.=.=.=.$.$.%.%.$.$.$.-.%.*.;.*.$.%.>.7.&.*.s.*.*.s.*.*.*.*.*.3.*.*.3.*.=.-.=.-.*.,.8.0.7.6.6.8.r.8.6.,.3.3.*.3.6.3.3.3.3.3.t.3.3.3.3.3.7.6.,.,.,.>.$.#.$.$.$.%.>.>.>.,.,.,.:.,.:.$.} E #.&...F j 0 9 2 < = O ; 1 p v x p p v M v v x x v p u p p v d p p u u r u u r u x x x v n B B M ! ! ! ^ ^ ^ _ ^ ^ ^ B B B B B F ! B v B B B v v v v v v B B v x c x x d v v B M n M B v B B n v v x x v v x p x p p p p x v c p v x p p v v M v v v x v v x p u p v u 1 ; ; ; ; 3 8 p S ] &.&.O.R R %.$.%.3.3.4.3.3.3.3.>.;.3.;.7.3.3.s.s.s.7.7.8.8.3.5.8.s.q.f.s.f.s.f.f.t.8.f.s.5.8.8.8.5.4.4.3.3.3.3.3.4.4.5.8.,.>.>.>.*.%.>.%.%.*.*.*.*.*.*.3.3.3.3.3.3.3.3.4.4.4.4.3.3.3.3.3.3.3.3.3.3.3.t.3.3.3.3.3.%.3.%.%.s.%.' $.} P S ` ) ) k 9 7 4 , @ - ; 1 u g x x u u p u u p d x p v v M n v v x x x p p p x p p x d v v v x p x d p v p p p p p p u u t u u p u u p u p p p u u u p p p v M n u x p p p p p p k u u r u u r p u u u r t p u t u u u d u e p u e u r u u u u u p e u u u q 1 1 1 e u e 1 ; ; ; < ",
"2 3 a b / r.x.j.3.%.j.s.h.h.h.l.l.s.s.3.4.;.;.;.=.-.-.-.,.-.=.=.%.:.-.>.%.%.=.>.$.%.%.>.*.>.>.6.3.6.6.6.s.3.*.*.*.*.6.*.*.3.3.3.-.>.>.>.,.1.r.y.7.2.7.7.y.y.7.4.3.3.3.%.3.3.3.3.t.t.8.8.8.8.8.8.7.6.6.,.,.>.*.$.$.$.%.>.>.>.,.,.,.-.-.-.%.X.W R *.>.X.J V s 0 6 1 O O ; 1 p n x u p n B B B v x v p u p c v p u p p p u p t u p v x p n n B B B B B F ^ ^ ^ ^ ( ^ B B B B B B B N B B B B M B M v v B v v n v x x v v v v M b B M B B B M n v v v v v v v x p p p p p x v v v x v v d c x v v v v v p v p p u u p v u q < ; > ; 3 r y l / X.&...R ` &.$.%.3.3.4.3.3.3.3.3.3.3.3.3.3.7.s.s.s.j.s.f.9.5.8.q.q.s.f.f.s.t.8.8.8.f.f.8.5.4.8.5.5.4.5.4.;.;.3.3.;.5.8.7.,.>.>.>.>.>.>.*.*.*.>.>.>.%.%.*.6.s.3.3.%.3.3.4.4.3.3.3.3.3.3.6.3.3.3.3.3.3.3.3.3.3.3.3.%.3.%.%.#.%.#.%.' T D { I I k t y 4 5 ; ; > 4 p v x d p p d x p u p v x d v M n v x d v v x x x p x p p v v v v v v v c x p p p p p k p y u p u t p r u u t y u r u r t d v d v n x u M v d c p p u p u t u t u r u p u u u u u t u u u p p e r p i e e e u u e e e e u e e w 4 q 1 < e u u 1 < ; ; ; ",
"& 3 f F ' t.x.j.%.%.s.s.f.g.g.s.g.s.3.s.4.3.>.-.-.-.>.>.-.:.:.;.%.=.-.-.=.%.:.>.%.$.%.-.>.3.>.>.6.6.7.7.3.*.3.3.*.3.6.3.3.3.3.3.%.=.>.,.,.3.6.8.y.0.7.8.y.0.6.,.3.3.%.%.%.3.3.t.t.t.8.t.t.t.8.t.4.6.3.3.,.>.*.%.$.$.%.>.,.,.,.3.,.,.,.:.=.| { T 1.>...S s s y 5 < O   ; 1 p v v u p b ! B B n n v v g p v p d p p u u p p p p p v d v M B B ! ^ B B B ^ ^ ! ^ ^ ^ ^ B B B B B B v x v v B B B B B B v n B B M d x v v x v M N M B B B B B M v x v p p v v p p p x d x n v v n v v v v v v x d n c p v p p p e 7 x v d e < > > : e 8 r d F ] O...R E $.#.%.4.3.7.3.4.3.3.3.3.3.3.4.3.3.3.t.7.s.s.8.8.8.8.8.8.8.8.8.s.8.8.8.s.f.f.s.4.4.8.8.4.8.s.3.;.4.4.;.5.5.5.,.>.*.>.:.>.>.6.*.3.>.3.3.6.6.3.3.3.s.s.s.%.%.s.3.4.4.4.4.4.4.3.t.6.3.3.%.3.3.3.3.t.3.3.3.3.%.3.%.%.%.%.+.+.T Z { ) I k y a 5 4 ; ; ; 1 t x v x p x v v v p p x x v x v n v x p v v d p p p p p p x M B n v M M v x x p p p p p p p p u t u u u u u u p u u u p u p p p x x p i v v v v p p u u p r u u u u u u u u u e r u u r u p u u u r u u e e e r u e e e u r q e e e 1 < e e r < ; ; ; = ",
"& 3 f F ] t.x.j.%.%.s.4.f.f.s.s.s.s.s.;.5.;.-.>.,.,.,.-.:.,.,.>.%.$.$.%.%.-.%.%.:.%.%.%.*.>.*.3.3.6.3.7.3.6.3.3.6.6.3.3.3.3.3.3.>.>.>.>.>.,.6.8.y.8.8.y.u.y.7.>.6.3.3.3.3.3.3.t.3.t.t.t.8.t.8.8.,.,.6.6.,.>.>.$.%.%.*.>.,.>.3.>.,.,.>.>.>.$.} R 1.1.&.F s 0 9 2 1 O O ; 1 p v v u p n ! ! B n v p d v v v x x p u u u u t p u p c d v B ! ! B B B B B ^ ^ ! ^ ^ ^ ^ B B B B B B x v v B B ! ! B v B B v v B M x x v v v v M B M b B B B B M v v v p p x k p u p p x v b B v M n M v v n v x p x d x p x d u e 1 p x p q ; ; ; < 8 r y a S ` X.&.R E $.$.%.4.3.4.3.4.7.7.4.3.7.3.7.3.7.7.t.s.7.3.5.8.8.4.5.5.5.4.8.s.s.8.8.f.f.f.s.8.s.8.8.8.4.s.;.4.;.5.4.4.8.5.2.>.>.,.4.,.3.6.,.,.3.6.3.3.6.3.3.3.s.3.3.%.s.3.4.7.8.8.8.8.8.7.t.t.3.%.3.3.t.3.3.t.3.t.3.3.%.%.*.%.%.#.+.#.D D ` ` ] z y y 4 5 ; - ; < u d v p u p v n v p p x v p p x x v v x x x x p p p p p d x x n n v M n v v p p p p p p u p p u u r u u r u u i u p u t e e u p p p p d p p p p x x x c x u e u p u u r u u r e e u u t u r e r p t u p u e e e e e q 1 u w e e u e 4 < e e e < ; O = = ",
": 2 f A ` t.x.j.%.;.f.s.g.g.s.s.s.3.s.%.;.-.3.5.,.,.:.,.-.=.,.=.:.%.%.%.>.,.>.=.>.>.>.%.%.*.*.3.%.%.3.6.3.6.6.6.3.3.3.6.*.6.*.3.6.,.>.>.>.>.6.8.8.7.2.8.u.y.8.4.j.3.t.3.3.3.3.3.3.t.t.t.t.8.3.3.3.1.>.,.,.>.%.%.%.%.>.>.,.>.>.-.=.-.=.=.%.+.R P r.i.8.` l a y 6 3 O O ; q u v v p x n B B v x x u p p p p x p p r p p p x d p p x x M ! ! B b M B B ! ^ ( ! ^ _ ^ ! B B B B B n b M B ! ! F B ! b M v v M B B v p d v x x n M v M M B B B b n v v u p p x p u p u x v v M M v v B v x v n n p p v x x x x u e 1 p p p 1 - O ; ; 3 r y f S ] &.&.R ` $.$.%.4.3.8.4.7.s.3.s.3.7.s.s.3.s.3.s.3.3.6.8.8.4.8.8.8.8.5.8.8.s.8.s.f.f.f.8.s.s.s.f.8.8.s.;.5.4.5.4.4.4.8.7.3.,.4.6.4.6.6.>.3.3.6.6.6.3.>.s.3.3.3.s.s.s.s.7.8.8.8.q.8.8.8.3.3.3.3.3.3.3.t.t.3.t.3.3.3.%.3.s.#.%.%.$.' ' C I {  .G d y 4 4 ; ; ; < u p v x e p M n n v x k p p u p v v v n v v v c k x c p x p p x v M v d p p p p p u p u p p p u p p u p u u e u x k u u q q e u u u u v x v v p p x d p v u e r p p u t r u e e e u u t u e e t u u u p t u 1 e e u e 1 e e r u e e 1 < e e e < ; ; ; = ",
"& : f F  .p.x.k.>.;.f.s.h.h.s.s.8.8.3.3.;.;.3.3.3.3.3.3.%.3.%.3.%.%.%.%.%.*.*.*.*.%.*.*.*.%.%.3.3.3.t.3.3.3.*.3.3.3.3.*.*.3.3.3.%.3.%.%.%.s.%.s.s.s.3.3.6.s.j.6.3.s.*.s.3.s.6.s.7.3.3.7.3.t.7.s.7.4.3.3.4.4.3.%.%.%.%.%.3.3.3.%.3.%.+.%.%.' E ' 6.r.e...v y r 3 7 = o ; 1 p v B p p B v ! p p u p c p p p p p p u x x u r u p v p x v B v B n B B B B ! ! ! ^ ^ ( ( ^ B ^ ^ B B B B ! ^ ! B M B M B v v M B B v v x x v v x v B B M v M M b v B y p x v p u p r p x v n v v M M M M N B M B M v x x x p p e e q u p p e < = - ; 6 q u f A / o.<.' ' %.#.3.3.3.3.3.3.4.4.8.5.5.4.8.q.q.f.s.q.q.8.s.s.8.8.q.q.s.q.8.8.9.q.f.g.f.q.l.g.f.8.q.8.8.8.8.5.4.5.8.8.5.4.3.3.4.7.4.3.3.%.s.4.4.7.3.3.3.s.3.s.3.3.s.3.s.s.9.q.q.s.9.q.q.q.3.8.8.3.4.4.8.5.8.4.7.5.4.3.3.;.-.>.=.%.X.R J Z `  . .H d r 5 4 O ; ; > u p v p r p v v v p u u p p p u v n B x b M c x n v v v p p p v v x x v v p p x p p u p t p p p p p p u r u u u w q e u p p u u u u p p n v v x p x p e p u p u u u r t u e r u u u t t u r r e u p p u p t u e r u u 3 e e e u e e 1 1 u u e < , < ; O ",
": 2 f S ..j.x.k.>.>.s.s.h.f.f.s.s.5.3.3.;.3.3.3.3.3.3.3.3.%.%.%.%.%.3.%.%.3.3.3.3.3.*.*.*.3.%.3.*.3.3.3.3.t.3.3.3.3.3.3.3.3.%.%.3.%.3.3.3.3.3.3.3.3.3.3.t.s.3.3.3.*.s.*.3.3.3.6.4.4.3.3.7.7.s.7.4.4.4.3.%.%.%.$.*.>.3.3.%.s.3.3.3.%.%.%.%.} ' D &.1.1.] f d d e 1 - O < q p n M p p B B B x v p p p p x p p p p e r u t u p v N x v v M M v B B B B B ! F ! ^ ! ! ^ F B ! B v M x b ! ! B v n B M v v x v B n x p p p x v v v B B M M M b v v v x x M B x x v p p p v v b M M M M B B N B ! F B B B B v x r q q r p p e > ; < 1 r e f M / ] *.*.' ' 3.#.3.3.s.3.5.5.5.4.8.8.5.4.8.8.q.q.q.q.f.f.f.s.f.f.f.f.f.q.8.8.8.8.8.f.f.f.q.8.q.q.q.q.f.f.q.8.8.8.8.5.5.5.7.7.7.4.3.3.3.3.7.4.4.7.s.3.s.3.3.s.s.s.3.s.s.s.s.s.f.s.s.f.s.s.q.s.s.8.4.5.7.5.5.5.8.5.5.3.;.;.=.:.%.$.| W J Z I ) ) m k t r 1 ; ; ; 1 u c n x u p x v x p p p p p v p p v v n v c x d p p p p p p v v v x p n n v p x x u t p u u u u u d x p u p p p e r e t 7 t p u p x x v d p x v d v n p d p v x u u p p u p p p u r p p u p u t u u p d p p e e u u u e e e u e e 1 1 1 u u u 1 < > ; = ",
"& , f B #.x.x.g.;.;.g.s.g.f.s.t.5.5.3.3.3.3.5.3.3.8.3.3.%.3.3.%.3.%.%.%.*.%.*.3.*.3.*.3.*.*.*.s.*.3.3.3.3.3.3.3.3.3.3.3.3.3.3.%.3.%.%.3.%.3.3.3.%.%.3.3.3.3.3.s.s.3.6.s.s.6.6.s.s.3.3.6.7.s.s.7.3.4.8.3.;.+.%.;.3.3.3.3.3.%.3.3.s.%.%.%.%.' T ' &.&.&./ d d d e 1 @ O < e p B n x d M v B p x p p p v x v p p p t p p u u u x v x v M v M b B B B B F ! B B B ! N ! B B ! B v v n B ^ ^ B B B B v v v v v M M x p p x v v n v b B B B B B c v B v x b N x d v p p x v M B M B B S B B N F ^ ^ ^ B B B B v p q 1 u p u 1 > ; < 1 r u f f D ] &.<.' ' 3.%.t.t.t.t.8.5.5.8.8.8.8.5.8.8.q.f.u.f.f.f.q.f.f.f.g.g.g.u.f.8.8.8.q.f.f.g.q.s.q.q.q.q.u.f.s.q.q.q.8.8.8.4.s.3.4.3.;.3.3.4.s.7.s.3.3.6.s.3.s.s.s.3.s.s.s.s.g.s.s.g.h.g.g.s.s.f.f.8.8.5.5.5.8.8.8.5.5.3.;.4.%.%.%.$.| W P H I I P b d y r 1 = - ; < u k v v u p v v v x p p p x n x p x v n x x p p u p u u p p x v v d v v v x p d d p u p e e t u p k c x p p k p u u u p u x n v v d x d p u p v x n n v x n v p u p p u p v v x p r u p u p p p t u u p u u u 1 e t u y e u u u e 1 1 1 p x u 4 ; ; = = ",
": 1 f b ' g.x.g.%.;.g.s.g.s.s.8.s.5.3.3.5.5.5.3.8.3.3.%.3.%.%.3.%.%.%.3.*.*.*.*.*.3.3.*.s.*.*.*.3.3.3.*.3.3.3.3.3.3.*.3.3.3.3.%.3.3.%.3.%.s.3.3.%.3.3.3.3.3.3.s.s.6.3.s.6.s.s.6.s.7.s.7.7.7.7.7.>.3.4.3.%.%.%.3.3.3.3.6.s.3.s.3.%.;.;.;.%.' ` D &.O.o.D r r a e 1 = = > q x B n x x B v B p d x p p d v v x v v v v p u u r p v d v v v v B B B F ! ! ! ! ! F M B B B B ^ B b B ^ _ _ ^ B B B ! B B B v v M b v v b M B B M M n v M B B v v M B v x M M x x v p v v n M M M B B B B B b N ! ! ! B B B B n p r q p p u q ; ; < e e 0 f f A ] &.*.' ' %.%.3.3.s.3.5.4.5.5.5.8.8.5.8.9.q.s.q.8.q.s.q.f.8.f.f.f.f.f.g.f.f.f.f.f.f.f.f.f.q.f.f.u.f.q.f.s.q.8.8.8.5.4.7.3.3.3.3.4.s.7.s.7.3.s.s.3.3.6.s.3.3.s.s.s.s.3.g.d.d.g.h.h.g.9.8.s.s.q.8.8.8.8.8.8.8.5.5.4.3.3.=.%.=.$.} R H H P ) L l d p r 1 % ; ; < u p p p u p v n n v d p p v x p p p p p v x p x x d p p p p p v v x v v x p p u p u u r e u r u p x v x i p x p u u p x d B B B x c x p p u p x p x v p p v n p r p p p p p x x p p p u u u p u y t u u u u r e e u p u u r u u e e 1 q p d p u > ; ; ; ",
": 3 l b ) p.x.x.;.;.g.9.f.f.s.8.8.5.3.3.8.3.8.8.3.3.3.%.%.%.3.%.%.3.*.*.*.%.*.3.*.*.*.*.#.*.s.#.3.*.3.3.3.3.3.3.3.*.3.3.3.3.*.3.%.3.3.3.3.3.3.3.3.3.3.s.3.3.3.3.*.s.3.6.s.6.s.s.s.s.7.t.7.7.3.3.3.3.3.>.;.3.3.3.*.3.s.s.7.3.7.7.s.%.%.;.%.' T T &.&.&.F d r r q 3 ; O = 1 x B B x x B M B p x v p p x v p k c v d p p u r u x n x v x v M B B B ^ ! ^ ^ ^ ^ ! M B N B B ^ B B ^ _ _ ^ B B ! B ! B ! F N B N B v ! B M B B B B B c M B B M v c B v v v B x x v x n v v v v v M B M M M M B B B N M B M n n p t r v d p e ; ; < r 6 r 0 f A ] #.&.T ' *.#.3.s.3.3.8.5.5.4.5.8.8.5.8.8.s.8.8.8.q.s.f.q.q.s.f.f.g.f.f.f.g.f.f.8.q.8.f.q.8.q.g.l.g.f.s.q.9.8.5.5.4.4.3.3.3.3.3.4.8.t.6.3.7.7.s.6.7.s.3.;.3.s.s.s.s.3.g.f.f.g.h.h.d.s.s.8.f.q.q.8.q.q.5.5.8.5.5.3.3.;.:.>.%.$.} W H Z ) ) L k r t r e ; ; ; < e x v p u p x n n B v p p k x p p v x u x v x v v v d x p x v p x x x x p p p u p p p i r u u p p x d v v v v d p x d v c B ! v x v B v p u v v u p p u p x v u t p p p v p p p p x p u p p p u p u p r r u i u t u u u e e u e e 1 e 1 u p x e < ; ; < ",
": 3 b b T j.D.D.3.3.g.9.f.f.q.8.8.8.5.5.3.8.3.3.8.3.3.3.%.3.%.%.%.%.3.%.%.*.%.%.*.#.s.6.*.*.#.s.3.*.3.3.3.3.3.6.3.3.3.*.3.3.3.3.3.3.3.3.3.s.3.3.%.3.3.3.3.3.s.3.3.3.%.s.7.7.6.s.s.7.s.7.s.7.7.3.6.3.;.;.3.3.3.;.s.3.3.3.s.7.j.7.;.s.;.s.%.+.' T &.1.&./ d r r r 1 ; O = 1 v B B v v ! b B p v n v v v p p x x v p u u e e u p x v x x n v B B B ! ! ^ _ ( ( ^ ! B B B B ! B B ^ o._ ^ ! ^ ^ ^ F B ^ ! B B ! ! B B B B b B B ! B M F ! ^ B B ! ! B M M n v v B v v v v v d x x c d d v M M B B M n B B B M v u u u p i 7 ; - 1 e u f f 0 A ' &.&.' T *.*.3.s.s.s.8.8.8.5.4.4.4.4.8.8.8.8.8.8.q.s.f.f.q.q.f.f.g.g.f.f.g.f.f.s.q.8.f.f.q.f.g.l.f.9.q.q.8.8.8.5.5.4.3.7.7.7.7.4.4.4.t.s.7.t.s.7.7.3.s.s.s.s.s.s.s.s.h.g.g.h.h.h.h.f.g.g.g.g.f.q.8.q.8.8.8.8.5.4.3.;.3.>.%.@.} R H z ) ) H h 8 r r 3 ; ; ; < e p v v r p p v M B B x p p p p v M b x v d x x v v v v x n v x p p p p p p p p p x p p p u u p x p x x n v v p p p p p B ! ! v p v v v x p x v v p v p p x p p p p x v v p p p p v v p v d p p x x x p u u p p p u u r e e u u 1 e 1 e u p p e < > ; ; ",
", 8 l A ` j.H.S.;.;.d.5.g.d.u.q.8.s.s.8.3.5.8.8.3.3.3.3.3.3.%.%.*.*.%.*.%.%.%.%.*.*.*.*.#.s.*.s.%.3.3.3.3.3.6.6.3.3.3.3.3.3.*.%.%.3.%.s.3.3.3.3.3.3.3.3.3.3.s.3.%.s.*.s.6.7.s.7.7.t.7.s.t.7.7.3.4.3.3.3.4.8.4.3.3.3.6.7.s.j.s.s.s.s.;.;.3.+.T ' &.<.e.] f r y e 3 ; = ; 1 x B B p v B B B p v v v v v v x p p x p u u u u e r p x x x n B B B B B ! ! ^ ( ^ ^ ! ! ! ! ! ^ B B ! o._ _ ^ ( ^ ^ B B B ! B F ! ^ ! ^ ! B B B ! ^ B ! ! ( ^ ! ^ F B B v b B v v B v v v v v c p y p p p x v v M v p n B B B B v p u u u u 1 > ; < 1 u f f r A ] *.*.' ' 6.*.s.3.s.s.8.8.4.5.5.8.5.8.5.5.5.8.5.8.8.q.q.q.q.q.f.f.f.f.s.s.f.f.q.q.f.f.f.f.f.g.f.f.q.8.8.8.8.5.8.8.5.4.7.7.7.8.8.4.4.8.7.3.s.s.j.t.s.t.s.s.s.s.s.s.s.f.h.g.h.h.h.h.h.h.l.l.g.l.f.8.8.9.8.8.8.8.8.4.4.3.,.>.=.$.} K H z P I L d 7 7 5 1 ; ; # > e u p p e u u p B B b x p p v p v M n v v v x v v v v x v v b x d x x x v v p p p x x u p p p p d x p v v v x p p p x x M ! B x p v v p p p k n v p v v v p u p p u u v v v p p x v v p v x p p p x x x u v v k p p u u r i i r e e 1 1 u p p e 1 ; ; = ",
", 3 b l ` j.D.x.3.;.g.5.g.g.u.q.8.s.s.s.3.3.3.8.3.3.8.3.3.3.3.3.%.3.%.*.%.%.%.%.*.*.*.s.*.*.*.%.3.3.3.3.t.3.3.3.3.*.%.3.3.3.3.3.%.%.%.%.%.s.%.%.3.3.3.3.3.3.%.*.*.*.*.s.s.7.t.7.s.s.7.t.s.7.s.7.3.3.4.4.8.8.s.8.s.3.3.7.s.j.j.s.s.%.s.;.3.+.' D o.<.*.] x r r r < ; = ; 3 v B B p p B B B u p p p v v v v p p p p u r u u e t p x d x v B B B B M N F ^ ( ( ! B ^ ^ ^ ( ^ B v B _ _ _ _ ^ B B v n B B B ! ^ ( _ ( ^ ! B B ^ B B N ! F B B B B x B v v M v v M d v n B N M x u e u p v v v c p 7 p v B B B v u e x v v u 1 < 1 e r r f 0 f ' *.*.' ' *.%.3.s.3.3.5.5.4.4.8.q.q.s.q.8.8.5.5.4.5.5.8.8.8.q.q.u.8.8.8.8.8.8.8.8.s.f.4.8.f.g.f.u.u.f.9.8.5.8.5.8.5.8.7.7.8.7.7.s.8.j.s.t.s.s.s.s.s.s.3.s.s.s.s.s.s.g.g.h.g.l.g.g.h.h.l.k.g.k.g.q.8.q.q.q.9.8.5.5.5.3.1.>.%.@.Q K H z G L H h e 5 1 , ; ; ; < e p v p 1 e u p v B M p u p v v p x v c v v v n v v v x x n v v v n n v p v v p u x p r p u p x x x x v x v x v c v B B p b v p p v n x p u x v p p x v n r e u p r u u v v v p p p p v p x v p p p p v p v B v p p p u u p p u u e e e u v p e 1 ; = O ",
", 7 b F ` j.x.l.>.;.f.s.s.g.g.f.8.s.s.8.8.3.8.8.t.t.6.3.3.%.%.%.%.*.%.$.+.$.$.*.*.*.*.3.%.3.*.3.3.3.3.3.*.3.3.3.3.3.%.%.*.3.3.3.3.3.%.3.;.;.3.3.3.s.3.*.3.3.3.s.*.s.s.%.s.s.s.s.s.7.7.8.t.s.s.3.3.4.4.4.4.7.s.s.3.4.7.s.t.j.s.7.f.8.8.s.3.E T R ..&.e.O.f p 3 r 3 < ; < u n ! M p v B B B v d u v x x x c p u t d x p u u e u t p p v B B B B B B B B B _ o._ ! F ! _ _ ^ B M M n v v b B ! B x x v N M M M B B B ! ^ B B B B v v p x B F c d v B v v v v v v M v v v v v v p u u u u u u p r u t d M B B b p r n p x p q = ; 7 r f 8 C A &.*.6.E E s.%.s.s.3.s.8.8.8.8.8.9.8.8.8.q.q.8.5.q.q.8.4.8.s.q.8.8.8.s.8.8.8.8.q.q.s.8.8.8.q.f.s.f.f.f.8.8.4.4.8.9.q.8.8.8.4.4.8.8.8.s.f.t.t.8.8.p.f.8.s.s.s.s.d.f.g.h.g.g.h.m.m.h.g.h.l.l.l.k.f.q.8.8.q.q.8.8.5.5.4.5.>.%.$.@.| T H h z ` I b r 4 7 ; ; O = < 1 p v x q 1 u r c ! n p p p v v v d v d b v v v c x d v v v n M v v v n v k x c x p u u e p v v v M M n v x x c b B n p u v B p p v B x u p v v p v v p p p u p p p u u p y u u p d p v v p u p x p p p p p v p u d x p r u p u e e u 1 u v p t e ; > < ",
", e f S D f.x.g.;.3.f.s.f.f.l.g.s.8.8.8.8.3.8.8.t.t.3.3.3.3.3.%.*.%.%.%.$.$.$.$.%.*.%.%.3.*.3.*.3.3.3.3.3.*.*.3.3.3.%.%.%.*.*.3.3.%.%.%.3.;.3.;.3.3.3.s.s.3.6.6.s.*.*.s.*.s.s.s.t.t.8.8.8.4.7.3.3.4.4.4.3.3.3.s.3.7.7.7.s.s.s.t.f.q.q.8.>.} ` R ..*.&.O.v f e r , ; = < u B _ ( p x M B B v x p p d p p x p p u p p p u e u u p p p x M B B B B B B B B B ^ _ _ [ ( ^ ^ ^ ! x u p p x n B B ! B n B ! ! B b B B B B B B B b M v B M B B B c v M v n v v v v v b v v B v v v p p y u u r p t u u u p v v v v u u v v p i 1 = ; 7 r f r f C $.&.6.E E %.%.%.s.s.3.q.9.8.5.8.5.8.8.8.9.8.8.8.q.s.8.8.8.q.9.s.8.8.9.q.q.8.s.8.q.q.f.q.q.f.g.g.f.f.f.8.8.5.8.8.8.8.8.7.8.4.7.8.t.t.s.g.f.s.t.f.f.f.f.;.s.f.h.h.g.h.h.g.h.l.l.l.g.s.g.k.l.l.k.f.f.f.q.q.q.q.8.8.5.8.4.>.-.$.$.} T H z L ) H k 8 , 5 1 ; = - ; 1 u v d e 1 u 1 u n d u v p p p c v x v v v v v v v v v v x v v v v v M x x d p v p p u i k v p p p v B B B M v v x x x v B B v x v v d v b M v v v v x p u u u p u t t t u p p p x x x v p p k d p p p p u p p t u x p u u p p e u t 7 p B p u 1 > ; - ",
"2 r x A D j.x.l.%.3.h.s.g.l.l.g.s.s.8.5.8.3.5.8.3.3.3.3.3.3.%.%.%.%.$.$.$.+.$.%.%.%.*.3.*.*.3.*.3.6.3.3.3.3.3.3.%.3.%.*.3.3.3.3.3.;.3.%.3.%.3.;.3.3.3.s.6.s.3.3.%.*.s.*.*.s.s.s.t.s.s.t.t.7.3.3.4.4.4.4.3.3.7.7.7.7.s.7.s.t.s.t.s.q.8.4.%.+.` R &.e.] ] f r r 1 1 ; = > u B _ ( p x n B v v x x v p g p d p p p p u p r e u p v d p v n B b B B M B B B B ! ( ^ o._ ( ( ( F x r u p p v v B ! ( B B ^ ^ ! B B B B B B B B M n M N B ! b c M B B v v M B M v v v x b B v v p p v p u u u u u p r p u u p p u u u n x u r 1 ; > e d A f b A &.>.1.E E s.+.s.s.s.s.f.8.8.8.5.8.8.8.8.8.s.8.8.q.q.8.q.9.8.8.q.8.q.q.s.9.s.8.s.f.s.f.8.s.f.g.g.f.f.q.s.8.8.8.8.8.5.5.7.7.7.7.8.s.s.s.g.f.f.f.g.g.f.8.s.s.h.h.h.h.g.g.g.h.l.l.g.d.d.g.k.l.k.g.f.u.q.q.q.q.q.q.8.8.5.5.:.>.-.@.Q R J S ` ) z d 7 : 5 3 > ; ; > 1 u v p q 1 e < e x u p x p p p v v v x v x x v v n v v x v v v v v v v c x v v v c k p u p x x p p x v ! F B n p p x n v B B M v x x x B ! B B n v v d p u e r u u p d t p u p x x p x v x p p p p p p u u p p u t p p i u v p u r u u k M u e q ; ; - ",
"3 3 f A F t.x.x.3.;.h.s.l.l.k.f.f.s.8.8.8.s.8.3.t.3.3.3.3.%.3.%.%.%.%.$.$.$.+.%.%.*.%.*.>.3.*.3.3.3.3.3.3.3.3.*.3.3.3.3.3.6.3.3.3.3.3.s.3.3.3.3.*.3.3.3.s.3.6.s.s.s.s.*.6.s.j.1.s.s.j.s.s.7.7.3.4.4.4.4.4.3.4.7.s.7.t.s.t.s.7.t.8.s.q.3.$.$.' T O.r./ ] f 3 r : < ; - < 3 v B B p d v v M v v v n v v p p p p p u p p i r u p x x x v B B B B B v B n M B ! B y N ^ _ _ ^ v x p p p p p p v B B B B F ^ ^ ! ! B B B B B B v M B B B B v v M M B v M v B n x v v M M n n v v v v x u u u p u u u u u u r e u u p B p u w < < < e 0 A f A D 1.t.6.E T s.E %.s.s.s.f.f.q.8.8.8.8.s.8.8.q.8.9.s.q.8.s.8.8.8.q.q.q.q.8.8.8.8.8.q.8.9.5.8.8.q.u.u.8.8.8.q.9.q.8.8.5.3.7.8.7.7.8.8.t.j.g.t.t.f.j.k.g.t.f.h.h.h.h.s.s.s.s.d.g.h.g.f.g.h.l.k.l.g.f.f.q.s.q.8.q.q.q.8.8.5.>.>.-.@.} R P J { I k 9 7 : 1 4 > = ; > < u x u e 1 u e e p u p v p u p x v v x v x x v v v v c v v v M v v v v v v v p p p u u u u x v v n n v B ! B v p p v B n v v n v x v v ! B B B v x x x p u e u p u p x u p p c x p p d p p u i p u t p p u p p u u k u u t p p u u u u p v e < 1 ; < ; ",
": 3 y l A *.t.f.;.;.g.s.l.h.g.g.h.s.5.5.8.8.t.3.3.8.3.3.3.%.%.%.*.%.%.$.+.$.$.$.*.*.*.*.>.*.>.>.3.3.3.3.3.3.*.3.3.3.3.3.s.*.s.s.3.3.t.3.s.3.3.3.3.3.3.s.s.6.6.s.s.j.3.s.s.*.j.s.s.j.s.s.8.8.4.4.7.4.3.3.4.3.3.3.7.7.s.7.s.3.7.s.8.s.q.4.%.$.' J ] 1.F D A r r < > - ; < 3 v B v u u u v v n v n v x p p p p p p p p p r u u p c v x v B B N B B b N B B ^ ^ B u x B ^ ! M u u y d p p u p p v n B B ^ ^ ! B B B B B B ! B n v B _ B v B B n x v v v v B n x v n B n v v M n v x k p u u r u t u u u u t u r u u M x e 1 1 , 1 e f F D D ' t.t.6.+.+.s.s.s.s.f.s.g.f.s.q.s.s.q.q.8.q.q.q.q.q.q.8.q.8.8.8.q.s.8.8.8.8.8.8.q.8.8.8.4.5.4.4.8.5.8.5.8.8.8.s.9.8.5.4.8.7.8.7.8.8.8.t.s.t.8.f.g.k.g.u.f.g.h.g.g.s.s.s.s.s.d.s.g.g.h.h.g.k.g.f.f.f.q.q.q.8.9.s.q.q.8.4.>.,.=.@.{ R J H  .I k y e , 5 1 ; O ; < 1 r p u q q p r u p p c c p p p v v v p v x x v v v x p v v b M v v x c v v v c p u u p u u d v B ! F B M v v v v v v M M v v v v v n N n n v v v x d v p p u u p u p p u p d p x p p p p u u u u u u u p p p p u u p u p u u p u r p u u p 7 < 1 ; < ; ",
": 3 y l A $.6.t.;.%.s.9.h.g.g.f.j.f.8.8.s.8.t.8.8.3.t.3.3.%.%.%.*.-.%.%.$.$.$.%.>.3.*.*.>.>.*.>.3.3.3.3.3.3.3.3.3.3.*.3.#.s.s.*.s.3.3.s.3.s.s.s.6.3.6.3.*.3.6.*.3.*.s.3.s.s.s.s.7.t.8.t.8.8.4.3.3.3.3.3.4.3.3.3.>.3.3.4.3.s.s.s.5.8.5.-.$.} T C D ] f C x u 3 2 > - - < 1 u x u e e u p x n v v v p p u u u p u u p p u u u p p v x n B B M n v n ! ^ ! F ! ! B B B M c p u u e p p u u p p p x v v B ! ! ! B n ! B B B B B B B _ B n B ! M p p v v x v v v x v B M x x n M v x x p u u u u y t i p p p u t u u B d u 1 < < e r b D D / ] e.7.6.+.+.s.+.s.f.h.s.f.f.8.8.8.9.8.q.8.q.q.9.q.s.q.q.q.8.q.8.q.q.s.q.9.8.q.8.q.s.8.8.8.4.4.3.5.5.5.4.5.8.8.9.8.5.8.5.8.8.8.8.8.8.8.8.t.8.8.t.f.f.j.f.g.f.h.g.f.h.g.s.s.g.g.g.s.d.h.h.g.g.g.f.q.q.q.f.q.8.8.8.q.q.8.5.,.>.-.| Q Y H H ` ) l d r 3 7 1 ; O ; < 1 t p e e e p u r x u x d p p x d p v v x v d v v k x p x v v v v x p d p p x d p p p p p x v v ! _ ( ^ n v v v v n v x v d p u u d x x v x p x p p x v p t p u p p t p p p x x p x p p u u i p u r r u p p x p t u v u p r u v u u p u v n e < 1 ; < ; ",
", 3 f l f $.6.s.;.%.s.5.h.g.g.g.s.8.8.8.8.8.8.3.3.8.t.3.3.%.%.%.>.%.%.%.$.$.$.%.3.>.*.3.3.%.>.%.3.3.3.3.6.3.3.%.*.3.3.3.%.s.s.+.3.s.s.3.s.3.3.s.6.s.6.*.3.s.*.s.3.s.*.j.6.s.s.<.7.s.j.s.s.4.4.4.3.3.;.3.3.3.3.;.>.>.3.3.3.3.s.s.4.3.;.$.+.U D f C D 0 3 3 r - : > - = < 1 e p e e e t p v v v p v d p p p p p p u p p p p p p p v v B B B v v v v B ! B B ! ^ ! ^ ! M f v v p q u t p p p p p p u u x b B F ! ! ! ^ ^ ! B B ! B ! B v B B B v d v x d c n v v v B v d x v v v p v p p r u u u u u p k p u u u u B v u 1 < < e t A D A D ' 6.6.t.E +.s.+.f.h.g.s.f.8.8.q.q.q.s.8.8.q.s.8.8.q.q.q.8.q.s.q.q.8.s.q.s.s.q.f.s.8.8.5.5.5.4.5.8.8.5.4.5.8.8.9.5.5.4.5.4.8.4.8.8.8.8.8.t.t.f.f.u.f.f.f.h.g.g.h.h.h.h.h.s.d.g.s.s.s.f.g.g.f.f.f.8.s.q.q.s.8.5.5.9.q.8.4.,.>.%.$.} K Z l I ) z y 7 7 8 > > ; ; > 1 u x u e q p p u p t d p p x v x p p p p x c x p p v v p v v n v v c d p x p p p p d v x v v v M B B B v v v v v v x p u p p e e p p u p u p x p u p v p r r u p u p d x x c d x p p u t r u d p u u p t u d x u p v p x i p v r e u u p n u 1 < ; ; - ",
": 3 d l C $.t.l.3.%.0.5.h.h.k.j.s.8.8.5.8.3.3.8.3.8.8.8.3.*.3.*.:.>.>.%.$.$.%.%.6.6.3.3.%.>.%.>.3.3.3.3.t.6.3.3.3.3.3.3.s.%.s.s.s.3.3.3.s.s.s.j.s.s.s.s.6.s.s.s.*.s.s.s.j.s.j.s.s.s.j.f.s.8.5.4.4.3.3.3.7.7.4.3.3.3.3.3.>.3.3.3.9.5.;.%.+.T A b D D a 3 3 r + : O O = > 1 x B v e u r p p x p u v x x x v p p p u t p p p p d v v b B ! ! B v x v B v M B ^ F x v B B M M v x u u p v v p u p d v x p p v B ^ ( B ^ F B B B B B B B B v B ^ ! v v p u x v v v v v v x p p x d c v x p u u r u u p p c u u r r u n v p q < > 7 r A F A / ' 1.7.t.E E %.s.s.h.f.s.f.f.s.s.f.f.f.f.q.q.q.8.9.q.s.q.8.9.f.q.s.8.8.q.8.q.8.s.8.8.5.4.5.5.3.5.8.8.5.3.5.8.8.8.3.4.3.3.6.4.7.7.7.8.8.8.f.f.f.s.q.t.f.f.l.h.g.f.g.f.f.f.s.s.d.s.s.s.s.s.f.f.f.q.q.8.q.q.q.8.4.8.8.q.8.7.6.>.%.$.} Y z a L P l y 3 3 8 : 1 < ; ; < u v d t u p u p p u x u p v v c p p p u p v v p p v n p x v v M v v v x v v c p p p x r x B n v x p p x x v x v d p p u p x u r v v u p i p k p u u x p u e e u u p x v v x p p p p i u u u p p u u t r u p p u d v x v p x k u e e e p n u 1 < = ; ; ",
": r d l A ..p.j.%.;.f.s.s.s.h.s.f.s.s.3.s.s.3.3.*.3.3.s.*.3.3.*.>.3.3.%.%.%.%.;.3.3.3.s.#.%.%.s.%.3.3.3.3.s.%.3.s.+.s.s.+.s.s.s.s.s.s.s.s.s.s.s.s.s.3.s.s.s.s.s.s.s.s.s.s.s.s.f.s.f.h.g.s.s.5.3.,.,.,.,.,.,.,.4.3.4.6.*.%.3.3.;.3.7.>.>.W K Z z S P l y r 7 , @ ; ; ; < < u v p 3 u p v x p p v v v v x p u p p u u r u e p v B B v B ! ! ! v v n v B B B B v p p x v v x u p x u r u u p p p u v p u u r u n F ! B B B B B ! ! B B B B M M v d n x p u u v v p v v x v p v p p v x u e e p u u p p i i t t t e n G t 4 > > , g A S l P I <.u.y.} } 3.3.d.s.d.g.h.s.q.s.f.g.d.s.f.d.s.s.s.s.q.9.9.8.9.5.8.9.8.5.5.8.8.5.5.s.5.5.8.4.4.4.8.8.4.6.4.8.t.s.t.4.8.8.8.5.4.4.4.5.8.s.f.q.8.s.f.k.g.f.u.f.g.k.g.f.f.f.q.q.f.q.s.q.u.f.q.u.q.q.s.q.q.s.8.8.8.5.3.3.5.9.,.:.6.>.} P Z a Z { m 8 y r , 1 < > ; < 1 u p v 1 e u e u t v p d v v x u p p v x x x d x p u u p x d v M M n x u u u p c x p p u v B B p d v p u p v p u p p c p r i p p p p p u k v p p c x u p t r e u u p v p x p u p p k p p u p p p p p x p p p d p p v v v x p p u r e u v v r 1 < < ; = ",
": 7 v f A #.j.l.%.3.f.s.j.f.j.s.s.7.7.3.6.3.7.7.s.*.s.*.*.s.3.3.3.-.;.-.;.%.%.%.;.%.;.*.;.3.3.%.%.s.%.s.s.*.%.s.s.+.+.s.s.s.s.s.t.3.3.s.s.s.%.s.s.s.s.s.%.s.s.s.s.s.s.s.s.s.s.s.s.s.g.s.s.s.s.5.7.4.4.,.>.>.,.3.>.4.3.;.;.3.3.%.4.4.>.:.W R H H L P f y e 3 < @ ; = ; > < u c p e u p v v d x n p v p p t u i p u u e e p v M B M p B B B B p v n M v B v x p e e p x v x p p p p p t u p p p p u u u i u u i p B M B B B n N F B B B v B M M v B B B v p u u x v x x v v v v n n v x p u r p t p i i i t e e e k n y 4 , > , h M S j P K :.y.0.@.} 5.4.d.d.d.d.h.g.s.9.s.d.g.d.g.g.f.d.s.s.s.w.s.s.s.s.s.9.5.5.s.5.5.5.5.5.5.5.8.7.7.8.8.4.4.4.8.4.7.s.8.6.4.s.8.8.8.8.5.8.8.q.q.8.8.8.f.f.f.u.f.f.l.l.g.f.g.f.f.f.f.f.u.8.f.f.q.q.f.8.8.8.8.8.8.8.8.4.3.4.5.8.7.,.4.:.{ T S s H ) m 8 t r 1 3 < ; ; < 7 u p n w e p e p u v p c x x x p p p p c d p p p p p u x p p v v v v p v x k x p p p p v v M B x v c p p v v x p p x x p p u x x k c v p x p u u d v d p p u e r u u p d x u i u u p p u u p p p u i r p u u u p p u u n v x p u w e w v p u 1 < > ; O ",
"- 3 f l A #.j.x.%.3.s.s.f.j.h.s.s.s.3.3.3.3.3.s.3.s.s.*.s.3.s.3.3.;.-.%.%.;.;.;.%.;.%.;.;.3.3.s.3.3.s.%.s.%.s.%.s.s.s.+.+.s.s.s.s.3.s.s.s.s.3.s.s.s.s.3.s.s.s.s.s.s.s.s.s.s.s.s.s.g.f.f.s.s.s.s.0.7.7.,.4.4.,.>.3.6.4.3.;.4.+.s.3.4.=.=.K I J J ) I k 7 e 3 - @ - = ; < < r p p e u u p p p x c p p p p p r u p p u q u v B ! F M d v n M B v n v B M v x p e q e e u p d p p u x p p u p p x p p p p k p u u u p d n B B n B ! B B B B B B B B B B ! ! v r u x p x v v v v n v v n v p u r u u t i i i t e e 7 n G y 4 > > 4 g l S l T K X.y.u.=.@.9.3.g.d.g.h.n.g.s.0.q.f.g.g.h.h.g.g.s.s.s.s.f.f.s.f.s.s.9.q.s.5.5.5.5.9.5.5.8.8.8.8.4.4.4.4.7.4.8.8.7.4.7.s.q.s.q.q.q.q.q.s.q.q.s.f.s.f.u.f.f.f.f.f.f.f.f.f.q.f.s.q.q.q.s.f.s.q.8.8.8.4.8.5.5.8.5.8.4.4.5.8.i.7.,.=.| E L h H ) F y y r 4 4 < > ; < q e p n u r p e d u v p v v x d v v v v c x k x p u p u x x p p p v v x b M v p p p v v b v M n v v x u u d v p u p p x p u u u p p p x x v p u u x c x u u u e u p p v x d p u r i p p p p p u p u u u v p u p v v x p x d p u u r e u B n u 1 ; ; ; = ",
": 3 f d A ' j.l.>.;.s.8.h.s.f.s.6.7.6.3.s.7.3.7.s.s.*.s.*.3.*.3.3.3.3.-.%.*.*.;.3.3.3.3.%.3.%.3.3.3.%.s.*.s.3.3.s.+.s.s.s.s.s.s.s.s.s.s.s.s.s.s.s.s.s.s.s.s.s.s.s.s.s.s.8.s.s.s.s.f.f.s.s.s.s.s.,.,.4.,.4.,.3.3.7.6.4.3.3.4.s.s.,.3.=.=.W K J J  .I n r 8 3 @ O = = ; > 1 u p p 1 1 e u p p u k d x x p p p p p p t e p n ! ! B M x B v v b v M v n B v x p r u r e u y p x p u v d p u u p p p p p p p p p p p e u x n v B B ! B B B B B F ! B ^ B B ! ^ B x r p p d x x v v v v v v p u u u u t i t e 7 e e w z v g 4 > > 5 y z S l P J X.y.g.-.=.9.4.d.h.d.d.v.h.s.w.s.d.g.g.h.h.g.g.g.g.g.h.h.h.h.g.f.d.s.d.g.d.s.8.s.d.5.5.8.8.8.8.8.4.4.8.8.8.4.7.4.6.7.s.f.f.f.u.s.q.q.q.q.f.f.f.f.u.f.f.f.g.f.f.u.u.u.f.8.8.s.8.8.8.8.s.8.q.q.8.8.8.5.8.5.5.8.5.5.5.8.8.u.8.4.=.} T J j L ) S d d t 7 7 3 < < < 1 e p x u u p u x u p p n x x v v v v p v x x p u p p p v d x x v v v v v v x x x v n n M x n M v x p e u u p i p p p k p u r u u u p p x v n v v p p u e e e u u p v v p p p u u u x x v k p p x d v p v p p x v n v v p p p p u u u i B n u 1 ; ; ; O ",
"; 3 f l f ` 7.j.-.3.s.8.a.w.w.0.s.3.7.3.6.3.s.6.s.s.#.*.s.*.%.s.3.3.3.;.;.;.>.3.3.3.%.%.*.%.3.*.s.*.*.%.s.%.s.%.s.s.s.s.f.s.s.s.s.s.s.s.s.s.s.s.s.s.s.s.s.s.s.s.s.s.s.s.s.s.s.s.f.g.s.s.s.g.s.s.,.3.3.3.3.4.4.4.5.4.3.3.s.%.s.+.-.-.=.=.W W K H ' P F d y r O O O O ; < > u k u e 1 1 u u p p p x p c p p x p p u r u p v B B n v x v x p n x v x v B n v p p p v p u p p v v p p p p u u p p p u u i u u p p p r u u p x n M b B B B B ! ! ! B B F B B ^ _ B q d x x c x d v v M n x p r t e e i i i i t e 4 4 n h y 4 > > 7 y l S Z P J X.p.b.;.%.s.;.h.d.g.g.c.h.g.g.d.g.g.q.g.h.h.g.d.g.h.n.m.l.h.g.g.g.g.h.m.g.d.d.g.g.d.5.4.8.t.8.8.8.8.t.s.7.7.7.7.4.s.j.f.f.f.f.f.q.q.8.q.f.g.g.f.f.f.f.k.g.f.f.f.f.f.f.8.8.q.8.8.8.8.8.8.8.9.q.8.s.8.s.5.5.8.q.8.8.8.8.0.,.0.,.W K G V H L m h y 8 7 5 1 < < < q e p x u e u u x r p p v x p p p v p p v p p p p p u p p p x v v v v n d c v x x v n B v x b B v d p u u e 1 r p v v p n p p u p p x v p v v v v c p u e 7 e e i p p c u p p p u d v v c x p v d v v x p x x c x v v M v v x p t u u r v v u 1 = O O O ",
"% 1 d C A ] t.j.3.;.5.4.g.w.w.,.*.6.7.s.3.3.3.3.*.s.s.%.%.s.*.*.3.3.3.3.3.>.3.3.3.3.3.3.3.s.3.3.%.%.s.s.*.s.%.s.+.s.s.s.h.s.s.s.s.3.s.s.s.s.s.s.s.s.s.f.s.s.s.s.s.s.f.s.s.s.s.s.f.d.g.d.g.g.s.s.>.>.3.-.3.4.5.8.4.>.-.3.%.s.E s.=.;.=.;.Q W H H P b F d d y o @ ; O > < 1 u x p 1 1 1 e u u u p x p p p x p p p p p p v v v v v x p n v x v x v v v B B v p x d x p p t p x p p v p p u p u p p p u u p p p p r u p t u u p p u B B B B B B B M n ^ _ M B ^ M e x v M v v x v v B B v u i u e 4 i w i w w t w t g t i 4 > > 7 y k S z I H $.i.b.;.+.s.;.h.h.g.g.g.h.h.g.h.g.g.g.s.g.g.h.g.h.v.n.n.n.h.g.d.g.h.v.l.h.f.g.g.g.s.s.5.t.f.8.8.8.8.u.t.8.8.8.s.t.8.s.f.f.q.9.q.f.f.q.8.f.f.g.f.q.q.f.f.f.f.q.s.q.q.f.s.q.s.q.q.9.s.s.9.8.8.q.s.8.8.s.8.8.8.8.8.9.9.q.0.0.0.:.W K V j z m z a 8 7 7 4 < > ; , e r x M e q t r x u x v v v v x v v v v v p v p v p p p u p d x v v v v v v v v v v v B x x M B n x x p u e e u x c k v v u r p p x x v x v x x d v v n p u i p p d p p t p x p p x x k u p x n v v p x u k v v v v v b p x v p p r u u u u r < ; = = O ",
"% 3 v A A ' 6.j.3.-.4.4.u.0.w.9.3.3.7.3.3.3.3.3.s.*.%.s.s.*.s.*.3.4.4.4.4.4.3.3.3.*.*.3.s.3.3.3.*.s.s.%.s.%.s.%.s.s.s.s.h.f.s.s.3.s.s.s.s.s.s.s.s.f.f.f.f.f.s.f.s.s.s.4.s.s.s.s.g.g.d.f.d.g.d.s.5.4.;.;.;.;.4.4.5.;.-.3.%.%.E s.=.=.=.=.Q Q K H L b F d y y . @ = O > < 1 u p u 7 1 1 q 7 e e u d p p p x p p u p d v v n v x p p u b x x M v v v B M n v p p p p p p p p p p p p p p p p p p p p p p k x x p u u u p r e u r u p x v B B B B v B ^ ^ B B B v r x v v v x x v v B B n u u e u e g w w t t e t 7 y t r e % > r t l S l K J X.a.b.;.%.s.s.h.h.h.d.h.k.h.g.g.g.h.h.s.g.g.g.g.g.h.n.h.h.h.g.g.h.g.h.h.g.h.h.g.f.s.5.8.s.f.u.f.8.s.f.s.7.7.s.s.t.s.s.f.q.8.q.q.f.f.u.q.q.f.f.f.f.u.u.s.8.8.8.q.s.q.q.q.q.q.q.q.8.8.f.q.8.q.q.8.s.8.s.8.q.q.8.q.q.s.8.0.,.0.=.W K G V z z k d 8 7 7 4 , ; ; < e p v B r q u u c r c v v v v n v c v d p v x c x p u p u u p p p p v v v v M v x v v B v p x B v v v v u r u p p p u p u r u u u p x v v v x v v x x v p p p v v x x x u x x p p p c x u p v v v p p x v v v n n M M v u p p p p u u p u p u q < > ; O ",
"% 3 v A F ` 6.f.3.-.;.4.u.0.0.,.3.s.3.s.3.3.3.s.*.s.*.*.s.s.6.*.3.4.4.8.4.4.3.3.3.s.3.3.3.3.s.3.%.s.*.s.*.s.s.s.s.s.s.s.h.f.s.s.s.s.s.s.s.s.s.s.h.f.f.f.f.f.f.f.s.s.s.s.s.s.s.s.g.g.d.s.g.h.g.s.q.5.5.3.-.;.;.3.5.3.;.4.s.+.s.+.=.;.@.=.Q Q K K L m / f y 3 . @ ; = > 1 < u v u e q w e e e u p c p p x k p p u u u u p v p u e e e v x p b x v x x v v v x p x p p x v n v v p p v v v p p k c d p u u p p p p u p x t e u p t 1 e p B B B B B ! B B B B v p u p x v c d x c n d v x u e q t p i g t t t t w t t 4 e 7 % , t 8 k z l J H $.i.h.3.%.s.s.l.m.h.h.h.h.h.g.d.h.h.v.s.d.h.h.d.g.g.h.g.g.g.g.g.h.g.g.g.g.h.h.g.d.s.8.8.f.f.u.8.f.8.f.s.s.s.f.f.s.s.j.f.q.8.8.q.f.f.f.s.f.f.g.g.g.f.f.f.f.q.f.f.f.f.s.8.q.q.8.8.q.8.8.q.q.s.8.8.q.8.8.s.q.8.8.s.q.q.s.0.0.;.| W K K V z l k j r 8 t 4 < > ; < 1 u p B u u p i v u x x p x v v x p p p p p x v v d p i p p p p u p v v x x x d p p v B b u p x v v n v p t p u u q e u p t u u p k c v v v M b n v p u u u p p p p x p d n v x p p v x d v n p u u p v n v v v B N v x p p p p u u r u u p u e < = = o ",
"; , k z S ` ,.8.6.+.3.4.w.0.0.0.3.s.3.s.3.3.3.*.s.3.s.3.6.s.*.s.8.8.8.7.3.3.3.4.s.4.4.7.6.s.6.3.s.s.%.s.3.6.s.s.s.s.j.s.f.h.h.h.h.s.s.s.s.s.s.s.s.s.h.f.s.s.s.h.s.s.s.s.s.s.h.h.s.s.d.h.h.h.d.d.g.s.s.5.8.s.f.f.h.h.h.h.h.s.s.E ,.;.,.=.| W K G I H k h y y o % ; > < < q r p p e < q e e e u 1 p u u i x v u t u u p x v v p r u p x x x x v v B v v v n B v v x v v v x p x v p p p x v u p p u p p p u p p u v k p i p u p p e e e e u u p v ! B ! ^ B n v e u p d v v n x p p p d p u u u u g i i w 4 w t t t 8 4 4 > > 4 9 a l j j z <.a.y.t.@.8.g.Z.l.h.l.v.h.g.g.g.g.g.d.q.g.h.g.h.h.b.v.n.v.l.h.l.l.g.g.d.g.l.h.s.s.s.d.f.f.s.8.f.f.g.g.s.f.f.f.j.s.s.s.l.f.f.f.f.f.f.8.f.f.f.f.f.f.g.g.f.f.q.q.q.q.q.q.8.q.q.q.q.q.f.f.q.8.8.5.8.8.q.f.q.8.8.q.q.8.q.8.0.0.,.| | W G V G h h h 9 9 5 4 < ; ; < q p v v u e r p p p v k n v v x d x x x x v x p v p p x t p t d v c p x n x v v p x M B x v p u u p v d p u e u p u p p u p x k x v M b B B B M v x p p u p p u p p d p u v B v d v v x x x v v p p p v v v v v k x v k p u p p u e u d t r w 1 > ; O O ",
"% 1 p z m { :.,.7.} -.3.0.9.0.0.3.3.3.6.3.6.s.3.*.s.3.s.s.6.s.6.4.8.4.4.3.3.7.4.3.3.7.7.s.3.3.3.*.*.s.*.3.s.3.s.s.s.s.s.s.f.f.s.s.h.f.s.s.f.f.h.f.s.h.s.s.s.s.s.s.s.s.s.s.s.s.s.s.s.g.h.d.s.h.d.f.f.f.d.g.g.g.g.h.h.h.l.l.s.s.s.=.=.;.;.| W W W ) H k h r y o % O < < 1 q u p x u e e e e u u q u e e e p v v x p p k x v n v v p x p d v v n B B b M b B N B B x v n v v v v v p i p p p u r u p p u u u p p u p p p u u u u p u u r e e e r p x c b B B B v e p u p v v v x u x x p p u u t u i i g w w 4 w t g a 4 4 > > 4 9 j G j z j &.u.j.u.%.q.h.A.n.l.n.l.h.g.g.g.h.h.d.s.f.g.g.g.h.n.n.n.v.v.l.v.l.g.s.g.g.g.g.s.s.s.s.g.f.8.8.8.f.h.h.s.j.s.s.8.s.s.f.l.g.u.8.u.f.g.g.k.g.g.f.f.f.f.f.q.8.q.q.f.s.q.q.8.f.s.8.8.q.8.s.q.8.5.4.8.8.q.q.q.q.8.8.s.s.q.s.0.9.,.| | K J G G z h h a 9 t t , > < 1 e p v v p e u p u p v x v v v v v x x d x p d x p v k x u u u p p p p p n x v x u p n v x v v p p u p p p u u u p u p d u p p x v v M B B F B n v v v d x v v d v n v v e d n x x x v x x x v v p u u x p p v v x x g p p r p p u e u p p p r 1 < - O O ",
"# 4 g z m I =.=.9.} =.-.0.,.,.0.3.3.7.3.3.s.6.s.*.s.3.6.3.s.s.3.4.4.4.4.4.s.s.7.7.3.s.3.s.6.7.7.s.s.*.s.s.3.s.s.3.s.s.s.s.h.g.f.s.s.s.f.h.s.s.s.h.h.h.h.s.s.s.s.s.s.s.s.s.s.s.f.h.h.h.h.h.h.h.h.f.f.g.h.l.l.l.l.S.l.l.l.x.l.l.h.9.9.0.,.=.W K I  .I n h 8 9 o % @ > < 1 w u p x p u r u e e r e e e e e u p v v v v p u u v n v v p r u p v v v x v v n M B B B v v v M B M v v v p p x p p p p p u t r u r p p u u u p u u u e u u u e e q e u e e p c v v n u p p p x v d p p v c p u t r i p i i i w t w t i G g t 4 > > 4 9 z z j J z } 0.N.f.-.f.l.M.n.v.v.v.v.h.g.g.h.g.g.h.h.h.l.h.v.n.n.v.l.v.l.h.h.g.s.g.f.d.g.s.s.s.5.f.f.s.s.s.f.g.h.s.s.s.8.s.s.f.j.l.k.f.q.f.g.l.l.l.l.k.g.f.u.8.q.q.q.q.f.f.u.s.8.f.8.s.q.s.s.8.s.8.5.4.5.8.8.8.q.8.9.s.s.f.f.f.8.,.,.,.=.| K K W K V h 0 9 9 5 5 1 < > < q p v v p u u d p p v x v v v v v v x d p p x p x p p d p d v x x x x x M v v v r i x x x v v p p p u i p p k x p u p v v d x x v B B B B ! B B M v v v v v v c v v v x p v B B v v v v b N B B v t u p p p p p p p p u u p u t e e u x n x u 1 ; ; O O ",
"% , p z m I X.=.5.Q @.@.0.,.0.0.s.3.s.3.3.3.3.6.3.*.3.s.s.3.3.s.4.3.4.7.s.7.3.3.3.6.s.7.6.6.s.7.%.*.s.*.*.s.%.*.s.s.s.s.s.h.g.g.s.s.s.s.s.s.s.s.h.s.s.s.s.s.s.s.s.s.s.s.s.s.h.l.l.l.l.l.l.h.h.h.h.g.g.h.l.l.S.x.l.M.l.l.l.x.l.l.M.c.w.w.,.W W { X.{ z h r 9 o % ; > 1 1 e u k v c r e u e e t u u u r e e e p d v v p u u u p u v p p t u u p p u u x v v M B N v n M B B b v x n n k v v p p p p i u e u u p p u p p p p r u e u r u e e 3 e q e 1 e u e p v p p p p p x v v x x x p p p u u p i i i i w 4 8 t G c 9 4 $ # 4 9 a z z J H | 7.j.j.>.u.g.M.l.h.l.b.h.h.k.h.h.g.g.h.h.l.v.l.l.v.n.l.l.l.l.h.h.h.h.s.d.s.f.s.s.s.s.d.f.f.h.h.h.g.s.s.s.s.s.s.s.s.h.f.f.f.f.g.k.k.g.l.l.l.k.g.f.f.8.f.q.f.q.s.f.s.q.f.f.q.q.q.8.8.q.8.5.5.5.5.8.9.8.8.q.q.f.f.f.f.8.,.9.,.;.=.W K W G V h G 9 9 t 4 < < > < e u v n v u p x p p v c v v v v v x x x p p x p p p p p p x v v d p v n v x v d u i p p u p p p p p p x v p c p p u i d n v v x n B B B N B B B v n v x p x v x x v p u v N B B M B B v ! B B B b p u p p u p i u p u p p p u u e e p v B x u < > = = O ",
"% 4 t h z I X.=.8.Q @.@.9.;.9.0.6.3.7.3.3.3.6.s.3.3.s.3.3.6.s.*.3.7.3.7.7.3.7.3.7.s.s.3.7.7.s.s.s.%.*.s.*.s.*.s.s.s.s.s.s.s.g.f.f.s.s.s.s.s.s.s.h.s.f.s.s.f.s.s.s.s.s.s.h.l.l.S.x.F.l.x.l.l.l.h.h.h.h.h.l.M.M.l.l.l.l.l.h.l.l.l.m.c.c.a.0.| W =.:.{ H j y y % % ; ; < < 7 u v v p u e u u u u t r p p u e e u r p d x p p p p u p x v p r u p p p d x n v B B B v B B F B b v v M v p x p p u p p u r u p u p u p p p p p r e e t u u u t t e e u e e e 1 u p u u u u p v v v v p p u c x p p g g w i i w w w g G h t 4 % % > 8 a z H H Z :.0.0.g.3.s.f.m.l.h.h.c.h.h.h.h.g.h.g.d.g.d.h.h.h.h.n.n.v.h.g.g.g.g.h.s.s.s.f.d.d.f.f.s.d.h.l.l.h.g.s.s.d.g.f.s.s.s.g.u.q.s.f.f.g.f.g.g.g.k.g.k.g.f.f.g.f.f.q.8.q.f.q.g.f.u.u.q.q.9.8.8.5.4.5.5.8.8.8.8.8.q.f.f.f.8.8.9.0.0.,.=.W K | W G V j h y t 5 , > ; < q p v M n u i x p x v d d v M M v v v x v x p p p p t p u u p p p p p v v p x x p p d p t u p p x p p d v u p p x p u p v v v M B B v x c n B M v v v x d v v v v v d p x v n v v M B v B B B B n p p x p p u r t p u p p p p p u u p v B x u < ; ; = = ",
"> , 8 g k L X.=.4.Q @.@.,.9.0.0.6.s.7.7.7.s.6.s.*.s.3.6.*.s.*.s.3.7.s.7.3.3.3.3.7.3.3.s.7.3.3.3.%.s.s.*.s.*.s.3.s.s.s.s.s.j.f.f.s.s.s.g.h.f.f.h.s.h.f.s.f.s.s.s.s.s.s.s.h.l.l.F.F.l.S.F.F.l.l.l.s.s.h.h.l.l.l.l.M.l.l.M.n.n.l.l.c.c.c.w.,.=.| =.2...H j y y $ % = > < < q u x n p e 7 u u r p p u u p u u u u u e t p p p p p p u u p p e e p x v x v v v v v v n B ! ! B v v v M v x p u u p p p u t p p p u r p p p t u u e e d p p u p p e e e e u i 7 u u 7 r u r p p x c v p p p v v d u c c w w i i w w i G g 7 4 % % 4 t h G z j j :.a.a.x.4.f.s.l.l.n.n.h.h.h.h.h.h.g.g.q.q.g.h.h.g.h.n.n.v.h.g.q.s.d.g.8.s.d.f.f.f.f.h.f.g.g.g.g.h.h.g.f.g.g.h.s.s.s.s.f.f.f.q.f.f.k.k.u.f.f.f.g.g.g.k.g.f.q.8.q.u.s.f.g.f.u.8.s.s.q.8.8.4.4.5.8.8.8.9.q.q.q.f.f.f.q.8.,.0.,.,.=.W W W | K G j h a 9 5 < < > < e p B B b p p k p p v x v v M b v v c v v c x x p u p u u u p p p p v v v p p v p p v p u p p p d u u p n p p x v x p p c v v M b M x x v n M v v v v v v v v v v v v p u p x v v v n B v v x n x p p x x p u u u u p u p u p d p p x n B p e > ; ; = = ",
"> 4 9 h k P | @.-.W @.=.9.,.9.0.7.3.s.t.s.s.t.s.s.3.3.3.s.*.s.*.7.7.7.7.4.3.3.4.s.3.3.7.7.s.6.s.*.*.s.s.*.s.3.3.6.s.s.s.s.f.f.s.s.s.s.g.h.h.h.l.s.h.f.h.s.s.s.s.s.s.s.d.h.h.S.l.F.l.l.F.l.F.l.l.h.h.h.h.l.l.l.l.M.l.A.S.M.M.m.l.c.c.c.0.=.| | | ,...H h y y $ # % ; < < 1 u p v p q e u u t p p u u u u u e u t 1 u u u u u p p e u r e e e u x x x u u p p d x v B B B n x p p v p p p i u p c p u u p p p r t t r u p u r u e p u u u p u r q q e u u e u u u u u t p p d x p n p p v v p p p i w g i w 4 4 w G k t 4 > % 4 8 j z j j z =.a.k.x.7.s.s.l.l.m.v.h.h.h.h.h.g.g.s.g.s.d.h.h.s.w.g.h.h.h.g.d.q.q.g.s.s.s.s.f.d.s.d.f.d.d.f.g.g.g.s.s.s.f.g.s.s.8.s.f.f.f.f.f.f.f.g.f.f.f.f.f.g.g.g.f.f.q.q.u.f.f.f.g.f.q.q.q.f.q.8.5.5.4.4.5.5.8.8.q.q.q.f.s.s.8.8.,.9.,.,.=.W W | | G V h 9 9 9 4 < < ; < e d B B M u u p p x v p x v M M v v x v k c x d p u p u p p p p p x v v v v v v p p x u p y p p p u u p x d v v v v v x x v v n v v v v v M b v v v v v x v v p x v x p p x x M n B B B v p p u u u r p p u e u u p r u p p x x p p p n B p e < ; ; = O ",
"4 4 t h k P ..| -.Y $.=.,.,.,.0.t.s.s.7.7.7.3.7.3.s.s.3.*.s.*.s.8.4.3.3.7.7.7.3.s.6.7.3.7.3.3.3.s.s.s.3.j.s.s.3.j.j.j.s.s.j.f.s.s.s.s.s.s.h.h.h.f.h.h.s.s.s.s.s.s.d.d.h.l.l.l.l.l.M.F.x.F.x.F.x.l.h.h.h.h.l.l.l.l.x.x.A.A.M.m.v.c.c.c.0.,.| | O.,. .G j a y $ % ; > < < 1 r p v c e r u p u u u e r e 3 e e e e u u t r u u p k u u e e e t p v p u u r u p x x v v x v x p e e p u e e r u u p v p p p p u u u u u u u t u u e w e e u r u u e e 1 u r e u v p u u p p v x p p b x p x v p p x i w w g i 4 4 w L G y 4 % % * 8 h j j J S %.y.N.b.5.s.s.h.d.l.m.g.h.g.g.h.h.d.d.g.q.q.g.9.;.-.-.q.q.g.g.g.d.g.h.s.s.s.s.d.g.s.5.s.d.f.g.h.g.s.5.s.s.f.f.s.s.8.8.7.8.f.f.f.8.8.8.g.f.f.f.f.f.g.g.q.8.8.q.f.f.g.f.g.f.s.q.q.f.8.8.5.5.4.3.3.5.5.8.q.q.q.f.q.8.8.5.,.,.=.=.=.W K | =.K z z h a y 4 , ; ; > q p M B M p u p p v v p x n B n n v v n x x p x p p p u d p p p p p p x B v v v d p p u p p u p p u t p p p v v v p x n d v v v v v v M v v n v x x v x v v v x p v v x x d v v v v v v n v p r u q q e r u e r p p u e t u p p x p d n B v u < < ; = o ",
": 3 3 b F  .'  .$.' #.%.3.7.7.7.j.s.j.6.7.6.3.6.s.s.s.4.4.3.3.3.6.s.3.3.4.3.4.4.8.8.5.8.5.5.;.3.3.5.8.9.8.8.8.8.f.f.f.g.f.q.f.q.f.s.f.h.g.g.g.g.j.h.j.f.f.s.s.s.9.g.h.h.n.v.n.l.Z.A.B.A.A.A.A.A.A.A.m.m.v.v.m.m.h.M.M.S.l.M.h.h.h.h.h.s.%.+.E 6.*.*./ y 0 r - : O ; < < e p v n p e e e e q u p u r e e e e u u e t u e q u k x u u t u u u p p p x v u t u u u p k v x p p p p x u u t p p p d p p p p p p p p r p u p u t r u 3 e e e e u u u 1 e e r e r e e u p x n v p p r p u p p p p t i t t i i i e w u v n g > & $ 4 9 j j H j V $.u.b.k.,.q.7.a.g.l.l.f.h.d.w.d.d.s.h.w.9.l.l.4.@.$.;.;.3.j.g.g.t.d.b.h.d.s.g.s.s.s.s.s.s.s.s.j.j.s.3.s.s.j.6.s.s.s.s.s.s.s.s.s.s.*.s.s.5.s.s.s.s.s.s.s.s.s.8.8.t.f.g.s.s.t.s.8.8.8.8.3.6.3.3.3.7.s.s.3.s.7.s.s.3.s.s.*.3.3.%.+.E R #.<. .I h l 9 9 4 > ; ; < 1 v ! ! B p p p p p v p B v B v x x v B v v v v v c x p x p u u p x v v M B B v p c p u p p p t p u p p p p p c v v v c x x x v n v v b c v v v x x v x v v v p d c v v x p p v v v v v u e u u u e 7 i u e 1 7 u p v k u p p x d u u n n v p 3 - O = ; ",
"< 3 3 l b ` ] ' ..E #.%.;.4.s.s.s.6.s.6.s.s.s.7.3.7.4.4.7.4.7.3.3.6.3.3.4.3.4.3.4.4.5.4.4.4.5.3.4.4.8.8.8.q.q.8.f.f.f.f.f.u.f.f.f.g.s.h.j.g.g.g.s.g.s.s.s.s.s.s.d.g.h.v.n.n.n.n.n.n.n.m.A.D.D.A.A.A.m.m.n.n.v.m.M.M.M.M.l.h.M.h.h.h.d.s.3.%.+.7.t.e.] d a r o . ; ; < 1 e u p v p e e u e e u t u u t r e e e e e u r e e u u u u u u r r t u r p p p p r p p r u p c v x p x v p u u p p p u p p p p p p p p p u t p t u u u u u u u u e i r e e e u u u u e e u r p p p p p p d v x p g p p p t w i i u e w w v n g > > o * 8 l z H j H 5.k.N.h.:.0.,.g.l.n.l.h.h.h.v.n.g.q.h.g.n.m.q.%.$.%.@.%.%.4.8.8.7.0.0.g.g.g.g.s.s.;.s.s.s.s.3.3.s.t.s.s.j.6.s.6.j.s.6.s.6.s.s.s.s.s.s.s.s.5.s.g.s.s.s.s.s.s.s.s.s.f.g.f.s.8.8.s.s.s.8.s.7.s.6.3.3.3.t.s.7.7.6.s.3.*.3.3.6.%.%.+.T T #.<. .I h g 9 9 4 < ; > 1 q x B B B p p x v v v x v B B n v x B B v v v v v v d p c k p u p x v M v b B x x v d u p p p p u p p p p u p d v v x p x x v b n v v M v c v v v v v v v v v v v v v v x v v x d v v v u u u p u u e u u u e u u p p t u c c d p e u v v v u 1 = O O O ",
", 2 e d f ` ..]  .T +.%.%.s.4.s.6.s.s.s.s.j.t.s.s.3.7.4.7.4.7.3.3.s.3.3.3.3.3.7.4.4.3.5.5.4.4.5.5.8.8.8.q.s.u.u.f.f.f.f.f.f.f.f.g.g.h.h.j.j.j.s.s.s.s.s.s.s.j.s.g.h.h.h.l.v.n.m.n.v.n.A.A.A.D.A.m.m.m.m.m.M.M.m.M.h.M.M.h.h.h.h.d.s.d.s.3.*.#.s.j.r...A f y @ o ; > < 1 7 u v v p 1 q r e q u u 1 u u p u q 7 e e u e w e u u u u e u e u u p u p p p u u u u e u u p p p p d x p u r p p u u p p p p x k x p u p u u p p r u u u p p u u r u e u t p p u u e e u u u u u u p p v x v x v p g p t t w i w w u u v n g > > o 4 8 6 0 j h z a.N.C.k.:.5.5.h.B.B.l.l.h.s.s.g.u.f.l.l.l.g.3.E +.%.@.+.%.3.3.3.>.>.4.f.g.g.d.s.;.s.f.s.s.7.s.t.6.s.s.j.s.s.6.s.s.s.s.s.6.s.s.j.s.s.s.f.f.d.d.g.s.s.s.8.s.s.s.s.f.f.j.f.s.8.8.s.s.s.s.s.t.s.t.s.3.3.6.s.3.6.3.*.s.*.s.*.>.%.$.| U J ..O...{ k h 9 a 4 ; ; ; < q x B B n p p n v v n x B M B n b v B B x v v v v v v v v x x p p x v b x n n x v v v p p p p u p p p g p u p p p v v p v v c M n x v n v v v v v v v v v v v v v v v v d v v v c x v M u p p p u u u e t r u u u u u u p v x p u u e x B B x 1 = O o   ",
"@ : r b d  .*...#.T ' %.%.7.7.7.s.s.s.7.s.6.s.7.t.s.7.4.3.s.7.3.6.*.s.3.3.3.3.3.3.3.4.4.5.8.8.4.s.9.q.q.f.f.f.g.f.f.g.f.f.f.f.f.g.j.h.l.j.s.s.s.s.s.s.s.s.s.s.j.g.g.h.g.g.h.l.b.l.v.n.B.A.A.A.A.m.m.m.m.A.A.M.m.M.M.h.h.h.h.h.h.d.d.d.s.6.%.#.s.r.<.] A l a - : O ; < < e p v n p q q u 3 e u r e u u p u e q e e e e q e e e 3 e r u e t u p p p p p u e e e w u r u u u t p u p u p u u r t p p u p p p p y p p p p p u u u r t u p u u p i u u u p u e e q e r t p v v p u t p x x c d p p p t t i i e w w u n M k 4 4 % * 8 a G H V j y.i.a.u.$.,.-.p.g.g.f.q.h.g.9.f.g.g.l.8.%.$.$.Q E +.@.+.+.%.3.>.-.-.3.4.0.9.9.s.s.s.s.s.s.f.j.j.s.j.s.s.s.j.t.s.j.j.s.s.s.s.j.g.s.s.s.h.g.h.g.g.d.s.s.s.j.s.s.f.g.f.f.s.t.s.s.s.f.f.t.t.t.s.s.3.7.s.s.7.6.s.7.s.*.s.3.*.3.%.$.} T P } ....{ j g a a 4 O = ; 1 e b ^ F v p p v x v M d v v M M M v v v v v v v v v v v v x x d p x v M x v n v v v v p p u p u p p p v p p p u p p p x v x x v v x x v v v v c v v v v v v v v v v v v x v v v x x v b t p p r e r u e u u p p r q u p p x p p p e e v B B v e ; =     ",
"+ : r b d  .<...#.T ' $.%.s.7.s.j.s.6.6.6.s.7.s.3.3.7.s.7.7.7.7.s.s.*.3.;.3.3.3.;.3.4.4.5.8.s.s.q.f.8.s.f.f.g.f.k.g.l.g.f.f.q.s.f.g.j.h.g.g.s.s.6.s.6.s.3.s.s.s.s.g.g.g.g.g.h.v.l.v.b.m.Z.Z.m.n.m.m.M.M.A.A.M.M.h.M.M.h.h.d.h.h.h.d.h.s.s.+.+.s.6.:.P a d y @ ; O ; > 1 e p n M v e 1 e e q t p u u r u u u e e u e e e e e e e e u u e u u p u u e e e e e 1 e e e e e e u r t t p p i u e u v p p u u u p p p p p p p p u u t u u u u p p r r e u u u e 1 e t p p v v v p u u p d x x x p p i t t g t e w e i v B v , , % 4 9 s S Z J Z j.k.j.>.Q $.$.;.;.;.;.-.g.B.b.b.n.u.,.$.' ' #.Q E +.+.' +.%.%.%.3.3.%.-.3.;.3.4.5.s.;.3.s.3.s.s.s.s.3.s.s.s.s.s.s.j.s.g.s.s.s.f.f.g.g.h.h.h.h.g.g.g.g.f.f.f.g.g.g.f.f.s.s.s.f.j.g.f.s.t.s.s.s.s.7.7.s.3.7.s.3.6.s.3.3.-.,.-.$.| T J }  .{ ` j k r y , > ; < e u B ( ^ B p p d d x v x v v B v v M v v n v v v v v v v p x x p p x v n v M v v v v x x y u p p p x p p u p u y p p p x v x p v v p p x v v v v v v v v v v v v v v v v v n n v x p v v e p p t u p p t u v B M u q r v v v x x v r u v n v u 1 ; O O   ",
"+ : r f f ` &...#.) ' +.$.s.s.s.s.s.s.j.s.7.s.j.s.t.s.3.8.8.7.7.*.3.3.3.3.3.3.3.4.4.3.8.4.s.s.8.q.8.8.q.f.g.f.f.k.k.k.g.f.u.u.q.f.f.f.g.f.s.s.3.s.s.s.s.s.s.s.s.g.g.d.g.s.g.h.h.l.l.v.v.n.n.n.n.m.m.M.A.M.M.m.A.M.h.M.M.m.h.h.h.h.d.h.s.s.s.' s.y.<.I h f r @ ; ; ; < 1 e u p d x e 1 e q e u u t u e u r u u u r e q r r e e u u i i e r u u u e e q e u e e e e 1 1 e e u p u u r r u e e u v p p p p u u p p u p u p p p p p r u p u u u u u r u p u r u u p p p p p p p p v c p x p k p p p i t g t e w e c v n v , , % 4 8 a s 0 j K k.b.i.%.E $.Q %.@.%.@.| 0.g.7.0.u.>.} E ' #.' +.@.$.E +.' ' +.%.*.*.*.4.3.;.;.5.5.5.3.s.3.%.>.3.6.3.3.3.s.t.s.j.j.j.s.s.s.s.s.s.f.g.g.h.l.h.f.d.d.g.g.j.f.f.h.k.l.f.s.f.f.f.g.k.g.s.8.s.s.j.6.3.7.3.7.3.7.6.s.s.*.3.3.,.,.-.$.} J P {  .{ I g g 8 9 : > ; < q e n ! ! B x x x p v v x B v v B M M b v v v v M v v v v d c v v x d v v M b M M v v x p p p p p p p p x p p p p u p p k v x v p v p x d d x v v v v v v x v p v v v v v M v M v d p p p p p d p p p x d u v F ^ M u p v n n M v B p u v n v u < = = O   ",
"o 3 3 f a F ` X.$.T } $.%.s.s.7.6.s.s.6.t.s.s.s.s.t.t.7.7.7.4.4.*.s.3.3.3.3.3.3.4.4.4.4.8.8.s.8.q.q.q.f.f.g.f.f.g.k.l.g.g.f.f.f.f.f.f.f.f.s.s.s.s.3.s.6.6.s.6.j.g.d.g.g.g.g.h.h.l.h.h.h.b.n.l.l.n.M.A.A.m.m.m.A.M.M.M.M.h.h.h.m.h.h.h.s.s.s.E s.i.1.) l l d % : = ; > , < u p p d w q e e e u u r u t u u u t p t u u u e e u u u i u e e u u r e 3 e e u u 1 e 1 e 1 e e u u u e e u r u r u p g p p p p p u u u r r p u u p u r p p t u p p r p p p t u p p p p p p u p u p v p c p v g p p p t t t t e w e x x v d > > % 4 9 z j s s z >.1.=.%.E +.+.;.;.-.%.@.-.$.} } | } } ' ' $.$.' $.$.E ' +.' ' #.%.3.*.4.8.4.4.;.8.s.4.3.3.3.>.3.7.7.3.s.6.s.s.s.s.s.s.f.s.s.s.s.g.h.s.l.M.l.h.g.h.l.h.l.k.g.j.l.g.g.s.j.g.g.k.k.k.s.8.s.t.t.7.7.7.7.4.3.3.s.3.*.3.3.*.,.3.>.$.} K J {  .I H a d 7 7 ; ; ; ; 1 e x F B B x x v x v n v M M v b B v M v n M v v v x v v x v v x x x c M v B n v n x x x p p p p d x p p u p p p p u p x b v x v v p v v x x v v v x d x v p d v v v v v v n v x x p p p x p v v v p x v p p M ! n p u v v B v n v p u d B M i 1 = O O   ",
"- 3 3 y p S ) &.#.R +.%.3.s.s.s.j.s.s.j.s.t.6.3.t.s.3.s.s.8.7.4.6.3.6.3.3.3.3.3.4.4.3.4.4.4.5.s.f.q.f.f.k.l.k.f.g.g.g.g.g.g.f.g.f.f.f.f.s.s.s.s.6.s.s.s.s.s.s.s.s.s.d.d.g.g.g.h.h.g.g.g.h.n.l.v.m.M.A.M.m.v.n.A.h.M.M.M.M.v.h.M.h.h.h.s.+.%.E s.1.$.P k b k % , o = ; ; < e u p p 1 1 u u e e 3 u u p p u r p p u u u i e e r g r e u r e i p p p e u r t u 1 1 e e e q 1 e e 4 q q u p u u u u p p v v v p p u e e u u y u t p u p p p u p p p t p p p p p p p p p v v k p u u p p p p p p p u t t t g w q e p v n c > > $ 4 y h s Z l S $.0.a.%.U +.+.3.3.;.%.$.$.| | X.Q T | #.' ..&.#.' +.$.#.%.%.+.#.s.3.*.;.4.5.3.;.s.5.5.3.3.6.s.7.7.3.3.*.s.*.*.s.6.j.s.s.s.s.s.s.g.h.g.l.l.M.h.h.h.l.l.l.l.g.k.l.k.g.s.l.k.f.f.f.f.s.s.s.s.3.3.3.s.7.7.s.6.3.3.3.*.3.s.,.4.-.$.} J J `  .L S y d 6 3 ; > ; < 1 u M ^ ! n p p v v v v x n v v M v v v v n v v v c x d v v v n v x x v b M n v M v v d x p x d p p p p p u p p p p u p p M v v v v p v v d x v v v x p p c x x p p p v v x p p p x x v x v p p v v p u x n p u x d u p v p x x v v p u p v x e ; O =     ",
"- & r r f D ) &...' ' 3.t.7.s.3.3.s.j.s.3.s.s.%.3.5.8.4.4.s.4.%.s.*.s.%.*.3.%.3.3.3.;.4.5.8.5.8.q.f.q.q.f.h.k.g.f.f.f.g.h.g.f.8.s.s.s.s.s.3.s.*.s.3.s.s.6.s.s.s.s.s.f.g.g.h.g.g.h.g.g.g.h.h.l.l.l.M.A.M.l.m.M.S.S.M.l.l.m.h.M.h.h.d.g.5.4.>.$.r.2.X.H k k k t , O ; ; ; 1 e p v p e e u u e u p u p r e u u u e u i u t e e u p e e e e u e e e u u e e e u e 1 u e e e e e e e u u u p p u u p v p x p u t u p v p u u u g p u p u u p p p p u p p i u p p p u p p p p p u p k p u p p p p t t g t g t t t 4 g v v p 4 , @ 7 d 9 a 0 h Z } 6.i.>.E Q -.;.-.;.-.$.$.$.| | } {  .' ' ' #.....] ..' #.' #.*.3.*.3.8.5.3.3.5.5.5.5.3.3.3.3.3.3.7.7.s.3.3.s.s.s.6.3.s.s.s.;.s.;.s.s.f.l.x.x.l.M.l.l.n.k.f.l.l.l.g.f.l.l.l.x.f.s.s.8.t.t.6.3.3.3.3.;.3.3.3.3.3.4.3.3.>.:.-.+.R P P ` `  .F a d e : : - ; 1 1 e p B ( B p t p v v v p v v v v M M v v x v v v v x x x v v v v v n v v v v B B x x d x u p p x x v v d x x d x p p d n x v v v v c v v x x p v v v p p v c x d x p p v v v v v v p p p p x x v c c x d c v x v v v v x p u v v p r u x B d e > ; O   = ",
"& & r r a F D ..#.T ' %.3.3.4.3.3.3.*.%.*.3.*.%.3.3.4.4.>.;.4.4.*.*.%.3.3.%.%.3.%.;.3.4.5.8.s.s.8.q.f.q.f.g.f.f.g.f.f.f.g.f.f.s.s.s.j.s.s.s.s.s.s.s.s.s.s.s.6.s.s.s.s.s.d.g.d.g.h.g.d.g.k.h.l.l.l.m.M.m.l.m.S.S.S.M.m.m.v.m.h.m.h.h.h.s.3.>.$.7.2.O.H h k k r , O ; ; > 1 e u v p e 7 u r e u u t p u u r p u u r u u p u e u u u u e r u e e e u u u r e w e u r u e e e e e e u r u p p u p p v v x k x p p p k p p p p p p p p u r p p p p u p p p u p p p u x x v v x x v c v u p p p p i p g t t t t t w g v v u 4 , @ 8 y 0 h j h z R *.6.-.Q Q >.3.;.%.%.| X.| | { W { R ' ' ' #.#.....' #.#.#.*.*.3.*.3.5.8.3.3.3.3.5.5.s.3.3.3.s.3.3.s.6.7.s.3.6.6.s.s.s.s.s.s.s.s.s.s.s.s.l.l.l.M.M.l.B.l.l.l.Z.l.g.f.g.k.f.s.s.s.8.s.s.t.s.3.3.3.3.3.3.3.3.3.4.4.4.4.,.>.>.$.' J P T P ` B y y r : @ - > 1 q q p M ^ B u u v d v v v B v v v v v M v k v v x v p v v v v x x v v n M v M B v v v v x u u e p x v x x p x x x p u u v p v x c x k v v x p p x p v p p x x x p p x v v p x d x p c v v v v v n n n v v v c x x x v v d p p p v p u u p v p 3 < ; O   O ",
"& : r y f A / ..#.T ' %.3.3.s.7.j.s.*.s.3.s.s.s.g.3.$.*.8.4.4.4.s.s.#.%.#.+.+.' +.;.;.3.;.5.5.5.;.;.5.5.q.f.f.q.f.f.q.q.8.q.q.q.s.s.j.s.6.s.3.s.s.s.s.6.6.s.s.s.s.s.q.s.s.s.s.f.h.h.g.s.g.g.l.l.n.m.m.m.l.S.F.F.F.S.M.m.v.M.m.h.h.h.g.5.,.%.$.6.1. .S s h p 7 ; O % ; < 1 e u v u u e q e u i p u u u r u t u e u u p u r u r t i u e u u r u e 7 e u u e w e r e u e e w e e e e e t p d p p v n v p x k v p u u p d p u u u p p u p t p p u u x x p p p p p p p p k x x k p x p u p p k p p p g t t t w w w c n v p 4 , % 8 8 0 0 j j z R $.2.-.Q } ,.;.;.-.=.| | W W } W W W ' '  .#.&.$...' ' #.#.#.3.3.*.3.3.3.3.3.3.5.3.5.s.3.7.s.3.3.3.3.3.6.6.s.6.s.t.s.s.g.s.s.s.s.s.s.s.d.h.l.x.M.l.l.n.l.l.x.x.l.g.f.k.k.f.s.s.t.f.f.s.s.s.3.3.3.;.%.3.3.3.3.4.8.8.7.>.>.*.$.E D Z S F ) z r y 8 ; @ - ; 1 1 e u M B B u u x c x n x v v v v v v b v v v v p p p v v v v p p x v B n M b M n B M v x v u t d n v x x c p p p p t u p p x x d x x v p v v d x v x p p p k p p p p v v p p p c d x v v v v v v v v v v v c v d v v v v v p x v p u r p x u 1 < ; O   O ",
"@ & r r d D / &.#.' +.*.3.s.s.s.j.s.s.j.j.j.s.j.x.8.%.%.3.3.>.$.' ' #.#.%.%.3.s.+.+.$.$.+.+.+.%.%.3.3.5.8.f.f.q.s.8.8.4.7.8.8.8.3.6.s.s.s.3.s.s.j.s.s.s.s.s.6.s.s.f.9.9.s.s.s.s.h.s.s.9.w.g.v.n.m.n.n.l.l.Z.F.F.F.S.M.m.m.m.v.m.h.g.g.4.3.%.$.6.&.' m d y r 7 > O ; ; < 1 q u p t u e 1 e i k p r u u u r u u u r u u y u u u u p t e e u u e w e e u u u e e e w e q e e e e u e r u u x v v v v x p p p p p p u u p p r e u u p p p p p p p p k p p p v p p g u p p p p u u u p p p p x p p p g 4 t t w w w g n c r < , % 8 8 0 0 j j z K =.7.-.Q +.-.;.;.;.@.=.| | { | | W K  .' ' ....' ..#.' #.#.#.%.*.*.6.5.3.3.3.3.3.3.3.3.3.3.6.s.3.3.s.s.s.3.6.6.6.s.s.s.s.h.j.s.s.s.s.s.d.h.h.l.M.l.h.Z.Z.l.l.g.f.f.f.k.g.f.s.s.s.s.f.s.s.7.3.%.3.3.%.%.;.3.3.3.4.5.5.>.-.%...R S Z C F F l 8 p 8 & % ; > < 1 3 u v B b u p x x v v v B c v v v v M v x c x x p v v n v d x p x v v B B B M B B b c x v u t v v v p v v v d c p p u p x d p p v p p v x x x x p c x d p p x p p x c v p x x p x p p p p x x v v x v v v v v v v n v x d v v n p i u u p u q < < =     ",
"& : r r d F ) &.] T ' %.%.s.s.s.j.6.6.j.j.s.s.s.s.g.j.3.+.E Q +.+.+.+.%.3.j.j.j.z.l.k.f.f.u.f.k.f.f.f.8.q.q.q.8.8.4.5.5.4.4.4.3.3.s.j.j.s.s.s.j.s.s.s.s.s.s.s.s.s.s.q.w.q.s.f.s.g.s.q.q.g.h.n.n.n.m.h.h.M.S.G.F.F.S.M.l.l.l.m.h.g.d.g.s.;.%.} >.X.K z 0 y r 5 , ; = ; < 1 w u x r u e q u u p p e u u r e e u t u u r e u u u p p p u r u u e 7 e e e e u u u e e 7 e e 4 e u e i u u p p v v x v v v p u u p d p u p p p u u p p p p p p p p p p p p p v p v c p p x x x p p p p d x p g g g y g t g w w w w c v c u , 4 # 9 7 0 j j j V J } 1.=.} } =.;.-.;.=.=.@.| } | | W W K W Q { ' ' ' ' ' %.%.*.3.3.3.3.3.3.3.3.3.3.3.3.3.3.3.3.s.3.3.s.6.3.3.3.s.s.t.s.s.s.g.g.g.g.s.s.s.s.s.s.g.h.h.h.B.l.B.l.g.s.8.s.s.s.8.s.8.s.8.4.7.8.7.3.;.;.;.%.;.3.;.*.3.3.3.3.,.>.%.#.` D S S F L b p d 3 - ; > < < 1 q r c M v p p x p x b v v v v v B v v v p v x d p v x c x d x x v v v b B n v M M n v x d u p x p r p v v x p x p u u i c p x x v p v p x x v x x d c v p x v p x p p x p v p v p p p p p v v v v x v v x v v M M b x x v v v M v p i p p p e < ; =     ",
": : r r d A P &.' T #.*.%.*.s.6.s.s.6.t.s.s.6.s.8.f.k.8.;.%.;.%.3.%.3.%.3.3.s.s.g.g.f.f.f.g.l.n.g.g.f.u.q.f.f.8.5.8.8.8.5.4.4.4.3.s.f.f.f.j.s.s.s.j.s.s.s.s.j.s.g.s.s.s.d.g.s.s.g.s.d.h.l.n.n.A.v.v.m.v.m.S.F.F.S.S.M.m.l.l.h.h.l.h.s.5.3.%.E | X.P k h d r 4 1 ; = = > 1 1 e d u e e u r p u p t u u u e e u p p u u u e u u p p u u u e e e e e e q e u t u 7 u u e e e e e e p p u p x v n x x v v p u u p v p u t u p u i r u p p p p y p u p u p p p x p v p x v v x p c p v v v x x c g i t w i w i i w i c k r > 4 $ 4 8 0 0 j j j J } >.$.Q | $.%.-.;.-.@.| Q | | W W W { W Q } ' ' ' #.' %.*.#.%.%.%.3.3.3.3.3.3.3.3.;.3.>.%.3.3.3.3.3.3.s.6.6.6.s.s.s.s.s.g.g.s.s.s.s.s.s.s.s.d.s.s.s.g.g.l.Z.l.s.8.4.8.8.5.8.t.8.5.3.3.3.3.%.>.%.;.;.%.%.%.;.%.3.-.-.>.*.$.{ R D S S P P b y d 7 @ @ ; > 1 1 q u x v d u p p u x M v v v n B B B v x p x v v v x x k p x v n v v v M n M B v v n p p p p x v x u p n v p p p p p u p v v x d v v v x k x d x v p x v x d p v p p p x p p p p x k v v u p x c p p x v x x v M B v x p v n n v v p u p v v e < < = o   ",
"@ : y d a b F { ' ' #.%.3.s.s.6.s.s.s.s.6.s.j.s.t.s.8.t.s.f.q.4.+.+.%.%.%.3.s.x.g.f.q.f.g.l.l.l.f.f.f.q.f.g.f.s.8.q.s.q.5.5.5.5.3.3.s.s.s.s.s.6.s.j.s.s.j.s.6.s.s.s.s.s.s.s.f.s.g.g.g.h.l.n.n.n.h.v.m.v.M.S.F.F.S.Z.M.l.l.h.h.h.l.h.d.s.4.%.T E $.P z k k y 5 1 > - = < < 1 e p u q e r p u u i u u p x p u u u p t p r u p u u u p u t e q r u e e e e e e u e u u e r e e u r p p p p d M M v v v v x g p p x u u u u u r u t p p p p p p u p u p x k p p p v p v v k x p p p p v v p p c g g t t i i e u w i g g t > > o 8 9 9 0 0 z Z U } *.+.E Q =.%.;.;.=.=.=.=.| | | Q W } W W Q X...$.$.#.%.%.#.%.%.%.3.3.3.3.3.3.3.;.;.3.%.3.3.3.3.3.s.3.3.s.6.j.s.s.s.j.f.l.g.s.s.%.;.h.s.s.s.s.s.;.s.q.8.f.k.g.s.8.;.8.5.8.8.s.8.4.3.;.3.;.%.%.%.%.%.%.%.%.%.%.-.-.-.*.$...E T S C C P P v r y 3 O @ ; > < , 1 u p x p t p p u d M v v v M B B M B x x x x v p p p v x v v v v v v M M M B B v v x d x v n v v p x v v p u p x p p p v p x x v v v x x c v p p x v v x x c x v p d c p p p x p p p c u p p p p p p v v x x v v v v d v v v c v p p u v v u > ; = O   ",
". & y a s z F ' ' ' #.%.%.s.s.s.6.s.s.s.6.s.s.s.j.s.f.f.f.4.3.4.3.3.3.%.+.%.s.j.k.f.q.u.k.k.g.f.f.k.k.f.g.h.f.8.q.f.q.9.8.5.8.8.s.s.s.f.s.j.j.j.s.s.j.s.s.s.s.s.s.s.s.s.s.g.9.w.q.d.d.h.n.b.v.h.v.m.m.m.m.S.F.F.S.M.M.l.m.h.h.m.l.d.s.s.8.-.J P &.` A l l t 5 , > ; = > 1 1 e v u e e v v u u p u p k n c u r p u p t p p u p r y p p u e w e u e e u e e e r u e e e u u u p p p p p u x n B v v d p v v v u u p p r u u i p p u p x p p p p d p x p p p u p x p v v v v v p p t p p u p p g t t 4 c i e i w i g g p 4 4 # t h h 0 z V J J R } } E } =.-.-.-.@.=.=.=.@.| | | | | R J T | &.$.$.#.%.%.#.%.%.3.3.3.3.3.3.3.3.3.3.3.3.3.>.3.%.%.3.3.s.s.s.s.s.j.j.s.s.g.s.s.s.s.s.d.s.s.s.s.s.s.%.8.5.4.4.8.5.4.8.8.4.4.;.4.4.;.;.;.;.%.%.+.%.%.%.%.%.$.;.-.-.>.>.*.$...} R F l l S F f r p 3 @ @ - ; < < 1 u p p u u p u u x v v v B v v v B b v v c k v p p p v v v v v x v v B M b B B v x x x p x n v x v v x v d p p v v k p v v p p v v v x v v n v p p p x p p x k x v v v p x g p u p u p p d v p p p k v v d x v x x x v x x v x d p u u v v u < ; = O   ",
"o : a d j L I ` ` W Q =.8.8.8.g.8.5.5.5.8.q.f.g.s.8.s.q.f.8.4.>.3.3.3.3.%.3.t.j.f.f.f.g.g.f.g.l.l.l.j.f.f.f.f.u.8.s.f.q.8.5.8.8.3.3.3.s.j.s.s.j.q.f.g.k.g.u.f.f.f.s.s.s.q.s.9.s.s.s.s.h.n.Z.n.h.l.l.l.x.x.G.F.F.F.M.M.M.m.M.h.m.l.h.h.s.%.+.D E %.E T / ` r : 2 ; > ; ; ; 1 1 e u e u p g u e p p p x d v v p u p u u u p p t u u u u r e e u p u u u u u u e i e u t p p u u u d x c v v v v v M v u u p v c u p k k i u u u u p p p p p p u u k p p g p p x d v v x v v v p p p v x p u p p t t t t t 4 t c i M c u < * % t 9 8 z 0 s C / D ' W Q | =.=.,.=.=.=.=.=.| } } | @.$.} R R | $.| { %.%.;.%.%.;.;.3.3.3.3.3.3.3.3.3.3.%.3.3.3.3.3.%.3.3.3.s.s.j.s.s.s.j.j.s.s.s.s.s.s.s.s.s.s.s.3.s.8.3.>.3.3.8.8.8.6.4.4.4.4.4.3.>.>.=.%.%.%.%.-.-.$.%.=.>.%.$.=.>.=.=.=.W J V G j G L k 9 8 , & # - ; < 1 q p p p u u p v v v v p x v B v b M B v v x v v v v v v v v v v M B B B B B M B v v x x M x v v v d p x d M M p d v x u c p u p v p p p v n v x d x v p p d p v p p p v p v d p p p p u p p p p v v v x v c x v v p p v v v v v x p u u d p r < > O O o ",
"& & y a k L K P R } } =.5.9.9.s.8.8.8.8.8.8.8.s.g.u.s.8.9.8.8.5.3.3.3.%.#.3.j.j.j.f.f.h.x.g.h.l.l.g.f.f.f.f.f.u.q.q.q.8.8.5.5.5.*.s.s.s.s.s.s.s.q.f.f.g.f.q.q.f.s.f.s.s.s.q.q.9.s.g.g.v.n.n.n.v.l.M.F.S.F.G.G.F.F.M.h.h.h.h.h.h.h.g.h.s.s.+.E E $.' ../ D f r : ; ; - ; < q e e e 1 u p p u r x x x p p p d p p i r u p u r t u p r u u u e r t i u u r t u e r u u u u r u e e u u u p p p p x v p p p x k u u u p p u u p d p x x v p v p u p x p x p p p p u p p p p v p p p p p v p p p p p t t t t w t i i c n p 1 4 % 9 8 8 j 0 a D ..' &.E } } | ,.=.=.=.=.,.,.,.=.&.$.&.&.| W { | &.| } +.;.%.%.%.%.%.;.;.3.3.3.3.3.3.3.%.%.s.3.3.%.3.3.*.3.3.6.6.6.s.j.s.f.f.s.s.3.s.s.s.s.3.s.3.s.s.3.8.4.3.3.6.8.8.8.3.3.6.4.4.3.;.%.>.>.=.%.%.$.$.$.=.%.%.$.%.%.=.%.=.=.| Q K H j j H K G h t 4 > # ; ; < 1 q p d v u p p d x v n n v B B B M B B v v v v v v v v v n v v n n M v v B v M B n v v v v x v B B c x x c c x v v v x u v v x x g v p p p c v x x v v x v c x n v v p v p p x p p p p p x p p x x c d p p p p p p x x x v v v x p p u u x p u < ; =   O ",
"@ & r a z ) { { R } @.=.5.s.9.q.q.q.q.9.8.8.8.8.f.f.f.8.8.8.0.q.*.6.3.%.#.s.h.x.g.f.g.x.l.l.l.l.l.g.g.f.f.f.f.f.q.q.8.8.5.8.5.4.s.s.s.s.j.s.s.s.f.q.q.f.f.f.q.s.f.s.s.s.s.9.q.9.q.g.v.n.l.h.l.n.S.S.F.F.F.G.F.F.F.M.h.m.m.h.h.h.l.d.h.s.;.+.D D +.#.&./ A f r : ; - O = 1 u p u q e u t p u u u v v c p p x x v p x v v p u p v p u u u p p e e u r r u r e e u t r u e e u u r p p p p v x d p v p p v v u u u u p p p p p x p p p p x p p p p x c p p p p p u p p p p p x x d p k x x p x g p t g t 4 w t t i c v p 4 4 $ t 9 h l 8 s D ..#.*.E } | | =.=.=.=.,.:.=.,.=.=.$.$.$.| } } | | | } +.+.%.%.%.;.%.%.3.%.3.3.3.3.3.3.3.s.3.3.3.3.3.3.3.3.3.s.j.s.s.j.s.j.j.f.s.s.s.3.s.6.s.3.s.s.3.s.8.8.4.4.8.8.8.4.4.3.;.>.3.3.3.;.:.>.>.=.%.$.$.@.:.%.X.@.%.:.>.%.=.=.Q Q W K V V H W G l d , > % ; , < 1 q x v n p u u p x B n M v B B v v n v v v v v v v x p v M B B M B M v v v v n b v v x v c v v B B M v p M x d v v p p x v v d x v v p p p x v k p x p p x p v v v x x v p v v p p x p p p p p p p x p p p v p u p v v x v v x d p i u e v p u 1 ; O O   ",
"@ - y f m  .X.&.P | %.$.4.f.9.8.8.q.8.q.9.q.q.9.8.q.f.f.q.q.q.q.s.s.3.%.$.s.h.x.x.g.s.g.l.l.x.l.k.g.g.g.k.f.f.f.f.s.8.8.8.8.8.4.%.s.s.s.s.s.s.j.g.s.8.q.f.f.q.f.s.s.s.s.q.s.q.s.9.g.l.v.h.h.h.b.l.M.F.G.G.G.F.F.F.h.M.h.M.h.h.M.M.h.d.s.;.%.D D #.&...D C r 8 2 > ; O ; 1 u d x e r t u r t p u d c v v x p x n p v v v x d p v x p p v v x u i p u u u p u u u p p u u u t u u v v c v n v x p p u u v v p p p p v v p p p p u p p p p p u p p x x d v p p p p x k p v p x v x p x v p p c k g t g t t t w w i v k p , > # 9 7 k z a f A &.6.6.E | | | ,.,.=.=.:.,.:.:.:.=.X.} | { R W W W { W +.+.+.%.%.;.;.%.3.3.;.;.3.3.%.;.%.%.%.s.3.%.%.3.3.3.3.3.s.3.6.j.f.j.j.s.j.s.s.s.s.s.s.3.s.3.s.3.8.4.3.3.4.4.4.4.3.;.;.>.%.3.;.>.%.%.>.>.:.=.%.$.3.>.%.$.%.%.>.>.=.=.| W W K H j G ` G b y 4 > % ; < < 1 e p B M u r u u p v v v v B B n M B B B b v v x v v v v v v n v M b n v v x x x v x k x b M B B ! M x d M v v c v p p p p p p p u p p x x v v v v p p p x p v v v d p v p x p p x p v p d c x d x p v p u v k u u v n k x d x x p r e e x p e < ; = O O ",
"+ & a f f P ..&.J $.%.%.4.s.8.5.q.8.8.8.8.q.f.f.8.q.f.f.8.8.q.0.*.3.*.*.s.*.j.j.x.h.g.s.l.l.l.l.k.g.g.g.g.g.f.f.g.s.8.q.q.q.8.4.s.3.s.s.s.s.j.h.l.q.8.q.f.f.f.s.s.s.9.s.9.s.q.s.q.s.g.h.h.l.b.h.l.l.F.F.F.F.F.F.M.h.M.h.v.h.M.M.l.h.f.s.%.+.E E &...` A A e r 3 < < ; % < e x v e u u 3 e u p u p p x x d p x x x d p p p p p p x c v v v p p v p t p u p t u u p p u p t y u p x p d v v v p i p u u d p u u n p v c v v p u p p p p p p x d x p p p p p p p p p x v x v v v n p p v p x x v p y i i t w w w u g v u : > % y y y h 9 j C &.e.j.} #.+.$.,.:.=.,.,.,.:.:.:.=.| { } R R R R I W } +.%.+.+.%.3.%.%.%.;.3.3.%.3.%.3.3.3.3.3.3.%.3.3.3.3.3.s.3.s.s.s.f.f.f.s.s.s.j.s.s.6.s.6.3.s.3.s.8.3.3.3.3.4.4.4.3.;.;.%.%.3.;.%.%.%.%.-.>.>.-.:.,.,.>.>.>.>.3.7.:.=.| W W K H j I { G h a 4 > # ; > < 1 e p v B e e u u x v v v B B B B B B B B M v v v x v c x v v v v B v v v n v v x x d x p B B M B B v v x p v v p p x x u v p p u r u p p p v x v v p p p v x x v v p x n p k p c x x x p v c v x x p v p k v v p u v v p p x p p p u e e c p e 1 ; =   O ",
". : a a f ) X.1.P | %.-.5.q.9.8.q.q.q.8.q.f.g.g.f.f.f.8.8.8.9.q.s.*.&.*.*.#.*.s.l.x.h.g.h.x.x.l.l.k.k.g.f.g.f.f.g.f.f.f.f.q.8.5.s.s.s.s.j.j.l.x.g.f.8.f.f.f.8.s.9.s.s.s.s.9.q.s.f.f.d.g.h.v.h.h.h.M.M.S.F.F.F.l.M.M.M.M.M.h.h.M.h.h.s.s.%.+.' D &.T F A f 3 3 r 1 1 : ; > e x v q e e e e p p u u u p u u p p p v x p p p p p p p x k v p u u v p t r p p p u p r p p p p p p u u p x x p x p x t p p u u u p p p u p v c p p k x x v d x x x x p p p p p p p p p p x v v x v v p v v v p v k p i t w t w w w u v v t > % % t h y h a G C #.t.j.+.$.+.+.=.,.=.,.:.=.=.&.| } { W W R K R W R { | +.%.%.%.%.;.3.3.%.3.;.%.%.3.;.%.3.%.3.3.3.%.%.3.3.3.3.3.3.j.s.s.s.s.s.s.s.s.s.s.s.s.s.s.s.s.s.%.8.4.3.3.4.5.4.8.3.3.3.%.3.%.3.%.-.-.:.-.%.=.-.%.>.,.1.,.>.>.6.6.,.>.@.} Y J G j I ` G g d 7 4 $ ; > < 1 e p v n e u r p x v v n M B B v v v v v v x v x v p x k v v x x x x x x v v v v v x x x B v v v v B B c e v v p p M M d n v p u u u p p u u u p p p p v p x d p p u u p p p p p p x d c v v n v v v p v v n x p u v v p x p x p p u u e x p e 1 ; = O   ",
"o - y s k ' &.2.T | %.-.5.s.9.s.q.q.8.q.q.q.f.f.g.f.f.q.q.q.8.0.*.&.&.#.*.%.%.3.f.l.l.g.h.x.l.l.l.l.g.g.g.f.g.f.f.f.g.f.u.q.8.8.3.s.s.s.h.l.x.l.g.q.8.f.f.8.s.9.s.8.8.8.q.9.s.s.g.g.g.h.v.v.h.h.l.l.M.S.S.S.F.M.M.l.M.M.M.h.h.m.l.l.l.s.+.E D V #.T T A A 6 r p < < ; ; < r p n u e q 1 e u u p p u t u u p p p v v v p p p v p p u p p p p u d p u u p p u p p p u p p x d p p d x v v x p d v p p x u u p p u p p p v v p p x x v v v v v c x p p x p p x p p i p n v x x x v x v n p p p p i g t w w w w w w v v u , : # y d j j h H A &.t.j.+.#.+.+.=.=.=.,.=.=.=.| Q R K K I K R } | } | @.+.+.%.%.%.%.3.%.3.3.%.3.3.3.%.3.%.;.s.%.3.3.*.3.3.3.3.3.s.6.s.6.s.s.s.s.j.s.s.6.s.s.s.s.s.3.s.3.4.4.3.3.3.4.4.4.4.3.%.3.%.;.%.%.>.-.>.=.%.%.%.%.%.>.>.,.,.3.3.,.,.;.=.| W K V G I R G h k 7 4 & O > < 1 u x n M u r p p p p v b v v v p t u p t p d x p u p p p x p p p p x p p x x c v v v p p v v c d v B b x r x v x d v v v v v v p p t u p r e r u u p v N p x x x g u u u p u u v v p d v x v v M v p p p v v x x p x x d p v p x p u t u x p e < ; O O   ",
"- & 0 r d P ..&.R } $.-.5.8.8.f.s.f.f.s.q.q.8.8.g.f.f.g.g.f.8.4.*.s.s.#.*.*.#.%.s.j.l.h.h.l.l.h.x.l.g.f.g.f.f.f.f.f.g.g.f.8.8.5.3.s.s.s.h.x.x.h.f.q.q.q.f.8.8.8.8.s.s.8.9.s.d.f.l.v.l.l.l.l.h.h.l.l.M.M.M.S.S.M.l.M.l.M.M.h.h.m.h.h.l.s.%.E V V &.] ] F v 6 r r < > - ; q p x p r e q e e e r u k p p u p p v c p x v p u u p p p u u p v p p u p u p p x d p v x p p p x x x v x v n v p u u p k M n p p v k e d p p v p p u p d x v v v x x d n v v v v d x p u p v n v k x x v v v v p p u t i t t i w w w i g n d 1 , % r a j 0 0 G A *.t.t.+.#.} } =.=.=.=.:.:.=.| W P K R K J R X.=.X.| @.E +.%.;.%.%.;.%.;.3.3.3.3.%.;.%.3.3.3.3.3.3.3.3.3.3.3.s.6.3.j.j.s.s.s.s.f.j.j.s.j.s.s.j.s.s.3.3.8.3.%.%.%.3.4.3.4.3.3.3.3.;.%.%.:.>.%.%.%.:.*.>.%.%.%.,.6.6.,.>.,.,.=.| W K H G J W J H l 8 4 : O ; 1 q r v M B e p p u e u x M x v d p p p p p u u p p p u p p y p e u p d x v p p x d p p p p c v x x v B v u v v M B B p x x x v v d p t p u p u u t u p v B v n n B B d p u p p u p p p p v p v v n v v p p p p p p x p p x x p p d p u t r v p e 1 ; = =   ",
"o % a 9 z z ..:.R W | -.4.0.s.s.s.q.q.q.q.8.8.s.g.f.q.s.f.u.q.7.t.6.*.%.%.%.+.+.%.3.s.s.g.f.f.x.g.k.l.k.g.f.f.s.f.s.s.f.s.8.8.8.s.s.s.3.g.l.Z.l.g.s.8.8.8.8.8.8.s.s.s.s.s.s.s.s.g.g.g.g.l.n.l.g.h.M.M.l.S.M.S.l.h.h.h.v.h.h.m.h.h.q.u.>.| R V j T ] ] A u 8 r r e ; - < 1 u v v e q 1 1 r p u u p u p p p p x p x p p p p p p u t p p d u u u p p u p p x x p p v p u u p v d p n p p p p p p x x n B v x v v p p x x p p p p v p x v n v v c x v x v p x p p p p x v v v d x p d x p p p p p p g t t t 4 4 w i v c g * % # 9 h h G h V G =.c.a.$.+.' +.%.3.>.,.=.$...} ` K J K R } | X.| ..| | +.+.%.%.;.%.%.%.3.3.3.3.3.3.3.3.3.s.3.3.%.%.3.s.s.*.s.3.j.s.s.s.s.s.s.s.t.j.s.j.j.s.s.j.j.s.*.3.s.;.%.%.%.3.s.%.s.3.4.3.3.3.3.;.>.>.>.>.%.-.>.,.>.,.>.>.>.*.>.>.4.,.-.$.W } H J '  .) z n 7 5 : ; < < 1 1 p ! M u i r i u u u u g p p d x p u u p e e p d t u p p k p p k u u p v r e u r u p p v v x x v M B B B v v v n x v p B v v n v p p d x u u u u u k B v n B B B b x u e u g x p u p p p v n p u x x p n v x x v v v x d x x r u u e 1 u u e > = O   = ",
"@ & y a k m X.:.R W $.-.5.q.s.g.8.8.8.q.8.s.q.f.f.s.q.9.q.s.q.0.6.7.*.*.%.%.%.' 3.3.s.s.h.s.s.s.f.f.g.g.f.u.8.8.s.8.t.f.s.8.8.8.3.s.3.s.g.l.x.h.f.s.s.8.q.q.q.8.5.5.5.s.s.s.s.s.f.g.h.h.l.n.l.g.h.h.M.M.M.M.M.S.v.h.h.v.h.m.M.M.h.f.q.>.} E Z V T ' / f u r r u w ; - < < e p x e e e e i p p p u p p p p x p p p d u p p u p u u u p p p r t p p p p u p x x p v p u p p v x x x p p v v v v v x v v v v v p p p x p x u p p v p x v v v n c d v v x c x k p p x p v v v v v x c x p p p p p p g t t t w 4 w i g c k , > $ t g 0 h h G V | b.i.+.+.' %.-.%.=.=.=.=.X.} E K K I R W ..| ..| | | +.%.;.3.3.%.3.3.3.3.s.t.s.3.3.3.3.%.s.3.3.3.%.%.3.*.3.s.s.*.s.s.6.s.s.s.s.s.s.s.s.s.s.j.s.s.s.3.s.s.%.+.%.%.%.s.3.4.3.3.%.3.3.%.>.>.>.:.%.>.>.,.>.>.>.>.*.>.>.,.7.4.,.-.Q @.J J I { ) z z 9 7 , @ < > 1 1 u B v u u u u p v x k p u u u u i u u p r e t p u u u u p p p x p u p x u t u u p p v v v v v d v v B M v v v n v n B B v v v n x p u p u r p u u p c v v B B B B x p e u u p u p u p u x v p p d x v v v x v v v v c x p p p u r u q u u e < ; O o = ",
"@ & y y k z ..$.` } $.,.8.f.g.g.8.u.u.8.s.q.q.f.u.8.0.8.q.f.s.q.6.7.3.3.%.%.#.s.%.+.%.s.h.x.h.g.g.l.l.h.g.f.f.p.8.8.s.s.s.8.7.8.s.3.3.s.s.x.l.f.8.s.8.s.q.q.q.q.5.5.5.9.8.s.s.d.d.h.l.h.h.v.l.h.h.h.M.M.M.l.M.l.m.h.h.h.h.v.M.M.n.g.u.>.+.Q J J / / F f r r f u e ; ; ; < q p d u e e e u p p u p p p p p x p p p t u u u p u r p p u p p u p p p p u p p k p p v x p p x v v x v p p v v v v x v p v v v v p p p c x p p i p p d c v v v v v p v k v p p p p p d v v v v M v x v v p p p g g p g t t t t w w w n v n 4 > % t h j j G H L $.B.p.' ' } $.>.>.$.@.$.X.$.} R J K W } { | | | X.| | +.%.3.3.;.;.3.s.s.t.t.3.s.t.3.3.s.%.3.3.%.s.3.3.3.s.%.s.*.*.s.6.s.s.s.j.j.s.s.j.j.s.s.s.s.s.s.s.3.3.%.%.%.%.3.%.>.3.3.>.%.3.;.%.=.>.>.>.:.>.>.>.>.>.>.*.>.>.,.,.7.5.4.>.} @.K J K  .{ l l 9 9 4 ; > > 1 q u B v p u e u p v v x p p u u u p p p p e e u u u e r u u p u x p u p u u p p u i p v x c b v v x v v v v v M v v M B M M v v B M v p u u u p u e u u p v B ! B M v v p p u r p p p p p p x x k p p v v v p v v v d p p x p t u u u 7 r p e < = = O = ",
"@ % y 9 k z  .} E } $.>.0.d.g.h.g.g.g.f.f.f.q.8.f.q.8.8.q.q.s.q.6.7.6.s.%.+.%.%.%.+.+.s.f.h.h.f.l.l.l.h.g.f.f.f.8.8.s.f.f.8.s.8.s.s.3.s.l.l.l.f.f.s.s.8.q.9.8.8.9.s.5.8.8.s.s.f.d.g.v.h.g.l.n.n.h.h.M.l.M.S.M.S.m.h.m.h.h.h.M.h.b.u.0.=.} E Z J D / A r 3 e f u q ; - < > 1 u p e e q e u r t u p p d c v p p p u u t u p r u u p u p p p p p p p p p d x p c p v d u p x v v x v v p u p p x v n p p v v p p p p p d x p p x k x p x v v v x x x x p p p p p p x x v v M v M n v x p p p p p p g t t t w w w i v n n 4 4 % 7 h G 0 V H R &.V.p.' E +.$.>.>.=.$.| X.X.} K J K W } } | | $.$.X.| +.%.%.3.3.3.s.j.s.s.s.6.s.s.s.3.%.s.3.3.3.3.3.3.3.3.3.%.3.s.3.s.3.s.s.s.s.s.s.s.j.6.s.s.s.j.s.s.3.s.;.%.%.;.3.;.%.3.%.;.;.;.3.%.%.%.=.-.-.-.=.-.:.>.>.>.>.>.,.,.5.4.4.>.+.@.K J { &.O.l h y 9 , ; ; ; 1 e u b p e e e r p x v p p d p p p d x p u u e u u e u t u p p u v c p p p u p p p p x d p c M M v v v B v v b v x p v B p v b v M B B x k p p p u r e u u x b B M M n v k u u u p v x p d p p x x u u v p p v v v p p p p p p p t u u q u u r ; = O   O ",
"@ & 8 0 k m { { R } %.,.s.f.h.h.l.g.g.g.g.f.f.8.f.s.8.q.q.q.8.0.7.7.6.>.#.#.%.%.;.+.+.%.s.s.s.s.f.f.f.f.8.s.8.8.8.s.s.s.f.s.s.t.s.s.f.l.x.F.x.h.l.k.f.t.8.8.8.8.8.5.5.5.s.9.s.s.s.h.n.l.h.h.b.n.h.l.M.l.l.l.F.l.m.h.v.M.v.h.v.g.g.0.7.$.W J j j D F A r 2 r u r 1 > ; ; < 1 u p 1 1 e q e e u u p x x v p p p p u u u u u y u u u p p p p p p v v p x p v p p x p p p p p v v v b M x p p x x v v x p d v p p v p p v x p p x v x d x x v v v c x p c p p u p p p x v v M n v v v p p p p p u p i i t t e w e e M n n 1 : % 7 9 z y z F ' &.V.p.} E } @.=.=.=.=.X.X.@.} R K K } { } } | | | | | +.+.%.%.3.s.s.j.j.j.3.s.s.s.3.%.3.3.s.3.3.3.3.s.s.%.3.s.*.s.*.s.7.s.7.s.s.s.s.s.s.s.s.j.j.j.j.s.s.s.*.%.%.3.3.%.%.;.3.%.3.3.%.%.%.%.%.:.-.-.-.-.%.%.>.>.>.>.4.4.5.3.5.;.@.$.K J } :.&.b k y 9 , ; ; - 1 e u v p 1 e u u u p p k u p p p x p u u u u u u r e u u p p p p x p u r p p t p x v d x p x M B n x v b v n B x x p v M u v M v n B B v n x p p p t i p u u u p n v v p x p u u p p d x x u p k p u u u p p k c x x p p p x p u e e q 1 i p e < = O   O ",
"& , y a z H ..{ R } $.4.q.f.g.h.k.k.f.k.l.g.g.f.f.f.f.f.q.q.8.0.7.6.3.6.s.%.s.' %.%.%.%.s.s.%.s.8.8.s.8.8.8.8.8.8.f.f.s.s.f.f.f.f.f.h.x.x.A.l.g.m.x.l.g.s.8.8.8.5.s.8.5.8.s.s.d.s.h.n.n.h.h.l.v.h.h.M.F.F.S.F.M.M.v.M.M.n.h.h.s.f.7.0.$.{ J j h / / b 3 : r e e 1 ; = > 1 r p p e e e e e e r u x d v x p p p d p u r u p p u u p p p p u p x p p v v v v p x k p p p p p x v v v n B v v x p p v x x x p p p n v x v x x p p p x p x p x c v v v v v x v p p p p x k v v v v v v v p p p p t p i i t t e e u e B v v 1 ; # 7 9 k j z H 1.r.V.p.} E E } =.=.@.=.$.| $.| { K K  .R W } | } { } { +.+.%.3.s.j.s.j.s.s.s.6.t.j.j.%.3.s.3.3.3.%.3.%.*.s.s.#.*.*.s.s.s.7.s.7.3.s.s.s.3.s.s.s.s.s.j.s.s.3.s.3.%.%.%.3.%.3.3.;.%.3.3.;.>.=.%.=.>.>.>.-.>.>.>.>.:.,.,.,.4.5.3.3.@.-.T Y X.$...l z h 9 5 : ; - 1 7 p n p 1 e p p p u p c u p p p p p r e r u t u u u u u p p t u p p u u t u u u v n v x d x v n x x x x x v b x d p v M u v B M v x v v M x p u p u p d u u e u p x p p u p p u r u u p p p i p p u t u u u p p p p p x p p t u e e 1 1 u p e > = O   O ",
": , y a m H ..} R { $.4.9.f.g.g.g.f.f.g.k.l.g.f.f.f.f.f.u.q.8.0.8.6.6.3.s.%.%.%.%.%.%.s.s.s.s.s.8.s.s.8.8.s.s.8.8.f.f.s.s.f.g.f.j.g.h.l.l.l.l.h.x.m.l.l.h.g.f.f.s.s.s.s.d.d.d.f.f.h.l.h.h.l.v.l.h.h.S.l.S.F.M.M.m.h.M.M.h.h.h.s.u.7.7.$.E J l s / / F r 2 3 r q q ; % < e t p u e e 4 e u u u u p v x p u u p x p p p p u p e u t p p u u p d x p k c x p p p p p p p p d v v v x v B M v v p p p v n x p p v v v b M n v p p p p p p p x v v v v v v k v p p x p p x c c v v v v v p p p y p p t i i w e i i u B b v , > $ 4 9 n z S L p.p.x.t.} E W W $.=.| @.| } } } { K K K K W } X...W W } %.%.3.3.s.j.j.s.s.s.t.3.s.s.s.s.3.3.s.3.3.3.3.s.s.%.*.s.s.*.*.j.7.s.7.s.s.7.t.s.s.s.s.s.s.s.j.s.s.s.3.3.%.3.3.3.3.3.3.%.%.3.%.%.>.>.%.-.=.>.>.-.-.>.>.1.>.>.>.4.4.3.3.;.@.$.T Y X.X.{ z z y 9 7 < ; = 1 e u B p e e u p p p x c x x p v x p u e u u p r e e e u p p u e p u e e r u u u p v v x v v n v v x x x p v M x p x v v x d v v v x d v B v p u p u u p u u u r r i u x p p p p u u u t p x p p p u p r u u p p u p p d p p u r e e e 1 u p e ; = O O # ",
": : y a m H ..{ T W $.3.s.f.g.g.l.g.f.g.k.g.f.8.u.f.f.g.f.u.u.0.8.6.8.6.%.%.s.+.s.%.%.%.s.s.%.s.8.s.8.s.8.8.t.s.f.j.f.f.s.f.k.f.x.l.l.x.A.l.l.l.l.m.Z.Z.l.l.l.k.d.f.d.g.g.g.h.g.g.h.n.h.h.v.l.l.h.M.l.F.l.l.S.S.m.h.n.m.d.d.h.g.0.,.>.| U J s s P / F r 3 q r e 1 - O < u p v u q q e e e r t u p x d t u u i p d p p u p p p p u p d u t p x v p x x v p p u u p g p p c v n M n B B v v v b n r v B v p p v x M B N M k p p u p p p d x v v n v v v x p v p p p p p x k v p p v v c p p p t p w i g i e i i u ! B n , ; # 7 r h j b F x.p.p.2.{ W Q | =.=.=.=.} } }  .W P K K K { X.=.} Q { } #.%.3.s.j.s.j.j.j.j.s.s.s.3.t.3.s.3.3.%.s.3.3.%.*.s.*.*.#.s.s.s.3.3.s.s.7.s.s.7.s.s.s.3.s.s.s.s.6.s.s.3.3.;.;.3.%.3.3.%.%.%.;.3.>.-.$.$.:.>.>.:.-.-.:.>.>.,.>.>.3.;.;.-.} $.K K X...K j z 9 8 4 < ; O 1 u u B p q 1 e i p d x p v c k p p u u r t u p u e e e e p p e 7 u p e p r p i r e u u u M v v v n B n B p v v p p p x p x p p v v p x n B M v v d p p u r u t u u u p d g v v v v p p t p x p p u v v u u r t u p u p v u p u u e e e 1 u p w ; = O O ; ",
"& : 3 a A ` P R J Y | >.0.f.f.d.g.g.g.f.u.f.f.f.f.f.g.g.g.f.8.8.s.4.4.6.;.%.%.%.;.>.4.s.t.7.s.6.7.s.j.s.7.t.s.j.g.s.f.g.k.g.s.s.h.h.h.h.h.h.h.h.m.h.m.h.h.h.h.h.j.h.h.h.h.h.h.h.h.h.h.h.h.S.l.h.h.h.M.M.F.F.M.M.h.l.S.l.h.h.s.s.s.%.%.E J J s s z P B 5 ; 1 e 7 1 ; = ; q u p p e 1 < e e u t x x x v p p p p k x p v x p p p p p p p x v v v v v p u p v p p u x v c p p v B B ! B B B M n b B N B B B v p d M v M B b x p p v p v v x d v n v v x x u u u t r p p v v v n v v d v x p u p p u p t w w i c c q B B k 7 ; ; 3 r a z l Z &.z.i.1.` } } =.=.$.@.@.#.#.#.} ' R T T D T ' } ' ' #.#.#.%.*.j.x.f.f.j.h.f.s.s.3.3.s.3.6.s.3.s.*.*.3.3.3.3.3.s.s.*.s.s.s.6.3.s.s.s.s.s.s.6.6.s.s.s.j.s.7.y.8.,.>.>.>.-.>.-.>.>.>.-.>.>.=.-.>.>.-.-.>.:.%.>.>.>.>.%.:.4.,.,.;.>.| | K P | | ) G a 9 7 7 1 > ; < u d v p e q e u p u u v p p p u u t u u r u x p p p u r p p u r e w u r i u e 1 e u u u p p v v x n v n x v v v x p x p v n v v v v v x p n b v n p p p p p p p x y p v c v v x p p d u u p u u u p p i g u u p t u p d v v u u e e e 7 u u 1 > -   O ; ",
"2 2 3 r S ` P R J R +.>.8.f.f.d.l.h.k.g.f.f.f.f.u.f.f.g.g.f.f.t.t.8.8.4.3.>.;.3.4.s.t.s.s.s.s.s.3.s.s.s.s.s.s.f.l.g.k.l.l.g.g.j.m.x.h.h.m.m.m.h.m.x.h.h.h.h.h.h.h.h.h.h.h.h.h.h.h.h.l.l.h.l.l.h.h.M.h.M.M.M.l.F.M.l.l.l.h.h.h.s.s.%.+.U J J l z I _ P t 1 7 r w 1 ; ; < e p p p e 1 1 1 e u r p p p u p u u p p v d p p x n v M v v x x v v x x B v g v k v p p x v x x p x v M B B B B M M B ! B B B B v p x v B B B v x p p p p d v p p x x x v x d p p p p p p x p v v x v v p x p u u p p t e w i w c M c w v n c w % @ < r y j l S &.z.p.6.` ' } $.-.$.@.@.#.#.#.} } R R T T / ' +.' ' ] #.#.%.*.s.h.j.f.j.h.j.s.s.s.s.s.s.6.t.s.6.s.s.6.6.s.*.3.3.*.s.s.*.6.s.s.3.6.s.6.s.6.j.s.s.6.s.s.j.7.y.7.1.>.=.>.-.>.:.>.-.:.>.>.>.-.-.>.>.>.>.%.>.-.=.=.>.>.>.,.,.,.0.>.>.Q | K H  . .K G h t 7 7 < ; ; < u p x p q 1 e u u e u p p u p u u r p u p p p r u p x p x p u u e u r p u u e e q e e r u u p p p p p x u p v n v v v B n v p d x v v x v M M v B v p p v x p x p u u u p x d p p p p t u p p u u k p u p p u p u r t p u u u e 1 e 1 < u u 1 ; = O   < ",
"3 3 r y F ` T ` T W $.,.9.f.g.g.l.l.l.g.f.f.f.f.f.f.g.g.g.f.f.f.s.t.s.8.4.3.7.7.s.t.s.t.s.t.s.s.s.s.s.s.s.f.j.j.x.f.g.k.l.g.f.f.m.h.h.h.m.S.S.x.h.m.m.h.l.m.h.h.h.h.l.l.h.h.h.h.h.h.l.l.h.l.M.h.M.h.M.M.l.M.F.F.S.l.l.l.h.l.h.s.s.%.+.T D D f C P ) G i 1 1 w 1 < ; ; < e p p p r e e u p p p p p p u p p u p x p u p v n B x p d p p x v v n v B v x p x x x x x v x d d v v c v B B B B v B ^ ! ! ! ! B B n B B B n v x p p u u x x p p p p p v v x v v x v x p d x x x v p p p p p u u p p p w w i i c M M w k n n r ; % , 7 s z z S &.a.p.r.} Q | =.-.$.$.@.#.#.| | } ' ' R T D T ' ..] ' ' #.%.*.s.j.j.s.j.x.x.f.s.s.s.s.s.s.6.6.s.s.s.6.3.s.6.s.3.s.*.*.s.3.s.6.s.s.*.6.s.s.s.s.6.t.s.s.s.8.7.6.>.=.>.>.-.-.>.>.-.>.>.>.:.-.:.>.>.>.=.:.>.>.-.%.>.>.>.>.,.,.,.-.=.| | J H  ...I G h y 9 7 1 ; ; < r p p u e e r p t u u x u u t p t p p p p p u t u p x p p d p u u u t p u r e 1 q e e e e u p g x p p x p v v n v d x n x p p p x v v v v M v x B v x x x p u y p p p x u p p p p x p u p d v p u u k x p u u p p r u u e u r e e e e 1 e u 1 > =   O < ",
"3 r y a F ' R { R W $.,.0.f.g.h.g.g.k.k.g.f.f.g.g.g.k.f.f.f.q.q.7.8.7.4.3.7.7.7.t.s.t.s.7.t.t.s.t.s.s.s.f.f.j.h.f.s.s.g.f.f.f.f.m.h.h.h.h.Z.Z.m.m.h.h.m.h.h.h.m.h.h.l.l.h.h.h.h.h.h.l.l.l.l.l.h.h.M.M.M.F.M.M.F.S.M.M.l.l.l.h.s.s.+.s.E U D s 0 m L m r , 1 4 1 > ; ; < u p v p e e u p p p p v d p u x v p p v p u p v n c y e x x d v M B B B n p p p p p p v v v v c v B v v v b B B n B B ! B B B ^ ^ ! B B B n v x p x v p u p p p p v v v x v v v v v v v x v x v x p p p p p v p p g p p i e x c i n n w p B B p : % , 8 k Z C S X.r.r.2.E { } =.-.=.=.@.+.} #.#.#.' ' ` T / T ' ......#.#.%.#.s.j.j.s.j.h.h.f.f.3.s.s.3.s.s.j.t.j.s.s.3.3.3.s.*.*.*.s.s.3.6.3.6.*.s.3.3.3.6.6.s.6.6.t.s.8.8.6.>.=.>.:.>.-.-.:.>.>.>.>.>.-.>.:.>.>.-.-.>.>.:.%.-.>.,.>.>.,.,.;.;.Q | K H { { K z h t 7 7 , > ; < w p p u e e u u p r u d p r p t p u p u u p p p k v p u p p p p u u u p u u e e e e e e e u p d p p d v p p x p u p p p p u u u p v n v v v x x M v d x p p u p x v v c p v x p p p x p p p p p u p p p p p p p p u u u u u e e q e e q 7 u e < ;   O q ",
"r r y a S  .I  .E Q $.,.8.s.d.h.f.f.g.f.f.f.f.f.f.g.f.s.8.5.4.5.4.8.8.3.3.4.8.4.4.s.f.s.s.t.s.t.s.s.s.s.s.s.s.f.j.g.f.g.h.g.h.h.h.h.x.h.l.m.m.h.l.m.h.h.h.l.h.h.h.h.h.h.h.l.h.h.h.h.l.m.l.l.S.h.l.l.F.F.F.F.F.F.S.l.S.l.l.h.f.s.s.+.%.' T D a 0 z S b r 5 7 e 1 < ; ; 1 r x x x 1 1 e t u p u p c p p c n p p v n v v p p p p c n n v v n v v v x p u p p u d x v v v b B B v v M v M M B B ! B B B B ! ! ! B M v b M x u p x k p p x x v n n v v v v v v v x v v v v v v x x p v v x p p p p i c i c c g c c e v B B d , : , r d l l Z { 2.6.2.W Q } =.-.-.@.@.| | +.+.#.+.{ } ' T T T ] ' ' #.#.*.3.3.j.j.j.s.j.j.s.s.f.s.3.s.s.s.s.j.j.s.s.6.s.6.6.3.3.3.s.*.6.3.3.3.3.3.3.3.s.*.s.*.6.s.s.6.8.6.6.>.-.=.:.>.>.=.=.>.>.>.>.>.>.>.>.>.:.-.-.>.>.*.%.-.>.3.,.>.-.,.-.-.| | K J ` ` I G y 9 5 5 1 < ; < e u p p 1 1 e e u u u p p p p p u u u p p p p p x p i u p p p p u y u t i u e e e e e e q q u u e u p x p u u r p x v v p u r p x v v v x n v v n v x B B v x x v v v d v v p u u d v p p p p p p u u p d p p p p u r p u p u 7 w e e 1 e i u < ;   = e ",
"8 8 y y F  .{ } T Q $.4.8.q.g.g.f.f.f.f.f.f.f.f.8.9.8.8.4.3.3.3.6.8.4.3.3.4.4.3.>.3.3.s.7.6.s.3.3.s.7.4.s.s.s.s.f.g.g.g.l.h.l.x.h.m.m.m.l.x.m.m.m.h.m.h.l.h.h.h.h.h.h.h.m.l.l.l.h.h.l.x.S.l.l.M.F.F.l.F.F.F.F.l.l.M.x.M.h.s.s.s.s.%.%.E T D s s m F B p r 4 7 < ; ; = 1 i v v v 1 q u u p p p p c y p v n x p v x x v x p p p x v x v x v v v v v p p p p u p x v x x v n n v v v x x v B F ! ^ ^ ^ ^ ! B F B v x B B v u i p p x k x k x v v p B v n n v v v p v v v v v x v v x g x p p p t e x i i c i i i t g n n p , ; < 8 h z z A ' 2.r.r.{ } | =.3.-.=.@.+.+.$.$.$.#.$.+.' ' T T T T / ' #.*.%.3.3.t.3.s.s.j.3.s.3.s.s.3.6.t.s.s.7.7.7.t.s.s.s.6.s.3.*.s.s.3.3.*.3.s.s.3.*.s.6.s.s.*.*.s.6.6.4.,.>.%.%.>.=.>.>.-.:.%.>.-.>.>.>.-.-.-.-.>.>.>.=.*.>.1.,.>.,.,.-.,.| | K K I ) L z y 7 4 4 1 < - < q u p p 1 1 e e u p p p x d x p p p p u d u u u p p p u r u u u u u t u t u u r u u u r e e 3 1 e e p p v p p p p d x v v v x p p d p p v B B v M v M B B B b v v v v x v v p p t p x x x p u i p t r t p u p x p u u t p u u w 1 w q 1 q u r < ; O = e ",
"e 7 r y m  .{ ..P Q %.4.8.s.g.g.g.g.f.f.u.f.q.q.8.8.q.q.5.4.5.5.6.8.8.4.;.4.4.3.>.3.3.3.3.3.3.3.s.3.4.s.7.7.s.s.s.f.f.g.g.f.g.x.h.m.h.m.m.m.m.h.m.h.m.h.h.l.h.l.h.h.h.x.m.l.l.m.l.h.h.S.S.l.S.l.F.l.l.F.F.F.F.F.S.x.S.x.h.f.s.s.s.%.%.' E T C C L L F d y 3 < > ; = ; 1 u v M v u r i v v x x n v u p n B v p v p p v b M v u r p p p p v v v v x d p p p r p p v v v B v x p v x x p v M B ^ ^ ^ ( ( ! F ! B B v B B x p p p u p v x x v v x p v v v v v v v p v v v v v v v v v p d p v p p e u i c c i i i e g n v r , > 1 8 s l z Z ' <.6.t.{ } | ,.4.-.=.@.$.$.$.$.%.$.$.$.#.' ' T T T T ' #.%.3.%.t.t.3.3.3.s.3.s.s.3.3.s.6.s.7.j.s.s.t.s.6.6.s.6.3.s.*.s.3.6.3.3.3.3.s.3.s.*.*.s.*.s.6.s.3.,.,.,.:.-.%.=.>.>.%.:.%.-.%.=.:.-.>.-.=.-.-.-.>.%.>.>.>.>.>.1.=.,.=.,.Q | K J ` ` I l h 7 4 4 1 > - > 3 p p u q e u p k x x p x v p x g x u u u u u u p p u p u u t p p u u u u u u t r u u t u e e e u i u u v v n v x p p p v v v p p p p p x n x d M n v B v n B v v B N b x v v p u v x p p u p p u e u u p u u p p u t p r u u w e 1 1 < 1 u e < ; O ; w ",
"7 7 r 9 H { ` X.P Q =.7.q.s.f.h.k.k.f.f.8.8.q.f.q.f.f.f.8.8.5.8.7.s.s.6.3.7.8.4.4.7.s.3.3.7.3.7.s.3.7.3.s.t.s.s.g.g.k.l.k.g.g.l.h.h.h.h.m.Z.m.h.m.m.m.x.m.h.m.l.h.h.m.m.l.m.m.l.m.h.h.m.l.S.l.S.F.F.F.F.l.F.F.F.S.S.x.l.h.h.s.s.%.%.s.' ' D V 0 P ) P b y e 3 < > - - 1 u v b v u u p x d x p v v p p B B n v B M v v v M n v p x x d p p p p p u t u u p u u p v v v n n p p v p x d v v B ! ( B B ^ B ! ! B B p n v p p v v u p c v p v n v x B v v x v v v n k v v v v v v n v v x p p v p u u i c M p e e w k v v u , : 1 r 9 s s h P ..&.2.} } =.,.4.-.=.$.$.$.$.$.%.%.%.=.#.#.#.#.' T ' ..#.3.%.3.t.t.s.s.3.3.s.3.3.s.3.s.s.s.7.s.s.j.s.s.s.s.6.s.3.*.3.*.3.s.s.3.3.3.3.3.*.s.s.*.s.3.3.*.6.>.,.4.>.-.$.%.*.%.%.%.$.$.$.$.-.>.-.-.$.$.$.-.%.>.>.>.%.>.>.6.=.,.=.>.Q | J H ` ` I G g 8 7 4 < ; = > 1 t p u e e t u p x p p x x v k x d p p e 4 e d v v u t u r p p p u r u p r u u u p u u t e e e u r e e q p v n p u u p u p x p u u p p p p u u d v x v M B B M c B N B v n n v x v x p p p d p e e e p p p p x d p p p e e u r u e 1 > 1 e 1 < - o ; q ",
"3 3 3 8 k P } } R } :.4.4.f.h.g.k.g.g.f.f.q.q.q.g.f.f.8.8.8.8.9.f.8.8.8.4.4.3.4.4.7.8.t.t.8.8.4.s.4.s.s.s.7.7.t.s.s.f.j.x.g.g.g.h.h.m.h.h.h.h.x.A.m.m.x.l.h.l.h.h.h.h.m.m.m.m.m.M.M.M.M.l.S.l.F.h.F.F.F.F.F.F.F.h.F.l.F.h.s.s.s.5.5.-.$.} T V s l I ) F d 3 : < ; = O ; e v n x r u p p p v v v x u x ! B p x B v B ! ! B B x u p u p d p u e u u t p p u p p x x v B B v v d x v p u p n M B B ^ B ! B B F B M v p p v v p p p v p u x v v c v v v x v v v x d x v n v x x x x p p c p k g p p u i ! i c i w u i M c w 1 , , r k s s z ) &.8.6.} $.=.,.,.4.:.=.-.@.=.%.=.-.=.$.&.$.%.&.' T T } +.3.3.t.t.3.s.3.s.3.3.s.3.3.s.3.t.s.7.7.s.s.t.s.s.8.7.4.4.3.3.3.s.3.s.3.s.3.%.s.*.*.%.s.%.#.s.%.>.>.>.7.7.>.%.>.>.%.%.%.-.=.%.$.>.-.$.$.$.%.>.-.%.:.>.>.>.>.-.-.>.>.=.| W W J V P L L m d r 3 3 1 > - ; 1 u d p e e e u p p p p x d x p p v p i e e u v v x p u p p p d p u u t u u u p t u r t u t r e p p u e u u u t p p d p p p u g v k u u u u p p x n v x v B B B B ^ ! v v M v v n x p u u p p p u p p u p r p p p d p u e u u u u e e 1 e u e < ;   = q ",
"3 3 3 6 k L {  .K } :.4.8.f.l.g.l.l.g.f.q.f.q.q.g.g.f.u.8.8.8.s.8.8.4.t.8.8.8.t.8.8.8.8.8.8.8.8.3.3.3.s.s.t.s.s.s.s.s.j.g.g.g.l.h.h.h.h.h.h.h.h.m.m.m.m.m.m.m.l.h.h.h.m.m.m.m.m.h.h.l.F.M.M.M.S.F.l.F.F.F.F.l.F.l.l.l.l.h.h.s.s.8.5.;.%.} E S j A ` ` F k e : , - ; ; ; e x v v e p p p v v v p d p p M B v v B v B B B B M v p x p u u i u u p p p d x p p p x v M M b x x x x p p d c v v v B B n v B M n M x v v v v x i u p v p u x v c d v x p p x v v v v x v v B b v v v n v v v x p u u u i c c i c w u c c c i 3 : , r d s l A ` 1.r.y.W } =.,.>.,.=.=.=.@.=.=.;.=.=.=.#.$.$.#.' T R E +.%.3.t.t.t.s.3.s.3.s.3.3.s.3.s.t.s.s.t.7.t.s.s.t.t.7.4.4.4.4.4.3.3.%.3.%.3.3.3.#.s.#.s.%.s.%.%.-.-.,.y.8.>.%.:.>.:.>.%.>.-.%.%.-.-.$.$.$.$.%.-.%.%.%.>.:.-.>.=.>.>.=.| Q W H H P I P S d r 7 3 1 ; O = < u p p 1 q e u u p p d v v v p p x p u e e i x v p x k p p u u u u e e u r p u p u u u u p p e p u u r u e u r p t p u p p p p u u u e u p k x p x v n x B n B B ! F B n n B v v x d p u p p p r p u u p t u u p p u u e r u u u e q 1 7 u e < ; o O 1 ",
"3 3 7 8 k P { X.R } 3.0.0.l.n.l.k.l.k.f.f.q.u.f.g.f.f.u.q.9.q.q.8.4.8.8.s.s.t.f.t.t.8.8.8.8.t.f.s.4.3.s.s.t.t.s.s.j.j.s.f.g.g.l.h.h.h.h.h.h.h.m.m.l.h.m.m.m.l.l.m.m.m.m.m.h.m.h.h.M.l.M.M.S.S.S.M.M.F.F.F.l.l.F.l.l.l.l.s.s.h.h.0.8.3.%.+.Q J C L ' ] F f r 2 < - ; ; < q p n v u u x v v v v v x p p x v B B B M M n v v n v p p k p u e u u p u p p p p p v v v v v x v x x v p v v v x p v n v v x v v x x g v v v v d p u x p p p d x v p v v x x v x v v x v v v n v v v v v v v x p p u t u u ! u i i w w k n n u , % < r a j z S ` 1.y.p.K | ,.2.4.,.3.-.=.=.=.=.;.;.-.-.%.*.*.#.#.' E T +.%.3.t.3.3.s.t.3.s.t.3.3.3.3.s.s.t.7.s.s.s.t.7.s.7.8.7.8.7.4.7.;.%.3.;.%.3.%.3.s.*.s.%.#.s.s.#.%.:.3.y.y.3.>.>.>.>.,.>.>.%.-.-.>.=.=.$.$.$.$.$.%.-.-.>.-.:.%.%.,.;.=.| | W J z L P L m y 5 3 3 1 ; O O 1 u u t 1 1 1 u p x v v x v v p p p r e 1 e u r p p x v v p u r u p r e t u u p p y p u u p p e u t r u e e e e u u u u d p p u e e 7 w u v n p u p p n d x x M B B M M p p v d p u u u u x d p t p p u u u u p u u t r e e e e e 7 w 1 w u 1 < ;   O 1 ",
"3 7 6 8 b ` X.&.K } >.0.0.h.n.h.g.k.l.g.f.q.f.f.f.f.f.f.q.8.q.q.t.8.8.t.t.8.8.8.8.s.8.8.8.8.u.f.s.7.3.s.s.s.s.s.s.f.f.s.f.g.l.l.h.h.h.h.h.h.h.h.m.m.m.m.l.m.m.m.m.m.m.m.m.m.m.m.l.M.F.M.M.M.M.S.F.F.F.F.F.F.F.F.F.l.l.h.h.h.h.h.9.8.;.$.+.Q J V P .. .F v y 3 : ; ; ; < q p v v u u p v p v v v x d p p x v b n B b v p k p u u u u p u e u i r u r u p x v n n B v v v p p p v p p v v p v x x x x d x x c d p p p x x p p p x p p p p x x x x v v v d p x p p v v v n v x p p v x x p p p p p i w ! c c c w u g B n p 1 % , y d j z C ` &.r.y.W X.,.2.0.0.4.3.@.@.=.;.;.-.-.-.*.*.*.$.#.#.E J +.%.3.3.j.3.3.t.s.3.3.s.s.3.s.s.t.s.s.t.t.7.7.s.t.8.7.8.8.8.8.4.3.3.%.3.%.%.3.%.#.%.#.%.%.%.%.%.%.>.3.8.7.,.>.>.>.:.1.,.>.%.-.-.>.>.-.$.$.$.$.%.=.:.=.-.-.=.%.%.;.;.-.=.| W J G H L L z r 1 : 3 e > O O 1 r u u 1 1 e u p x v n p v v p p p u 1 1 q e u p p p p n x u u p u u u r p u u p p p u u x p e e e e u e e e u e e e q x x p u q 1 e u u p v v u r u u x p p v B v x p u u p u e e r u u p p p u p p u u u u r u p u u e 1 e e w 1 1 1 e e e > - O O > ",
"3 3 3 a z R X.&.J E >.4.5.u.n.g.g.g.g.g.f.f.g.k.f.f.f.f.q.8.q.q.s.t.t.s.t.8.4.4.8.8.8.8.8.u.u.u.s.3.s.s.s.s.t.s.f.g.g.s.f.g.h.l.h.h.h.h.h.h.h.h.m.m.m.m.m.m.m.m.h.m.m.m.m.m.m.m.F.M.F.M.F.l.F.l.M.F.F.F.M.h.M.l.l.F.F.l.l.h.h.h.s.0.3.%.+.E T D / ..] D b r 3 : ; - ; ; e x v v r p c d v d v x p x v x p x v v n x p p p r q 1 7 u u e e i u u u u u p x c v n v v v v v d x p p x v x v v n p p x v c p d x p d x x p p p d x p p p c v p x p p p x d v v v v x x v v v x x p p p p x x p v c i c N c c c u u p n n t , ; , y h j s l ) 1.r.r.W X.:.2.0.0.7.>.@.=.=.;.-.,.,.>.*.*.*.@.} } R D E +.3.8.t.3.3.3.3.s.s.3.3.3.s.s.t.s.t.s.s.7.7.7.s.8.8.8.8.8.4.4.3.3.%.3.%.3.%.;.%.;.%.3.%.s.+.%.%.>.>.,.1.>.>.>.>.,.4.,.-.-.=.-.>.>.>.%.$.$.$.=.>.%.-.%.%.=.%.*.;.>.=.| Q Y J V J H L n r 2 2 3 1 < O = < u p u 7 w e u u p x v p v p p u e 3 < 1 u u p p p u u p p p p u u u p p p u u p p t u e p r e e e e u e e e e e e e e p p p u e e r u t p p x p u e w p u u v v p p p p p x p u r u u u k x p p d p p t r r u u p u u u e 7 1 1 q 1 < 7 u e < ; = o ; ",
"< 2 2 8 l P { } P W >.7.0.h.n.g.f.f.f.f.f.f.g.g.g.f.g.f.f.f.q.f.s.s.8.f.t.8.8.8.t.8.t.8.8.q.8.u.s.s.7.t.s.s.s.s.s.j.f.f.f.g.g.x.h.h.h.h.h.h.x.m.m.m.m.m.m.m.m.m.m.m.m.m.m.m.m.m.l.M.M.F.F.F.F.F.h.F.F.M.F.F.F.l.F.l.l.l.l.h.h.h.f.q.5.-.@.+.R J / ' ] / A d 3 : % ; O > e x n x w u c x p x x c p x B v x d x v v p u u p u e e u u u 1 1 r p p p p p x v v c c x x v v v v p u p p p p v B v x p p x p x x p x v v k p p x p u p v v p p x d p x x c x p p p p x d p v v B n n d x x p p x p p i i M c c u w u d n v u , : 1 y k j s l ` 2.p.p.| $.,.7.y.y.5.>.=.@.@.=.-.,.>.,.>.>.>.$.#.} ` U T +.3.8.t.t.s.t.s.3.s.s.s.s.s.3.s.7.7.s.7.s.7.7.4.8.7.7.4.8.4.4.s.%.3.3.3.3.3.%.%.%.%.%.%.%.s.%.=.=.:.-.>.*.>.,.>.>.,.>.;.-.%.%.$.%.=.$.$.$.$.=.:.>.-.:.%.%.%.:.=.;.=.| Q Y H j H H H z r 2 : 3 q > O ; 1 u p p 1 q e u u u i p p p p u e e e e u u x d p c p t u r p u r r p p p p u p p u r u e u u e e e q e e e r u e e e e p p u i u u u u p u p k v p u r t e u p v x p v p d p p u t u u i p p p p c v x x p p t u u u u u u e e e e q 1 w u e < < = O = ",
"& , 2 8 b ) ....K } ,.0.q.l.Z.l.k.f.f.u.f.g.f.f.f.g.g.f.f.f.f.s.t.t.8.t.s.8.t.f.8.t.s.8.q.t.u.q.s.s.s.s.t.s.s.j.s.f.g.f.g.g.h.l.h.h.h.h.h.h.m.m.m.m.m.m.m.m.m.m.m.m.m.m.m.m.M.M.M.F.F.M.M.M.F.F.F.F.F.F.F.F.l.l.F.F.l.F.l.l.l.h.s.s.5.-.$.+.' D ' #.] D A d 3 - @ - ; < q d v n e p v x x p d v v v x v x x x v v u u u u p t r t u e e e e u v x d p x v x d p x p v v v v p i p x x p p v n p u p p x p p p p x v g u i p x p p v v p p c v p v v v c p u u p p p x v b M n v v p v p x d p p c i ! c c c q w x n v e , % , y d s l Z { 2.a.a.| =.,.0.8.0.7.,.@.=.@.=.-.,.3.>.>.>.>.>.*.#.{ | E +.3.8.s.3.3.s.3.s.3.s.s.s.3.3.7.s.7.t.7.7.4.4.4.3.4.4.8.7.5.4.s.3.3.;.3.%.3.;.;.%.;.%.;.%.+.%.%.:.>.=.%.-.>.>.>.>.>.*.-.$.=.@.$.%.=.%.$.$.%.>.>.>.-.%.=.%.=.-.-.-.=.=.@.W H j H H H n a 3 2 : 1 < - - < u d v q 1 u r p t r r p p u u q e u u p k v p x x d p u p u u p i u p p p u u p p e e e u u q u u r w e e e e e e e e t r e u u u u t u u u d v p u u r e e u p p p p t p p u p u u u u p p p p p p p x p u p p u u r t u e e e e 7 1 e u e < ; ; O O ",
"@ & 2 a S  .&.*.J } >.8.0.g.n.g.l.g.q.u.f.g.f.t.f.f.g.f.f.q.u.q.f.s.f.f.t.s.f.f.g.f.f.8.8.8.u.f.s.s.s.t.s.s.s.s.s.s.j.f.f.g.g.x.h.h.h.h.h.m.m.m.m.m.m.m.m.m.M.M.M.m.m.m.m.m.M.M.l.S.F.F.M.M.F.x.h.F.F.F.F.l.F.F.F.l.l.l.l.l.l.h.s.s.3.;.$.+.T D ' #.' / A a 2 & O - ; < q p n B e p v v p x v v B x d c v x v v M p e r u u u u u 3 1 u e q r u u p p d v x p u p v d v n v u u r p v p u v v x p p d x p p p v u u p p u p n v v v n p p x d x p p x k p p p v x p p x v v v p u p p v x x p p c i ! c c i u u k M p r 1 : 1 8 y l V F ' ,.y.i.} $.2.7.6.4.,.>.=.=.$.=.=.;.>.3.%.$.%.>.>.#.+.$.+.%.3.3.3.3.3.s.3.3.3.3.s.s.s.3.7.3.s.7.s.7.4.4.>.>.3.4.7.7.8.8.3.3.3.3.3.3.%.%.3.3.%.3.%.%.%.%.%.%.>.%.%.>.*.>.,.>.%.%.=.-.=.@.@.$.-.:.%.%.-.>.>.>.>.*.>.=.-.-.;.;.=.=.Q W H z H H G l a q 2 : , > ; = < t x n e e u t p p u u p p u r e t u p x c v p p v x p p p t u p x p u p u r t u t u e e r e e u u e e 1 e e u e w e e e e r u u r e e x p p p u u e u e u e e u p p r p p u p p p p p u p p p u p p u p u u t r u p u u u e u r u w < u u e < < = O O ",
"% * 7 9 l S ` &.T ' %.%.s.s.g.s.s.h.h.s.s.f.h.s.s.s.s.s.s.s.s.;.q.q.f.f.f.8.8.s.q.q.q.q.q.q.8.8.f.f.f.8.8.s.f.f.f.g.l.l.h.g.k.h.h.s.s.x.x.h.m.m.h.m.m.m.m.m.m.m.l.l.h.l.l.l.h.h.l.l.l.x.x.l.l.l.m.M.A.A.A.A.A.S.m.n.m.v.m.v.h.g.5.s.9.=.@.Q W J W Q ..P S a 3 : ; O ; ; < e v x x p p v v n v x v x v v n v x x b p u u u e u p u u i x v u 1 u u r p d x p p p v v v n v v k p p p c x v v v v n p p p p u p n x v v p p p p p v x d x v v x x x p p x p p p u p p d x p x x v v v v c x x v n B v v M p p i e v n v u 1 ; > e 0 h j V K W 9.;.+.-.4.4.4.,.;.-.-.=.$.=.=.=.-.3.%.%.>.%.$.| %.6.3.3.3.3.3.3.3.%.,.,.0.,.4.0.8.7.7.0.4.;.;.4.5.3.3.-.;.4.5.5.8.4.3.s.3.s.%.3.%.%.3.3.-.;.%.;.;.%.$.$.-.;.,.,.;.,.,.-.,.,.,.=.=.=.$.=.=.=.=.;.=.=.3.>.>.>.;.*.,.5.-.-.$.| Q Y J j C F l f d , 3 e u < = ; ; 1 u u 1 1 r u u i u p u p g u u p v v p p x p p u u p p u u p p u u p t u p u u e e e r u i i u e u u r u e e 7 u u u e e e e r e e u u e e e e u e 1 e e q q e e e u 7 u u u u p u 1 u p p u u p p u p p p p p p p p p u e q e e 3 7 p i e q < ; O O ",
"$ 4 7 9 s F R ' T T s.s.s.s.f.s.s.g.g.s.s.g.h.g.s.s.s.s.s.s.s.s.s.q.f.f.f.8.8.u.f.8.8.8.8.q.q.8.q.q.q.8.8.8.u.q.8.f.g.f.f.u.f.g.s.s.s.h.h.h.h.m.h.m.m.m.x.h.x.m.x.x.l.l.x.l.x.l.h.h.h.h.j.h.x.x.C.M.A.M.M.m.n.n.c.v.v.h.h.d.d.s.s.9.5.-.@.Q K H $.@.X.` S f 2 @ @ O O ; > e v d u u p p v v v x v x x v v d u p v p t u u e u p r u r v B p e e p p v x v x p x p v v v v x p u u u p v v v v x v p u p p u u x p g p p p p p p n v v v v n v v x x c p p p p p p v c v x v k v v v x p p x v n v v v v p u u 1 x v d u < = ; 4 0 j 0 G J W 9.,.Q =.;.,.4.3.-.=.$.+.+.$.$.@.$.-.,.>.>.>.$.$.%.4.3.8.3.3.3.s.s.3.,.,.,.0.4.0.0.0.7.7.5.3.3.5.5.4.8.4.4.8.q.9.8.8.s.3.3.s.3.3.3.3.-.3.3.-.3.%.%.%.%.%.;.;.3.,.3.:.;.,.,.-.-.=.@.@.@.@.=.@.@.-.;.;.3.%.%.*.%.%.-.>.-.=.$.+.Q U Z h A F M l p 3 q q r < ; ; % < u u e e u p p p k p p v p u e p x p p x k p p i u p u e r p c p u p r u u u e e e e e u u e e e r u u u u u e 1 e e e e u u u u e e u e e e e e e e e e 7 e q e e e e u t u r u r w p k v p p p u u p p u p p p u u t r e e e e q < p p u e 1 ; = O ",
"$ * 8 y a H ' T E +.s.%.s.s.s.s.5.s.s.5.3.s.s.s.s.s.s.s.s.s.s.%.8.8.8.0.8.7.4.8.t.7.-.;.3.7.7.3.4.8.7.4.3.3.3.7.8.u.f.p.y.q.u.f.s.s.s.h.h.s.h.x.h.h.h.h.h.h.h.m.g.s.s.s.h.s.s.s.s.s.s.s.s.j.j.j.c.v.v.n.c.c.c.v.v.v.g.g.d.d.q.9.w.;.;.-.=.W K V $.$.X.` A a 2 & % O O = < e p u u i p p x c v v n v v n v p p p v p p p p t p p x x p v ^ B u r v v n M n v v v p x v v p p u p t u p v v x x p v p u p u r r p p p p p u p p x p x p p p p p p k x x x p p p p u p k v v v v v v v v p x x v B x x v n u u r q c x g i 1 ; ; 1 9 j j V J | ,.=.} =.-.:.,.,.-.=.+.+.} +.@.@.@.=.-.$.@.$.| +.$.*.3.3.%.3.3.%.%.%.>.=.>.;.,.,.,.4.4.4.3.>.3.3.3.3.3.3.,.4.7.8.4.3.s.s.3.3.3.3.3.3.3.;.3.>.;.%.%.%.+.@.@.@.@.=.=.=.-.4.,.=.=.=.=.| @.@.@.@.=.-.,.,.>.%.*.>.*.-.-.>.-.-.-.@.} Y V a S ) F A p 2 3 q e 1 , ; O 1 u e 1 e u p p x p v v v k u r p v p v p p p i p p d p i u p p p u u u u p t u e r e e e r e e e r u u u t r w q 4 e r t u u i u e u t u u e e e u r e 1 1 e e 1 e e e u u 3 e t p u e u p c g d p p p u p u p t u u u u u u u e e < u t r e < = o O ",
"$ * 8 d y J ' D E +.' s.%.s.s.s.s.s.s.s.s.s.s.s.h.f.s.s.s.s.%.s.t.8.u.0.q.8.7.8.f.8.4.4.7.8.8.7.8.8.q.8.8.8.8.7.8.t.u.q.8.7.0.u.5.5.s.s.s.8.s.h.s.s.h.s.h.s.s.s.s.j.s.s.g.s.s.s.s.s.s.g.j.j.s.s.k.c.g.h.k.g.g.g.g.d.g.s.s.s.s.0.0.;.=.;.-.Q K J X.$.O.) D C 2 2 ; O O ; < u p u e u x d p p x v v v v v v x p p x p p v v d p p x p p v B B p u v v v v v v v v p p x p u r u u r u p p d x p p n p p x p p p p u p p p p u p k v v v v v v v c x p d x p p p p u i p u p p v x v v v x d v n B v x n M d t u q p p p e 1 ; > 1 9 j j V H Q :.W } } $.=.-.,.-.@.Q } Q +.+.@.@.@.%.$.@.@.$.$.-.,.%.%.3.3.s.%.%.%.=.>.;.,.,.0.7.0.4.7.7.8.4.4.4.4.8.7.7.7.8.8.8.7.3.3.3.3.3.%.3.%.>.>.>.>.*.%.%.@.@.$.-.-.=.=.=.=.=.,.,.=.@.=.$.Q $.$.$.@.=.-.-.-.>.%.%.*.3.3.-.-.-.-.=.+.} T C a S ) F M y < 3 e u w < ; = 1 r 1 1 e u p p x v p n n v u t u p u p p p u u p p v d p p p p r u u u u y u u e e u e e u u e u u u r t u u u u u e u u p u e r u u r p i u e e u p q 1 e w q e 1 q e e e e e p p u e u p p p x x k u u r u u r r u u u r u u e 1 1 u u e w < = O O ",
"* % 9 h r D ' D T +.%.s.3.3.s.s.4.5.8.4.7.4.4.7.s.s.3.s.%.s.s.s.7.7.6.7.6.,.,.,.4.3.4.,.,.,.>.,.6.3.6.4.4.,.>.,.7.8.8.6.,.,.7.7.3.5.t.8.8.5.5.8.t.8.s.8.8.5.3.%.4.4.4.4.;.;.3.4.s.+.s.s.s.s.s.s.0.w.q.q.q.q.0.q.0.0.0.w.0.q.0.0.0.;.-.,.,.} R K ..&...` A f r 2 ; O O ; > e u e 1 u p g p p p v p p p x p u u y u t p p d p p p i u u u p u e u u p u u p p p p u p p p e e u u p u u u u p p p v p p x p x v v p p p p p p p p v v v v p v c d p p p p p p p t e u i u t u p v p p p p p p v n d u x v p p p e r e e q < ; ; > 5 h h j G Y =.K Q } | @.=.=.=.Q W W W E E } } { | { { } | X.| $.#.+.%.%.#.' ' %.Q =.=.=.=.:.,.:.%.>.,.,.3.>.>.4.6.7.4.,.2.0.,.,.s.*.s.*.%.%.%.%.%.-.-.%.$.$.@.| | | | X.@.@.@.=.| =.=.| Q =.| W | | $.$.=.=.@.=.*.&.#.%.*.*.*.*.%.$.| E T P V a A P F b y : 1 r u e < ; O 1 e < 1 e u u d x v v v v p u u u u u u u u e u r p v x p u p p u r u t r u u r u u u w e e e e e u e e e e u u u u e u u u e e e e u e u i r e u u u 1 3 e e e e e q 1 e e e e e i u u p k x p p u u u u r u u t y u t u u r e q 1 1 d u u e < ; - ; ",
"$ > 9 g s A / A T +.+.' %.3.%.s.%.;.>.;.>.3.3.6.%.*.%.3.+.%.+.+.>.-.=.-.>.=.%.=.#.%.-.:.$.+.$.$.$.$.$.$.@.| | $.%.>.>.>.$.$.$.=.;.;.3.3.%.%.%.%.%.%.%.%.%.%.%.%.+.+.' E ' E E ' +.E ' +.' ' #.s.$.=.-.;.,.,.0.7.4.3.4.4.0.0.0.0.0.0.,.,.,.} R J X.&.&.` D f 3 : ; O O = ; 1 u 1 1 r u u u u p x p u u p p u p p u u u p u u u u r u u e t t e p u r t u p p u u u u t r q 7 e e u u e e t u p p p p p p p d p v u p p t u u u p u u p u u u u r u u u r u p u r r e u u r u p p p p p u u p x v p u u p u i u 1 e e e q > = ; > 5 9 0 V H H W H K Y W { Q | W W K T I T T T R K E Y J T I K K K E E D E T T ' +.W W W W | | | | | | $.=.$.@.$.%.=.=.$.%.=.=.=.@.%.*.#.*.#.#.+.+.#.+.$.| @.} } Q W W W R Q W Y W  .} } Q W Q { W W W { | Q | | Q *.#.%.%.*.6.*.*.$.+.} R R I A s M P M l r : 1 e u 1 < % O < q < q e t p p p p x x p u e q 7 e e 7 e e e q u u p p r u u u p u p u u e u u e e e e e e e e e e e e q q e e e 7 w e e e q 1 1 w r 1 1 e u q 1 7 1 e q q q 1 q 1 q 1 1 q e e e r u u u p c x p u p p t u u u t u u p t e e q q 1 e p u e q < % O ; ",
"$ * 9 9 0 C C C D T ' ' #.#.%.%.%.>.>.*.>.>.>.6.6.*.*.3.3.%.+.%.:.=.$.$.*.$.=.=.$.$.$.$.$.X.X.$...| } | | } } X.{ } } { W I W } +.%.%.+.' E T E T T T T E E T T T T T U A D J T D T D T T T ' #.K Y Q } | $.=.=.=.=.=.=.,.,.,.,.,.,.-.=.| { K H  ... .` A a 3 2 @ O O = = < q < 1 e e e t r u r u u r p u u r t u u r u u i p u e u u e y u e u u u e e u u u r e q q e q e e e e e e e r u u i p u u u p u u u e u r u t r u p d x x p u u p t t u e u u e u e e e e e u u e u u u u u t r p v t e u r e 3 e 1 e e q 1 ; = ; 1 5 5 9 V G V J G H H K K Y W K K H P J J J J J H P J P K K L J J T T T D D T ' ' Y Y W { ..| | | } } | $.$.X.$.:.=.$.$.$.=.=.$.X.' #.#.#.#.' ' ' ` } } { ` E E T ` W W W W R W R W K I K K K K H J J J E { R W W ' #.#.#.&.#.&.*.$.#.} E ` R S s m L v k u , 1 r u < > = O - < > 1 1 e u u t u u u e 1 q 1 q 1 1 q e q 1 1 1 e e e e e e t u u u r e e e e e 1 1 q e 1 w 1 1 q 1 w 7 1 1 e q 1 1 1 3 q e 3 q q e 1 1 1 1 1 q 1 1 q q q q 1 1 3 q 1 e q e 1 e e u y t u p p r i u u u u r u e e e e e q q q 1 1 < e e q q ; O o = ",
"$ 4 9 9 s s f C C D T E T ' ' +.+.' ' +.' ' ' #.*.' ' +.+.E E E { { K R { R R W R R T R R R Y K T J J K K J J K R R E R K J K K E E +.E T T T D D V A V V V V V D C A V s C z V A D D D D T T T K K R K K K K K } Q Q } | | X.X.| =.=.{ R K H z P ` ` P A a 3 : - O ; ; O > 7 < 1 q q e u e e u u e e e e q e e e q e e 4 e r u 1 e e 1 e e q e e e q 7 u e e w e 1 1 1 1 1 w 3 1 1 3 e u u r e u u u r t u u u 3 q e e u u u p p p u p r u u u e u e e e e e e 1 < e q e e e 1 r e e 1 e e u u r u u u 1 < 1 < e e 1 < = O # < 5 5 6 G j h H j j V H H H J H H Z S S z z Z z l h h j l l j h z s C D C C A D A G H H L K I K I J J K R R K R } { W { W } { W W ' ' ' ' ' T T T R R T T T P P J K P L K H K H K I H K H J z Z H J Z H J J J P K T ' / ' ' ' ' ..#.| } ` ` I z 9 S L v d r , 1 4 e ; ; O O = ; > < 1 1 1 1 e u u e 1 1 1 3 q 1 1 e 1 e 1 1 < 1 1 e 1 1 1 1 e e q u e q q 1 4 1 < 1 1 q 1 1 1 < 1 1 1 < < 1 1 1 < > < q q q 1 1 < q 1 < < 1 1 w q e 3 1 1 1 1 1 1 e 1 q 3 1 q e u p t u u u q 1 e 7 q 1 q w q q 1 1 1 3 e 3 1 < < q e e e < =   o ",
"$ 4 y h h h j l f f D T T R ` ` #.] ' T ' ] ] ' T ' ] ' ' / T T K I I K H K P P H J I R K z j G J J H H H H J K  .:.,.=.:.:.:.<.6.1.2...#.P T D D V D A A V f f Z l j j l j f C C l z A D S A S H H H G j z H J K H z H K J K W ` ' ` T P P Z l P ..' F B f 5 < ; ; ; ; ; > < 3 < < e e e e e e u e r w 1 q e q 1 1 1 1 7 q 1 1 e q 7 1 7 e 1 1 1 e e 1 1 e e 1 < w e 1 e e u 1 u u p v v v x v B v v B v p p v p p p p p u u u u u u u e e e e e 3 e 1 1 e 1 3 < 1 e e q 3 w e 1 e 1 1 1 < 1 1 e q 1 < < < 1 1 w w 1 ; ; O o > * 5 9 G G h h z G Z G K G G G j j l z z l l k k h 9 9 z k a h z s C z j k z z j z z z k z J P I S J P T R { { R =.<.2.0.2.,.:.<.j.&.1.1.*.&.....] ....' ` ` P F S H H m z z m G h l G z z z z z S S A z A D D D D F D T D / ' D ' ` T P T L S l ) F B k r , 1 4 1 < ; O O O - ; ; 1 e q 1 1 1 3 1 3 1 < < > < < 1 1 1 < > < < 1 < 1 < 1 1 1 1 q 1 e e < , 1 1 1 q 3 1 1 7 1 1 1 1 q e u r e e 1 e i u t u e e 1 e e q q 3 1 q q 1 1 q 1 1 1 1 1 1 1 < e q q q e e e u e e e 3 q 1 q 1 1 1 < 1 1 1 1 < 1 1 < < ; e 1 1 < < ; O   ",
"$ 4 y h h g k l D /  .&.&.*.>.6.6.*.&.*.&.*.*.<.&.*.6.6.&.#.O.&.&.X.X. .}  .{ I :.&.X.P H K Y { { R { I R W ..X.1.y.e.2.2.1.1.2.i.i.i.1.<.' .. .D T D D A V C V l A P ` ' ` ` P T P P L J L P P K W ..} W Y W W ..` I { X.$.&.X.} ..} ` J Z j 9 L ` ` F b f 7 : @ O = O = ; < < e e u p p p p p p p p u i r u u u u u u e e e e e e e e u u u u r p p u u c d u r u u e u i p u e u u p x d x x n v M B M x x n v v v p p u u r t u v B B n x x x p p u u u u e r u u t e e e r p p u u u u i u e e e 1 1 < ; ; < 4 < ; ;   # ; * * 5 5 h h h z V G K W { W Y W  . .{ I ) P I I P m j j h h z P D P P P P I I P z H L H H P I ` P R } X.X.| O.&.O.:.<.1.:.=.=.O.O.&.1.1.1.*.&.&.....' ] ' ` P Z z H I  .{ ) R ) J K K H H H H H K R P J / T ' / #.' ] ..&.&.6.&.' ` T ` ` F b a / ) L v e > > w < ; =     = = ; > e e e q e u u u u t e q 1 1 w 1 1 e 1 1 1 1 q u u r u u u i r r t u e e e u u u u u u u e e e r u u u u w w 1 e r u u e e e u u e e e e e e e 1 e u u u p p t u t u u u p p p x x p x p u u u u u u u r u e e e 1 < < < < ; = 1 1 < > ; = O   ",
"$ 4 9 a h h l l f D ' .. .#.&.*.&.&.&.&.&.&.*.*.&.&.1.*.*.*.O.&. .{  .{  ... .I X.O.X.] K H I P {  .....X.O.:.<.O.<.:.O.<.<.<.<.r.r.i.&. .L P P A A A C A f f f l L `  ...] ) F P / P S F `  . ...O.....` ) { X.O.{ ) { O.X...` R ' ` R F Z l h L ` / F m d 5 : O O O = = = ; < 3 e u d x x d x k p p u u u t u r u u e u u u u q e u u u p u p e u u w u u i e p v x p u p x p t p p x x v v n n v v b n p p v p u u u u e 3 q p d b ! ! B v x x p u u u u u r u u u u u u u u u u e w r e e w 1 e e 1 1 > % O < 4 < = = o   = # * 5 t t y h h z G | | X. .| |  ._ I P ) ) ) ) ] ) H P L A m I L I I L L ) ` I G L { I H G I ` I  .X.X...} O.X.@.Q O.&.Q Q { Q ' ] o.' ] / / F F F F A S S k 9 z H  . ... .I P P P G z m H H G D / P D / T / T ' ' ' ..#.&.1.&.&.*.&.*.&.X.) F ) ) F v 4 > > 7 > O     O O = - ; < q w q e r u u u u u e 3 e e q e e e e e e u u u u u t u u u u p u u e e u u u u u u u u e w q q q e e u r e e e u u e e e u q e 1 q q 1 < 1 e e u p v p p p p t u p p x x d n b v x p p u p u r u u e t e e e 1 3 1 1 1 ; ; 1 1 < < = O O   ",
"$ 4 9 9 h g k l f A / / ` / / ' ' ] ] / ' / ] ] o.#...o.] / / T I ) I I  .{  .I I X.O...` ` P z m m H H L L I I  .X. . .X.O.X.<.<.<.e...) z A D f f f f 0 6 0 6 d m F A b S b y y k k s B ` O.X.&.&.O.[ ) I R ..X. .P )  . .` L z F J F A Z m l L ` / B l y , % O = O O = ; > < < 1 e p p u p t p u u u e 3 e e q q q q 1 1 1 1 1 < 1 1 e e e q e u u r r u p u q q 3 q 3 q 1 1 q 7 e e e e u i p u p p u e 1 e 1 q 1 1 1 1 1 1 u u p p p u u e e e e 3 e e e w 1 1 e e e e e u e 1 1 1 1 e w 1 < < < 1 < ; ; O ; < ; = =     = # > * 5 9 t t g h G { [ [ W I W L P L / ( ) P H G m L ) ) H B S L L L L G P ) L P ]  . .` ( )  .k z m m G l k z H G G G j G G G F ] ] ] F F D A l l f f k z k y z z Z G m z z n h j h a h z z z F D / ) / T / ] ] / / / ] ..] ] D D F / L S l a L m v r > > > 4 ; O     o O O O O > < < < 1 q e 1 e e w 1 q 1 e 1 1 1 w 3 1 e q q 3 e q q 7 e 1 1 e e 1 1 1 e 1 7 1 1 1 1 1 1 1 < > < < < < 1 1 1 < 1 1 < , 1 < < , < > > > < > 1 1 e e u e e 1 q 3 e r u u p p x x x p t u e e u 3 1 < 1 1 1 < q 1 < < < > ; = ; ; > ; = O   O ",
"$ : 7 8 9 y g h A A F _ ] / / F / / / D / D / F ] ' ] / / F / F L I I H z z G l y z G a h k k a h h z j n z z z z H m m z k l m b z m h f 3 y r 8 r r 8 6 6 q 6 7 y p 8 7 d p r 3 r 7 r b ) [ ( L I ] ` I G z j F z l l S D F D a f A l f f f f b S m k y 7 & % % O O = O ; ; ; < < e e u e q e e q q 1 1 1 < 1 > > < > ; ; ; ; ; ; ; ; ; ; - = O ; ; ; = ; ; ; ; > < < < < > < > ; < < < < 1 1 e q 1 q q 1 ; < < < < < < 1 < < 1 1 1 1 1 < 1 1 < < < < 1 1 w q < < 1 1 < ; ; > , > < > < < < ; O = = ; ; = ; = = ; = O # # o # > > > > 4 4 t 5 t h G G K G G G L G B m F b v d k y y k d y p k d k k d y k k k a h v z z g k k k d 9 9 9 9 9 9 0 0 y 9 9 y h h r f f f u f 0 r d d f y y d f d d y p 9 8 8 9 y d y a y h n n j A A A D A A A F F A A A D F F A b l C C C f f d p p r 4 > & > > ; O       O     O @ ; ; ; > < < > < < < < < < < < < ; ; ; > < < > < ; ; > ; ; > > < < < > > < < < > > < < > ; ; > ; ; O O O O O ; - ; ; ; ; = O ; > ; ; ; ; < < > < < < < > ; ; < < < 1 q q e e e e e 1 3 1 < 1 1 < ; ; > > ; = ; = O O O O     O = = = O     = ",
"+ & 2 2 4 9 r y f f A A D D A A F A A A f A f f F F F A A f f f j n n 9 8 5 5 8 a k j a h k k k h h h h h h k k d l z l z a d z k g k r a 8 y r 2 2 2 3 3 2 3 6 , 5 7 3 7 r 8 5 3 3 3 3 y v k y p a k k g 8 8 5 8 8 8 6 3 8 a s 8 a f s a a a y y d y 8 8 , $ % % O O o O O O ; ; > < < 3 1 < < ; < > ; > ; ; - - ; = = - - = = ; O O O = = O O ; ; = ; = ; ; = ; ; > < < ; < ; ; ; ; ; ; ; ; < > ; ; > < ; ; ; < > > > < > > ; ; > < < < < > ; > ; ; ; ; ; > ; = - > ; - = = > O O = = = # # O O O O O O O = O   = # O O X X # > > # > > > 4 > 5 5 9 G j 9 h 9 h r 8 7 7 7 3 7 r 5 1 5 3 5 5 8 3 3 5 , , 5 5 1 y 9 h h k k h g k h 9 9 y h h d h a a y a h k k u f f f u f 0 r 8 y y 3 3 3 8 r 7 7 7 8 r 8 9 t 9 y 9 9 8 y 9 8 e r r 0 0 r 0 0 f r 6 f u f f r s a 0 0 y r 8 8 r 5 , % > > 4 > ; = O O O       O O - = O - ; - ; - ; ; - - % O ; - O O O = O = O O O O = O O O = - ; - O O - = ; ; = @ ; ; = O O O O O O O = O O O O O # O O O = O = O - ; ; ; ; ; ; ; - ; < ; ; ; ; > < > > < ; = ; ; ; - - = ; @ O = = = = O o O O O O O O       o o         ",
"o & : , , 5 7 8 0 0 f f A f f f f f u r 6 q 2 2 6 e 6 6 3 6 q 3 5 8 9 8 5 5 8 8 * * 5 7 5 5 5 * , , * 4 * 4 , 5 * 5 5 5 9 7 7 a 8 3 7 > 3 - 2 < : : : : : : < < , , , , 1 , 1 , 7 7 7 7 7 7 4 4 y a y 9 8 8 8 9 8 y r 8 7 8 a r 8 0 y y y a y 8 , 7 2 , , & % $ ; O O O O O O O O - > < < < > ; - ; - ; - ; = O % ; = ; ; ; - ; > > ; > > > > ; O O # O O O o O ; O O O O O O =   O O O o O O O - - O O O ; @ - O = ; O = O O = = - ; ; > > ; ; ; O O O O O O O o O ; > > < 1 1 < 1 q 1 1 < < < ; ; - = O O O O   # O       X > > > # > > > > > > > 4 4 5 5 5 4 4 5 , 1 1 1 5 7 1 , , 7 e 5 , : 4 4 5 5 7 5 7 5 7 4 4 7 8 8 4 9 y 8 5 4 7 8 9 9 9 8 7 7 6 9 9 9 0 r 6 e 6 3 3 2 r y y r 6 r r 8 4 , 5 8 t t y 9 4 9 8 4 4 4 * * 8 3 8 0 u r r 0 6 6 r u 0 r f f a a y a 8 8 3 3 , , > # # > 4 4 1 < > ; = = = = @ ; - = O - - - ; - ; O @ @ =   ; ; = = ; ; ; = O = O - = O % ; = ; > ; ; ; ; ; ; - ; ; ; > ; O = = ; > < < 1 1 1 > ; = = = O = O o O O O ; - ; ; @ ; ; - ; ; > O ; - O @ = O O O O - ; ; ; ; - ; ; ; ; - ; > < < < < > < ; < > = = O O O O     ",
"o @ & : , 1 5 5 3 q r q 6 q 6 r q q 6 q 2 : - & : - & - - - & & $ % % $ * * * * * * % % & $ & & % & & & $ # & & * , , 4 9 7 , 7 4 1 e > 3 < 3 3 1 : : : : : : : , : : , 1 3 7 7 1 3 e e 7 , 4 r 7 7 9 t 7 4 , 4 , , 1 , , 3 3 3 3 r 3 2 3 3 2 : 2 3 , : & % o ; ; ; O O O O O O O ; > , : < < < > ; > > ; ; ; ; ; ; ; ; ; ; > > < < < 1 1 e q 4 e 1 1 1 1 1 1 < < ; = @ - O = > - @ ; ; ; ; ; ; ; - O   O O O O O o O O O ; ; ; % @ O O O O O ; ; @ O O O O O o % ; < 1 < < 1 1 e u p r 7 1 e r 1 < 1 > ; = o     #     #   # > 4 > > # > > > > $ > 5 4 5 * 5 t 1 1 7 7 5 1 , , 1 : : , 1 1 1 1 : , , 4 5 4 4 4 7 4 7 7 7 4 t y y y 8 7 7 8 8 9 9 8 8 9 9 t 7 7 r 3 q 6 r r r e 3 7 3 7 r r y e 4 4 7 8 8 7 7 4 7 t t 4 , , 4 , 3 3 2 3 3 3 2 2 q 3 6 e 3 6 r r 2 3 3 3 2 3 2 2 ; > % O o # 4 w 1 q e 1 > ; > < < < < ; > > < > > ; > > < < ; ; > > > > , < , ; < > , , < < 1 < < 1 3 < 1 1 1 < 1 1 1 1 < < < > , 1 < 1 1 e 4 e p r < ; % = % O O O O O O O O = O O O O O = O O @ O - @ @ ; ; ; ; > , , 1 1 1 1 1 1 1 1 1 1 1 7 1 3 3 1 3 1 1 1 < > ; % = = = o ",
"+ O @ % < 1 , 1 < : > < < , < < ; ; O O O O O O O O O O @ @ O o O O O % ; ; % ; > ; O O ; ; ; O % O O O % ; O o O ; > < 1 < 3 e e 1 1 1 1 1 < > < ; > ; ; O # ; % ; ; < < > > < 1 1 1 3 e 7 1 1 3 q e 1 1 1 < 1 q e 3 1 1 < < , < 1 < < , < ; ; < ; ; % - ; ; ; ; % % % % % O % , : 2 2 2 3 3 3 , < 2 3 2 : < 2 : , , , : , , , 3 3 8 r e r e e t t r 4 8 t t 7 1 , , , , , 1 , > , 1 , 1 1 1 5 1 , > ; , : : > % % ; % ; # % % O + O o o o @ % O o # # % % ; ; 5 , 1 8 4 : , 7 r 4 r p p r t k p y p r e > % > > # # > > > > 4 i 3 > ; > < 1 < 1 3 q w e r 3 e 7 e 1 1 < > < , ; > < > < > < < > < > < > , < < 1 1 e u u e 5 < 4 4 , 4 , 4 4 4 , 4 , 4 5 7 7 4 4 4 , 4 4 4 4 , 7 4 , 4 4 5 4 1 1 1 < 1 1 1 7 1 1 < 1 1 1 1 1 1 < , , < > > < < < 1 1 1 1 1 1 1 e 1 3 3 , , < < % ; = O ; < w 4 r 1 > , > * 4 7 4 4 5 * 5 9 8 4 5 * 4 4 5 4 4 5 * * * 4 5 4 * * 5 4 4 * 8 5 5 4 9 t a 8 7 y d g 8 8 7 4 4 4 4 4 4 * 4 5 8 7 9 t t 8 4 4 4 4 4 4 $ & # % $ o o # o @ + o & @ @ & @ @ & % @ : , , 2 3 y f r y y r r r d 0 0 r r r d a a r y 8 7 8 r 3 : > ; @ @ . ",
"O O ; ; > < ; ; ; ; - ; ; ; ; % = O o O o O O O @ O O O ; O = O O O O = O O O O ; = O O @ O = = O O @ @ = - @ ; O = ; ; > > > < 1 1 < , > , ; ; ; = ; ; = = ; ; ; ; ; < , > ; < < ; ; < < < < ; < > < > ; ; > ; < < < < > ; ; ; ; ; ; > ; < ; - @ O O O O = = ; , : > & % ; * : 3 3 2 3 3 3 3 3 7 7 3 2 2 8 r r 3 2 2 2 3 2 2 2 3 7 e 8 7 7 7 7 7 r p r r r 7 1 , 1 , , > > > 1 , 1 1 1 , , , 4 , > ; % ; ; ; > , , : ; , , > ; : , , > > % % % > & & > % ; > , , ; > , , > : , : ; > 5 5 1 4 r g y y g r 7 4 4 7 4 4 4 4 > > t e < ; = = ; , > 1 1 1 q q 1 q q < < < > ; ; ; - O = - ; ; ; ; - ; ; ; ; ; ; ; ; < < > < , < 1 < % > > > , , > > , > > > 4 4 1 , , 4 > 4 4 4 4 4 > > , 4 1 4 4 5 4 q 3 q e e q q 7 q 1 1 1 < , < = - - = O O @ = ; ; ; > < , < < > < 1 < < < < < ; ; ; - > 1 e e 5 , & * * 4 7 9 y 5 5 5 5 7 5 4 8 8 6 6 5 4 5 5 5 5 5 4 5 5 8 a 7 7 8 8 9 y y g y h l h h h y y h g g h y y y 8 5 4 4 4 9 7 t 4 9 7 * 4 4 4 5 * 4 4 4 4 4 * $ 4 , : & , 2 2 @ @ 2 & 3 8 7 r y r a a A A f f f a d f a a d f f 0 0 a s a a y y 9 r r r 3 : @ @ @ ",
"< 1 q e e q 1 1 O O O O = O O O = O O O O = = ; ; = O @ = = O = O = O - = O O O O = ; = = = - ; = ; > ; O O = ; O O = = ; ; ; - < < < ; ; = ; ; = O O ; > ; ; > > ; ; ; ; ; ; < < > ; ; ; > ; ; ; - ; ; - - % ; % ; ; ; ; = = - O O O = % - - = O O O O O O = O , , , , , , , 8 8 8 7 3 8 3 8 3 r a r 2 2 a a 8 r 3 8 r 8 3 2 7 r r r r r 7 7 5 7 7 7 7 4 , 5 r r r r e 7 8 r p r 8 7 5 7 4 7 8 r 7 7 7 8 e 8 7 8 1 , , 4 4 4 4 3 , 8 8 8 9 y 8 7 7 7 5 6 4 5 8 , , : 2 5 5 * 4 7 : , , 5 2 5 r 4 4 7 r e 4 , 4 4 > > 4 > > 4 4 < < ; = O = = ; < < < 1 < < < < ; ; - O O ; ; ; = O - ; ; ; - ; < ; ; ; ; ; ; = > ; ; = ; ; < < > 4 4 > > , > % # # # # # # # # # % % # $ # % % # # > > , , , 1 e 1 1 q e q q q 1 1 < > ; ; = = O O O O O = - ; @ O O = ; ; ; > ; - ; ; < ; ; ; ; ; ; = > 1 e r 7 1 : & * 4 8 y a 9 9 6 y 9 9 9 9 9 y 9 8 6 6 9 y 8 5 5 5 5 9 a a a d a a h h z h l l k d h h j y h g a h h h d 8 y y 5 7 y a 8 y a 9 9 y 9 9 9 5 7 9 9 8 7 5 7 8 y y p f f r r 8 r f l d l l k f C A A A f f f f f f f f f A A a s f C l l k k k k k r < & - : ",
"> < 1 1 < < ; ; @ = O O O - O O ; ; - ; - ; ; ; = - ; - ; ; ; ; ; ; ; ; = ; ; - = - ; > > > < < ; ; ; ; = = = = ; ; - ; ; ; ; = - ; < > ; ; > < - ; > < < < < 1 < < > < < > < < < < < > > < < < ; > ; ; > ; > < ; ; > ; ; ; ; ; ; ; ; ; > > < ; ; ; ; - O O o o ; , , , , , 8 r y r y y a y y y a d a 8 r d y 3 a y y a y 8 7 7 y y y r r r 8 8 8 5 5 7 8 5 5 r 1 5 1 , , , 4 1 1 , 4 1 , , , , , 1 , , , 5 1 , e 7 4 5 7 7 7 7 8 8 8 r y y d d 9 r y 9 8 8 9 y r 8 5 8 y y 9 4 8 5 5 5 5 2 1 7 , 4 4 7 7 4 , 4 > > % # > # > 4 1 1 > ; = O = ; ; ; ; > ; > ; ; = ; O ; = ; ; ; - ; ; ; > ; > ; < ; < ; > ; > > ; ; ; ; > ; < ; > > 4 > > % % % % > % > > 1 , , > > > > % % > : # > > > ; % ; > O O O O o O =   = = ; # O O O o O O - ; - ; > < ; ; ; - ; @ ; ; ; ; ; ; > ; ; > = O O o = < 1 e t 5 , 4 4 7 9 y h h 9 0 h h a a y a a 9 9 9 a a y a a h a a 9 a a a h d a a a a g k z z k z z H n z n h y v z k 9 g k 9 a g h a 9 t y y t 9 9 y a a d h d 8 8 9 2 8 a d d d r y f d k b d k b k C f A A f A A A A A A A A A D D D D A D L L P P F S b p 3 2 : : ",
"O O O = O O O O ; O O O ; - ; O ; > < > ; < > , ; ; < < > < > < ; > < ; > < > ; < < > , 1 < ; ; ; ; ; ; ; < > ; ; ; = ; ; ; ; = O ; < < < > < < < > < 1 1 1 < 1 1 1 1 1 q 1 1 1 < , > < < < 1 < < 1 < 1 < 1 < < < < 1 1 1 < 1 1 q 1 1 1 q 4 1 < < < ; = = O     % : , , , 2 8 y a a d h f l l f l h d h l k d d f f d h l d y d a a a a k k k h k r 9 k l a 8 7 k d y r y y 8 5 5 7 7 7 5 5 2 3 8 7 7 8 9 y r r 7 8 r r r r r y h h a a y y y 9 8 8 9 9 9 r y y d a a a k m z d h 0 y h d y d y a a d h k y t 8 9 4 4 * * # $ # 1 < , ; O = ; ; = % ; ; > > ; - < < > > ; ; ; ; ; ; < < > < > < ; ; < < < < < < < < < < < < > > > > ; ; % ; % ; > > 1 1 1 1 1 3 4 4 4 1 < < 1 1 ; > > > % % ; ; < > ; ; > > ; ; O # = O @ = ; ; ; > > < < < 1 3 q 3 1 1 1 < 1 1 < < < < < > < < ; =       ; 1 u y 7 * 4 5 8 a d h 0 h h j j h h h h h a 9 9 9 0 0 9 h h j a y a h 9 h h m m l h a G H G G H z z z H G 9 d h h h 6 j G h a j k a k k l z l l l l l h j j h y 9 a k S S m z k s z b k l k k k m m f C D D D F / D / / / D D D / ) ' ` ` ` { X.O...] L b d a r 3 : ",
"; ; = = = ; ; ; ; = = ; ; ; ; ; ; < < < < < 1 e < < 3 q q q q e q e r e q e e q u q < < < < > ; 1 < ; > 1 1 1 < > ; ; ; ; < ; ; > , < 1 1 < > > < < < < 1 1 < 1 q 1 e e e 1 1 1 1 1 1 q e e 7 e e w 3 e e e e e e e r u e e e u e e e e e 1 e 1 1 < > ; = O O o % : , , 2 8 9 d y y h k C C A A z k d h l l l m S z m A L H S F z z j G H L P P ) H k h k k h d y k k y k k k r r y d y y p y y 7 7 7 9 y t r r 9 y h d y y k k z n k k l k h h 9 0 h h l z b z z m Z G P  .] L H G H L P L L S G G G H G z n k g g 9 4 > % > > 1 , ; ; = = = ; ; = ; ; < < > < < , < < < < 1 1 1 1 q 1 e q q 1 q q 3 e w e e 1 e 1 < > ; > < q > > > > 1 < 1 1 1 1 1 > < , 1 1 4 7 e 4 7 1 1 4 1 4 4 1 , < , 1 ; ; = ; ; ; ; ; < < < < < > < < < 1 q e e e u u u u u u u r u u e e e e q 1 1 < > = O     # < t 8 5 , 4 9 y h h 0 0 h j j h h a h h l h h h j G H G l z z l l G Z G H K ..X. .) K K L z j j z G j j G G z G z h 9 j V j h g l k h l l G G l k g G G l j h y h h l A S z l h k F L S F S S L ) P A D ] &.#.#.&...&.&.$.&.&...#...&.$.O.&.&.:.&.&. .) A f f p 3 : ",
"; =   o O - ; = ; = ; ; < < < < 1 3 e e e e u u r u p p p u u p p x x u i p u u p u q e e 3 q e e e e e q q 1 1 < < < < 1 < q q u e e 3 q q 1 1 q < 1 1 e u e r u e e u e e q e u u u u u p u u x p p p p p p p u t p u u u u u i u u u e e r q e 7 1 > = O = O % % , 2 7 8 a a h h h l Z S F S I ) ` P P I ) T ` P ) ` ' ` ` ` I L L P I I ) / ..I G z S P ) I L `  ._ P P L m h h k d d h l l m b B S H L F L b m z k k n z H H H L L I L H S z G H J ) ` I I H ) { )  .:.O. .I I P L ) I I L I L L I P L L G G h 0 5 4 * > > 1 < ; O = ; ; ; > > < < < 1 1 1 1 1 1 q e e t u u u u p p u p u p p p x p p p u r u e 1 1 q r u e r e i t r 7 e e r t t u u p x b v v v v k v p y t i u e e e e e 7 q e u u u t e u u r u u u u r u p x x v v M x x v v x x v p p p u p u e e q 1 ; = = O O < r 7 4 * 5 t y d h j j l j j z z z H J I I K I I { ,.| { ..| ..Q =...} ..$.1.2.2.1.2.:. .K K R  ...W | O.` ` ` I H j G H G G G L I O.X.=.O.$.O.| { K K L G G z G J  ...` L P ` ] &.' ` ..&.....O...` ' *.i.r.r.e.>.t.t.t.r.r.r.r.r.r.7.2.2.2.1.&...` ` P F b a 3 2 ",
"< ; O = ; > ; = ; > , < 1 1 e 1 u p p c p u p v c v n B n x d x p x v u u p r e d p p p u p x n x v x u e 1 1 1 1 e 7 e e u u p p u u u u u u u u e e e r u u p v p p x x x d x c v k v v v c p v x x x x x p p u p p c p p p d k p p p p p p u u u e < ; ; O O % $ & 2 7 9 9 9 k j m A J P K T 1.r.y.e.2.6.2.X.&.&.....X...' ` { I L P L H H G P I { ..:.<.<.X. .<.2.O.P B z k L H S m S H I _ m S S L P P P P  .) L L H P ) {  . . ...X. .I H L L P _ X.X. .` I  ... ...:.&. .:.O. . . .{  .) ` I ( ] { ` ) ) G G G 6 5 > * # 7 < ; = ; ; ; ; < < 1 1 1 e q 1 v p p u u r p u p p p g c x k x v x v v k p p u u p p u p p p u p u u v p u 1 1 w r u t y d M B B B n B B B v d n v p t p p u y e u u u p x k p u u i p p p p d x v v M n B B B b M n n n v v x v x k p p u e e 1 > ; ; = = < e 8 , * 4 9 y 9 y G l l j j G H P ,.,.2.2.=.=.:.:.r.=.X.=.<.:.=.=.,.<.:.<.,.1.1.>.a.a.i.a.a.c.i.0.r.y.e.O.W I L l H H J K J J X.<.<.<.<.<.1.:.O. .O.|  .R K R ..&.2.1.{ ` ' { X.1.&.&.e.y.2.1.1.X.$.&.e.t.t.t.t.t.p.p.z.z.z.x.B.B.x.k.j.a.i.2.X.` P ` ] ) A a 3 3 ",
"< ; - ; - > 1 , 1 < > 1 1 < 1 e 1 3 e e p p p p g u u v p u p p u u u t u e e e u r u u u p p u n p p u u e e e u u u u u u p p u p p t r p p u e u u u e e u u u u p p p c p u u u k v v k x p u u p u u u e e r u i u p u u p p x v p p u u p u r e < ; # O   % % , 7 8 9 0 0 j h j J K K W X.{ { ' { &.&.*.&.&.#.$.$...| ` E { I K H S J P J P I  .{ { ....$.1.e.2.X.I L I R I P J Z A L T P E R I P L P R ` ' ' ` I L P ) ' ........{ { ` K S H J P K R ` ` ` ..{ R ` { | ` .. .R R ` ` R R R R ` ` I I P I m m l y 8 3 : : w > ; = = > < ; 1 < 1 1 e e w q < 1 1 e 1 u u p u c p p u p x p x v p p p p p u e u u t u u u g p p u p u i u u p c M M M M ! ^ G G B ! F ! B B B B M v x p p u p p p p x u u u u u p p p p p p x p p p v b n v p p v p p p p p x x p p p u u u 1 1 ; O O = < 7 4 : , 8 3 y l l f s j D L P R { R E { | $.>.1.6.2.2.,.1.=.=.:.:.;.%.#.$.*.1.>.>.6.t.t.s.6.j.s.s.e.0.y.1.X.{ { X.X.| ..X.$.X.$.=...:.,.:.&.=.<.2.} &.:.:.| I X.<.4.*.#.' #.&.*.$.` *.6.3.6.t.>.E O.#.*.6.3.>.*.3.6.7.t.7.8.y.j.k.N.N.k.p.r.1.:.$.) ) ` I m y 6 5 ",
"< - ; ; > < e 1 e 1 < e e q q u u 1 1 w u u p p p r u u u e u e e e e u e e e e 1 q 1 q e e e e e e e q 1 q 1 1 u u e e t r u u e u u u e p u e 1 e r e q 3 q e 1 1 e 3 e e e 1 q e u u e e w e e 3 e e 1 1 1 1 q e q 7 q e 7 e 1 w e e 1 e 1 e > < < ; = ; ; O $ * 4 8 y a h h a j G P W Q } | %.$.$.| ' ' E R ` R R T R U J D H z z h l Z Z Z z V S Z Z V S H T ` ` H Z z H P m S H J L P D Z H H S S S J J P L J F H D H L K P J H H J J A z H H S Z z j z Z S Z S H J J P P H z z z z l h a j z l j h h h 0 k y y r 3 3 2 2 q > ; - ; < 1 1 1 1 1 w e e e e e u e 1 1 1 1 1 1 e u 7 1 e q e 1 e w 1 w e e 1 e r u e 7 1 q e e 7 q e u r e 1 e p p p p x v M n n n n v v v v v x x d p p y u e q w e u e e 7 q q e e e e e u e e e u u p u u e e e e e e e 7 r u 7 e e 1 1 < < ; ; O O ; < e , : , 8 r y l l l l l J R K W | $.} | ..X.X.$.$.@.| } W R R R W ' E R R ` ' E R T ' ' ' ' ' T E R W  .W R K R W | } { { | Q ..| ..=.<.=.X.=.:.,.R W { | W K { =.E U D D D T T T D T R T / ' D D D ' ' ' +.' ' ' ' ' ' #.#.#.$.*.$.=.$.} ` R J S z Z S H l y 7 7 ",
"1 ; ; < < e u u q 1 1 e q e e u u e q e u u p p x u u p u r i e e e 3 q e e e 1 q 1 e 1 1 1 3 e < 1 q e r w e 1 e e 1 e e e e 1 3 w q w e e e 3 1 q e 1 q 1 1 1 1 1 1 1 1 e e q r u u u u e e e e e t u r w e e e e 1 1 q 1 e e < 1 q e w 1 1 1 < 1 < ; ; = - O % , 7 y h z G H a V K W | =.:.>.*.>.>.$.#.} } } ' ' E E ` R R U K J H H H K P J Z V S Z Z D J U L P P Z l V Z Z z V z j V Z F Z z V z z C Z S J m z V Z F J L H J H H J J J J Z J H Z V j V V Z Z V V J P J J J K K K J J J Z V H Z H Z z z j h 9 9 8 8 8 3 3 2 1 ; - > > 1 u e 1 1 q w e u u u e e 1 1 7 e e 1 1 e e e w e e 7 u r u e r t u u u u e e q 1 1 1 1 1 w w e e e 7 q q q e r y p p p p x p p p p p p p p u u u u u 1 e 1 r u u e e e e e e e e e u e e e t u p u u u e e e e u e e w w e 1 e 1 1 < < ; O O O ; < 1 3 , 3 a f b F F j z Z T W } } =.%.$.%.%.-.=.%.%.,.-.=.@.@.@.} } ' ' E E E E E R ' ' +.' ' ' E E W W | } } W } } W K K K Y Y Y Y K W } W W W Q Q R K J K R W { | E U D E ' ' +.' } ' ' @.+.D E +.T T ' +.+.' ' } +.$.$.%.*.*.>.>.%.$.$.| } E K P S A S Z j 0 6 5 ",
"1 ; > 1 q u x p 1 < 1 1 q 1 7 u q 7 u u u p d p v p p v x p k p r u e e 3 e 1 1 u e e e q q e e 1 e e e e e 1 1 3 1 w 1 q w 3 1 1 q q 1 q q < 1 w 1 1 q 1 e 1 1 q w e e r u u u u p p p p u u p u u u p p u u r u e u e u e e e r u u r u e e e e w 1 > ; ; = O & * 8 k z H L I V H K W | ,.0.,.>.>.>.%.*.>.>.3.%.%.%.%.%.$.@.@.W W E Y E } W E K J J J J J U Y ' ` R J H P J H S Z Z z Z H J J H H H H S Z Z Z S Z Z J J P K K Y K K E E } } } Y J K H J J Y U R K T } | } Q Q } { { } } W E R R T K J J Z z z k j f a y 8 3 2 1 ; ; < 1 e u u 1 1 e r e e u r e 1 e e e u u u r u u i u p u u u u u r u t u u p u u r u u u r e e e e u u u u q e e e u p p p p p p p p p p p p p u u y u u u u u u u u p p p p p p p r u u p u p u p v c k v p p p p u p u p u u u u u u 7 e 1 ; O O = ; < , 3 1 r l A F / T z z J Q X.| $.=.>.:.>.,.4.,.3.7.0.2.:.>.,.3.>.-.+.#.' } +.} } E +.#.$.+.+.#.' E } W | W } } W Q K J J K W W W W Q Q Q { Q Q Q W R R K W | | =.| +.E +.+.$.*.%.%.$.@.$.3.%.' E %.+.+.%.%.>.%.%.%.$.*.*.3.6.6.4.4.2.7.>.%.X.| { R ` P H Z j 0 9 5 ",
"1 ; < q e i v x 1 1 1 1 e e e u u t r e u u p k u u p x p v v p p p x u e e e e u e q q e e q q e e e e q 1 e e q e i r q q e e 1 e 1 7 e q q 1 u 7 q 1 3 q e 1 e e e e e u p p p p p u u u t r r u u r u u u e u r u u r u e e y u u p u t u r q 1 < > > - - O $ : r l G P R { G K W W $.,.0.0.8.3.-.%.3.3.3.3.,.3.>.-.-.;.-.-.@.} } @.$.@.@.| } Q E Y Y Y Y Y } } E R W { } R J K R W { R T K R R R K K K K J T K K R { } { W W } } } Q } } +.} Q E Y K K J U T Q } } +.$.@.} +.} Q } } } Q } } W W R T J S V z l l d y 8 2 3 1 = > < q e u p 1 e u e e e e u u u e e u u u e q u u r u u r e u u u u p u p p x p p u p p u e u u u u u p p u u u x x u p x c M x M x x x x x x x x p x x x x x x p p p c v p x v x d p p p p u p p p p d x p d x p p p p p p p u p u u t u e 4 < > = ; > < , 3 : r f A ^ ) / z Z K } X.=.=.=.,.3.4.4.4.3.;.4.8.8.4.4.5.0.8.4.3.3.%.*.>.;.>.;.+.%.%.+.E +.+.E | W W } } | | | | W W Q | | @.| =.=.| =.=.=.| @.| | | @.=.=.=.=.E E +.+.%.%.%.$.@.@.$.%.%.' E E +.%.%.%.%.%.%.%.%.%.;.3.3.3.4.4.0.0.,.=.$.} } W R J z V j h 0 0 ",
"1 > 1 e e p v x e q e w e u u r p u u e 1 e i p t r u p u x v u p x d p u u p p i r 1 e e u e e e e e e e e e u e u p u u 3 e u e 1 q u e r u u u e e e e q e e q e r e u p p p g c x p u u u u i u u e u r u u u u u p p p u e p t p u p p u u e 1 < < < ; = @ & 2 r b L I { { j K W | :.,.,.,.t.8.4.3.3.4.3.*.3.3.3.3.>.>.-.-.>.-.=.1.3.3.3.:.=.%.+.} Q } +.Q | | } { } X.| } { W } { W R E { { W Q } { W W { } Q { } } } | X.@.$.$.$.+.+.| $.@.+.} E E U U U J W Q E Q $.$.+.-.-.$.@.| $.$.$.$.| X.} } W J S j h s a a r 3 3 1 ; ; 1 q u p p 1 1 e u e e e r u e e q u r u u e u u u p u u u u p d x v v n B M M v v p p p p p p p p p p p p u x M x p p x M x x x x x v x v x M x M x x x c v x d p v k v v v v v x c p p x p p p d x x x x x x x v p x x x p p p p p p r e 1 < ; ; ; < 1 1 3 : r f F / ` T V H K } $.=.;.=.>.4.4.8.4.3.3.4.f.u.q.q.u.u.u.u.7.s.s.7.7.8.8.8.4.4.4.;.%.+.s.s.,.;.=.=.=.-.;.,.=.=.=.=.=.=.=.=.=.=.=.=.=.=.@.=.-.,.,.,.,.>.=.=.%.%.%.%.%.;.%.*.3.;.;.%.%.%.;.%.%.%.;.;.%.;.;.;.3.4.8.8.8.8.8.8.q.u.0.,.>.-.$.@.Q K z j l j s 0 ",
"1 < 1 q e p v p 1 e e e e r u e u t r e e e u p u u k x p v v p x p p p u u p p u t r u t u u u r u u u u r u p e u p p r e e u e e q w e e r p e e e e e q e e e u t p u d v v v v n v d p u p v p u u t p p p u u p p k p u u u u u p p d u u u e 1 1 < > O O : 3 y A L ) Q Q H H W =.,.,.,.,.f.8.4.4.4.4.4.8.8.8.4.4.5.4.3.>.,.-.-.>.,.>.>.-.@.@.} } +.} } } $.$.$.X.| X.| { $.} W R K R W X.} { }  .} } } | | } } } } | $.:.>.-.%.$.-.>.-.-.$.@.+.} } Q Q Q E E E Q } $.$.$.%.%.$.$.$.$.-.-.%.$.| } } W J S l j 0 0 a 8 7 5 1 @ ; 1 e u p p w e w r e u u e 7 e e e e r t u p p p p p k p u u u u p p p p v b M B v x p x x x p x x x x x x p x x x x x c M x M M x x x v v x x x M c c v v v x x v v n v n n v n v v p d x x v v v n v n v v M v n n v v n v v c v v p u e 1 < > ; = ; < 7 3 : r v F / ] ' Z J R } $.-.-.-.;.3.5.8.8.4.8.q.8.8.8.8.q.8.q.q.s.7.7.3.4.3.;.4.;.4.8.3.%.s.%.%.,.,.,.;.=.=.=.=.-.-.;.=.=.@.=.;.;.-.;.0.0.;.,.,.;.0.,.;.,.;.-.=.%.%.%.%.;.%.;.>.3.3.;.%.%.3.3.;.3.5.s.5.4.s.4.s.4.8.8.8.8.8.s.8.w.q.0.6.:.-.=.$.| K z j z j 0 0 ",
"1 < 1 q r u p u e e e e u t u u < q e p u u u p p p x v x v v p n x p u u p p t u u p u r u r i u t p p u u r u t u u i u u e e u e e e e e u t 1 u u u e q e r e u p u p p v v p v x d p p u u p t u u u u u r u t i p p p p p p p u u u p e e u 1 < 1 < > = ; : 3 d A I R | Q J V Y | =.=.,.9.8.8.8.3.3.3.4.4.8.8.4.4.4.3.3.,.0.6.3.4.6.>.>.>.>.-.@.@.@.+.} Q X.$.$.| | $.X.} } } } | | { } | | } } } } | X.X.} | } } } X.$.>.-.$.| $.-.4.,.>.-.-.@.+.} +.+.} +.Q Q } $.@.@.-.@.$.$.$.$.-.>.,.>.-.$.$.| } T J J S j s a y 7 2 < O = 1 1 u p d e 1 e u u u u u e e e e e u t u r u u i p p u u p p p x p u p d u p x p u u x x u u u p x x x p v v x x x x c x x x x x M x M v x p x x x v v v v p x x v v v v v M v n v p p u x p x v x x v v v v v v x v x k v x k v v p u u e q < ; = = , 1 3 2 r f D / ' / H K W | =.:.,.-.;.3.7.8.8.4.5.8.u.f.f.f.q.q.q.u.f.f.s.s.s.s.8.s.%.;.s.5.%.%.s.s.=.;.,.,.;.;.,.,.=.-.,.=.=.@.=.;.=.=.;.,.,.-.=.,.;.,.,.=.>.,.,.;.>.;.%.>.;.;.;.3.4.3.3.4.3.;.3.7.;.4.3.3.4.5.4.4.8.8.s.s.f.8.f.f.u.a.q.7.,.,.=.=.} J j 0 j j j h ",
"q < 1 e u u p u e e e u p g p u 7 u u 1 r x p x v p p u p p x c B M n x p v g p u u p p v M v t u u p p p t p u p u p p r e q e u r e e e e u r e e e e u u u p u p p p p d v M v v v n v c d v t u u p p e e u r i p p x p p p p p p d p p u e 3 u 3 1 1 ; = O @ 2 r b F P ' O.D U E @.>.4.8.u.8.6.,.4.7.7.7.2.0.0.7.,.,.:.4.7.7.e.*.*.*.%.$.#.#.%.%.%.#.+.#.#.X.+.+.$.$.$.#.+.' } ' ' } #.$.' } +.} +.} } +.@.} +.+.} } | =.6.%.%.*.%.%.3.3.*.+.' +.+.+.+.+.E } } +.+.$.$.$.%.+.+.$.$.$.@.$.>.>.=.$.X.| Q K K H H a h j 7 5 9 , ; ; 1 t p p p u e e r u p p x u t t u u p t r p p d x p p p r p p p k v x d x u p p t y p p p p p p p p p d x p x c v x v v v x c v M M v x v v p p v v p v x x v v n v B M v B B v M v v v v p d v v v v v v v x x v x v v n v v v v v p u u 1 q > = = = ; < 4 * 7 k G )  .I H K W | =.,.,.0.3.3.4.8.8.3.4.8.s.t.f.f.j.f.f.t.s.3.7.s.s.t.s.6.3.6.s.3.%.s.+.+.-.%.%.>.,.4.-.>.>.>.,.,.>.-.>.:.,.>.>.3.>.>.3.4.3.%.3.3.%.3.%.3.%.%.3.%.*.%.%.%.3.*.>.>.6.3.6.6.%.3.s.s.3.>.3.s.6.t.8.4.7.s.f.s.0.s.s.5.;.,.,.=.W K 0 V h 0 h 9 ",
"1 ; < q e u v v e e e u p k p u u p p v B B v p v v p p x d d p v v p p k v p u p p p u p v d u u u u r u u p r p r t p u e 3 e p u u u u u u u u u r u r t u t u p x p u x v v v v x x p x x v t p p p p u r p u p p x v p p u p p p p p p u u e u e 1 < = O o : 2 d A P ) `  .D J R +.-.3.8.8.0.8.,.2.0.0.4.0.7.4.7.,.,.4.,.,.t.6.6.*.*.%.$.#.&.#.&.#.' #.&.&.$...$.$.$.$...' ' %.*.$.$.$.*.*.@.$.%.$.$.%.$.$.%.=.%.%.$.$.>.,.%.>.%.#.#.%.3.>.s.s.+.+.E E E E +.Q Q +.@.@.@.$.@.@.$.$.$.@.$.>.-.$.=.@.| { I I S P z h a 9 8 5 > ; ; q u p p v 3 e u t u t p u t u r u r u u u u u p p p p u p p u p p p x p p p u p p u u p u p u p p p p p p p p p v v v d v M M v v v v x p x v p v v v v v d x v v M v v B M v b v v x x x p p v v v v B v v v v v v v v v B v n x d p e e 3 e < = = = O 1 4 4 7 k G ` X.{ H J R | -.,.,.;.4.4.8.0.8.4.4.t.8.8.8.t.8.s.t.8.7.s.s.j.j.s.6.t.3.s.3.3.s.%.%.s.>.%.$.:.>.:.-.-.>.:.>.:.>.>.-.>.>.>.>.3.6.3.3.7.3.3.3.%.3.3.3.3.%.3.*.*.3.%.%.%.3.*.>.>.3.6.3.6.3.*.>.3.s.s.7.3.7.s.s.t.s.s.j.s.9.w.q.9.4.0.,.=.K Q G G j V h 9 ",
"< ; ; 1 q r v n e e u u x x p u p p p v ! B v v v p x x p p v v u p p p v v p u d v p p p x v p p p u u p p u u i u u u u e e e p u p u t u u r u u u u u p u u e u x p p x c v v p d x p x v x d p p p p u p p v p x v p p p p u p p p p p u r e u u > ; ; O   & 2 y A P ) ` ` Z U E +.-.3.4.8.0.0.7.7.7.0.0.7.,.4.4.0.0.0.,.,.6.6.*.*.&.%.%.&.#.%.$.#.#.#.%.%.X.$.$.*.$.#.+.' #.&.*.*.$.#.*.*.+.$.$.%.=.%.@.+.%.-.%.$.$.%.%.%.>.*.%.#.$.%.*.3.+.+.+.' ' E E T Q Q Q } +.@.@.$.@.$.$.$.$.$.$.%.=.$.$.| | { { K H  .H h 9 9 y , ; - ; q u p d p e e u u p p r u u u e e u r u u u u i u p u p t t p u u p u p p u p u p u u u p u p p u u p p u u p v v v x x v v v M M v v x x v x x p x v v k x v x v v M n v M M M v v v x p p x v v v v v v b v v v v v B v B B n v x u e e e u e ; O o % 1 , * 7 k H W O. .H J W | -.,.-.=.8.8.8.u.8.4.8.8.8.8.8.7.4.8.4.8.3.3.s.f.j.s.s.s.s.3.3.3.s.%.;.%.:.$.%.>.>.-.%.:.>.>.%.%.=.-.:.%.>.*.3.4.3.3.3.7.t.3.3.%.%.3.3.3.*.*.3.3.%.3.3.%.*.*.*.*.3.3.*.6.s.3.3.3.s.j.s.>.7.s.s.s.s.t.s.3.5.s.w.9.w.0.0.=.R 2.W G V G j 5 ",
"7 > < 1 1 e p v r u p v c v v u p p t v B B v n x v v v p x c v u p p x v v u u p p v x p p p p k p p p p p p i p p u u t u u u u u r u r i u u r u i i u p u r u p x d p x v c x v v v v v p p x p p p p p p p p v p p p p p p p p p u p u i e e p u ; ; ; O   & : y F ) `  .X.D U ' $.;.3.4.8.8.6.7.7.,.,.,.7.,.;.,.4.4.4.,.=.6.*.%.#.&.%.$.&.#.#.&.%.$.$.#.#...#.$.$.#.+...+.$.$.$.#.$.$.$.' @.@.$.$.$.@.} Q @.+.@.@.%.%.%.$.%.%.$.#.%.*.6.3.%.+.' ' ' +.E E Q Q Q +.@.@.@.$.@.@.%.%.$.@.@.$.$.=.=.| | } { I H X.I j h y 9 , ; ; ; 1 u x x v e u u p p p p p u u e e u u u u e r u u u u r p p u p u p p r u u p p t u y u p p p p p p p y p u p p x x k x v b v M M n v d x v d x v x v c x x d v v v v n B b n B v v v d x x v v v v B v B M v M v n B v B M v v x p p u u u u 1 ; O O O < 4 * 5 h G { O. .H K Q @.=.,.4.:.8.8.8.8.8.4.4.4.8.8.8.4.4.4.4.4.3.3.s.s.s.6.6.s.s.s.3.3.%.s.%.%.>.-.%.=.>.%.%.-.4.>.%.%.%.>.%.%.3.3.3.3.3.>.*.3.t.3.%.%.%.3.3.3.3.3.*.*.*.*.*.%.3.*.6.*.%.3.6.6.s.j.j.s.3.3.3.3.3.7.t.8.7.t.s.4.5.9.9.q.u.w.,.=.R 0.X.I G K j 9 ",
"1 < < q w u p p 7 u p p x v v p u p v B / B x x v v x d p p x n p d v v p u p p u p v v x p x v v c p p p d p u x p p p p x p p u u t r u u r u u u r u u p u t t x p p x v v v v v d x x v p p p p p x x p u p p p p u u p p p x x p p p p t e e x u ; = ; = o : 2 y A ) '  .&.T T +.%.;.3.4.4.4.,.4.3.,.,.,.,.-.-.-.-.>.>.>.>.*.*.$.#.$.$.#.#.#.#.#.#.#.#.#.$.#.#.$.#.} #.#.&.*.*.#.$.&.$.#. .$.$.$.$.$.$.#.| @.| | $.%.>.-.%.#.' #.+.*.*.3.3.+.+.+.' +.' E E +.Q Q +.$.$.@.$.+.$.$.$.$.$.$.| | $.=.| | } { K P ..P l h 9 8 5 @ - ; 1 u v v x e e e e u i p p i u u e u u u r e e u u u r t p p t r u p u p t u u u u p r p p p x p p p p d p p p x x v p x x v v v B v x x d x x x d x d c x v x v v v v n M M M v v v x x p v n v M v v v v c v v v v B v B v v v x k p u i u r 1 - = O O , , * 7 k G R ..I Z K W } =.,.4.4.8.8.8.7.4.4.4.3.7.s.8.4.4.4.4.4.3.s.3.s.s.3.%.s.6.6.s.#.3.3.%.%.,.>.>.>.>.%.=.>.,.>.*.%.=.>.-.%.s.*.s.%.%.>.>.>.3.3.%.%.%.3.3.3.3.3.3.3.3.3.%.3.*.3.3.*.6.*.6.6.3.s.j.s.3.3.3.7.3.3.7.7.4.8.8.4.9.9.9.9.f.0.;.| | 0.| W K G h 9 ",
"1 ; > 1 e u d p 1 u p v d x x p v v v n B v p x n v x p u p v v v v v c u u u k u u p v v p p v x v v x x x p p v x x p d v x p p p p u u t u t u t p t p u u u d p x x d v M n n x u u u p v v d p p p v p p p p p p p p p x p c d p p u u r e u c u ; ; ; O o 3 3 y M ) ` ..O.D T ' $.%.3.3.4.,.,.,.,.:.;.-.=.-.=.=.=.=.%.-.>.*.*.#.$.$.#.#.#.*.&.#.' ' +.#.*.#.#.#.#.#.$.*.*.*.*.*.*.#.' #.*.>.%.$.@.$.$.$.+.$.+.+.$.$.%.$.$.+.+.+.*.*.*.3.3.+.+.+.+.' E T E +.} } +.@.@.$.$.$.$.$.$.$.$.$.$.| =.=.@...} { P ` { S z h 7 7 5 % = ; q p p p g q q e e r p p x i e r e r u u u e e r t u u p u p p p u u p p u p p p u u p p p x k c x v x x x p p c d p v x v M M v B v v v x v x x p v v x v v x v v v M v b M v B v v v v x n M B v v v v v v v v M M v M v v v v v c p u r u u < = = O % < , * 8 k L I ` I z K W Q @.,.0.7.f.f.f.8.8.8.8.8.7.7.4.3.3.3.4.4.3.3.3.%.%.%.%.%.3.*.%.;.;.3.3.%.>.>.>.:.>.=.:.>.,.,.>.>.:.>.>.-.#.%.+.+.%.3.3.3.%.3.3.3.3.t.t.3.6.3.*.*.%.*.*.%.3.3.3.6.s.6.6.s.3.s.3.6.7.4.4.4.7.s.s.7.3.4.7.8.9.9.5.8.0.7.-.} =.0.[ W K V h 9 ",
"e ; ; 1 e p v x e u v p x v v x B B x u p v x v n x x p d x v v v v v x p u u v t u u k d p u p p c v x p p p x p p p p d v v u p p p u u p p u p p u p p p p p p p d x v n n v x p u u p x v v c x x v v v p p x p d p v p x p x p p p u i u e u k e < ; = O O 3 3 d S ` ]  ...T E E +.%.;.;.3.,.:.>.-.>.>.-.=.$.%.$.@.@.$.*.>.*.&.$.$.$.$.#.#.*.$.+.' #.#.%.%.$.#.#.$.*.*.*.*.$.*.*.&.$.#.$.3.>.$.@.+.$.$.$.| @.+.+.+.| +.$.@.$.$.$.;.*.*.%.%.%.+.+.+.+.E ' ' +.} } +.@.$.+.$.@.$.$.@.@.%.$.$.@.=.=.X.| | { J { ..S l k 8 5 5 % - > q u d x x e e u u u u p p u r e e u u u u e u u u p u p p p p r u u u p u t p p p u p p x v x x c v p p x p p x x x v v v v b v v v v v v v v x v v v v v v B M M B v v v M B v v B M v v v n M n B v B B B M M b M M v v v M n M n x u e p p q ; O O = < , , 8 m L ] ` H H K W Q | ,.0.0.j.g.f.t.t.8.t.8.7.7.4.4.3.3.4.4.s.%.3.%.%.%.%.%.*.%.%.%.%.3.3.s.-.-.>.>.>.$.%.>.>.>.>.>.>.%.>.>.%.%.%.%.%.%.3.*.%.3.3.3.%.3.t.3.3.3.3.%.3.%.*.*.*.6.*.6.6.6.6.*.3.*.3.3.s.t.s.3.4.s.t.3.3.4.7.8.q.8.5.5.8.3.$.} =.<.W ( z z h 9 ",
"u ; ; < e p v x u p v v x v n M v v p p n B n p v v p p x v x p v x p p p r p v u u u i p t u u u k x x u u u k u p p p x n p u v p u r p t u u p p p p p d x x u p p x v M v x u r t p v n M v v p x n M v d p c v v v v v v v x p p u p r u u u u e < > ; = > 3 3 d F `  .....D D E +.+.%.%.;.4.-.-.-.>.:.-.$.$.$.$.$.@.$.%.>.*.%.&.%.%.&.#.#.#.#.#.#.#.&.#.&.#.$.&.*.>.1.>.*.*.$.#.$.*.*.*.>.-.%.$.$.%.$.%.| $.+.@.| +.$.$.$.$.#.#.%.%.%.%.s.3.%.+.%.+.' +.3.+.Q } +.@.@.+.+.$.$.$.@.@.%.%.$.$.=.=.| } } { H ..X.P l h 9 8 2 ; O ; q p p p x q 3 r t u u e e e e e e e e e e u u t p p p p u p p u u u p t y p p p p p x d x x v v x k x x x k c v p d c v n M M v v M v v v v v v x n v n v v v B N M b M v n v B B v b v v v v v M v B B B B B B B B v c d d x B B B x u e k c u > O o O < 4 , 9 G ) { ` J H K { } =.4.u.0.u.u.t.7.8.8.8.4.7.7.4.4.4.4.4.4.3.3.3.3.3.3.%.%.%.%.3.%.%.;.%.%.%.-.>.,.>.%.%.:.*.>.>.>.>.%.*.>.' s.3.%.%.s.*.%.#.3.t.3.3.3.3.3.6.*.%.*.%.*.*.*.3.*.6.6.6.s.s.*.3.3.s.3.3.7.6.s.>.7.7.3.3.4.8.s.q.9.5.5.5.:.=.} =.=.K K 9 h V 9 ",
"1 ; O < u n p e e u v B B B x u p d v M B B v x v d v n B B B M v v g p u u u p u v p u t p p p p p p v d p u x n p u p p p p p p u t y p v v p k p p u p v x p p p v n B B p u u u d x n B b p u v n B B M c v p d c v x p v b n d p x v v u e p p r 1 - O ; O 3 8 f A ` ......Z T } } +.;.;.%.,.>.-.$.$.$.$.$.+.+.$.%.%.$.%.$.*.*.*.%.&.$.#.#.#.#.%.%.%.&.%.#.#.$.#.$.&.$.#.#.%.&.%.&.$.%.&.#.>.>.>.*.%.>.%.$.$.%.>.>.-.$.$.-.#.+.$.$.3.>.>.%.%.%.%.%.%.+.+.#.$.$.%.@.$.@.$.$.$.$.$.$.%.:.-.>.=.=.| X.X.| { P } ..` z 9 9 9 2 < < < w u v x p 1 q e e u u r i r u u u r u u r u r u p u u p x d p p u u p p p r u p p p p x v v n v p p v d x x p x x v M M B B v M M M M x x k v v p v n n v B v B B v v v v B v v v v v v v v v B v v v v B B B B B x v B ^ M N M v v v p u p p q ; =   = > , 4 8 k L ` ` I Z K } | =.4.u.y.s.j.s.s.3.3.6.s.3.7.s.s.3.3.>.3.3.3.3.3.%.%.%.;.;.*.%.%.%.3.3.3.,.>.6.,.>.>.>.>.$.%.>.>.,.>.>.$.%.%.%.%.%.3.3.3.%.3.3.t.3.3.3.%.6.*.%.%.*.%.#.%.3.3.6.6.6.6.6.*.3.3.6.7.3.3.3.3.4.8.8.4.3.4.4.4.8.9.0.5.,.,.=.W <.<.| G h 9 9 9 ",
"1 ; = < u v p u 1 u d v B B b v p x n M n B M v x v M B ! F B v v d v u r u u u r p p u r p v p x x d v c u u p d u r u p p u u p u u u u p p p x v p u p v p p x d v v v v v x p p x v M v p u p x v v b M v v x p x v v v x v v p p x v p t e p p u 1 ; ; - % 2 8 a M /  . .{ S J E Q E ;.;.%.>.-.%.$.$.#.#.#.+.$.%.$.$.#.$.$.*.*.#.#.#.#.#.' #.#.#.&.#.#.#.#.#.#.#.#.#.$.#.&.$.&.$.$.%.%.&.%.*.*.%.%.$.%.$.| } @.$.$.$.@.$.$.$.$.%.*.*.3.%.%.' +.#.%.%.#.#.%.$.$.$.%.@.$.$.$.$.$.$.%.=.$.=.>.,.=.@.=.=...W P  ...I k y 9 9 , < ; > 1 u x p p 1 q q e e e e u p t u e u u e q e t u u t u p d p p t t p u p u u u p p p p p g v v v x p v v x p x d x d v v B B B M b n b v v v v v v x v M v M n v v M v v v v v v v v v M B v v B M B M B N M B v B v v B ^ F ! B v v x u w p p e < ; O O < 4 * 9 k I ] ] ` z K } } =.,.q.y.s.s.j.3.3.6.s.7.3.7.6.s.7.3.3.7.3.4.3.3.3.;.%.3.;.;.%.%.%.%.%.3.>.,.>.,.3.>.>.*.*.*.>.,.6.>.>.*.%.%.#.s.3.%.%.%.3.3.3.3.3.%.3.3.3.*.%.*.%.%.%.*.*.6.6.6.6.*.6.s.3.s.s.3.s.6.s.3.3.4.4.4.6.8.t.8.5.9.0.5.0.,.@.W <.=.W V h 9 9 5 ",
"1 ; % < e p d p u x n v n v v x p v B v v v v M x v M B B B n v v v x u u r u p u u p u p p v v p p x v p u r u i u u p p p t e p p p u u p p d x v v p u p p p p x v x d x v v p p x B M p u p x x x n M B v v M d p x n v v x v v x x x u u q x d p q : ; ; ; 3 e a b P  . .` F K E E +.%.%.%.>.*.%.$.#.#.#.#.#.$.$.$.#.#.#.$.$.&.#.+.#.$.$.#.+.#.#.&.#.#.%.#.#.#.#.#.#.#.%.*.$.%.$.&.*.*.*.*.,.,.>.%.%.=.-.%.} @.%.-.$.$.$.$.$.$.%.*.>.>.%.$.#.%.%.%.%.#.#.#.$.$.$.%.%.$.$.%.%.%.-.%.%.%.=.:.,.=.=.=.$.} R H { ..I z a 9 9 5 : ; ; 1 u p u r e q e q e e e e u u e e e e e e q e u u u r u t u u u p u p p u p p p p x d x v v v v x v n v v x x x d c v B v B v B M n M v v v v v p p v v x b v v v v v x v v v v x x v M B v B B B M M B N B b B B M v B ! B B M v p p u e u p e < = O O > & * 7 g G W ` I H K } | =.4.0.u.6.j.s.6.3.s.7.6.3.3.7.4.7.3.7.s.3.3.3.3.%.%.;.>.*.;.*.;.3.;.3.;.,.>.6.3.1.>.>.>.>.>.>.,.6.3.,.>.%.%.*.s.3.3.%.%.3.3.3.%.%.%.%.3.3.%.%.*.%.%.*.*.3.3.t.3.&.s.6.6.s.s.7.s.6.s.3.6.3.3.4.4.4.8.8.s.4.8.0.5.,.,.=.W =.=.[ G 9 9 5 5 ",
"1 > = > e x v p v M B M v x v p v v M v p p x k p x v n v v x x v v x p u t p p u p p p p p x u p p p p p u u u u u p p p p r u p p p p p u p v p c v d u p p p p c v v x p x n x x b B n p p v v v n v v v n B B v x x B M v v p v v v p u r e p p u e < ; < ; 8 r f A P ] ..` J K E E E +.%.;.:.>.:.$.$.$.$.$...#.$.#.#.' #.%.$.#.#.#.#.#.&.%.#.$.$.#.$.#.&.#.#.#.#.#.#.$.%.*.#.#.#.#.%.*.*.*.>.,.,.>.%.:.>.-.-.-.>.-.=.$.$.$.%.$.$.%.>.>.%.$.#.%.%.%.%.%.%.#.%.-.-.%.%.=.=.-.%.-.-.$.%.%.%.%.=.=.=.=.=...R K ....` z y 9 9 5 < > > < r u t e 3 e e e e u u e e e e e e e e e 3 e r u u u u u t u u u u y u u u p p d x p p p p p v x x v n v x v x v x v v v B n v v v v v v v M v x p v v v M v v v v v v v v v B x x d v B v v B b M M b B B M M v v v b B n v v p p p u r u p e ; = o O ; & 4 8 h H ` ] I P R } $.-.4.0.0.s.s.s.6.6.s.s.6.4.3.7.s.s.4.3.t.3.4.4.3.3.3.3.;.;.>.;.;.3.3.3.%.>.,.,.6.3.,.>.>.>.>.>.3.3.1.3.,.%.%.3.%.3.3.3.3.3.3.3.%.%.%.%.%.3.*.*.*.3.*.3.3.6.t.6.3.s.&.s.s.3.3.6.3.3.3.s.3.4.4.4.3.3.4.3.4.4.8.0.,.,.;.O.W =.O.I G h 9 t 5 ",
"1 < ; > q p v v p v n c p v v v v v v p p p p u p p p p p p p v p p c k k p p u t p p p p x p u x p u u u u p p u p p p p p p u p p x p p p c v u v v p i u x p p v b v p u d v x B B B n v M v B B ! B M v n B v c d v v v v v p v v x p u u e p x p e > ; > < r y d b P ] ..' J J E E } @.;.+.%.%.&.$.*.$.&.$.+.#.$...' ' #.$.' #.#.' ' #.$.*.#.%.&.%.$.&.$.$. .+.#.#.&.#.$.#.#.#.#.#.&.%.&.*.%.%.:.$.$.%.=.=.%.=.-.%.$.$.@.@.$.%.%.%.>.>.*.%.#.#.#.+.%.%.3.%.>.>.>.,.>.>.>.1.=.=.%.=.%.%.%.%.=.=.=.:.=.| ` P X.O.{ m d a 8 5 , > ; < e u u u 1 e w e r u u t t r e e e e u e q e u u u e e u u u u u p u r r u p p p p p p p d v v x x v v n v c x v x v v n M v v B v v v v n M v v v b M M v v v v v v v v v v b v x x v N M B B B M M B B B M M b v v v B x p d x v p r e u p e < = o O ; 4 4 9 n I  ...[ J T } | %.3.t.3.6.6.s.3.7.s.s.t.s.7.t.3.7.7.s.t.7.7.s.7.s.4.4.7.>.3.6.3.3.-.;.;.>.>.3.1.,.1.>.>.,.>.1.,.1.,.6.3.3.*.3.3.3.3.3.t.3.3.3.3.3.#.%.%.*.*.*.3.*.*.3.6.t.3.s.6.6.6.s.6.s.7.s.3.3.s.3.3.7.4.4.3.4.3.3.3.4.5.4.4.,.=.| W =.| K j 9 9 9 t ",
"1 < ; < e p c v u p p u p x v c v v p p u p u u p p p u p p p x u u p p p u u i p u p d p v d p p p u r e p d x p p t u p p u p x k x x d x v n u p v p p x v v x v M v x p p x v ! ^ B x v B v ^ ^ ^ F M v B ! v x x v v x x v p p x x p u e 7 u x u 1 < ; < 1 r y d b L ' ....J J R ' +.@.+.%.$.$.$.&.#.$.#.$.#.#.#.} ' +.} +.#.#.#.' ' #.$.$.#.&.$.$.%.#.%.$.+.#.#.#.#.$.#.#.&.$.#.#.%.%.*.*.$.*.-.-.$.%.>.>.$.%.%.%.-.-.-.-.=.$.%.>.,.>.>.%.%.%.#.%.%.%.%.3.>.>.,.4.4.:.>.>.>.>.=.%.%.*.%.%.=.=.-.=.:.| R K =.O.{ m d y 8 2 < > ; 1 u u p r 1 1 1 e e u u r p u u e e e e e e u u u u e e r p y u r t u u u t p p v x p p p v v v v v n M v k x x d v v n v B v B v B n v v x v v x x v n v v v M v n v v v x v c v d v b N b N B N B B B B M M v n v x p v p p x v v u w q p k u < ; O O ; 4 5 t l L ..X.` J T W | %.*.3.6.s.3.3.3.3.7.7.s.s.3.s.s.s.7.7.s.s.7.t.7.3.4.7.7.4.4.4.4.3.3.-.-.>.>.,.>.,.>.>.>.>.>.,.3.3.4.3.1.%.3.%.3.3.3.t.3.3.3.3.3.3.3.%.3.3.*.*.3.3.3.3.6.6.s.6.6.6.3.*.j.6.3.3.3.3.3.3.3.8.4.6.4.4.7.4.8.3.4.4.4.,.=.{ I ,.=.G j 9 5 5 5 ",
"1 < ; < u d v p r u u r u p p u p d x u u p p u d p p p x x p p p p p u u e u u p u p p v v p p p p i e e p p p t p p p u p p p p p p v v v v p u p p p u d x v v v n x p p p x v B B B v v n B / ^ ! B B B B B x d x x x x x n v x v d p u u e g v p e > ; 1 1 y y d l F `  . .D J E | $.+.%.+.$.X.$.#.#.#.#.#.$.#.} } +.+.} ' } #.#.+.+.#.$.$.$.%.*.*.%.&.&.&.+.#.#.#.#.#.#.#.#.$.#.%.&.%.*.*.*.,.4.>.%.:.>.:.%.%.=.>.>.3.>.:.%.%.=.>.>.>.%.$.%.%.%.%.%.%.3.#.>.,.6.6.4.>.>.%.%.:.%.%.=.=.-.>.=.-.:.,.=.| R P X.X. .z a a 8 4 , ; ; < e i u u 1 q q e e e u u p u u q e e r u t t p u u e t u p p u u u t u u r p p p p p p p p v x x x v v v d v x c x v v M B B v B M M M v x v v x x v x p v v v n v v x x x d x v v M M M v B B B B B B B n v v v v p p x v p p k p u q 1 p k u < ; O O > * 4 t l G  .X.` D T E +.%.>.3.3.s.3.3.*.7.s.7.s.7.7.s.t.s.s.t.s.7.s.7.3.3.3.3.3.7.7.4.4.3.>.>.%.>.>.,.>.>.>.>.>.*.>.>.3.,.,.>.>.3.*.%.%.3.3.t.t.t.3.3.t.3.%.%.t.*.*.3.3.3.3.6.t.s.6.6.6.3.*.s.*.3.s.3.3.3.3.3.s.8.3.3.4.8.8.8.8.4.4.5.8.,.=.{ I <.O.K V h 9 9 5 ",
"1 < ; < u x x u q e e u p v k p u p x u t p p d c x p p x d p u v v u u e e r u x p p x v p p t p p u u p p p e u y p p p p p p v x x x v x p p p x d p p g p p x v v x p p p v n x v M v d v ^ ^ ! B M B B M n x p u p x d v v n v v v v p t e v v x e < > q e y y d d L ` ....Z J E +.%.%.+.%.$.$.$.#.#.#.} ' #.} ' } #.#.#...' ' ' ' E '  .#.&.*.*.*.*.%.%.%.#.#.#.#.#.#.$.%.#.#.#.#.&.%.&.%.%.,.4.>.-.$.%.$.>.>.>.=.-.:.>.:.%.$.$.%.%.%.$.{ ' #.#.#.3.3.3.%.-.>.6.7.,.>.%.$.%.%.%.=.%.:.>.=.=.:.3.,.=.} I H ..X.) z a 9 8 4 < ; ; < r p u u 1 e e e e r u u u u e e e e u r p p p p u r p p p p p u u r u u u u p g p u p u u p u p p d c v x x x x v v M v x v v v M n v v v b b v n v v x x v v v v x p p x v x v v v v v v v M B v n v B v v v v v p p p c u u p u u w w p p u 1 ; O O ; * 4 a l I ..X.{ J T R #.%.>.3.6.6.s.3.3.3.3.3.3.6.3.3.3.6.7.3.3.7.4.s.s.7.7.4.7.7.7.7.3.3.3.>.>.*.>.>.>.>.>.>.>.*.>.>.>.>.,.>.>.3.3.3.3.3.3.3.6.3.3.3.3.3.%.%.3.3.*.3.3.3.*.3.t.6.s.s.3.3.3.*.s.*.3.3.3.s.3.3.6.4.3.;.3.8.4.4.8.5.4.8.8.0.=.| I =.| G G h 9 t 9 ",
"q < ; 1 u x d e q q e e p v k u u v n v p p p u u p p p p x p u p n k u p r w e u k v v x p u r u p p u u p d x u u p p u u r x n p p x v p u p u t p v x p u k v p p v v v x k x d x v v v v p B M n B ! B v p p u u p p p d M M v c x p p u p g k p e > > 4 4 y y f A D ..&. .S I X.=.-.$.$.@.$.@.@.+.@.$.@.+.@.+.+.Q +.Q } } +.' ' ' ' ' +...+.#.$.3.6.>.$.$.$.#.$.&.*.*.#.$.*.$.#...$.%.&.$.$.%.%.+.' %.%.$.%.>.>.>.%.$.%.:.%.>.;.%.#.%.%.+.%.%.%.+.%.%.%.%.*.3.3.s.s.3.3.*.%.%.%.%.%.%.%.>.=.-.-.=.$.@.} J &.#./ A 0 f 6 8 3 < ; > q u u u 1 q e e e e r e u u u r e e e r u u r u u u p p p i u u p t r u u p p p p p p p p u u p v v n v v x p v v x v B b M n v B M v v v n v v v v n x b v v x p x v v v c x d v v v v x v v b M v v B x x v x v v p p p u u e e e e e p p e < > = = % * 5 y l L O.O.{ H H } W $.;.4.5.j.3.3.s.3.3.3.s.%.*.s.6.j.3.s.3.3.3.s.3.3.s.3.%.s.3.%.3.;.;.;.3.>.>.>.>.>.*.>.>.>.>.4.6.3.>.,.3.3.3.3.3.3.3.3.3.t.3.t.3.3.%.%.3.%.%.3.3.3.3.3.3.%.3.3.3.3.3.3.3.3.3.3.3.s.3.s.3.3.3.3.3.3.s.3.3.s.s.s.6.3.#.' ' *.' ` D 0 0 0 r ",
"q < ; 1 e x c u 1 e 1 e u p p u u p p u r t u u p p c x x v p p p d u u u u e i u p x p p p p t u v v v p p x u p p p p p p x n x x p x x p p p u p p v x u p v v p p p p p x x v x x p d x v v v v x M N M v p p p p x x p x v M M M c u e 7 1 p p t 7 > % > 7 f f f A / ..&...J R | =.-.%.%.%.$.$.@.+.+.@.@.@.@.+.+.} } +.Q Q  .' ' ' ' #.' #.} ..%.6.7.>.$.| $.$.$.%.*.$.$.#.#.#.$.*.$.$.$.$.$.%.$.+.+.%.%.$.%.%.-.%.$.@.%.=.@.%.%.%.%.%.%.%.+.+.%.+.+.%.%.%.#.%.*.3.6.3.s.3.3.;.;.%.3.%.;.%.;.;.,.-.=.$.Q T &.$.` D 0 0 6 3 1 ; - ; q u r t 1 1 q e e u u u u u u e e e u u t u p t r p p x d p u p p p p p p u p p p p p p v p p x p v x v v d p x v p c b M B B v v v v v v v v x x n v p M v v p p p p p x d x v v v v v v v v B M v v v v v x v v p p p p p u u e e e 7 v p e < ; O O O 5 8 a l I ..X.I H K =.Q =.;.4.4.3.3.%.3.s.3.3.3.3.s.3.s.3.s.3.s.3.s.s.3.3.3.3.s.3.s.s.;.s.%.3.;.,.3.,.>.>.>.:.>.:.>.4.6.3.,.1.3.3.3.3.3.3.3.t.3.t.t.3.3.3.%.3.3.%.3.3.3.3.6.3.3.3.3.3.3.3.3.t.3.3.s.6.s.3.3.3.*.3.3.3.3.3.3.6.3.3.s.3.j.s.%.' ' &.#.] F 0 u a r ",
"1 > ; < 3 x v u e e w q q u p p p p p v p u r p d v x d v v v x u p u e e r e u v v d p u p u u p x v k x x x p v c p v v v v v d v v x p v d p p p v v x p p v x p p p p p x n n x p p x c v v v p p d v x d p p p x x x x x x x c v x p u e 1 i p i 4 > % 4 7 f y f C D ..&.&.T ` } | $.%.=.-.$.$.@.+.} } } @.$.+.+.+.+.Q Q Q ' ' ' ' ' +.' +.} #.>.3.>.%.| | *.*.*.*.*.&.$.#.#.&.*.*.$.&.&.%.$.%.$.$.$.*.%.$.$.$.$.$.$.$.=.-.$.$.$.>.3.%.%.%.+.%.%.%.%.%.%.3.%.3.*.3.3.s.s.*.3.3.3.3.%.%.%.;.;.;.,.-.=.| ' U #.&.T / f 0 6 3 < ; - - 1 e u u 1 q w r u r u u i u t u e u u u r u u u u p p x p u u p u u u p p p p p p p p x p c p x p v v x n x d v v p x v v B n B b M M v v v v d v v v x v v x p p p p p p x v n v n v x v x v n n v v n v v v d v v x x p p i u u e e q c p u 1 - O O ; 4 9 a z I X.X.R K K =.Q -.3.;.4.3.*.3.3.3.3.3.%.3.s.s.3.t.3.3.s.%.s.s.3.s.3.3.3.s.s.%.3.s.3.s.%.3.6.6.>.>.>.>.>.>.>.4.,.1.3.,.6.3.3.3.3.3.t.3.3.3.3.3.3.3.3.3.%.%.3.3.3.3.6.3.3.%.%.3.3.3.3.3.t.6.s.3.3.3.3.3.*.3.3.3.3.s.s.6.s.s.3.s.3.#.#.' ' &.#.] F a a a r ",
"q < ; > e p n u 1 1 r 1 1 e t p v p x v v u p v x x v p v v v d x v u u u u u u p x x u p p p p x c p p p x n v v k x p p p p v x B B x p v v x x d x p x x d x x p v v x p v M n v v v v v v x v p u t p p p p p p p x d p p x p p p x p p u t t p p 4 > > 4 e a r y f A ] &.#.J T T } @.$.%.$.$.%.%.@.Q } } +.+.} } +.+.+.} E ' ' ' ` E ' ' ' #.%.*.%.$.+.+.$.*.*.*.>.*.$.#.$.*.*.*.$.$.%.*.6.*.%.%.*.>.3.*.$.%.$.$.+.%.>.,.4.;.%.%.3.3.%.%.%.3.%.%.%.%.+.+.3.3.s.s.7.6.s.3.3.;.3.%.>.;.3.;.%.>.>.,.-.$.} R J #.#.` F f f 6 8 3 < ; ; 1 r p u 1 1 e u t p p p u p r u u r u u u u p u u u p p u p p p r u u p p k p p x p x d p p p d v v n v v v x v v x v v v M v M v M M B v M v v v v M v x x d x p x p p p x c v v v v p v x v n v v x v v v x p p x c d k p p u u u e e u r e 1 = O - > 7 7 h z I O.O.{ J K | Q ;.4.4.;.3.6.s.s.s.j.s.%.s.3.j.6.6.3.s.s.3.3.3.s.3.s.s.s.3.3.s.3.s.s.s.s.4.6.6.,.>.>.>.>.>.,.,.,.3.,.>.,.t.3.3.3.3.t.t.3.t.3.3.3.%.3.3.3.3.3.%.3.6.6.3.3.%.3.3.%.3.3.3.t.3.3.3.3.s.3.3.s.3.3.s.3.6.s.s.6.3.s.3.3.s.#.+.' #...] T f a a r ",
"1 < ; , 1 d M p w e u e e e u u p p p p p u u p p p v x x v v p v n p i p p p v p p p p p v x p v p p p p v M n u p d p p v n B x B b x u p p p x v x x v x v v v p x v d p v N v v v v n v v p p p u r u p p p p p p p p p d v x x v x p p u u d x p u > > 4 7 y y a C F ..*.&.P P E } @.$.$.$.%.%.%.$.} } } @.} } } +.@.@.} Q ..' ' T T ' +.#.$.*.*.*.$.+.$.$.>.>.*.>.*.#.#.$.*.*.#.&.$.&.*.*.>.%.$.*.3.%.%.#.$.@.+.@.-.3.6.6.s.#.%.%.s.*.%.%.3.#.#.%.*.#.%.*.%.3.s.3.s.s.6.3.%.>.%.3.%.3.;.>.>.=.,.=.$.' R T ] #./ D 0 a 3 3 3 1 ; ; 1 u p u 1 q e u p p p p u u u u r u y p r u u u p p p p u k c x p u p x p x v p p v p p p p p c v v v v x x x v v v v v v v v B B b M v v n v v x n v x p p p v p v x p p p p p x x v x v v v v v x v v v v d x x c v p x p p p t u r e u u t 1 - O = > 5 9 h m I X.O.$.J Y %.+.4.8.8.4.6.s.s.6.3.s.j.*.3.s.t.3.s.3.t.3.3.3.s.3.s.s.s.s.3.3.s.3.3.s.s.s.2.4.,.,.,.,.>.>.>.>.>.>.>.1.>.>.3.3.3.t.t.t.3.t.t.3.3.3.3.3.%.%.%.3.%.*.3.3.*.3.*.3.3.3.3.s.6.6.3.%.;.3.*.3.s.3.3.3.3.3.6.s.s.6.s.3.3.3.%.#.' ' X... .L f d l y ",
"q < < < e p M x e u i r e u u u t r u u i r u u p x v v v v v x x v u r p p u v p p p p d v x p p v v p p v d u u v M v v v B B v n v x p p p u x v n v v n v v p p p d x p x v v v v v v v p p p p u u u p p x d p p x x p c M M M M v x p p p k n c r > > 4 7 y y a C F ..1.*.T E } X.$.%.%.$.%.%.%.$.$.@.@.@.+.+.@.@.$.@.+.Q ..' ' ' ' ' +.#.+.&.*.>.%.%.$.@.*.*.*.*.&.#.#.#.&.#.%.%.%.%.&.%.%.$.$.%.%.+.+.%.+.| } +.%.,.4.4.*.s.%.s.3.*.3.3.%.%.%.%.3.3.3.3.3.3.3.3.7.s.7.*.%.;.;.%.>.;.3.3.,.,.;.,.$.+.E R #.&.` T f 0 6 r 1 < ; = < u p u 1 1 q e u t u u p p p r u u t p u t p u p t p p p x x p u p p p p p p x p p p p x p p p d x x x p x x v v v M M B v B v v x v x x v x p d x p p x x x v p p p p p p p p p p d v v x x v v v p v v v x x p v x v d p p p p u e e p x p u < O = > 7 h z z P  .$.X.J T %.@.5.u.s.8.s.6.6.3.6.s.s.s.6.3.s.3.3.t.6.3.3.%.;.3.3.s.3.s.s.3.j.s.3.3.3.3.4.4.,.,.,.,.4.:.,.>.>.>.,.3.,.>.3.3.3.3.3.t.3.3.3.3.3.3.3.3.3.3.3.%.%.%.3.3.3.3.*.3.3.%.3.3.6.s.s.3.3.3.3.3.3.*.s.3.3.s.s.6.6.s.s.s.s.3.*.#.' ' ......P f l k y ",
"1 , < 1 e x B v e t u u u r p u u p p r u p p p p v v n B B M d p p u u u p p p p x p p x v v p v v v v v v p u p n B v v v v v n v x d p p p p p v n v v v n x x p u p p p p v v v v v v x d p p p p u p p p x k p p v x x v M x x x v v d p u g v v r > % 4 e y a f f S ' *.&.R ` } | @.$.$.-.:.=.%.=.%.%.$.$.$.%.%.%.-.@.} Q ' '  .+.' +.' ' } $.*.3.;.*.*.$.&.*.*.*.#...+.$.#.$.*.*.$.&.#.%.%.+.+.#.+.E ' #.| } +.@.%.>.1.3.*.s.;.%.;.%.3.%.%.%.3.*.6.j.s.3.3.3.s.s.s.7.3.%.>.;.3.%.>.3.3.3.;.;.,.;.%.' ` ' &.&.] T f a 0 r e < ; O > u u t 1 1 3 e r u i u p u p p u u p p u u p p p p d x p p p u u p p p x p x g p p p p d x d x x p p p x x c v v n n v v v n v v v v x v v x p x p p r p k x p p p p p p p p u p p v v v v d v v p c v x v d x v v p p p p p c p p u e p v v u < O = > 7 h z n G R X.X.T R $.@.8.f.s.8.s.3.6.3.s.s.s.3.6.t.3.s.3.s.3.s.3.%.3.3.s.s.3.s.3.s.s.s.s.3.s.3.6.4.,.4.6.7.6.4.1.,.>.>.3.6.4.,.3.3.3.t.t.t.3.3.3.3.3.3.3.3.3.3.3.%.3.3.%.*.3.6.3.%.*.%.%.*.*.s.3.3.3.3.3.3.3.3.3.3.3.3.3.6.s.3.3.s.3.3.3.%.' ' X.X...P k l k y ",
"1 < 1 1 e x B v r p u u r t u u u p p u u p v p v v B B ! B B v v n p u c c p k v v p p x M v p v v p p p n v p u p x p x v v p n u u p p u r p u p x d x n v p c p p p v x p p v v v x v p p p t u p u p p p p p u p x x d x c x v M M v p t e p v g e > % > r f f f C A ] *.&.P R } | } } $.%.-.%.%.-.>.>.-.$.>.-.>.>.-.@.} E T ' ' #.#.' ' ' #.%.%.*.*.4.6.*.*.&.%.$.#.} } #.*.*.>.*.#.#.*.*.>.+.%.%.} E ' %.+.$.$.$.%.%.-.:.%.%.3.#.%.s.3.%.#.3.s.s.3.s.j.6.s.s.s.3.s.f.s.3.3.3.3.3.3.;.3.3.,.=.,.=.%.' D T #.#.T F 0 0 6 r 7 1 ; O < u p r 1 q e u p u p u p p p t t u u p p p x d x p x v p v d p p v d p p p p p p p p p u u u p v c v p d v v v v v n v x x x v v v v n v v v x p p p u u u i u p p k x p p p p p x x v v v c v v p p v v p x v v v v p p p p x d u u e r p v u < O - > 7 h z b z P ..&.K Y $.} 3.8.8.4.s.6.s.6.s.6.3.3.s.3.3.3.3.3.s.3.s.%.3.s.3.3.3.3.3.%.*.s.3.s.3.s.6.6.3.6.6.7.7.6.6.3.,.,.6.6.6.4.3.3.3.3.3.3.3.3.3.3.3.3.%.%.3.3.3.%.3.3.3.%.3.3.3.3.3.3.3.3.*.*.3.3.3.%.3.3.3.*.%.3.*.*.3.s.6.s.3.3.s.3.*.#.' T ..$.X.P l k h 7 ",
"1 > > q u n B u e e u u p p p p p p x c x d x p B B B B B B B B v v v v v v x v v c u u p M n x v v x x M b n v u p x p x p d x d p p p u u t p p x v v v n v d v v x p x x x p n v x d x p u p u p u p p p x p p x p p x B M d v v M M x p u e p v g u 1 % > 8 f f f A A &.*.&.P T %.{ } } @.@.%.-.-.-.%.-.>.,.-.>.4.=.$.%.$.} ` ' ' ' ' ' ' ' #.#.%.*.>.>.3.>.&.#.#.%.$.$.#.$.*.*.$.#.#.#.*.6.%.%.#.#.+.' +.+.#.#.%.%.%.%.%.3.s.s.*.s.*.s.*.*.s.*.s.s.3.s.s.j.s.s.6.s.6.6.s.s.3.4.4.4.3.;.;.;.=.;.=.=.=.Q W K  .#.` T s 2 y 0 q ; - ; < e v x q e e e u u i p d p p p u u u e p u p p k v x p x x p p p p p t u p p p p p p u u k c x p p x v v v v v v v v v v v v x x v v v v v x x p p p u p u u p p i p u u t u d c p v v n v x p x d x x v x x v v x p x c p x p u u u e u v p u 1 ; O < r k h j k  .X...T } @.Q 4.4.8.5.j.s.s.*.j.j.j.%.s.3.s.*.%.3.%.s.%.3.3.3.%.3.3.3.3.3.3.s.3.3.3.3.-.3.,.,.3.,.,.6.>.>.3.6.4.1.,.,.3.3.3.3.3.3.3.3.3.%.3.3.3.%.%.3.%.3.3.%.%.3.3.3.;.%.3.s.%.*.*.s.3.%.3.3.%.s.+.s.+.+.%.s.3.s.3.6.9.;.4.4.=.|  .R X.,.X.P n y d 5 ",
"1 ; ; 1 q v B x e u u t p d x p u p p x v v c v B B B B B B M B v x x v v v v x v d p v B B n p M b v v N B B M t u p p p p p p p p p u t p u p p x v v v M M x p p x k k x v v x v p x p p u u p u i x p x x p u x x d x c M x x v M x p p u u p c p r 4 & > t f v f A S &.*.&.J T $.E @.} $.$.%.%.=.-.1.>.6.7.:.4.,.%.$.%.$.+.' ' ' ' ' #.#.' %.%.*.*.*.*.>.6.$.$.$.&.&.#.#.#.&.%.#.' ' #.$.*.#.%.%.%.%.#.%.#.#.#.#.*.3.%.%.3.s.*.s.s.s.*.s.s.*.s.1.s.s.s.s.s.6.6.s.s.s.j.s.s.3.6.4.3.>.;.%.;.,.=.=.=.| Q K K $.&. ./ C r s y e > = ; > e p p 1 q 3 q r u u r p p t p p u u u p p u p p p p u p d p p p u p t u p x p p p p u p p p p p p p v v v v v v d x v d c x x d v v v v v v x p p u p r p p x x x k x p p p x x p p v v v v x v c d x p p p v c k p x x v v p u u r e u p p 4 < = O , 8 h a k z X.:.X.R } $.$.q.8.8.8.*.s.*.s.*.s.j.*.6.s.s.*.3.3.3.*.%.%.3.%.3.3.3.3.%.%.%.3.3.3.%.%.:.>.>.>.>.>.>.,.>.4.6.6.6.>.>.>.%.3.3.%.%.3.%.%.3.3.3.3.3.3.3.3.3.3.3.%.*.3.3.*.%.%.%.%.%.s.s.*.3.3.3.3.+.s.s.+.+.s.s.+.6.3.s.3.s.4.4.3.$.} Q K X.X.R L z h a 8 ",
"< ; < < 1 p B v u u u i p p p p p p p k v v n v B B b v v v B v v v v x x v v v d v x v B B b x B B n B B ! B M p p p p p u i u u p p u p p p p p v v v n v v v p p p x v v v n v x v v v p p p p p u d x v d p p x c p y x c v x x x x p u u u k k p 7 > % > r r a a A A o.&...J J | R @.@.$.$.=.%.$.:.4.6.8.8.>.6.,.>.$.-.$.} ..#.#.' #.' #.' &.%.>.%.$.$.%.6.*.#.#.*.%.#.} ' #.#.#.#.' +.#.#.#.#.#.%.%.#.#.%.%.%.%.*.3.%.3.3.s.s.s.*.*.s.s.6.j.6.s.s.3.s.s.s.s.6.s.6.s.s.6.6.3.3.3.3.>.%.%.%.;.=.;.=.@.| W K $.#.` P A a a 8 e > - ; > q p u q 1 e e r u u u u u u u u p p r t u r u t p u p u p p u u p p u u p d p u u r p p p p p p p x v v v v v x v v x x x x p p v v v x x v v v x p p i p x c x p d x v d x x p p p x v v x v x x v v d x x c x x p x x c v p p r e e u x u 1 > = = < 7 y y k H O.:.$.K { =.=.u.u.s.9.s.j.j.*.s.s.s.s.s.3.s.*.s.3.s.%.3.%.%.%.%.3.3.%.%.%.%.%.%.%.%.%.>.>.:.:.-.%.%.-.4.6.,.,.,.>.>.>.%.%.%.%.%.%.%.%.3.3.%.3.3.3.%.3.3.3.3.t.t.3.%.*.%.%.3.%.%.*.s.s.3.3.%.3.s.+.s.%.%.%.+.s.6.s.s.3.q.4.3.3.$.} } W :.| H L G a 9 4 ",
"< > ; < q x b v r u u p x x v v p p x v v v M M n x x v B B M v x v k v c d v v v p p p x v M v B M B M B B n v d x v x p r u u p p p p p p p p x n B M v v v x x v p c x x v v x v v v v v c p d p p p v n x u d c x p p x v v M x x x p p u p g p u 4 > # % 4 y f f A A #.&...J H } R @.$.%.$.>.%.$.%.>.,.,.1.>.6.6.,.:.-.@.Q ' ] ' ' ' ' #.' #.#.%.%.%.$.%.%.*.$.#.$.*.#.} ' #.#.$.#.+.+.#.&.*.3.*.*.%.%.%.#.%.%.*.3.s.6.3.t.*.*.s.s.s.6.s.s.s.s.s.*.s.s.%.s.6.s.3.s.s.s.*.#.>.;.;.;.%.%.%.%.=.;.,.=.@.} W K ..' D l f r 8 3 1 ; ; ; < r p u e q e e u u p u u u r t p p u u u t u u r p u u u p p p p p p u r p p t u u t u p p u u x d v v v v v v v x x x x v x d p v v v c d v v v v x x p p k v x p u p p p p p p u p v x x k c v v v v p x d x p p p p p d x v p u r u p g u 1 ; O O > 7 y 9 k H O.&...J R @.$.u.q.f.u.s.j.s.s.s.s.j.*.s.*.3.*.s.s.s.3.3.3.%.%.%.%.%.%.#.%.%.%.%.%.%.3.-.>.-.%.%.%.:.-.6.,.>.>.>.*.-.=.%.%.%.%.%.%.3.3.3.%.%.3.3.3.3.3.3.3.3.t.t.3.3.3.%.%.3.3.%.%.#.%.%.%.%.;.+.s.+.+.s.' s.%.6.s.3.s.4.3.3.3.@.} } W <.X.H H z h a * ",
"< ; ; 1 q x v p e u i p x d v v v p x v v v n v v x x v M B n v v v x v x v v v n x u u p v v B M B v n n v p p p p p u u i u u r u u p p p x x v M B v v v v p v v v x p p v v p p p v v p p p p p p x v v x i x x d p p x x x x v x x p u u r p g e < > # % 4 r s f A A  .#.' J J ' T X.$.%.%.>.%.$.%.>.,.>.>.6.8.7.,.,.>.$.+...' ..' #.' ' #.#.#.$.%.3.3.%.$.*.$.#.#.$.#.#.#.#.$.$.#.' ' $.*.*.3.3.3.#.s.%.#.s.3.3.s.3.t.3.t.s.s.*.s.s.s.s.s.3.s.3.j.s.*.s.%.s.*.#.s.6.s.*.%.;.%.;.%.%.=.=.-.=.,.,.=.| | R K #.&.S l f a a r 3 ; = ; > q u i 1 e e e u t p r u u p p p p t u u u p t u p u p u d x p p d p p p p u u u p p u p p p p d v v v v n v v x v x d v v v p p n n v v n v v v v v b v v x x p u p p p p p p p p p v v p k x v x x v c x p p p p p p p p v p p p u p v k e ; - O O > 4 9 8 h z  .} { K } $.+.8.8.u.8.*.j.s.*.s.j.s.s.*.3.s.*.s.s.*.3.3.3.3.%.%.+.%.%.+.%.%.%.+.%.%.%.=.=.>.%.%.%.>.>.6.,.>.>.>.>.>.>.%.%.%.%.3.%.3.3.%.%.%.3.3.3.3.3.3.%.3.t.t.3.3.3.%.%.3.%.%.%.%.%.+.%.%.s.+.%.%.s.+.%.s.%.s.s.s.*.;.;.3.3.@.} } W X.| J j j h h 7 ",
"< ; ; 1 e p v u r u r p p p v v v v v x x v M b v v v v v n x p v x v v v v x v x x x d v p v v B v v x d p p u e u t u u r u u u u u u p p v v v b M v v v v p x d v v g p p x v p p v v v p p c x x k x d p u x p p p x v v x x x v x u e e q v d 7 < > % ; 5 3 y y f s T ' ) P D } T @.$.%.%.:.%.$.%.>.,.,.,.8.,.1.%.%.%.%.$.#.' ' ..#.#.#.#.#.#.$.%.6.6.%.$.*.$.$.#.#.#.#.$.' #.$.#.' #.$.6.s.*.%.*.*.*.*.s.#.%.*.*.3.3.t.t.s.*.s.s.s.s.s.s.s.3.s.3.s.3.3.#.s.*.s.s.j.*.*.%.;.;.%.;.$.=.-.-.=.,.,.>.$.| } I *.1.F f l s a 8 q ; = = ; q e e 1 1 e r r u p t p t r p p u r e u r p p u p x k x v v p p x p u x p u t p x p u u p p p v v v v v v v v v x v v d v v v x v v v M v B v v v v B v v v v v p v n n v c x p u p p p p x x x c d p v v v d p p x p p p p x p u u u v x e ; ; O O ; 5 9 8 h k `  .W } $.%.$.7.7.q.8.s.s.s.s.s.*.s.*.s.3.s.s.3.s.3.%.%.3.3.3.%.+.+.%.%.+.+.%.%.%.%.3.%.:.%.%.%.*.>.3.7.,.>.>.>.,.>.>.3.3.3.3.%.%.%.3.3.%.3.3.3.3.3.3.3.3.3.3.3.3.%.%.%.%.%.%.%.$.$.$.+.%.%.+.%.%.%.+.+.s.#.s.s.*.s.*.3.;.4.3.@.Q } K =.=.P h a h h 5 ",
"< > < 3 e p v p u u r u p p x v n v v x p v v M v v B v v v x x x v v v v v v v x p v v v p v v B v v x p p u u 1 e e e e e r e p u u p u x v v v v x x v M v p p p x p p x c v v v p v x v d x p v p x p p p p p p x x x x x p p x x x u u q e v g e , > % % , y f f l f ..&.#.J J | R $.$.%.$.%.%.%.>.>.1.6.8.>.>.%.%.%.$.#.+.#.#.' #.#.' #.#.#.#.$.>.3.*.*.$.$.&.&.$.#.' } $.' ' #.#.#.$.*.*.#.%.#.#.*.*.*.*.*.*.*.s.3.3.3.8.s.j.s.s.s.j.s.6.s.s.3.s.s.%.s.s.s.*.*.s.s.%.%.%.;.%.;.-.-.-.-.;.=.;.,.;.| | { R &.>.F s A s 8 8 e ; - ; < e u r 1 q e u i u u u e e u u t u e e p u p u u p p v B n n p p x p p p p p t u k p u u u d x c v v n v v n M v v v v p v v p v v v x v v v v B M v v n v v v x x v v v x k p p p p p p x x x x v p v p v c p p k v p p d x p p u t u v v w ; ; O O ; 4 9 9 k l ` { ..| $.%.@.5.4.8.4.s.*.s.s.*.s.*.s.s.*.6.*.3.*.*.*.3.3.3.%.%.%.%.%.%.+.+.%.%.%.%.%.%.$.%.%.%.%.>.,.2.,.>.>.>.:.>.=.3.3.3.3.%.%.%.3.%.3.3.3.3.3.3.3.3.3.3.%.3.3.3.%.%.%.%.%.%.+.$.%.%.%.%.+.s.s.+.s.s.+.s.%.*.s.*.s.4.4.4.3.| } } K r.<.L G h a y 4 ",
"< < 1 e e p B n u u u i p x v v v x x d x v v M v v v v v v v n d x v n v v x p v p v v c p p n c c d p u u u r e e u e e e e w n v c p p d d v v x p p v B n x e u p p x d v B p p p p p p p p p p v v p u p p u y x v v d p x u x x p y u r e g p 4 < > # O , y f f A f ] &.&.H J | W @.@.$.$.%.=.%.>.>.>.,.6.>.-.:.3.6.>.$.| #.' #.' ' ' ' ' ' #.$.%.%.%.%.$.$.$.*.$.#.' ' #.' ' ' #.$.*.*.&.#.%.*.%.*.s.*.*.*.%.*.%.3.3.8.t.s.*.s.s.s.s.s.s.s.3.3.s.%.s.%.s.s.*.s.*.s.%.#.s.%.%.%.%.%.%.;.;.=.9.0.=.| | W K ..*.J s A f y 6 3 > ; < < u p u e q u u p p u u 7 e e u u u e e r p p u u p x v B B M v p x x d u p p p u p p p e t x v x x v v M v v v v n v v p x x v v v v p v v n v v v v v v v n v v x x p d p u p p u p v x p v v c d v x p v x p p v v v x x x p u t r e v x e ; ; = O ; 4 y a z m { X.*.` { +.+.4.3.4.3.s.*.%.s.*.%.s.*.#.s.6.s.%.%.s.3.%.%.%.%.3.%.%.%.%.%.%.%.%.3.%.%.$.%.$.$.$.$.*.,.,.>.%.%.>.>.%.$.%.%.3.3.3.%.3.t.3.%.3.3.3.3.3.t.3.3.3.%.3.t.t.3.%.%.%.%.%.%.%.%.%.+.%.s.+.%.s.+.%.s.+.s.s.*.s.%.4.4.4.3.| } X.{ y.=.J J G j h 8 ",
"1 < < q e u n v u p p u p p d p x d x x v v v M B n x x d v M n c v v M v v v x v v v x k v v v x v v y p x p e x e q e e u r u u u p p v v x d p x v v x x v d u u p x p p v v x p i r p x p u v p u u p p p p v v v x x p p p p v v p t u e q p c u ; = O ; : 3 a r A C D *.*./ D E P } } %.$.%.$.$.$.%.>.6.0.>.%.:.7.>.$.| $.$.#.' ' ' +.#.#.#.#.$.*.*.#.#.$.$.%.%.%.#.#.#.$.'  .' ' +.*.1.*.3.%.%.%.3.%.%.%.%.%.;.5.8.8.3.8.3.s.j.s.3.s.f.x.t.t.s.3.3.s.t.s.j.*.s.j.s.#.#.%.%.%.%.3.3.%.3.s.0.,.>.$.| } W K X.2.I l h 0 s y 1 < ; = < e p x 1 u u e u u p r p u u e u u u e u r e u g p p n x x p p d c p p p p p p x p p p p d v v M n v v v B v v v v v v v p x p x x v v B B v v M v v c x v v v x p u u x p p p v v v p p c p x v v x d v c x p x x v x p g x x p r e 3 p u q ; > - O ; , 7 h z G W X.&.K K Q | =.0.0.,.,.4.7.7.4.4.4.4.6.3.s.3.3.3.s.%.%.%.%.%.%.%.%.+.#.$.%.*.*.*.*.&.%.%.$.@.@.$.3.7.%.>.1.>.=.>.-.%.3.%.3.3.3.3.3.3.3.3.t.3.3.3.t.t.s.%.s.%.s.s.*.s.#.*.*.*.*.>.*.*.:.%.$.$.$.>.3.6.3.6.,.3.4.6.6.4.4.8.8.%.@.+.| R r.>.X.z z h a 4 ",
"> - < q e x B B t u u u p u p p x c x c d v v v v x v v v v v x v v n v v v v v v v v v v v v x v v c p r p u e u u r u u p u w e e u p p p p p p x v x v v v x u p p k x p v v n v x u p v v p p p d p p p v v k v k v v v v n p v v u u r e 3 p x e > ; - ; ; 8 f f D D / #...A D T T +.+.-.$.| @.$.$.%.>.4.7.6.,.,.>.%.$.+.$.$.+.+.' ' ' } ' #.$.*.1.3.*.&.*.&.$.*.&.%.#.#.#.' $.#.' ' *.*.%.3.%.%.%.%.;.%.%.%.%.3.3.3.8.8.8.3.t.s.s.s.s.f.j.s.s.3.3.t.3.3.f.s.s.s.s.j.*.3.j.3.3.3.*.%.3.%.3.4.4.7.=.} W { K :.2.K l l s h 9 e < ; ; < u p v r u r e r u i u u u e e r t e 1 e e u k v v v v M M v v x v v x v d x x d x v v x x v v v v B v x v v B v v v v v v v v v v M M B B v v B B B M B B B B v v x d v v p v v p p p x x d c v x c x v x v p x d p c p p p p p u u e v p q ; ; ; = > 4 7 a v G W O.{ J K Q Q =.0.,.4.-.3.7.8.8.7.7.4.s.3.3.6.*.s.3.3.3.3.3.%.%.+.+.+.$.%.*.*.*.*.%.&.%.$.$.@.$.$.>.3.>.,.>.-.$.%.$.@.%.3.3.3.3.3.3.3.3.3.3.3.3.3.t.t.s.%.%.s.s.3.s.3.*.*.s.*.>.>.>.%.$.%.$.$.*.>.,.,.,.>.,.6.4.4.7.6.3.5.4.;.$.+.} E 1.&. .k z h a * ",
"; - > 1 e x B B r u u u t p u u p d p v v v v v p x d v v v v p M v v v v v v v v n v v v v v p x v x p u p r e u u p u p n p e e e p p v p v v p p v v v v n v p p p p v v v v v v x p u p p u p v v c p u u x x x v v v v v v x v c p u u e q p k e < ; = ; , 3 s a S C / &.&.C V T R $.$.-.@.$.$.%.-.>.:.>.4.6.7.6.3.>.*.%.$.$.$.#...#.#.$.#.' #.*.6.6.>.*.*.&.%.$.&.$.#.' E #.$.#.#.#.*.*.*.%.%.%.%.%.%.%.%.%.3.3.5.3.8.8.8.t.t.s.3.3.s.j.s.3.s.3.t.3.s.s.3.*.s.s.*.j.s.s.s.s.3.3.%.3.3.3.3.3.0.5.-.| Q R K >.1.I z j h s 8 7 < ; ; 1 t d v e e e u u u u u u u r u u u e e q u u p v b M n B B n n v v v v n v v p x v v v c c c c v b B B v v v v M v v B n n M M b B b B B B B v v B B b B B B B v v x x v v v p x d p p d x v p p v d p c k v p p x d x x p p p p u e e v v e < ; = O > 5 7 a k G ) ` I J J W W | 9.,.0.3.4.7.0.f.t.8.7.6.j.s.3.3.3.s.3.3.3.3.3.%.+.' +.$.$.*.*.*.*.$.#.#.$.$.$.$.%.>.>.>.,.:.%.$.$.$.$.3.3.3.t.3.3.3.3.%.3.3.3.3.t.t.3.s.s.s.s.3.s.3.s.s.*.#.*.*.*.%.%.$.$.%.%.>.>.,.>.>.1.>.3.,.2.6.6.3.4.4.>.$.+.} R 1.X.{ j G h 0 * ",
"; O ; < 1 u n M u e r u p u p u p p x v v v v c p p x v v v x x v v c k x v v v v v M v v v x p p x p u p x p p r p p i p B B v e p v M v n n B v v p x v n p p p p u p p v v c x x k p u u r e x x v p p u i r x v c x x v x p p x x p u r e w p p u < ; - = , y s r A C / &.%.D Z R ' %.$.-.@.-.-.-.-.%.%.-.:.>.6.0.6.,.,.>.$.#...} #.$.$.&.$.' } $.>.1.*.*.*.%.#.+.#.#.' ' ' $.$.$.#.$.*.3.*.%.%.;.%.3.%.;.%.3.3.5.8.8.8.8.8.3.3.s.3.3.3.3.t.s.t.s.s.3.3.3.t.s.s.s.s.6.s.6.s.%.s.s.%.%.3.3.%.-.>.,.=.| Q W K &.$.J l s s 0 6 7 < ; ; q r p v u w e t u e r u e e e u u i e e u p p u p v B M v v v v x p p v v v v v x x v v v v v v v M v B v v v n M v M b M v b M M M M M B v v v M v v v v v v v v d v x p p p v v c v p v x p p p x x p v v v x c p x p d x x p p p u e v x e < > = O ; 4 7 a k j P ` I H H W W @.;.,.0.5.4.5.8.8.8.8.8.s.6.s.6.s.3.6.3.3.3.3.3.%.+.+.+.$.$.*.*.*.*.$.#.$.$.$.%.%.*.>.>.-.>.-.$.$.$.%.-.3.3.3.%.%.%.3.3.%.3.%.3.3.3.3.3.%.s.%.s.s.s.s.3.#.#.s.*.*.*.%.%.@.$.%.%.>.>.>.>.>.3.,.,.,.,.3.6.>.3.3.*.$.+.' T 2.&. .j 0 9 9 5 ",
"; = ; < 1 u v v e u u r u t p r u p v v v v v p p x x v p v v v v x d x x v x v v M n v v n x p p d x p p x x x p v x u p B ^ B u x n b M M B B v p p v x p u t u t t p x x p x p v v v d x p u p p u p k c x p p x v v v v p p k x p p u u e 1 p p e > ; = - < r f a D A ' ' ] P J E W -.%.-.$.-.>.-.$.$.$.-.-.-.4.6.4.,.,.>.| ' ' +.' +.} #.+.$.#.$.*.*.*.*.*.6.%.$.#.#.#.#.' #.$.$.#.$.*.*.*.%.3.%.;.;.%.;.%.3.3.8.8.3.8.8.8.3.3.3.s.t.3.3.3.t.t.3.s.3.t.3.3.j.*.*.j.s.s.3.s.3.3.s.%.%.s.3.%.-.-.=.=.=.} K K &.` J h a s 0 7 1 < ; ; < u p p e q w u p u u t e 7 q e 7 e u r x v x u p v n c p d v v d p x p x v v c v x x d M M M M v M v v B M M M v v v M n B v B v B v v v v B B M v v v B B B v n v v v v p v p x x p v x x p p d p p p x v v d x x c p c x d x p p r e p d u < < - O ; 4 4 a l k J R I H H K W | ;.,.0.7.7.4.4.8.4.4.4.3.s.s.s.s.s.j.3.3.3.3.3.%.%.%.%.$.$.$.*.*.$.$.$.$.%.>.%.>.>.>.*.%.%.$.$.$.%.>.>.3.3.3.%.%.%.3.3.%.%.3.3.3.3.3.3.%.s.s.s.s.s.s.3.s.%.*.*.3.*.%.*.$.$.$.$.%.>.>.,.,.3.,.>.,.>.6.,.%.;.3.%.#.} ' T =.X.W z j 9 9 5 ",
"; O ; < 1 u M b u r u p p p p p p p x v v v v v x v v x x p v v v x p x d x p p v v v x v v v p c c d x x x x x p x d p x v n p p p x v v c v n v p p x v u e e u p y u p k p p u v v v x v x p v p u p v v x p x x v v v v v v v p p p p e e e u u e < > O @ 1 r f a F A ` &.&.P J K W >.%.-.$.$.$.$.$.$.$.-.:.>.>.>.=.%.%.$.| $.#.+.#...' ' ' $.$.$.*.*.*.*.*.6.*.$...#.#.#.#.$.$.$.$.#.$.$.#.%.;.;.%.%.%.%.%.3.3.5.3.3.8.5.8.3.s.3.s.s.s.s.t.3.s.s.3.s.3.s.t.j.*.s.j.s.s.*.s.3.s.3.3.3.3.3.%.-.=.$.$.| { K P ..P J l 0 s a 6 1 > = - < e t p e 1 e r p p u p u u u u u u p u k v v x x x p p u p p v v v x x x x v n b v x x B M M M B B M v b M B n v v v v M v B v B v B B B B B B B B B v B v v B M M v x v v v v x p p p c p p p x x p p v x v x x x p p x x x p p u u u u u r 1 < = o = * 4 a g h G ` ` H H Y W | >.;.9.8.8.8.4.4.4.4.8.3.3.6.s.s.j.s.s.s.t.s.3.3.%.%.%.%.%.$.*.&.&.%.*.$.%.>.%.>.,.,.>.:.%.%.%.$.$.>.,.%.3.%.3.3.%.%.%.3.3.3.3.3.3.3.3.s.s.s.j.j.j.j.6.*.*.s.*.*.*.%.$.$.$.$.$.$.>.1.>.>.>.1.>.>.1.>.3.3.3.3.>.%.} ' R { K W V G 6 6 5 ",
"; O - < 4 p B B u u u p p p x x p p x c v v v p d v v v d x v n v x p p x v x p x v v x x v v x v x d x x v v c p x x x d p p u d x x x d x d v p p p x p u r e u u p p p u p p p x d x x x c d B v p p x p p u v p v v M v v p v u p p p r q e e e < < < O = 1 r s r C f ) *.*.R D K { 1.%.-.$.$.$.$.-.%.=.-.>.4.:.-.-.>.%.$.$.$.$.#.#.#.#.#.#.$.$.#.*.*.*.&.$.&.*.%.#.#.#.#.&.&.#.$.&.$.$.#.$.%.%.;.%.3.%.3.3.3.3.5.5.8.8.t.t.3.t.s.t.s.3.3.t.s.3.3.s.3.s.s.3.s.s.*.s.s.s.*.s.s.3.3.3.s.%.%.%.-.=.=.=.| W K K ' D P z 0 j 9 6 < ; = ; < r u u 7 e e u p p p u u p p p u p p v x p x x v x p p p p p p x v v v v x v v M v v c M b M M b M B B v B v B M v v v n B v v B B B B B B B v B n n B v v v v v v d p p v v v x p k x d x p u p p p c p v d x v x x p v p p p p t u u u u w < > = O ; * 4 y a 0 G ` ` H H Q W | =.=.,.7.8.t.8.4.3.4.4.6.s.s.s.6.j.j.7.s.s.3.s.3.3.%.%.*.*.%.&.$.$.*.*.%.:.>.$.*.6.,.%.>.%.%.=.%.%.-.>.%.%.3.3.3.3.%.%.3.3.3.3.3.3.3.3.s.f.j.s.s.f.s.s.%.#.%.*.*.%.#.$.$.$.$.$.%.*.>.3.>.,.>.3.,.>.>.,.3.4.3.>.+.+.E R W G G h V 0 0 * ",
"- O = > 1 u n M i r u p p p v v p p p k x v v v x c v v c p p v x x d x v v p p k v x p p v c d x p p x v v M b M v v v v v x n v v v x x x v x p p d v p u e u u u p p p p p x v v v p x v v x k x x p p p p p v v v v v d p p v p u p p u e e q e 1 > ; = O 1 2 s a D f P  ...R J R } >.>.%.| =.-.>.>.>.-.-.-.1.=.-.5.6.>.%.$.$.#.+...#.#.$.#.*.&.*.6.6.3.*.*.*.*.*.%.#.#.$.%.$.$.$.*.*.%.&.%.%.%.3.3.%.%.%.3.3.8.8.8.t.8.f.s.j.s.3.t.3.3.3.s.3.t.3.t.s.3.t.f.*.j.s.*.*.s.j.*.s.3.3.s.%.%.%.%.$.$.=.=.} W W Q ' D T Z 0 s 9 2 1 > O ; 1 u u i e u u u u x p e u t p d p p p p v u r p x p p v v p u u p x n v v k v c x v v v v x v f x v B B v v B v v n v M v v v v v v v B B B B v v v v B v v v v v v x u p x v x v v c v c p u p p p x x x x c v c d p x v c v p p t u u r i e < > - O > * 4 9 9 h G ` I H H Q W | =.=.,.>.4.8.7.;.*.;.3.3.3.6.3.3.7.s.7.s.3.s.t.t.t.3.%.6.*.%.%.#.$.$.*.$.>.*.$.%.>.,.%.=.$.%.>.=.%.>.4.3.3.%.3.%.3.3.%.%.3.3.3.3.3.3.t.s.j.s.s.s.f.j.3.*.s.*.*.3.*.>.%.$.$.$.$.%.>.>.3.1.>.>.>.>.>.>.>.3.3.3.%.+.' E E =.K V 9 h h 0 5 ",
"- O ; < 1 p v n p q i u u p p p u u p v x p p v p v v v x v x v x p p p d n x u v v v x d v v p c v v v v v v n n v v v x v x v v v p x x c x x k p u u r t u p r u p u p p k v c v v v c x x x n v d p x d v p n v v v v v v v v p v v u u e u u 1 > < ; = ; 7 3 y f l D D ] #...T | { +.%.$.+...>.7.6.7.>.$.=.>.>.>.,.>.%.$.$.$.#.#.} #.$.$.#.' #.*.*.*.*.*.*.$.*.*.*.*.6.7.*.*.*.*.*.*.*.*.*.%.;.3.3.;.3.;.%.3.3.3.s.3.s.s.s.s.3.3.3.s.3.t.3.j.3.3.s.3.3.t.3.s.s.s.3.3.s.j.3.3.s.s.3.%.%.%.%.-.-.$.@.Q Q } X.` J V j l j 0 7 1 > O O > 1 e u 3 e p u e u v r u p p x u i p k u p x p p u p p c v v p p x p p v v x v v n v v x x d c v v p v v x x v n v v n v M b n c x v v n n B B v v v x x v v d v x d p p p p p v c p u x x x p p p p d v v v x x x d p u v v p p u u u p u 1 < < > - O * 4 y a l H I I I H K W Q @.;.,.3.;.>.3.%.%.3.3.3.3.7.s.7.s.s.t.s.s.6.s.3.3.>.>.%.*.*.$.$.*.*.*.=.-.>.>.>.,.*.#.+.%.>.>.%.$.:.:.3.%.%.%.3.3.%.%.3.3.3.3.3.3.t.t.3.s.s.s.s.s.j.s.$.-.,.4.,.:.=.=.%.$.$.@.$.$.=.-.>.>.>.>.>.>.>.>.-.4.-.$.=.| W { =.G V G 0 9 h 5 ",
"; O ; 1 1 u v M p e p x p v p p r p d x p p p x c x d x v p v x p p p u p x p p p x p p x c v p x d x v v x v v v v v v v v v v v p x d x v v v x u u r u u p p t u u u p p x x v v M v v v d v v v x p x x x p v v v v v v v p v p p u t e 1 e u e < > ; = ; 7 3 y f A A D ] #.#.` } { } %.$.@.%.>.>.>.>.%.$.-.,.6.3.3.3.*.%.$.$.#.#.' #.$.#. .+.#.$.*.*.*.*.1.*.*.*.*.*.6.6.6.6.*.6.*.*.*.*.*.%.3.3.3.3.3.3.3.3.3.3.3.t.t.3.s.f.3.3.3.3.s.s.j.3.t.s.3.j.3.3.3.3.t.s.t.3.3.s.s.s.3.6.3.%.%.%.3.=.=.=.$.@.Q { | } R A j s s 0 6 1 > = - < q u p u q e u u u p u p p x k p p p p p p p x p p p p p p p p p v v v p p p x x v v p d v x x x x v v v x d v v x v v x v v v c v v v v v v v v x v v x x c v v c x x p p p p v k p u d x c p d x p v v v x c p x v v p v p p p p t p x u 3 < > ; ; O % 4 8 y j G I W I H R Q Q | ,.9.4.3.4.6.3.3.3.3.3.4.3.s.t.j.s.t.s.6.s.*.4.3.4.6.>.>.>.*.$.$.*.&.$.%.%.>.>.3.>.*.$.$.>.*.=.%.-.>.%.%.%.%.%.3.3.3.3.3.3.3.3.3.3.3.3.s.s.s.3.s.j.s.>.>.,.,.,.,.=.=.$.$.$.$.$.-.$.%.>.>.>.>.>.>.>.>.>.5.4.=.=.| W  .=.K J V j 0 9 5 ",
"< ; ; < 1 u v v v e u d p v d c t u p c v p p v v v p v p d x c p p x p p x d p p c v p p x x p p x x p p p v v v v v v v v v v v v c x v n v B p p p u p p p p p u r p p p p v v b M v v v v v x x p x v p x x v v v v v v v p p p p p r e 1 e u e < < ; = ; 4 8 s b A A D ` &...T R E } >.%.>.,.3.>.>.>.:.:.3.,.6.6.6.>.>.%.$.$.#.#.#.#.#.+.'  .#.$.*.*.*.*.*.6.6.6.*.*.*.6.*.*.*.*.*.$.$.*.%.%.3.3.3.3.3.3.3.3.3.t.3.3.3.s.t.s.3.s.t.t.s.3.j.3.3.3.s.s.3.3.s.3.s.s.3.s.3.3.3.3.s.3.s.3.3.%.3.=.=.-.-.@.Y Q } #.` S l l s a 8 3 < - ; < e u d x e 1 u u p d t u p u p x p u u p p x d p p p g p p p u p p v v p p p p u p v v x v d x x x v n v d x v v v x v d x x x d x v M v v x x p p d x d x v v x p d p p p u p c x x p x x v x c p v v p x p d v v x v p v p u d u r x v p q < ; ; = O $ 4 8 y l L ` ] W J W Q =.=.;.,.4.4.4.4.3.>.%.3.3.7.s.s.s.s.7.t.j.6.s.*.6.6.7.7.3.6.>.&.$.&.%.&.$.%.%.=.>.,.,.>.%.%.%.%.%.%.%.-.%.%.%.%.3.3.3.3.3.3.3.t.8.3.3.t.s.s.s.s.s.s.s.j.0.7.,.,.,.=.=.| $.$.$.$.$.%.-.-.*.>.>.>.1.,.>.,.4.4.,.=.| | W | | G G G j h 9 5 ",
"< - < < 3 u v v v e u p p x p p p u p x v x p v v v v x c x d x p n v x p p x x x d x p p p p p x p v x c d p x v v v v v v v n v v x d v n B v c p p p p p p u p p u u p v v p v v v B M v v M v v c v v v c d p x v v n n v v v x p p u e e e u 1 < > ; = ; 1 3 a l f l F ' &.} J R } } >.%.>.>.6.3.6.7.6.-.>.,.>.,.>.>.>.%.%.#.#.#...#.#.#.$.$.#.%.*.*.*.6.>.>.*.*.*.&.*.*.*.*.&.$.#.#.$.$.$.%.3.3.3.;.3.3.3.3.s.3.3.3.s.3.s.s.t.s.t.s.s.3.s.s.3.s.s.s.3.3.3.6.s.j.s.3.t.3.3.3.3.6.3.3.%.3.%.-.-.>.-.@.W Q | *.{ P S S Z f a 1 ; = ; < q u p n 3 1 u p p p u u t p p v x p u p p v p p v p x p d p p p p p p u u d p p p p v x x c x p d x n v v v v v v v v x x p x x v v v v v v p p u p x p p p x p p p p p p p p x d p p p d p p x x v v v v c v v p v x d v x p x u u p n u e < ; ; = O % 4 9 y l L ] { W H K Q Q =.=.,.3.;.3.4.3.;.%.;.3.4.7.t.s.t.s.s.6.s.s.*.4.6.6.6.>.>.$.#.$.*.*.*.%.:.>.>.>.,.,.>.:.%.$.$.%.=.$.$.3.%.%.%.%.%.%.3.3.3.3.3.3.3.t.3.3.4.s.s.3.3.s.s.u.0.4.>.,.:.=.=.$.$.=.$.%.=.%.%.%.>.1.,.,.>.3.6.4.4.,.=.| W W | ,.{ K G j h 9 9 ",
"< ; ; < 1 u n v v 3 t p p p u p p p p v v c p v v v p x x x d x p v n d p p v c p x x p p p p u p p v p p p v v v c x v v v v b v v v v v v v v v x x v p v p p v p u p v v v p v v v v M v v v x x v v v x x x x x v M B B v x x x d p u e 3 e e 1 < > ; = > 1 8 a s a l L ..&.%.R { } +.%.@.| -.,.,.6.8.6.*.*.3.6.,.>.*.%.$.@.$.$.#.#.$.*.*.*.*.&.$.*.*.6.6.*.*.*.*.&.#.$.&.*.$.*.&.$.$.&.$.*.3.3.3.3.3.3.t.3.3.3.s.3.3.3.s.3.3.s.s.s.3.t.t.3.3.3.s.8.s.%.+.+.j.s.6.s.s.3.3.3.3.3.s.3.3.%.%.%.-.-.=.=.| R } =.6.&.' ` T L z a < ; O ; < 1 t p v e 1 t p u p p u x n v v v d p v p p v v x v d c x x x p p p p u p v k x p x v d x v v x p n B v v v v v v x v v x x x x x c v v v v v v x x x p p p p p p p p u p u p p p x p x x x x x x v v n v v v v x v v v v v p v u u v v p e 1 < ; % O $ 4 7 8 h H ` ` { G J W @.@.=.=.3.3.3.7.3.3.%.3.s.7.s.3.s.t.s.s.s.6.s.e.6.6.3.*.>.$.+.} $.>.*.$.=.>.:.>.-.3.,.>.-.%.$.$.%.$.$.@.3.%.%.%.%.3.3.3.3.3.3.3.t.t.3.8.4.5.8.4.-.3.5.8.u.7.,.:.,.:.-.=.%.$.%.%.=.-.%.%.%.%.>.,.,.3.1.3.3.3.-.%.| W W =.0.=.W G V h 9 5 ",
"< ; ; , 1 u v n n e u p p x u v v x x v v d v v v x p v v v x p p x v v p v v p x x g p p x p p p p p p p p p p x x k v x v v v v x p v v v x v n v v x x c p p g p p p p v v v v v B v v v v v v n v v v x v g x v v M B v v v v x x p u q e e e 1 < > = ; < 1 r a s a l T #.*.$.T { | $.%.$.| ,.6.,.>.6.6.>.,.6.7.6.>.%.$.$.+.&.*.$.&.$.*.*.6.*.*.*.$.*.*.*.*.*.$.$.$.$.#.$.*.*.*.*.*.#.#.$.%.3.3.3.3.3.3.3.3.3.3.t.3.3.3.3.3.3.3.t.3.s.s.s.s.3.;.3.%.+.+.E T 3.s.t.6.3.s.j.3.3.3.3.3.3.%.3.%.-.=.$.$.} E | 1.t.1.X.` T S a 6 , ; O ; 1 e u x x e e u p p p p d n B B v p x x v v v v n v v x k x p v v p p x p p x c d v x p c v x d x x x n v x x v v d x v v x p d d c v x t u d x p c p k p p u i t p p p p p p p p v v v v v v n v v B n B B B n n v v v B n v v n u u v v p e 1 < > O   # * 7 9 h H ) R W H J Q @.=.=.;.7.4.4.7.7.7.3.s.s.s.7.s.6.s.s.j.6.s.6.s.s.s.6.%.>.%.} } &.*.*.#.%.-.>.:.:.>.4.>.=.%.$.$.%.$.$.@.%.%.%.%.%.3.3.3.3.3.3.3.3.3.3.3.8.;.3.3.4.3.4.5.7.,.>.:.;.:.-.-.%.$.%.=.=.-.-.-.%.>.>.,.>.>.3.3.3.>.;.%.| W W ,.0.=.W K G j 9 * ",
"< ; ; > < r v v M q u p x v p v v d p x x p p x c x d v v v x p x x x p d x v p d v v p p p p p i p p p p p p x x p v p p v v v c v x x v v v x v d p p x p p p p p p p x d v v v v v B B v v B n M n v d x x k v v v b v B v v v v v x u r u u r u 1 < ; = > 1 r f C f A ) X.*...F Y } $.%.$.%.>.6.4.,.6.4.>.8.,.,.,.*.$.$.#.+.$.$.*.*.*.*.6.*.*.*.$.$.*.*.*.*.&.#.#.$.$.$.$.*.$.*.*.*.#.#.#.$.+.%.%.3.%.3.3.3.3.3.3.3.3.3.3.3.3.3.t.s.s.3.3.3.3.;.%.%.+.E ' ' #.3.3.j.s.t.s.s.3.3.3.s.s.3.%.%.-.=.@.@.} W { >.p.6...H Z l 0 2 1 ; O ; , e p v x e e u u d v p p v v v v x v p v p p v v v v p p p p v v p d c c x u p p p x p v x v x x v v v v v x v v x x v v v x p d v v x u u p x p p u p x p p u u p p p p p p x x x v v v M v b B M B B B B B B B M M b B B M M B p t v M v u 1 < > = O $ 4 4 8 h G K { Q H J W =.=.;.;.7.7.7.s.7.7.7.7.s.t.3.3.7.s.7.3.j.s.6.6.t.t.3.>.>.%.$...$.*.&.#.$.%.>.=.-.-.-.-.%.%.$.$.$.$.| | %.+.%.%.%.3.3.3.t.3.t.3.8.3.3.3.4.3.3.;.4.4.3.3.,.-.>.>.:.:.>.=.:.=.%.$.%.-.>.>.*.>.>.>.>.6.6.4.3.3.;.>.=.W X.a.0.<.W G Z G 9 5 ",
"1 > ; < < e x x n 1 u p x v p k v v u p p p p p p p x v n n x p p v v x c v v v p v v p p v p u p p x d p x x v k x p v p x x x x x d v v v v n p p p u x d p v p p x x x v v v v v B v B n v B M M b v x p x v x v v v M n v v n n v v p t u u p u q > = ; > 1 3 f A D S ) X.%.| J J R } %.$.$.$.>.,.>.>.>.%.>.$.%.%.$.$.$.$.#.#.$.*.*.3.*.*.*.*.&.#.#.#.$.$.$.$.#.#.#.&.$.#.#.$.*.*.*.*.$.*.*.+.%.%.%.%.3.3.3.s.s.s.3.3.%.%.%.3.j.j.s.s.t.3.3.3.;.;.%.%.%.+.+.+.%.s.s.3.3.3.3.3.s.s.s.3.3.%.3.,.@.} @.} R } *.z.6.{ F C s s y 1 ; O ; < e p v x e 7 u p v v u p p x M B B B n x v x p v v x p v p p x v p u p v x r u u p p p v v x v v v v v B v n B M n v n v v p x x v v v p v x c k p p u x x d p p p p p u p p p x d v n v M b M M v B B B B B B B B B B ! B B B B d u v F n p q < ; ; O # * 5 7 y G K P | H H W @.=.=.;.4.3.3.4.3.3.3.s.t.3.>.3.7.s.6.3.*.6.6.s.7.t.6.>.$.%.&.$.$.$.%.%.$.>.>.%.$.$.$.@.$.$.%.%.%.$.$.| %.%.%.+.%.3.3.3.3.3.3.3.3.8.3.3.4.;.;.;.4.4.3.-.=.-.>.>.>.=.=.=.>.=.%.%.%.-.-.>.>.,.6.6.>.,.4.4.4.3.3.6.,.| =.b.C.a.| V G V 9 9 ",
"1 ; - > 1 u v x v p u p p p x v x p x v v p p x p x x c v d x x k x x v p x p p p v v p p v p p p p p x d p p x d x x p x p p p v v v p v v v v x p u p u p p p p x p p x x v v v v v v v B n x B v v v v x v x x v b B M v v v B v c c p t t p g t 7 % # o > 5 f f l D F X.&.&.X.K R } | =.@.=.=.$.$.=.>.>.>.:.-.-.%.$.$.@.$.$.#.*.*.%.&.e.*.#.$.#. .#.#.&.%.>.#.%.%...#.%.%.#.#.#.%.%.&.$.%.*.#.' $.%.>.,.>.6.7.2.2.6.7.2.,.,.4.8.q.f.s.8.8.8.>.%.%.>.%.+.' +.E 3.j.j.8.8.3.3.8.3.3.3.3.3.%.%.%.+.+.%.+.T T 3.x.e.1./ D A s 8 < @ - > 1 u v x p u e u k v v p x v v B M v v v x v x r e x x p e e p p p p x v p p d v v v d p v x p v B B M v v M v n v v B B n x x p d v v n x p p p p x p p p p p p p p p p p p c p v v v B x v M B B B B B B F B ! B ! B B B ! F B N c p M M B x 1 ; ; - = % , 7 y p I ` H K Z J W @.-.>.%.4.6.,.,.>.,.4.6.8.6.4.6.8.7.,.-.6.8.y.y.y.7.6.>.%.@.+.@.$.$.$.$.$.*.*.*.$.$.@.+.@.@.=.-.=.=.@.@.%.%.%.%.%.+.%.%.3.3.3.5.3.3.5.8.3.s.*.s.3.*.s.*.*.*.#.s.3.%.%.$.3.%.%.3.3.%.%.%.%.3.3.t.3.3.3.3.3.t.t.3.3.+.+.t.S.x.%.A D A A 6 ",
"1 - = < < u v v x i u p n v x p p p p x v p p c p p p x v v v c u p p c k v v c x v v p p v x p p p p p v p p x v p p c v v u u v v v p v p k v v p p p p p x p p p p c p v v v n n v B B B B v v B v v v B M n x v n M B v v v N c c c g r t p k g 8 4 # # , 7 8 s s A Z $.>.1.X.K W } $.-.=.-.=.$.=.-.>.:.>.>.>.>.-.%.$.$.$.$.%.*.*.%.*.>.&.#.#.#.#.#.$.$.#.*.+.&.#.#.#.%.%...#.#.#.&.%.*.*.&.#.#.$.*.>.3.3.6.7.7.0.7.7.7.4.2.7.7.q.q.s.8.8.8.5.4.>.;.%.} E E E 3.s.t.8.8.t.3.3.3.3.t.3.3.3.%.%.%.+.%.+.T E 3.x.j.j.] / D f 0 : O O ; 1 t x d x r u p c v v v v v n M M v v v p e e u p p u y u p x v c p p d p p x x x v v p v v v v M B M v v b M B B v v B v v v x x v v v p x x d x p p p p p t p u p p p p p p v x n v n v B M b M B B B B ! ! B B F B ! N ! B N M v d M B B d 1 < ; ; O # , 5 y 9 ) .. .I Z J E | $.-.$.,.,.4.4.,.,.4.7.2.,.,.,.7.7.4.:.1.,.7.0.8.8.6.3.%.@.} +.$.+.| +.$.*.*.&.$.%.$.+.$.@.=.=.=.=.=.$.;.;.;.;.;.%.%.;.;.3.3.3.3.3.3.3.*.*.*.3.s.*.*.*.*.#.#.#.3.3.%.*.3.3.*.3.;.3.%.s.3.3.3.3.3.t.t.3.3.t.8.3.;.+.%.8.x.t.#.A D A f 6 ",
"< = ; > , u v v v p u p v n d p p p p d x p p p p u p d p v x v u p p p x v v v x v x p p c x d d p x v v x c v p x p v v x u u v v c v p v x x p p p p p k p p p v v p x v v n v v v v M B B b v v v v b M v v x v v B n v v v n c c n g t e g v g 7 > % > , 8 f l l D F &.6.r.X.K W Q @.=.=.-.-.-.-.-.>.>.:.=.4.>.>.=.%.$.$.$.#.*.*.#.#.$.%.#.+.+.#.$.#.#.#.#.#.&.#.#...#.#.#.%.#.#.&.%.*.%.%.$.#.%.>.6.>.,.3.7.7.7.7.0.8.7.0.8.0.q.q.8.8.4.4.4.3.*.%.%.%.+.+.E 3.8.t.8.8.8.3.3.3.3.t.t.3.%.%.%.%.+.+.+.E E +.j.j.x.' D A C r > = = ; < u v x x u u u p v v x v d x x d x v v b p u B ^ N n B c x v v c p p p u p p x v v v v v n v n B v v B B B B B B M v v v n v v x v v p p x x v c x p u p p p p p p y p p x x k v v v v v M M v n M B B B B B B B B B B B B b v M v x B B B x q < > = @ # , 5 r 9 L  .` I H J T } @.%.$.>.,.6.6.6.6.3.6.,.3.2.7.7.2.6.4.-.>.7.7.6.6.,.6.,.%.$.$.$.@.@.@.#.&.&.$.$.$.$.$.=.=.=.-.-.-.-.-.3.3.3.3.3.%.%.3.3.3.3.3.3.3.3.3.%.%.*.3.*.*.*.#.%.%.#.*.*.*.*.*.6.3.>.*.%.%.*.s.%.3.3.3.3.3.3.3.3.8.3.3.%.E +.8.x.3.#.A A f f : ",
"< = = > < u v v b u u r p x c v v x p x k p u u p p p p d v v p v p c x x p p p x x c d p x v p x x c v v v v v v v p v v n d u k x x x v p c x p p p p p p p p p p p p x x v v v v v v v B B M v B v B M v x p v v v B M n M v v c c c g r e i n g 8 4 % % , 7 a s a Z Z &.1.6.=.W Q } @.-.$.-.>.>.>.-.>.-.=.%.-.=.$.$.$.@.@.@...%.*.$.#.#.#.%.#.#.$.$.$.&.%.&.%.#.#.#.$.%.$.&.*.$.$.#.#.&.#.#.%.%.*.3.6.,.,.3.4.,.2.7.7.6.7.2.8.9.q.q.8.8.7.4.8.3.%.%.%.+.+.%.+.3.t.t.8.3.3.3.3.3.3.t.t.3.3.%.+.%.+.E E E T E 1.e.t.T A A f 8 1 ; - ; 1 u B B v u r u v v v v v x v x c v v v x u p ! ( B v B ! B v d p e p x t u p x x v v v v v M v v v B B B B B B B v B v v v v x x p p v p p p v v d p u p u u p u u p u p p p p p d x c v n v v v v n M N N B B B B B B B N M B B v v B M N d q < > O O # : 4 9 7 H I ) R S J T Q +.$.@.*.>.4.6.6.3.6.1.,.4.7.7.7.2.4.7.:.4.7.7.4.>.>.,.3.*.%.@.$.$.$.$.#.$.$.$.#.$.$.$.$.=.;.,.4.4.,.1.;.3.3.3.3.3.3.3.3.3.3.3.8.3.8.8.%.%.%.*.*.*.*.s.*.%.%.*.3.*.3.3.6.3.*.*.%.s.*.#.3.3.%.3.3.3.3.3.8.8.8.3.%.+.+.3.t.%.' A A f f 6 ",
"> = - < < u v v n p u u u p x n v v p p d p p u x p p p x x p p v p d p p x p p v d p x v p v v x x v v v v v v v d x x v v p p x d c p p p v v x p p p p p p t p p p p p x v d v M n v B N B B n v M v v v x d v v B M M v B v c c c n g e e y g g 7 % % % : 7 8 a j J L 1.r.t.2.| @.=.=.;.-.;.-.>.>.>.%.%.%.%.$.$.@.+.| +.@.+.#.$.%.#.#.#.$.&.#.%.&.&.$.%.*.%.%.%.#.%.*.*.*.6.&.*.%.#.+.+.#.&.$.%.>.,.3.>.>.>.>.4.,.7.,.7.2.7.8.8.q.q.q.8.7.4.s.%.%.%.+.+.+.E %.3.j.j.t.t.3.3.3.8.t.t.3.3.%.%.+.%.+.' E T T E *.#.#.A f f f r < ; ; , 1 u B B n p u v n v v B M M b B B M v v u p B B ! B B v ! B c d p y p x p p p v x d v x x v n M v v N B B B B B v v v M v x x p p p x v v p x v x p p r p p p p p p t p p p p p p x p p v v v B v v M M B v B M B B B B B v B B B M x B B B x q 1 ; O O O * , y 8 L {  .` H J T Q @.%.@.$.%.,.,.,.,.>.,.>.,.2.3.1.-.:.>.4.7.7.6.>.>.-.>.%.$.$.+.+.@.$.@.+.$.#.#.+.$.$.$.$.-.3.5.7.0.7.,.3.3.5.8.3.3.3.3.3.3.8.8.8.8.8.8.*.*.*.3.3.3.3.%.s.%.*.3.3.*.6.6.3.%.3.%.%.s.#.%.3.3.%.3.3.3.3.3.3.5.5.3.;.E +.3.:.X.' s f 6 6 2 ",
"; = ; > < r c v p p u p p p x v p p p p p v x x p x d p x v c p x p x p x k p x v x p x d v p v p d x v v v v v x p p p p x d p x x p p p v p x k p v p d p p p p u u p p p p v v v v v v B B B M v v v B M v v v b v B n B v n c c c n i e t g k g e 4 % > , 8 s l z P P >.r.r.,.} $.=.$.-.=.-.%.%.>.-.%.$.%.=.$.@.$.+.+.@.$.$.&.%.*.&.$.#.#.%.%.&.%.%.&.%.*.*.%.#.&.&.*.*.*.*.$.%.*.$.' ' #.*.$.%.%.>.*.%.%.*.-.,.6.7.6.6.7.8.8.8.8.q.q.8.8.4.s.s.%.%.%.+.+.+.+.3.t.t.t.t.3.3.3.3.3.3.3.3.%.+.+.%.+.+.+.E T ' <.' ] A f f 6 q < ; ; < 1 u v M n p u x v p x v v B N B M v d u p B ^ ^ ! ^ ! B B M v v c x p x p d c x x x x v x v M v v n b B B B B v x x v v d p p p u u x v p p p d p p p t u p u u u p p p u u u p p p p p x v M M B B b M B B n B M v n v B M v B ! n x B B M p q 1 - O % % % , y 8 H I  .R H H E } @.%.@.$.%.*.>.>.>.>.>.%.%.>.>.%.%.-.-.>.>.,.:.>.>.-.-.$.$.$.+.+.@.$.+...$.$.#...X.$.$.=.-.,.4.0.0.0.8.3.3.8.8.8.8.3.3.8.3.3.8.8.8.3.3.3.*.%.3.3.3.*.%.s.*.3.3.3.3.6.3.3.3.3.3.%.*.#.s.3.3.3.3.3.3.t.3.3.5.3.3.3.+.E 3.>.$. .l r 2 3 2 ",
"< = - < > e x v p u u x v x p p p p u p p v v d p x x x d v v p x p p p p p d x x p v v v x x v p v x p x c v p p p x x x p x x c x x x p p p p p p p p p p p u p p p p p p p p x v v x x v B B B M v v v v v v v v M B v v v M c g c c g w t g g y 7 , % ; 4 9 y s s z l ..*.*.=.R Q @.+.$.@.@.$.$.%.=.$.$.=.%.%.$.$.$.$.@.$.@.$.%.%.%.&.#.$.$.&.*.%.#.#.%.*.*.&.&.#.%.*.%.%.*.$.&.%.&.$.#.*.*.*.%.%.=.$.$.$.%.:.3.2.7.7.7.8.y.8.8.8.8.9.8.8.4.s.' #.%.+.+.s.+.+.%.3.8.3.3.3.3.3.3.t.3.3.%.%.%.+.%.+.+.+.T E %.&...' f f f 0 6 , - ; < < t n M v u u p x p p v c v B v v x p u p n B B B ^ F B B v x v x p p p u x v k v x c M v v b n M M v M x v v v v x d v p v x p p t x c v p u u u p p u p p u u u p u p u p p p p d x x v v v n v n b M v B M M B v v v v B n B B x x B B B u q < ; O @ ; : * 8 7 m H P K Z J R } $.$.$.| $.*.*.=.>.>.=.$.$.%.%.%.$.%.%.-.=.$.$.$.%.%.@.@.$.$.+.+.@.$.@.#.#.$.$.$.*.=.>.>.>.,.,.7.0.y.u.8.8.j.j.8.8.8.8.8.3.8.8.8.5.3.%.3.#.*.*.3.3.%.%.#.*.*.3.*.3.*.6.3.3.3.3.%.%.%.%.3.3.3.t.t.3.t.3.5.5.3.3.3.%.+.%.1.X.' l s 3 8 2 ",
"< - ; < > e p v p i r p v v p p p p u t p x x u p p p x c v v v v v x p p i u u p p p n v x c v p x v p p d v p u p v n n v x v v v v d p p p p u u u u p p p u k x p p p p c p v v b x v v M B B b M v v x x x c v v v v v v n c c g c i 7 i g g p 7 : % % 4 r s j l A A &.2.r.=.W } @.+.$.@.=.$.$.%.$.%.$.%.:.%.%.$.$.@.$.@.$.&.#.#.&.%.%.*.*.*.*.$.#.#.%.*.1.*.#.#.&.%.#.#.#.#.#.$.$.*.*.*.*.>.:.>.>.$.| $.>.-.:.4.7.4.2.8.0.8.8.5.5.q.8.4.4.s.s.%.+.s.s.%.%.%.3.3.8.8.8.3.8.3.t.3.3.3.3.3.%.+.%.%.%.+.T T %.' ' #.f 0 f f 6 , ; < < 1 u v b n p p M b x p n v v v n B v v c B B B B ^ ^ ^ ! F M p p p p u p p x c v v x n b v v M M v v v x x v v v v c d x p x v d p p p k p p u t u p p p p t p r p u u y p p p p p x d x p x x d x x M M B B M b v M v v n M v M b p p F B B p 3 < ; O ; % % & y r L I ) I Z H E } $.$.@.+.$.%.%.$.%.$.%.$.$.$.$.%.%.%.%.-.$.} +.$.$.+.} | @.@.} Q +.} Q #.$.$.$.$.>.,.>.4.,.-.>.,.0.k.a.8.8.8.8.8.8.8.t.t.8.3.8.8.3.%.%.%.#.#.*.*.*.%.#.#.#.%.*.3.*.3.6.%.%.%.3.%.%.#.%.%.3.3.3.3.3.3.%.8.3.3.3.;.+.+.3.:.} D a a 6 8 2 ",
"; ; < < 1 e t x v u u p p p t p u p p u u i p x p p v v x v v v v v x x v c p p v x d x v v v x v d x x d x u u c p v v v v v n v c x p p p p d x p p u p p p p p d v d p x c p p x n v x x v n b B v v c v v v v v v B v v v n c c c c y t t g g i 4 * % % 5 r d d z Z Z { 6.1.%.} R Q $.=.@.@.%.$.%.$.=.-.>.>.-.$.+.| } +.@.$.&.$.#.#.$.*.*.&.$.&.$.$.#.#.+...#.$.%.#.#.%.&.#.#.*.*.*.*.*.6.*.:.-.$.-.%.$.*.,.6.,.3.8.7.,.,.8.s.5.3.3.3.3.3.3.*.%.%.3.s.%.%.%.3.3.%.3.3.3.3.t.s.s.3.*.3.3.;.#.+.%.%.' ' ' D #.#.#./ A f 6 6 q > ; ; 1 e u v ! b p p M v x v v v v B B v p d v n M B ^ B B M B M c p p u p v v B M v x v v v v n M v v v n n M v v b M v c x v n p p u p p p u v p p p p p p u r p d x p u p x p p u p v v v x M n d v x v v b v x v v v M n v v v B c x d p ! ! B u 1 > ; %   % : , 5 8 l H I H z Z E @.$.$.$.%.$.$.$.%.$.$.%.%.$.%.%.%.$.$.$.@.+.Q +.@.+.Q Q +.+.+.} +.Q +.+.*.&.#.$.%.*.6.*.>.:.;.4.0.0.0.0.j.8.8.8.t.8.8.3.8.8.8.t.8.3.3.+.*.*.3.*.%.*.%.#.%.#.+.%.%.%.%.%.3.%.3.%.%.%.3.3.3.3.3.3.%.3.3.3.8.4.4.8.>.%.` 1.&.:.L 9 y 8 , 6 ",
"; ; ; > < e p v k u r u v p u d v x v k p p p p i p p d x d x v v v v v v v v c v v v v v v n v v c c x c p p p v v c d x k c x v d x p p p p x p p u u u u u p u u u p p p v p d v v v v v v v M M v v v v v c x x B v v v v M n c c c i 7 t g g d 7 > % ; 1 9 h s z Z A ' 2.1.$.{ W } -.-.-.=.$.$.$.=.>.>.>.:.-.%.$.@.@.@.+.+.$.#.#.#.#.*.%.$.#.$.#.#.$.$.#...#.*.*.*.&.%.$.$.%.*.*.*.%.$.$.#.-.-.>.4.,.>.>.>.6.3.3.1.4.,.,.7.8.5.5.5.3.3.%.3.s.%.%.%.#.%.#.%.%.%.%.%.3.3.3.8.*.3.3.3.3.3.%.$.%.+.%.' ' ' D #.&.] D f f f f 6 ; ; ; 1 q i v B v u p v v v n v v v B v x p p v v v b ! ! B M B c v x x x v v v d x u p p x v v x d v v v v v v v v v v x p d p p p p u p p p c v v p x x v p x u u p x u u r p p p p v x v v v v v v x x v M v v x v v v M v v M b N v x x p ! F v u 1 > ; = O % : 2 1 8 h H P J Z D E | @.$.-.$.$.+.+.$.$.$.@.@.+.@.@.@.$.+.+.@.} +.} +.+.} Q +.+.} } } +.@.@.%.$.&.$.*.*.>.6.-.-.-.,.4.7.0.q.8.8.8.8.8.8.3.8.8.3.8.8.8.8.%.%.#.%.*.%.%.%.%.%.#.+.%.3.3.3.3.%.%.3.3.3.%.3.3.3.3.3.3.*.3.3.t.t.q.8.7.8.%.$.R >.O.X.H h h y 5 7 ",
"; ; ; < 1 u p v v r u u x p p c p p x x x p r e u u p p p p x c p d c d x d x v b v v x v v M B v v d x v v v p v x x v p v x p v x p p p u p p u p u p t r u r e e t u u p k p x x p x v v v v v M n n v v v x v v M v v n M v n c c g i e i g n g e 4 % & 4 9 l l A A S ` &.1.| { R } =.-.=.=.$.-.-.-.>.>.-.%.%.$.$.$.$.$.$.$.#.&.$.' #.*.*.#.#.#.$.$.$.&.&.*.#.*.6.*.%.$.&.$.#.%.%.&.#.&.#.#.$.%.>.,.6.>.>.>.>.,.6.,.,.3.7.4.8.3.5.3.3.;.3.3.s.*.%.%.%.+.%.#.%.%.%.%.3.3.3.t.6.3.3.3.3.%.%.%.%.#.%.' ' D D &.&.' A f r r 0 q < > > < 1 r v B v u p v v v v v v v B v v v v B v v B B B B B B x x v v v v v v p u p x x v v v p x x x v v v v v v d x x p x x p u p u u u p v p p p p p d x p p u u p p u u p d p v v v v v v n v v x v v M B v v v v v v v x n v B v c x d ! ! x q 1 < = = ; % , 6 3 7 a m L J Z Z T } @.$.-.%.$.} | @.$.+.} +.} } +.| +.| } @.+.} +.} +.} Q +.} } Q +.+.+.@.#.$.$.$.*.*.3.3.:.-.-.:.,.3.0.q.j.s.t.5.8.8.8.8.3.3.3.3.3.3.3.+.%.%.%.%.%.%.%.#.#.%.%.%.3.3.3.%.%.3.3.3.3.%.*.%.3.3.3.3.3.3.3.t.8.8.8.8.$.+.T >.&.{ S k a 8 7 7 ",
"; ; ; ; < e x M x t u u p p p k p p p p p p u e u t p p p p p p p x x p p p x x M v x v v B n B v v x x p p v v u p p x v p x x p p p p p p r p r t u p u u u u u i p u u p p u x x d x v x v v c c v v v x x d v v v n v M v n c c g g i 7 i g g y 4 > % % 1 9 k V S F D ` &.>.} W Y Q @.$.=.@.,.>.>.>.>.:.%.$.%.$.$.$.$.-.$.$.#.%.$.+.#.*.*.#.#.#.#.$.*.*.>.>.$.*.*.*.#.#.#.#.#.#.#.#.#.&.*.*.$.$.%.-.>.>.,.6.>.4.6.>.:.2.7.,.3.5.3.3.3.;.3.5.s.#.*.%.%.%.%.%.+.+.+.%.3.3.3.t.*.s.3.3.3.%.%.>.%.+.+.' ' / A &.&./ A f 6 0 6 6 1 < < < 1 u k B v p p v v v v v B v v v B B ! ^ M B B B B ^ B B d d x v v v v x n v v v c v v k x d v x v v v c v x x x p p p c p p p p r u p p p p p p x x x d n p p p p p p p x v v v v v v B v v v v v M v B B v v b B M v v v v B v v x x B B u 1 1 > = % ; % , 5 5 5 r z P J Z Z Y E } $.-.>.$.+.| @.$.@.+.+.} +.+.+.$.+.| +.} Q } Q } +.+.@.+.E E Q +.Q Q #.#.#.&.*.*.*.*.,.,.;.;.:.,.4.0.s.s.8.8.t.8.8.8.8.8.3.3.3.3.3.+.%.%.*.3.*.*.%.#.#.#.+.%.%.%.3.3.3.3.t.6.3.%.3.3.3.*.3.3.3.3.3.t.7.8.4.4.$...` 1.<.I z h 9 6 7 5 ",
"; ; ; ; 1 q p v v u e u u p p p v v u p p d p p p p p x p p p p x v v v x x x v v x v v v M v v v v p p p v v v p p p p c x p d p p p x p u p t u u u p u p u t u u p t u p p p p x v c p d v v v d x p p x x d v v b M v M n v n c g i i w t y h i 7 4 # % 4 7 k z C C J ` ..*.} K K W | $.@.=.4.,.>.>.>.>.=.%.%.$.%.=.-.%.%.$.$.&.#.'  .*.*.+.#.#.$.&.*.*.>.>.*.%.#.#.#.#.#.#.#.#.#.%.&.*.*.6.$.%.=.>.%.>.,.,.>.,.6.,.>.6.7.6.5.5.5.8.3.3.3.5.3.t.3.%.%.%.%.%.' +.+.%.#.3.6.6.3.*.s.6.>.%.%.>.%.#.*.#.' T D #.&.] A f f f u 6 < : > < 1 u p n v u p v v v v v B v B B B B ! F B B B B B ! B B c x x d x x d x n x d p p p p p x v v v v v k x v x p p p p x d p v p k p u p c v v p v v v n n b c p p x x d x p c v v x c v n v v v c v b B B B B v n v b M M v v B x v d u B B u 7 1 < = O ; % : 5 5 7 9 z P S Z D J E | $.%.>.%.$.$.$.$.$.+.+.| | +.$.@.@.+.+.+.} } +.+.+.+.$.+.} Q } } } } ..#.#.&.$.$.*.*.4.,.-.-.-.-.5.0.t.8.f.j.s.s.8.8.8.3.8.3.5.3.3.%.%.*.3.*.%.%.%.%.%.%.+.+.+.%.3.3.3.t.6.3.3.%.3.3.3.3.3.3.3.3.t.3.4.7.4.4.#.#.T &.:.) A l d 8 7 3 ",
"; ; ; > 1 w u d v u e e p p p p v p p u u u p u p p x d p p p p u u u p p d v n x v v n n M v x v p p p p p p x p p x d v p p p p p p x p p p u u u u p p t u u e u u p p p v u u p x d p u x M v x p p p p p v v v v v B v B v c g c i i i t i g g 7 > % % , 7 a l l l D P ' &.{ R Y W @.$.=.=.>.>.*.%.-.:.:.4.>.>.:.%.%.%.$.@.$.#.#.#.#.$.$...$.$.$.*.*.*.*.*.*.&.#.#.$.#.#.#.&.#.#.&.*.*.*.*.X.%.>.>.>.,.>.>.>.,.6.>.,.4.7.6.3.3.5.3.3.3.3.3.3.3.3.3.%.%.%.+.' +.%.+.%.*.6.6.3.s.s.6.;.%.%.%.%.%.*.*.#.' A #.&.' / f f f r 6 < < > < < w u v u u u p x v b v v n v v B B N v M B B n B B b x v v x p p p x p x d p u u p p p x x x p v p p x x d p u p p x p u u u u t u p v c p x d v v v v n x p p p p p x p x x k x v v v v v v c v v v n B B v v v v v v v x n x v v p B B x w 1 < - O ; % : 1 7 9 9 z H S Z J Y } @.$.%.>.%.$.+.+.@.@.@.+.} } +.+.$.+.} +.@.+.+.+.Q } +.+.} } } } +.+.$.$.$.*.*.&.%.*.>.-.=.-.-.-.>.6.y.s.j.s.f.j.j.s.t.8.8.8.8.5.5.3.%.*.3.*.%.%.%.%.#.#.%.%.+.%.3.3.3.3.3.3.3.%.3.3.3.3.*.3.3.3.3.3.3.8.8.4.6.$.#.T #.{ I S m k y 2 , ",
"; ; < < < q e u u e e e u p p u p u t r r u t p u u p p p p p p e e e e u d x v v v v v v v v x v p p p p p x p u p c v x p p p p p p d v p p t p p p u r u u e e u t r u u p u p p p p p p x v c x k p p x x x n v v M M B B M c c g c g t e e k g t > % % 4 7 a z l l J P T #.W R R } =.$.$.$.$.$.=.*.%.%.>.,.>.=.=.%.%.%.$.$.*.#.+.#.$.#.#.$.&.*.*.*.&.*.%.$.*.$.+.#.&.$.#.#.$.#.#.*.*.$.$.*.@.-.>.-.>.>.>.*.>.>.>.>.,.>.6.6.5.3.3.3.3.%.3.3.3.3.3.3.%.%.%.+.' %.#.%.#.*.*.s.*.6.s.*.3.*.%.%.%.*.*.#.#.] T ' #.' / f u r 6 6 < ; ; < 1 7 u p u r r x x v M v x n B B B B B B B B B B B B n u x x x x p p p p p p u p p p p u p p p p p x p p p p p p p p p u u u u e r p p p p p p p p v v x c x u p p p p v v p x v v v v v v v x v x v v v x v v v v n x x v v n x v x u B M x e 1 < ; ; @ % : 4 8 9 a k H S J J T Q @.%.:.>.>.%.$.+.| $.$.| +.+.+.+.$.| | @.@.$.@.+.+.+.+.| +.+.+.+.+.#.%.$.$.>.*.%.$.%.%.=.=.=.-.-.-.4.0.8.s.s.j.j.s.s.s.t.t.8.8.8.8.8.3.3.3.3.%.%.%.%.#.#.%.%.%.%.3.3.3.3.3.3.3.3.*.3.t.%.3.3.3.3.3.3.3.7.8.7.6.$.$.P ..I ` S k f a 2 , ",
"- ; ; < 1 1 q u u r e e p p p u u u p u u t p v u u u p p p p x i e e e p x x p M v v v v v v d c p p p p p d x r u p x v v v v p p v x p p u u k p u u u r e e u r u u e e r e p p p u p p v p x x v x v v x x v v v v B N b v c c g g g t e e g y e 4 > % 4 8 d Z C z L P P #.R R W | -.-.$.+.} $.-.>.%.%.%.>.$.$.$.$.%.=.>.-.*.$.' $.%.$.#.%.*.*.*.*.*.$.$.$.#. .#.%.$.#.#.%.#.#.#.%.*.$.$.%.=.-.>.$.X.%.>.=.>.%.*.,.>.>.>.8.5.3.3.3.3.3.3.3.3.3.3.%.%.%.%.+.' +.%.#.#.%.s.*.s.*.s.s.4.3.*.>.%.#.*.#.#.#.' ] #.o.D f r r 6 q : ; ; < < 1 e p u u u p p x v p p B B B ! ! ^ ! B B B B B B v u d x x p p p p p p u u p u u t u u p p u p p v v v p p p c v x p d p u u p p p x p p p p p v x v v p p y p u x v v v p v v n v x x v x v v v v v x x v M B v v p v v n v v v u B n x e 1 > > ;   : : 5 r y y j z S H J J E | %.=.>.>.%.$.+.| @.%.$.$.$.@.$.@.| | @.$.=.$.@.} +.+.$.%.%.@.+.Q #.%.$.*.*.*.$.#.$.%.@.=.=.-.-.=.>.6.j.8.8.t.s.j.s.s.j.j.8.8.8.8.8.5.t.3.3.%.%.%.%.%.+.%.%.%.3.8.3.%.3.3.3.3.3.3.3.6.%.%.3.3.3.6.t.t.7.8.4.3.*.*.T { ' O.H y a 8 , 3 ",
"; ; < > 1 e u r < u p r u u t u r i u u u c v v u u r u p p x x p u t e e u p p v v v v p x n B d p u p p p p r r u x p x x p p p p p p k p u u e p p i e u u r e u u p p p p p v p u p n v x p v v v v v v c x v B B B B v B M n v v v d p u u x d u < ; ; < r y h k z G I { { R { } } | =.=.} } | $.-.>.$.$.%.%.>.-.>.:.>.>.>.$.@.@.$.%.%.$.$.$.$.%.$.@.$.@.@.' #.#.%.%.$.$.#.#.#.$.' #.*.*.*.#.%.#.#.#.*.*.*.*.*.*.*.3.3.3.3.3.3.;.%.3.3.3.3.3.t.t.3.%.+.+.%.Q +.+.} $.-.>.%.-.>.7.7.3.6.0.3.,.>.>.@.X.W H I 2...L h k 8 5 4 1 ; ; < < 7 u r q e u r u p p p v v n B ( ( B B ! B B B B v p v p x v p t u p u e u u u p u r p p p d x p d x x v p p u d x u u 1 u p p r e e u u u p t p v v x p p i p p p x x p v v v v v v p M v x d x p x n x v B b v x x v v v v v n v x x p p u < > < ; O % , 4 7 9 y k h h S H J E } } X.=.%.$.| } Q } $.$.$.@.+.$.$.$.$.+.$.-.$.$.%.%.*.%.*.*.*.$.| #.$.:.@.| $.$.$.$.=.$.-.-.>.>.>.,.6.3.8.s.t.8.8.j.8.j.8.3.8.8.t.8.3.3.8.3.3.%.;.%.%.%.;.3.3.3.3.3.3.3.3.4.3.3.3.4.7.>.>.3.3.4.4.4.4.8.4.;.7.:.%.} { $. .I d d 8 8 * ",
"< , < < 1 e e u 1 e u e u u r e e e e e e p u u p t p u p p p p p u r e u u u p d v v v x v v B x p p p p p p p u u v v p k p u p p p p p p u i p p p r u u p u e u p p p p p v p p p p v v c k b v v x v v v n v v B M B v v B b v x p p u u r v n p 1 > ; , e d h k z H I { { P R W } @.=.=.$.+.@.%.>.,.>.*.>.>.>.-.>.>.>.:.-.$.@.@.$.%.%.%.$.$.-.$.@.+.$.%.%.$.#.&.&.#.#.#.#.$.$.$.+...#.$.#.#.#.%.#.*.*.3.*.%.*.3.*.*.*.3.*.3.;.%.%.3.3.%.3.t.3.3.3.+.+.+.+.} @.+.+.+.$.$.$.-.>.8.8.6.7.y.7.,.;.,.=.@.} K R 2.X.P h v 8 7 5 < ; > 1 1 q u u 1 q e u u u u p v p p v B B ! B B B B ^ b v p p d v n x p p u u p p t u t u u u t p p x p p p p g u t p p p t u e u t u e e u p u u u r u v v d p x p p p p p d v v x x p x p x x d x x v p x v v B B B M v v v M M v v v v x d v v u 7 < < ; O ; : 4 7 y n z l h Z H J R } } | $.$.$.X.} +.$.%.$.@.@.$.%.-.%.$.@.-.-.-.*.>.,.,.%.>.>.>.>.%.%.%.%.$.+.$.$.$.$.$.@.$.%.-.-.>.,.,.3.3.8.t.8.f.f.f.s.8.8.3.8.8.8.3.3.8.8.3.3.3.%.%.;.%.3.3.3.3.3.3.4.s.4.4.3.3.3.3.3.;.3.3.4.4.4.4.8.8.3.8.%.%.} } 1...I h h 8 8 4 ",
"> < < < 1 u u u q e e q r i u u u u u r u p d u t u u u p u p u p i e e e u t p v x x x x v v n p v x p u u u p u p c p p x p p v v p p x p d x p p u e u u p i t u p p x p x x p p d x p x x v n x p p p v v n v M b B B B M M B M c p p p t u M M p q < ; ; < y h h j G K { ..P K W { =.=.-.=.%.$.>.,.1.,.3.6.>.>.%.:.>.-.-.-.$.@.@.@.$.$.$.@.| | @.+.+.$.%.%.$.%.$.#.#.#.#.$.$.&.&.$.#.$.&.$.%.#.%.%.*.*.%.%.%.3.6.*.*.*.3.3.3.%.%.3.%.%.3.3.3.t.3.%.+.+.+.+.$.@.$.@.} Q } @.} $.2.8.>.6.y.8.,.,.,.@.=.| K R <.[ L y k 5 5 4 : ; ; < < e u u 1 1 3 e p p p u p p p p x v B B B M B B M x p x x v v p d v v p v p e 1 r p p u u p p p p p p p p p u p p p p r e u r e e e u d u u u u p x v v x x k p p p p p v p x p p p p x p p x M v x v v B B B n v v v c M b v v v x x u n x r 1 < > ; O : : , 5 y k k k j S J J W } } } $.%.%.$.$.@.-.-.$.$.-.>.,.4.>.>.-.>.>.:.>.>.,.4.>.>.,.3.6.6.,.,.>.=.$.%.$.%.$.%.| @.$.%.-.-.>.:.%.3.5.s.8.s.8.8.j.8.3.3.8.8.8.3.8.8.8.8.3.3.;.%.3.3.3.3.3.3.3.3.7.7.7.4.3.;.3.;.3.3.3.;.3.4.4.8.8.8.7.s.%.$.| +.7.X.I j h 8 5 4 ",
"; ; , < 1 i x c e e e e u p p u u p p i p d c p r p p p y p p t p u r e u u t p d p p p x v v n x p p p u i u p u p v p p p p p v v x v x c p v p p u u r t i u p p p p p c p d v p x x p x p p v p p p u p v v v v B M N b v M N v v x p p u u v v p 1 > = - , 8 a h h G K ..X.H P K Q =.:.,.-.*.%.>.>.>.>.>.3.>.%.%.$.$.$.-.$.%.%.$.$.$.@.@.+.} @.%.%.$.$.$.+.$.#.$.#...#.#.#.#.#.#.#.#.%.*.*.+.%.%.%.%.%.%.*.%.*.6.3.3.3.3.3.3.3.%.%.3.%.3.3.3.%.%.+.%.+.+.+.%.$.$.$.+.E Q @.} $.2.7.,.,.7.6.,.,.,.=.$.| L K X.{ H r y 2 , , < % ; < < u p p e q q e p k x p u p v p p p p p v x v M n v v n x x p x x n B M v p e e e u u u u p x d p p p p p u p u p p u u u u u u e e u p u u r u u x v v p p p p u u p p v v c d p p x d p p v b B v v n v v v v v v v n M v v v v v p p x p u 1 < ; - O , 1 , 4 r k k z j S H J { } } $.$.$.%.$.$.%.-.>.>.:.4.7.6.4.1.>.,.4.4.>.>.>.,.>.1.,.>.,.6.8.7.6.>.>.*.%.%.%.$.-.| | $.%.-.-.-.:.%.3.8.8.8.8.t.3.f.8.3.3.3.8.8.8.3.t.8.3.%.%.3.%.3.3.3.3.3.3.5.3.4.4.7.7.4.3.3.3.4.4.3.3.3.4.4.8.4.8.7.7.%.$.} } 2...L z j 8 5 * ",
"= ; < < 1 u k v e w 1 q u u u u u p p u p p p u r t u p p u p u p p r u u u u p x p p p x x v v p p d p u u r p p p d p r p v v p d x p p p p u x v v p u r u e r u p p x p v p v d u p v v p u x x p p x v v v B v M B B n v v n v v v x p u u p v u 1 1 - = < 7 y j j z R X.&.H K K W | =.:.=.%.%.%.=.-.%.%.,.>.%.%.$.$.$.$.$.$.$.$.$.$.$.$.@.-.3.6.4.-.%.| Q #.#.#.#.#.#.$.$.' ' #.#.$.*.*.*.+.#.#.%.%.*.3.3.*.3.3.3.3.3.3.%.3.%.%.%.3.3.3.3.3.%.%.%.%.%.+.+.%.$.$.$.+.E } $.>.>.8.y.4.>.3.>.0.4.0.,.>.| J P <...L a y 7 5 4 < ; ; < 1 e x c e 3 q e u v p p u p p v p u p p u d v v v n b M b v v v v v v v v x p u u t r u p p v p g p p p u p p p p p u p t p p u e e u u u p u r p x v M p p u p u p p p p p v d x x p p v x v M n M v B b M B B M M M B v b v v n v x p B p u q 1 > ; ; ; , 1 5 r v L ) j z H K { | X.=.$.%.=.%.$.%.%.-.-.>.>.,.,.>.>.>.6.7.>.:.>.4.4.,.6.,.-.:.,.,.3.6.%.=.%.%.$.$.$.$.$.$.%.=.>.%.%.%.3.8.s.8.t.t.8.3.s.8.3.3.3.3.3.8.8.8.5.3.%.%.3.3.3.3.3.3.3.3.3.3.4.4.4.s.4.3.7.3.8.4.3.3.3.3.4.4.8.s.6.4.%.%.' R :.{ P k z 8 5 * ",
"; < 1 < 1 u p p e 1 1 e r t p r r p u u p d p u u t u p p p d p p u u u u r p u p p p p p x x d u u u i r t u i t p p u u p p v u p p v v v x p x v b x u u u r p p p p x v p p v p t p x v v d x k v c x c d v v M M M B B B v v v M v v p u r n n p q 1 ; = > 4 9 h h G ` &.&.H J K R Q =.=.=.$.$.$.=.%.%.*.,.>.>.=.%.-.-.$.$.@.$.$.$.=.-.-.-.>.,.>.%.$.$.$.$. .+.#.#.#.$.&.$.#.#.#.%.*.*.*.>.3.%.%.%.*.*.*.3.%.%.3.*.3.3.3.%.%.3.3.%.%.3.3.%.3.3.3.3.3.%.+.+.$.+.+.@.+.| +.$.=.%.1.8.6.,.6.,.,.0.0.,.:.=.K J :. .P y d 5 7 4 1 ; ; < 1 r p v e q q e u p p p u p p p p p d v p x v v v v M v M v v v v v v M d v v v p u p p p p p x x p p p u p p p u u t p u u p y i r u r r t p t u p v n p u u t u r u p u p p x d p u u v v v B v v v B B B M M M M M M M M M M v n c d B v u e 1 > ; ; ; 1 7 7 8 k L  .h z H J { $.X.$.%.%.>.>.%.$.%.%.$.-.>.%.*.>.>.>.,.,.1.>.,.4.7.6.4.>.-.%.%.-.>.>.%.-.>.=.=.%.>.%.>.%.-.-.-.:.=.$.%.3.8.t.s.8.8.8.s.t.8.3.3.8.8.8.8.8.5.3.%.3.3.3.3.3.3.3.3.3.8.3.3.4.3.3.4.7.7.s.4.4.3.3.3.3.4.4.4.8.;.3.+.%.` T =...` z z 9 8 * ",
"> < 1 1 1 u u p e q 1 e e u u u u t u p p p p u p u u u u u p p u u r u r u u p u u p p u u u u u e u u u u u e u p p p p p p p x p p v v v v v x n v p i u u u p p p x x v p p x u u u p v v c u p p p p x p p n B v b B B v v B v v v v p r u B M d e 1 ; - ; , 9 d d z ) X.X.H P K R } =.=.| %.$.$.-.=.%.>.,.:.-.=.%.-.-.-.$.$.$.%.-.-.>.>.>.| $.$...@.$.=.%.#.#.$.#.#.$.*.*.$.$.$.*.6.>.1.6.s.s.*.*.*.*.%.#.%.%.*.3.3.3.3.3.3.3.%.%.3.3.3.%.3.3.3.3.%.%.%.+.} +.+.| $.$.$.$.$.| $.3.,.,.6.3.,.4.0.:.=.@.P P ..{ L 8 r 4 5 1 , ; ; 1 1 r p p q q e e t p p p d x p p p p x v p n v v x v v v v x c v v d v B v v p v v p u u p p v v p p p p p d v x p u p p u p i p u u u u u u p p d v M B p p p r t p u u p p p p p p p p d x v v B v b N A B M M b v v v B M v M M M c x B p u 1 < = O ; : 1 5 4 8 k m L h Z Z H } X.$.$.$.=.>.>.=.=.%.-.@.$.-.>.>.%.%.:.>.>.>.>.,.7.6.1.>.>.=.%.$.$.%.%.$.>.>.>.:.>.>.>.>.*.%.:.>.>.-.%.%.3.8.8.t.8.8.s.t.8.8.3.8.8.8.8.8.8.3.3.;.3.3.3.3.3.3.8.3.3.3.3.7.3.3.7.3.4.7.7.7.4.4.3.3.3.3.3.;.5.;.3.+.%.' E X.X. .z k 9 9 * ",
"= > 1 < 1 r u p < 1 1 1 e e u u u u u r i p p u p p r u u u u u p u u t u u u y e u t r e 3 e u u e e r u u t r e u x x p p u u p p p p p v x v B B v x p x d p p p d x v v v p x p p p p p p x v v v v p v v v v v M B B B B v B n v x c p u u v M p q 1 ; - > , 8 h a z I } ..H P K K Q | =.| >.:.-.>.>.>.:.,.%.%.%.%.-.-.$.$.:.>.>.>.-.=.-.-.+.%.%.%.$.$.@.| *.%.%.$.$.*.6.6.#...#.*.*.*.*.6.#.%.%.%.3.6.3.%.#.*.3.3.3.3.3.t.3.3.3.3.3.3.3.%.%.%.%.%.+.%.+.%.+.#.$.| $.>.>.$.,.%.-.3.,.>.>.%.>.,.4.$.| } K P { K G 8 9 5 4 4 ; O > < 1 u p u q e e r t u p p p x p p v x p p x v v v x v n v B n M v v u p n v p p u p p u e p p p p p p u p p c v d p u u d u u u r u t u u p v v v v N B B x p p p u t p u p x p p p x x x p u x v M v M N M M M M M B ! N B B B B v v c d n u e 1 < ; = ; > , 1 5 r k H L l S H K } $.X.=.$.%.>.>.:.>.>.-.%.>.,.,.>.%.$.$.%.=.%.%.>.,.3.>.$.%.>.=.%.$.$.$.| $.-.$.$.%.>.%.>.%.%.%.-.>.>.%.%.3.8.3.8.8.8.t.s.t.t.8.8.8.8.3.8.3.3.3.3.3.;.%.8.3.3.3.3.8.8.8.s.3.s.3.3.3.7.8.3.4.3.3.3.;.3.3.%.4.3.3.+.*.' } X.&...k h 9 9 * ",
"< > < < < e u u 1 3 q e e u t r u u e e r u u r r p u r e e u e r p u r w u p t t u i u e u u e u u u u u e i u e u p u p u u u u p p v k c n B B B B M v p p v x v v v n v c p v d p p t u p p n p p v d c p u v v b B B v v b M n M v d p p u p p r 1 > ; ; ; * 5 h 8 z I ....G K J Y } =.=.=.-.:.6.6.6.,.>.>.:.=.$.$.$.$.$.$.4.>.>.-.-.>.:.-.$.$.%.$.$.%.$.$.*.&.#.%.%.#.#.#. .+.$.*.*.*.*.*.#.*.%.*.s.3.*.%.%.%.3.%.%.%.t.t.3.3.3.3.3.8.8.8.3.%.3.%.%.%.%.+.| $.$.+.$.$.>.>.>.:.>.4.4.>.-.-.-.-.-.;.@.| J H K G z 9 9 5 7 5 > ; ; < < q u p e 7 e e u p v v N p u d v p p d u p x v v d x v v n M v x x x x u d v x p p d p p p v v p p p x p p p u u u k c p u p d x u i v p d v B B N B B v p r u u p p p p y u p u p p p p p p d c v B B M B v v M B F F B B B B B n v c x u e 1 1 > - ; ; , 1 7 7 r L L h Z H K { } } $.} $.>.3.>.$.@.$.6.>.>.-.>.%.%.%.>.=.-.>.>.$.$.>.,.>.>.%.%.%.$.| | $.$.@.$.%.>.,.$.+.| | $.*.>.>.3.3.8.8.t.8.3.3.8.8.3.8.t.s.8.8.3.3.3.3.3.%.;.%.3.3.3.3.3.8.3.3.3.3.6.3.s.7.3.3.4.8.4.8.4.4.4.4.-.;.-.8.-.:.W R Q W X.z 7 4 9 * ",
"< ; 1 1 1 e p v e u e u u u u i u e e e e u u t e u u r e e e w u u u u e u p p p p u u r e e e w r e e r e u u t u r u v p r t p p p v x x v B B B B B v v v n p v v v v v v p p p p u y u u p p u u p p p p u v v M B B B v M B v v v x x p u u p u 1 < ; > ; : 5 a 8 j H  .{ H K Y Y | =.@.| $.>.7.6.7.6.>.>.-.$.$.$.%.$.$.$.$.$.$.$.%.%.$.$.@.$.$.@.$.$.$.@.*.#.#.$.&.' #.#.#.#.$.*.*.*.*.*.*.%.#.s.*.6.*.*.+.%.3.3.%.3.3.t.t.3.3.3.3.3.3.3.3.3.%.%.3.%.%.+.#.$.$.+.$.>.,.4.-.-.>.>.-.$.@.-.-.=.=.-.Q =.H H H G z 5 9 * , > ; = > < > 4 p p 1 1 q w r p x v v p p x p u u p p c v p p u u u d x v M v d p p x v M x x p x p v v v v v p x d p x x x p u u p u u t p u u r v u u p x v b B M v p p u u p p t t u p u p u y p u p x c v b B B B v v M M B B N B B B B B v x d u e 1 < < ; ; = # , , 7 4 r L m s l Z J } } ..$.| $.-.>.>.%.$.$.>.-.%.$.%.*.>.>.-.%.%.:.-.$.-.>.>.>.%.>.:.=.$.@.@.$.%.$.@.$.-.>.$.$.$.%.*.>.>.>.3.3.8.8.8.8.3.3.8.8.8.8.8.5.8.8.8.8.8.3.;.;.%.3.%.3.3.3.3.3.3.8.s.s.s.7.7.7.3.6.4.4.4.4.4.4.4.3.;.4.-.4.$.=.K J I I  .z y 8 h 8 ",
"< > 1 3 < 7 p v 1 1 1 e r u u e e e e e e u u p e u u u u p u u e u p r e u u u r p r u e e u e w e e e u r u p u p u p n v u p p p v v v p x v B B b n x d x v p v v v x v x u u u u u r p p p u p p x p p x p v v v B B v b B B v x x x v p u u u u q < > ; O , 9 8 5 j k } ` H K Y W | =.| =.-.>.6.8.7.3.>.*.-.%.$.%.$.%.%.$.@.$.$.%.%.%.$.$.@.@.@.@.@.$.$.@.$.$.%.$.#.#.#.#.*.$.&.*.*.*.*.*.*.%.%.%.#.s.3.*.+.%.%.3.%.3.3.t.3.8.8.3.t.3.3.8.t.3.%.%.%.3.%.%.%.%.%.$.%.,.3.1.-.-.>.:.=.$.$.-.=.=.@.=.W W J J P H G 8 7 , 4 , > ; > < < e y p 1 1 1 e u t p x p x v v p u p d x d p p u p r p p p c v v x p p M B B v v v v v v n v v v c x c v v x d p u p p p u r p u u u p p p u p v B B n v x p p p u u r u p p p p p p p u u x x v v n B N M B v M B B B B B M M n v x p u u q 1 < ; > ; ; , , 7 2 9 H L 0 l S J W { } $.$.$.$.%.>.%.%.$.-.%.$.@.$.%.>.>.%.%.%.>.-.-.>.:.>.:.>.>.>.%.%.$.@.$.$.$.$.$.%.-.%.>.*.>.>.3.3.*.3.3.3.8.8.8.8.3.8.8.8.t.t.j.s.t.s.8.8.3.;.%.%.%.;.3.;.%.3.3.3.8.6.s.t.s.3.3.3.3.4.4.4.3.3.3.3.3.5.4.>.4.$.$.W K { {  .z h 9 h 5 ",
"< < < q 1 e p u 1 1 1 1 e e e e e e u u r i p p e u u p p p p p e u u t e e u t e u u u u i p r e e e e u t p p p d u u x v u p p p p v p p p x p x x p p u u p p p x d p v k p u u p t u u p p p x v d p p p v v x x B B M M M v v v v d p u r x p r q < < ; - * a 8 9 k h ..{ J K Y Y Q =.=.,.0.7.8.6.,.,.,.,.>.-.=.%.-.-.$.$.X.$.$.%.%.=.:.-.%.$.$.$.$.$.@.+.#.&.%.&.%.#.#.$.$.$.%.*.*.*.*.*.%.#.' %.#.*.*.*.+.%.%.%.%.3.3.t.t.3.3.8.8.t.8.8.t.3.3.%.%.%.%.%.%.>.>.>.>.,.>.>.-.$.%.=.%.$.-.-.=.@.@.=.W E G H P J H 9 9 5 7 5 ; - ; < < e u p q 1 e e u p p p p p v c c p p x p p p p p p p p p p c v M x x p v b v v p v n M v v n v v x x x x p p p p x p g p i u u p r u p v v x x v v v v p p u p p p p u u u p p p t p t e u p d x x v n B b v B B B M B N B b v v x p u n d u 1 < ; ; ; , 1 1 7 , 8 L m h V S J W W } X.| +.+.$.%.>.$.X.$.$.$.X.$.$.$.$.$.$.=.>.>.-.-.-.>.>.>.,.>.>.$.$.$.$.=.$.$.$.%.-.>.%.*.>.>.>.*.3.;.3.3.3.3.3.3.3.s.s.t.s.s.s.j.s.t.8.3.3.3.%.;.3.3.3.%.;.%.3.8.8.3.3.3.3.s.s.3.3.4.5.4.3.3.3.3.3.3.5.>.4.$.-.{ K X.}  .z k y h 5 ",
"q > < 3 u p p u q q e e r t p u u t p p u u u p e t e r u t u u e u u u e e u r u r u u u p p p u u u u u t t p u k p u p u r u d p p c p u p p p p p p p p p x p p p p p x p u p y p u u p u p u p c p p u p x x x v B M v M M v v n v x p u u v v u 1 < ; ; ; & a 8 a z h } { H J K W Q | @.:.y.y.7.7.4.3.3.,.4.>.>.>.-.%.%.$.| $.$.$.$.$.>.>.3.%.$.@.$.+.+.+.+.+.#.#.&.*.%.&.$.#.$.*.*.*.*.*.%.#.+.#.#.%.%.*.+.%.%.%.%.3.3.t.8.3.8.8.t.t.8.8.t.3.3.3.3.%.%.%.$.%.>.,.,.,.>.%.-.$.| $.@.$.$.=.@.@.@.@.W Q J H P L L y 7 4 7 4 > = ; < < e u u q e e e u u p d u p p p x x p u v v d p p i t p p p p d d v x v x v n x d x v n v v v v v v p x x x k p d x p p p p i u p p p p p v v v v v v v p x p p p p p t u p p d p p t p u r p t p d v B v M v B B B N N ! B B v x d u r v x e < ; ; = o ; , , 5 7 y H m l Z J P { } } X.| | $.$.%.,.-.@.| $.$.@.$.%.$.| | $.%.>.-.-.%.$.%.-.>.>.>.>.%.%.$.$.%.%.%.%.>.,.>.%.$.$.%.%.*.>.%.3.;.3.3.3.3.8.8.8.t.8.8.s.t.8.s.8.3.3.3.3.%.%.%.%.;.%.3.3.3.8.3.6.3.s.3.6.3.3.4.4.4.3.3.3.3.3.3.5.-.3.@.-.} W $.X.` h k a h 8 ",
"1 > < e u n v t w 3 e u p p p u u t y p p r u p u u i u r u p u r t u p u e e u u p p u u u p t t u u e u u u r u p p i p u u p x u p k p p r p u u p u u p p p u u p p p d p u p p p p p u p t r u p p u u x v v v v n B v M B b n v v p p u u n n p 1 ; ; ; > , 9 a h z k I P z J Y Q @.} } =.7.7.0.y.p.0.6.3.6.,.>.-.=.=.%.$.$.%.%.$.$.%.>.3.%.$.+.+.+.+.' } ' ' '  .#.*.*.#.#.#.$.*.>.*.*.*.%.%.#.#.%.%.3.*.%.%.+.%.%.3.8.t.t.t.8.t.t.t.8.8.3.3.t.3.3.%.%.%.+.+.$.>.6.,.>.>.,.-.+.@.=.=.$.@.@.@.=.=.W Q H V { I I a 9 , 7 , > = > < < e u u 1 1 e e t u p p p u p p c v v p x x p p u p p u p p u u u p x d v n v p p p x x n v v v v v v k v c x v x p p p p p p p p x p p p p c v c x v v x d x p u u u r u p p p p t p u u u u u p p v B B v n v M M B N ^ F B M x x u u v x u , O ; ; o ; : , r y v I H h z H K } } | =.$.%.$.$.*.,.>.$.} @.$.@.$.%.$.| | $.%.%.$.$.$.} | @.$.:.>.=.%.:.$.%.%.:.%.%.>.6.>.%.$.| +.$.*.;.%.%.3.3.3.3.3.8.8.3.8.8.8.8.8.8.t.3.3.3.3.3.3.3.%.3.3.3.3.3.8.8.s.s.7.3.3.s.3.3.4.3.4.3.3.3.3.3.;.5.-.3.} =.Q K :.:. .h k h a 7 ",
"1 < < u x v b x q e e u u p u u u u p p u t u u p d p u u p p u u p p p p u u i p x g p u p p u r u e e u u e e e u u e p u u u p p u p p u p p r u u r u u i u r p u u p p p u u p p u u u r u u u p u p p x v v v v b B c v B N v p p p p t 7 p p p 1 ; = ; > 4 5 a h P L R H z J W } =.Q } >.,.1.8.u.p.0.4.:.4.>.-.$.$.-.%.%.%.>.>.>.:.%.>.3.%.$.} +.+.+.' +.' +.#.#.#.%.$.#.*.$.$.*.*.*.*.*.%.%.%.#.%.*.%.*.%.+.%.%.3.3.8.3.t.t.t.8.8.8.8.3.3.t.3.8.3.3.%.%.+.} | %.,.,.>.>.,.%.%.%.-.=.=.=.;.=.@.@.W Q H J {  .` h 7 , 7 , > = ; < 1 e u u 1 1 e e r u p p p x x d p v v p p p u u p p p u p p u t u p p p v v v x p p x x v x x v v v v v v p p p p p p u p p p p x v p p d p p p k x p v v x v p p r u u u u p p r u u u u u u p u p v n v v v M v N B B ! B v v x x p u v x u 1 ; < ; O > , , t k L I z 0 Z H P } } } X.$.%.>.%.>.6.,.%.+.$.$.@.+.%.%.| $.$.$.$.$.$.$.$.+.$.$.=.=.%.%.>.%.%.%.-.$.$.*.,.>.>.$.$.$.$.$.$.%.;.3.3.3.3.8.3.3.t.t.8.8.8.8.t.8.8.3.3.3.3.3.%.%.%.3.3.5.8.8.8.s.7.s.6.3.s.3.3.3.3.;.3.4.3.3.3.;.4.;.3.} =.R H 1.2.$.l z a 8 4 ",
"1 < 1 u p v v p 1 q q r p u u r u p x x p u p p e u p u p k p p v p v v p u r u p p p p p x d p u u e e r u r u u u w e p k r p p i u p u u u p p u u t t u r u u t p u p p p t u u p u u u r u r u u u r t p p M v v M v v v B B c u u x p e < u p p w ; # ; > 8 5 d k { ..{ H G J K Q Q } -.y.6.8.6.8.0.7.4.-.1.>.$.$.$.$.:.=.$.-.>.>.=.%.%.%.>.@.Q +.$.$.+.+. .%.*.#.#.#.$.#.*.*.&.*.*.*.*.*.%.%.#.%.%.%.%.%.%.%.%.%.3.3.3.3.8.8.8.8.t.t.t.8.t.8.t.3.3.3.3.%.$.+.} $.*.>.-.1.%.$.$.$.=.=.-.;.;.;.=.| W W H K {  .) 9 5 2 8 , ; = - < 1 u p r q e e e u u u u t d v u p p p p B n v x p p u u p p u u p p p p x v v x p x v v d p p p v v p p p p p u v v v p p p p x d x p p N v p u u v x p p p p p u u u t u u u r u e u u r u u u u p p v v v v v b N F ! B M v c x d p p d v u < ; > ; O ; : ; 8 k m L s a z H K W { W } @.>.>.*.>.,.>.$.%.>.%.| | $.$.| $.%.%.| | $.%.>.%.-.>.>.%.$.$.%.=.%.=.:.%.$.%.>.,.>.%.$.$.$.#.#.%.%.;.3.3.8.3.3.3.8.8.8.8.8.8.8.s.8.8.8.t.8.3.%.%.;.3.3.8.8.8.8.3.6.3.3.3.3.3.3.-.;.3.3.3.3.3.3.3.8.3.-.| =.W P =.2.| z G h 9 8 ",
"< < 1 u p N v p u e r i u u e 7 u v d p u u p p v p p c p u p p p x c v p p u t u p d u u k c p p p u u e r u r u r u i y u u u p u p u p p p p p p p p t u u u x u u p p u u u t u u p u u r u u u p t u u t p v p v x p v p p v x x x u u q < r p p q > # > > 5 9 0 0 P ' ' ` D R K W } @.4.7.s.6.3.6.3.s.*.%.s.s.%.#.+.s.%.+.%.+.+.+.$.%.%.*.>.$.+.+.$.+.+.+.*.&.#.#.#.$.%.#.6.*.*.%.*.*.*.&.3.%.%.$.$.@.$.%.%.*.>.%.%.,.6.0.s.6.6.s.s.6.6.s.6.s.6.6.s.#.#.+.' ' #.s.>.%.%.3.%.*.+.$.>.>.%.$.,.=.} } X.} K F L ) L k 7 1 5 1 < - ; ; 3 u u t e 4 e u v p p d p u p x n v x x x B B M v x p p p u e r x p u e u r p n v v v d x x v v v p v n v v x p v v x p c p p u p p d v v v p p p p p p u p p u r i p p t p p u u e u u p p r e e u p d x i p c x n B M B v v p d p p p v v p 1 = ; ; O % : * 4 h H L G j j H W W W | =.=.=.=.=.>.,.>.$.,.%.$.$.>.$.$.} $.@.$.=.>.%.-.>.,.>.%.>.,.*.%.-.>.%.$.#.*.*.*.*.$.*.6.*.*.*.&.#.%.#.%.*.3.3.3.%.t.6.s.3.3.s.6.s.s.s.s.s.7.s.s.3.;.3.>.s.s.s.s.7.s.6.3.3.>.>.>.6.>.>.1.,.,.>.>.>.:.:.>.,.$.:.R R &.1.&.A f f d y ",
"< 1 1 3 p M B B e e u u p u i p u x c p u u u u d x p p p p d v p p v p u e u u p p p u u p p x u r u e e i u e u u u u u u u u p u p u u u u p u p p u t y p p p p p v p t i u p r u p u u u i p p p p p u d x p p p x p p p p v x x u u e q 1 e y p 3 % % > 4 , 9 0 j P #.X.X.Z P K W } @.0.0.3.3.3.s.6.s.s.*.%.*.;.%.' s.s.' s.+.%.%.%.*.*.*.>.%.+.$.$.#.#.#.%.#.' #. .#.$.#.&.$.&.%.*.*.6.6.$.%.%.$.%.%.%.*.-.*.%.%.%.>.1.8.6.s.s.6.6.s.s.6.s.s.s.s.*.s.s.' ' ' +.+.>.%.%.3.*.*.%.%.>.>.*.$.:.$.} Q { W L Z P ` / k 7 5 7 1 ; O ; < e p p v 1 < e u u u u u u u p v p p p v u v M v x c d p p r u p p u r e e u u p x x x p v n v v x d p x p p p x v v v p p x p p p p p p x x v p p u p p p v v p p p x p t p p r e e e p u u p t u p p p x p d v x v B B M n v v v p p u v v p 1 ; ; ; O % : 4 7 h L H z 0 h V Y W W | =.=.=.=.=.>.3.>.%.1.*.%.>.>.%.%.$.$.$.%.-.>.%.=.>.,.>.>.>.>.=.%.:.*.$.#.#.&.*.*.*.&.*.*.*.%.*.%.$.*.#.%.*.3.3.3.3.3.3.s.3.s.3.j.s.s.6.6.6.7.7.3.6.>.%.%.4.6.7.3.7.t.6.6.*.>.>.6.6.>.>.>.>.>.*.*.%.%.%.-.-.} $.R I 1.1...F f f 0 3 ",
"1 < < q p B ^ F u u u u p p p x p v v v v v x u x p p p p u p v v v B v p u t p r p p p p p p p e u e q e u u e u u t u u p p t p y t u r u u u p p p u u p p d p p v x p u r p u u u r u e u u u r r u u t x d p p p p p p x k v x p u e q q < e p y 1 % % , , 6 0 h j P ......J T Y Q } | 4.7.3.s.3.s.s.s.6.3.%.%.3.#.s.+.s.%.%.%.%.%.%.%.*.%.3.$.$.$.$.#.#.%.$.#.#.' #.$.%.#.*.*.*.*.*.1.*.*.*.*.%.%.%.$.%.$.3.$.$.>.,.>.,.6.s.6.7.7.s.6.s.s.j.s.s.6.s.*.s.+.' ' %.s.>.#.*.*.%.*.3.6.6.;.>.%.=.X.{ W I P H z P ) P k e 1 5 1 < ; > ; 1 p u u < e r e u u u e u p p d p u x n v b B n v p p u i u u u u u e e u M v p v v p v B M v v v p p t p p p x v v v p x p p p p p p p v v x p u r u p p p p u u p u r u p u u e e e r u u u u u p p t u u p v u d v v v v v v v p u t x v p 1 ; ; ; O % , 4 7 0 G J z j j H K W W | | $.$.=.$.>.,.,.>.6.,.>.>.>.%.$.%.$.=.:.>.%.$.$.:.,.>.%.>.>.%.=.-.%.$.$.$.*.*.*.$.&.%.*.$.$.*.*.$.*.%.%.*.3.*.3.%.3.3.3.s.t.t.s.t.6.s.6.s.s.7.6.6.3.>.3.3.3.4.3.7.6.6.3.3.>.3.6.3.>.>.>.>.*.%.%.$.%.$.%.$.} $.T P e.1.&.` S f y 8 ",
"; < < e v B ! ! p p p d p p u u p x v v v b n c v d u p p u p v n B B n k p u u u u u u t u u p u e e e e e e e u u r u y t p p p p p t t u u p r u p p p p x c x k p c u p p v u u e e e r u r e u t u u u u u p x d x x v c v v x u u e q q < u y e 1 # % , 4 8 s j j P ..} ' U E E } } } -.,.6.s.6.3.6.3.3.*.3.%.s.;.%.%.+.%.%.%.%.%.$.*.%.%.%.#.+.#.$.+.+.$.%.#.#.#.$.$.%.&.*.*.*.>.*.*.*.$.*.*.$.$.$.@.+.+.>.$.$.3.6.>.,.8.s.6.s.s.s.3.6.s.6.t.s.s.s.s.%.+.E ' %.%.>.%.>.*.*.*.6.6.>.>.>.*.=.=.} { { K m z L L L p 8 , 1 4 1 ; < > < u 1 1 < u p p p v p e p u p p p u p v M B B M v d u u u e e e e q e i k _ B p v n x M B n v x x p p u p u p d v n v p x d x p p p p p u p p p p t u p u p r u u i u e p u u e e q e e p u u e r u p p p u p x u u d v v v v v v p u u p v p w ; ; ; O % , 5 7 9 z z G j j H K W W | | $.=.=.=.>.6.6.,.4.3.>.>.%.@.X.%.$.%.-.%.$.$.%.>.>.-.%.:.>.>.-.-.*.&.$.*.&.*.*.$.$.$.$.$.&.*.$.#.#.#.' *.3.*.%.3.3.t.s.3.3.3.6.3.s.6.6.s.s.j.s.s.s.3.%.3.3.3.3.3.6.3.3.*.>.>.3.6.3.,.>.>.>.>.%.%.%.=.$.$.E $.P T *.1.&.` D f s a ",
"; > 1 e p n B B p p x v v u r u u p p p p v v v M v k x p p v n v x v p p p u u e e u u r u e u u u t e e u e e r e u e u u t u p u r u u p p p u u p p p p x x x p p p p p p p t u i u u r p p u u p u u u u u p x x v v v n v M p u e e w q 1 u r r < % ; 4 4 6 h j l ` &.&.#.H K K } @.} >.5.s.7.6.*.3.3.3.3.%.s.%.%.%.%.%.+.%.%.%.%.*.*.3.6.$.@.@.$.$.+.' +.#.#.+.#.#.#.#.#.#.&.*.*.*.*.*.$.#.#.+.' +.#.$.$.*.| | >.7.,.>.8.s.3.7.s.s.3.3.t.s.j.j.s.s.6.%.+.E +.*.s.%.%.3.3.6.>.>.,.6.3.3.*.$.X.$.} E J Z s b m B h 4 , 1 5 < @ ; ; 1 u e u 1 u p p p x p e d p u u u u p d p p v v v p p p u r e u 1 1 u k p ^ B u x v p v v v v p v v p p v p p p x v v k p c d c x p p u u p p p t u u g x p p u u p p u t u u e e q e e u u e e r u u t p p c v u p v v v v v v v p t u p v p e > - ; O * 4 4 4 9 z H H 0 h H K } | | =.-.-.-.-.>.3.7.4.>.>.>.>.=.$.%.>.=.-.%.$.%.>.-.-.%.:.%.=.>.>.>.>.*.*.*.*.*.*.*.$.$.$.*.*.*.*.$...#.' #.%.3.%.3.3.t.3.t.3.3.s.s.s.s.6.s.s.j.s.t.s.4.3.3.3.;.%.3.3.3.3.>.>.>.6.6.6.6.6.4.,.>.:.=.-.-.-.%.$.{ $.R R O.e.*.` f l a 3 ",
"< < < 1 u v B ! u p v B n p u u x x d p p v x p v x p p p u u v d p u u p p e 7 e e r u u e e u t u p r e e e 1 e e u r u u u u u u p u p p p x r p p p p p d x x k p p p v v p p p u e u u u p p p u u r t r t d p p x v v v v M x p u e 7 q 1 u u r < % > , 7 6 h j l R &.*...V K K } $.+.,.7.7.s.s.6.s.3.s.t.%.%.%.s.+.s.+.+.#.#.%.%.%.3.3.3.$.@.@.$.$.' +.$.#.#.+.' #.$.$.#.#.$.*.*.*.*.#.#.%.%.+.+.+.+.$.%.$.| | %.>.*.*.,.7.6.6.3.3.6.s.s.s.6.*.s.s.j.s.#.' +.3.3.3.*.6.3.6.>.%.%.*.>.*.*.$.X.$.X.` J l s m m m k 8 , 1 4 < ; > < e p u p 1 e p p p p i u c u t p p u u p p x x v v p p p p u u r u e p v u b x u p x p v v p p x p v v x v v v p x v v x p v x x v g p p p p p p p p p p p d p t u p u r u r r e e e e u r e e u p u u u d p p p p p v v p x v v p p r u p v u e > ; = ; 4 4 5 7 a H I I j h V K W | =.=.-.-.>.-.>.3.6.6.>.>.>.,.,.>.,.,.>.>.>.%.-.>.,.:.%.-.:.%.>.>.:.=.&.$.*.%.*.$.$.#.&.*.*.*.>.*.*.#.%.#.#.3.3.3.3.t.t.t.s.3.3.s.t.s.j.s.s.6.s.s.7.6.7.3.3.%.3.>.%.3.,.>.1.>.>.6.3.3.6.6.,.>.-.>.%.%.%.%.%.%.} =.` } *.j.i. .A A C 3 ",
"< < > < e v B ^ u p v n n p p p d x x p p v d x p u u t r e u p p u p p p u u e e e r i u e e e e u e e e u e e 1 e u t r e e u r u u p p p p p u p p p p p x p u p v p p v v p p p u e e u u t p p u p u u u u x p d x x v v M M x p p u u 7 q e r e < > > 4 4 7 j l l T &.&...K K Y @.=.} -.,.3.s.s.7.s.s.7.3.%.%.%.%.%.%.%.s.+.#.#.#.%.%.>.3.%.$.@.$.@.Q +.$.$.$.#.#.$.$.$.$.$.*.6.6.*.#.#.#.%.%.$.+.#.+.$.$.#.#.$.%.%.>.,.6.6.7.3.7.3.t.t.s.6.6.s.s.6.6.%.+.' %.s.%.*.*.3.*.>.>.%.%.%.%.*.*.$.$.%.| R H l s H m m v r , 4 7 1 ; < < 3 p u p 1 3 t p p r u p p u t p p u p d v v v n n x u p v p u u u e u u p p p x v v v n d x x x k p x x x p p v x v x p p p p x p d p p k p u u p p p u p p u u e u u u u u e e e r r u e e e t p u u u p u u p t u x p p x d x p u u r c p p u < ; - > 4 5 7 7 h H I L l H I R W | | =.=.-.-.-.>.>.1.,.>.>.,.7.7.6.,.6.4.6.,.>.%.>.>.>.-.>.=.%.%.>.-.%.$.%.$.&.$.#...#.$.*.*.*.*.*.*.*.*.#.*.%.3.%.3.3.3.t.3.3.%.3.3.s.s.s.6.s.3.s.3.3.3.;.%.3.3.%.>.3.>.>.,.>.>.6.4.6.,.>.>.>.%.%.%.-.>.=.-.%.} :.R ` t.p.r...T A f 8 ",
"; , < q r n ! B r u x v d p u p t u p p x n v p u u p p p u u p u u p u r u e e e e u u u e 7 u w e e e r u u e 1 e u u e 1 w u u u p u u p t r u p p p p p u p u p v p p p x p d v u r e u p p v p k p p p v v p x x x v v n v M v x p u u q q 7 e e > % > 4 4 6 h j l ` *.*.&.K R W $.=.@.:.4.6.s.j.j.j.s.s.3.s.s.s.%.%.%.+.%.%.%.%.%.%.%.>.*.3.$.@.@.+.E +.%.#.#. .#.#.#.#. .#.$.*.*.*.*.*.*.#.%.$.$.%.$.%.*.} $.%.%.>.6.8.t.s.s.s.3.s.3.3.t.s.s.s.*.*.s.#.+.+.%.+.%.*.*.%.#.%.-.>.%.$.$.%.%.&.=.=.X.T H l j m L m k 7 1 , 4 < = ; > e p u p q e t v x u i d r u p d p i p v p u u v v k p p k u u t u e 1 e x u p v v n M v x v v v x p p c p p p p v v v p p p v p x x x d v x u p p d p u p p u e 1 r t u u u e e u u u t u e e u p u p v k u p p p p v p p p x x u u e u x x p r < = - ; 4 7 4 4 h H G z 0 G K R W | =.=.@.=.-.-.%.,.4.,.1.,.1.8.8.6.>.,.1.8.6.>.$.$.-.-.>.>.>.%.%.:.>.$.*.*.*.&.$.$.#.$.$.&.*.$.$.*.*.*.*.3.%.%.%.%.%.3.3.3.3.3.3.3.t.3.6.6.s.6.s.s.s.s.%.#.%.;.3.;.;.;.>.>.>.>.>.>.3.3.,.,.>.>.>.=.-.-.1.>.>.=.} X.K P <.&.#.] D C s 8 ",
"; ; 1 < u v v M p u u p p v p p u u u u p p t u u p p e u g p e p p p p p u u u e e e e e e u u t r e q e q q e 1 e u i i u u u r e 7 u y t u u u k p u u u p p u p p u p v v x v x p p p u d v v B B v p p p p v v v x v v n v x M x p u e q 1 4 e e 1 > > 4 7 8 a a S X.&.*.&.K R W } @.@.-.4.s.s.j.t.s.j.j.f.3.4.4.3.%.$.$.@.$.$.%.%.>.>.>.%.$.@.@.@.+.E ' +...#.$.#.#.#.#.%.#.$.&.*.*.#.#.$.$.-.>.>.-.$.$.-.%.$.$.@.$.%.,.8.t.s.3.3.3.s.s.s.7.s.8.4.s.s.%.+.-.>.-.-.$.$.@.$.=.%.=.>.>.$.$.%.$.=.$.} { K S l S m k y 7 2 , , - - = > q p p u q u u p p p u t u p p u u i u d v x x v p u u e p u e q 3 e u p p v v d x v v v v x v p v p p u n p u p x x x d x p p p x u u p x x k p u u p d p p p u u r e e u e 1 e q 1 e u t p i u u r i u v u u p p u p k u u v v p p u e e x x e < > ; > 4 5 4 4 h L H G j G J K W @.=.=.>.>.>.%.=.>.>.>.6.7.7.7.7.7.7.2.>.4.6.4.-.%.=.=.$.%.>.-.%.%.%.%.#.$.$.&.$.$.#.$.#.*.*.*.*.*.*.*.3.#.*.3.*.3.3.3.3.t.s.t.3.3.3.s.s.6.6.s.6.s.s.6.3.%.%.3.4.%.%.3.6.6.>.,.7.8.1.,.3.6.,.>.-.-.-.-.,.%.,.$.#.#.` T O.O.] D D A r 3 ",
"; ; 1 1 u v n B u u u r p v v p p p d x u u u u u p u u u p u e y p p p p u u r u e u r e u e e u u e e q e e e u u u r u e r i x u u u p u p u u x v p p p p p x v v x k v v v b v p p p p x v v M b x p p p p c v v v v v v v x x x u e e w 1 4 t 7 1 > > 4 4 8 s s A ' &.&.*.W W } | $.@.=.-.3.s.s.s.7.s.s.3.3.4.4.4.3.;.;.%.$.$.%.$.%.>.>.%.$.@.@.$.$.+.' +.#.#.$.$.#.$.$.$.$.*.*.1.*.$.$.*.-.-.:.-.%.$.$.$.%.%.%.$.$.%.>.>.3.3.6.>.3.3.3.3.t.s.8.;.;.;.+.E -.>.>.>.=.$.%.%.%.$.-.>.-.| } @.:.=.X.} R P H l m S b d 7 , < : ; ; = ; q u p p 7 u p u p p p u u u u u u r p c x d p p p p p u n x u e e u u u u p x p x n b v v c p x k v v x n x x d p p p v d u i u t u e u p p p u e e u u p u u u u r e w e e q e e q e u r e r u u e e u p p p p p p u p p k v v c u u r r x p e < ; O ; 4 4 * 4 a H J H z H J Y W | | | $.=.%.$.$.>.>.:.7.6.6.6.6.6.,.>.>.4.4.:.%.=.:.%.@.@.$.$.@.@.@.@.#.#.#.$.$.#.#. .$.$.*.*.*.*.*.*.3.%.*.*.*.3.3.*.3.3.t.3.3.3.3.3.6.s.j.6.s.6.*.s.4.%.%.;.3.;.%.3.,.>.>.>.>.,.3.6.,.>.>.>.-.$.$.$.*.%.*.#.#.$.T T ..#...D A 0 6 2 ",
"; = 1 1 r M B B u u p p x p u p x p d p p u t r p u r e r i r u u p p p p u u u u u u t u r e e t r e e e e u r u u i u u u r u p u u u u u u u u p v p p u p k v v v x x v v v B v p p p x x v n M n x p u p x x v v v v v v v x x p u e e q 1 e t e > % > 1 5 8 l l z ` &.1.1.I { } $.$.@.=.=.%.7.s.s.t.t.6.>.3.3.3.4.3.;.3.3.$.=.%.$.%.*.-.%.$.@.@.$.%.@.@.@.#.} #.#.$.#.#.#.$.*.>.>.&.$.&.&.>.-.%.%.%.%.$.$.%.%.-.*.%.%.$.$.3.s.4.%.3.s.3.s.7.s.4.3.3.;.+.Q =.>.:.>.%.$.$.-.%.$.:.>.>.+.} | 1.=.| { I P S j m m n k r , ; ; = ; O ; q p k p 1 u p p p k p p u u p p u u p x x x x p p v v v B x i e u u e e t u p x x v n v d x x x x c v v v v v v x p p v v x p p p r u u p u p u u e r u u u p t u u r u e e e e e 1 w r u r u u u r u u p p u p p p p p p x x v p i u e p M n r 1 ; = % > 7 5 5 h G L L j j H Y | =.=.| >.>.>.-.%.>.>.%.3.2.4.4.4.>.:.-.=.:.>.-.%.$.=.%.$.$.$.@.@.#.@.$.#.#.#.#.#.#.+.' #.$.$.$.%.*.1.6.3.%.*.*.#.%.3.%.3.s.s.3.s.3.s.3.s.s.s.s.s.*.s.6.t.;.%.;.3.>.%.3.>.>.6.,.,.,.4.6.>.>.>.*.=.%.$.$.$.#.%.+...#.T T ] O.#./ f 0 6 2 ",
"; O < 1 u B B ! t p p p p p u r i p p p p p u p p t e u u u u u p u p p p u u r p u p t u u e e u u e e e e u u t t u e e r p p t u e u i r r p u p p v v v c p d p p p c v v v B v p p x v v v n M n v p p p p v v v p x v v d x x u u e w q q 7 u e , # ; 4 7 8 C z l ) 1.6.2.K W | =.=.=.=.=.%.>.3.s.s.s.s.3.;.4.6.3.;.;.%.;.=.-.%.$.$.%.%.$.@.$.$.%.$.@.@.+.' } } #.$.$.#...$.&.*.*.$.#.$.*.%.$.@.$.$.=.:.%.$.-.>.,.>.>.=.*.3.s.s.>.3.3.3.3.4.t.8.4.4.;.$.%.%.>.>.-.$.@.$.-.%.$.$.>.>.$.@.$.:.$.| W I J z 0 k m b k r , : : ; = ; ; 1 u x p 3 u t u u p p u e u p k v p p p v M v d p n B B b v t u r p u e u p v v v v v v v v d x p x p p v x v n v p p v n v v v v p p x u u u u r u t u u r p t u i u u e e u e e e e u u u u u u t p u p p p p p p p p p p p p p i e r x B M u e < O ; > 7 4 5 h G L I j j J W | =.=.=.>.,.,.-.:.>.>.%.6.4.,.>.:.-.-.=.%.>.>.%.$.%.%.%.%.-.%.$.$.$.%.%.#.#.#.} ' } } } #.$.&.#.*.*.6.7.6.%.*.*.%.%.*.%.3.3.3.3.3.s.t.3.*.s.t.s.s.s.3.6.8.;.$.%.;.>.>.;.,.,.3.6.,.6.4.6.%.%.>.*.=.%.$.$.%.+.%.} | #.E T ' #.../ A 0 6 2 ",
"= O < 1 i B B ^ r p u p p p u t u i u p u p p p u u e u u r e u u u p p u u u t u r t t u r u u p r u e e e u u y u r e e e i u u t u p p u p v x x p x B B v p x v x v v M v B M v p v v B v v v v M v v p p p p v v p x v x p c x p e e e 1 w e 7 4 < % > 4 7 9 l j j ) 2.i.8.K Q | =.-.-.=.=.;.%.;.4.s.j.f.7.4.7.7.4.3.;.%.%.%.=.%.$.$.%.%.@.+.$.$.$.$.@.+.} #.#.#.$.*.*.&.#.#.$.*.*.$.$.&.>.$.$.| $.%.>.=.%.%.>.>.2.,.4.6.6.s.s.6.3.3.7.3.3.4.8.8.7.8.%.@.%.1.,.>.%.X.| $.-.%.$.$.%.%.$.$.%.=.X.| W J J j 9 k z b k r : : : ; = ; , e p p k e e u u t p p u u u p u p p p p d M v x x B B N B M d p p x p p p d v v v v v p v x p p p p p p v v v v v v p v c x p v k p p p u t r u u t u t u y u r u u i u 1 u u e e e e u e e e e r u u u x x d x x v x v v v n v v x u u p v v u q ; O O & 4 5 5 a G L I j J W | @.=.=.| %.>.>.=.>.>.,.>.6.,.>.>.-.-.-.-.%.=.:.$.$.%.%.%.$.$.%.%.$.$.$.$.} } #.' } +.+.} #.$.#.#.%.*.7.e.*.%.*.3.%.*.3.%.%.3.3.3.*.s.%.s.%.s.*.s.6.s.*.s.8.*.%.%.3.-.-.3.6.3.>.,.,.6.6.,.>.>.>.>.%.%.$.$.%.$.%.| ..#.D D / ' ] D C r 2 & ",
"; O 1 1 r B B ^ u t p p u p u u u p p p p p p u p r e e u i i u p p p p p p p u u u r u t p r u u u u e e e u r p u u u e r u u p u r p u u p x v d x B B B n v v v v v v x v n n x x n B B B B B v v B M d p u c v v x x v d v x p u u e e 1 1 1 e e , % > 4 7 0 l s s  .r.p.y.W } $.=.-.=.=.$.;.%.%.%.7.f.f.s.8.8.8.8.4.3.;.-.%.>.%.$.$.$.@.+.$.$.$.@.@.$.+.' #.#.#.$.$.%.$.#.#.*.*.*.%.%.*.>.%.$.$.$.=.>.>.-.,.,.4.6.1.6.8.0.7.s.7.3.4.3.3.3.4.7.7.7.4.@.E %.4.,.>.%.$.$.$.%.-.$.$.@.$.@.$.$.$.$.$.{ R D j 9 z m b k 3 , @ @ = ; > < e u c x u u p p p p p p u i r w e u d v p p x x x v N B B M x p u u p t u p p v p v v c p p u u p p x p v v p v v x p p k p p p p u u u u t e u e u u u e u e e u u u e 1 e e e q e w e w e w e u u r u x d c x d v v v v v v n v p u 3 p n x e 1 ; O O % 4 4 5 h H L ) j J Q | @.=.=.>.%.:.>.>.3.6.6.4.4.,.>.-.-.-.-.>.%.-.-.=.%.=.%.$.@.$.%.%.$.$.@.$.#.' ' ' ' ' } } #.#.$.&.*.6.7.r.*.%.3.6.3.*.3.%.3.3.3.3.s.s.s.s.*.%.%.s.s.6.s.*.4.;.%.;.;.;.3.3.6.>.>.>.6.7.3.,.6.,.,.>.:.$.$.$.>.$.>.+.#.' / D ' ' T F A 0 6 & ",
"; O 1 1 u B B ^ u u p p p u p p p d x p k p p u u p u e r u v u p u p p p p p i u u u u p p p u p u r e e e u u u u p p u u u u p t u u p u p x v v v B B B n n v x x v v x x v v v M B B B B B N v b M v x p p x v v x p v c p v x u p u 1 q 1 4 e 4 < % > , 3 a j l l { 7.a.a.W } $.=.=.-.-.-.%.%.%.%.3.3.7.7.;.3.6.4.3.-.-.>.%.>.=.%.%.$.@.Q @.$.$.@.@.$.@.+.} +.#.#.#.#.#.#.&.>.>.*.$.%.>.>.%.>.>.>.>.>.,.3.6.8.6.7.,.>.,.,.3.4.3.%.3.3.%.3.7.7.4.7.;.Q Q -.8.,.>.$.%.%.%.%.-.-.$.$.$.@.+.} X.$.$.} K S j a m m b g 3 : - @ = ; , 1 u x v v e u p x v d x u p u u e u u x n p u p x x p v F n v v p u u u p u p p p x v v x k p p u i p d p p x g v p u u u p p p p p p u p p u u e e e e e e e q e e e e e e e e e q e q q u u e r u u t u v v x p x v v v v x v p p p e q v B v u q > O O % , 4 4 h G P R h H Y | =.=.,.2.,.6.6.6.3.6.6.,.>.-.>.>.-.:.>.%.-.>.>.-.>.>.=.$.@.$.$.$.%.$.%.%.#.#...' } ' ' ' ' #.%.%.*.6.6.6.3.*.3.6.*.3.3.3.%.%.%.3.%.*.s.#.%.%.#.*.#.s.*.s.7.4.3.3.3.%.3.3.3.>.>.,.3.2.3.,.6.6.3.>.-.%.%.$.%.$.%.| +.+./ D ' #.] T A f 6 & ",
"; ; < 1 u M B F t u p p u u p d p p x x c c x k u p u 7 u p v u p p k p p p p p r u u p p p u u p u i u u e u u r u p p p u r t y u p x d x v B n M B B B v B B b x v M B b B B v n B B B M n M ! B n M n v v p p v v d p x x x v p p u u e 1 1 4 7 e 1 ; > < 1 8 l l C } 2.i.a.R  .$.$.$.-.3.3.%.%.%.%.%.%.%.;.+.+.%.%.%.%.-.%.%.-.:.%.$.$.@.E +.$.$.@.@.$.$.@.} #.$.#.#.#.$.%.$.*.>.*...$.$.$.$.-.,.,.4.6.6.8.y.y.8.6.>.%.%.$.%.;.;.%.%.;.%.%.s.7.7.7.;.+.@.0.6.>.$.$.$.%.=.%.=.%.%.%.$.%.$.} X.$.X.E J Z j d z z k y e : : : = ; < 1 u p v x e r x p x c k p u p p p d x x x v p p c x y x B M B B v v p v n p v v p p v d x v v p p p p x p p v v d u 1 e u u u u u p p p v v p r e e e e e e e e e r e e e 7 e e w e e r e r e u e e r u u v v x u p v n v v p p p p p p u v B x e 1 ; O O # , * 4 h H I { H H W Q =.>.,.>.7.7.8.4.,.,.>.$.$.%.-.:.>.>.=.%.-.>.:.>.>.1.%.@.$.$.@.$.+.$.%.%.$.$.$.+.+.' } ' #.$.*.*.*.6.6.6.3.*.3.3.*.3.3.3.#.%.%.%.#.%.%.+.#.s.s.*.*.*.*.s.4.4.8.5.3.3.-.3.,.,.3.6.,.4.4.6.6.,.>.>.=.>.>.1.%.$.%.| +.#.D D ' ] ' D A f 6 + ",
"O < < 1 q u B v u u e t p r u p r u p p d g p p r u p p p v p u g v v u u p p u u u t u p v p p u t u r p u p p 3 u u p u e u u u p v n v v B B B B B B B B B v n B v M B B B N B B B B F B B B B M B M x x d c v v p x c p d x p p u u t e 1 1 3 w 1 < > ; 1 e 9 9 j k J ` y.:.| | $.%.:.:.:.=.$.$.$.-.=.@.| +.$.$.%.%.%.-.%.%.$.$.*.*.*.$.+.+.} @.%.$.=.-.=.+.@.@.@.@.-.=.=.@.$.-.-.=.=.=.1.,.4.4.4.5.5.8.8.8.5.s.8.3.%.%.%.%.+.%.%.;.3.3.>.>.,.7.4.=.} =.3.4.6.=.$.=.-.=.=.-.,.-.-.-.-.=.@.@.} =.=.{ P G h 0 A b b v r : - - O < > < q u p p e u d c x p x v u p u p p u p t x p v n v p p n B B B B n v v n d c x p x x p p x p p p d x x p v p p u 7 e e u u u t p x x p d x p u u u u e r e u r u e u u d e r u u r u u p e e u i p p u r c x d x p p p p x p d x x v i u v v p u 1 ; O   % 1 1 7 y b ` P F R ..$.-.3.5.0.u.y.u.0.0.,.=.=.=.=.;.-.-.=.=.=.$.;.;.%.;.*.>.%.%.;.>.%.$.;.%.%.$.@.+.} } } +.} @.$.$.$.*.6.6.7.t.*.*.3.3.3.*.%.#.%.%.#.%.s.#.+.+.;.;.;.@.;.;.s.;.5.8.s.9.4.3.;.-.3.5.4.4.4.3.-.3.3.3.3.;.%.%.*.=.=.=.=.=.W K H =.=.X.L n d 2 $ ",
"= > < 1 1 u B v u u u u p p t u u u u u p u u p p p p p p v x x p p p p p d u u u u r u u p p u u t u e u u u u u u p p r u p p p x v B B B B ! B B B B B B B B M v B v b B ! N ! B B B B B n B B B B B v v x c p p x d p p p p p p u u r q 1 < e e e < ; > 1 3 9 0 k j H R ,...{ { ..$.%.=.$.$.@.@.$.-.%.$.$.$.$.$.$.@.$.@.$.$.X.$.&.*.$.#.+.} @.%.$.=.=.-.=.=.=.=.@.@.@.=.=.-.=.1.,.4.,.4.8.u.q.0.5.s.8.5.4.%.%.%.%.%.%.#.+.+.+.%.%.%.%.>.>.;.,.7.4.=.@.=.,.,.>.$.$.-.-.=.-.4.4.>.-.,.,.;.-.=.@.=.| W H z 0 0 B z l d r 3 & - O < > < 1 e p u u p p g p p p p p p p p p p u u d x v x x B B B v n M v x p x p x p p x p d x p p p p p u p p p p u t u e e r u p p p d p u p p p u u p p p u p u p p u u p u p u u t t u u u u e e u u u p p t p p p p p u p p p u p i p u r e n v p u q > = o ; 5 3 7 9 k I S S R #.%.-.3.5.0.7.0.0.7.,.,.-.=.=.=.-.-.;.-.-.;.;.;.3.3.3.4.4.3.;.3.;.>.3.4.4.3.-.%.@.@.+.+.@.@.$.+.@.$.;.6.4.4.t.*.3.3.3.3.3.%.+.#.%.%.%.%.s.%.@.%.%.%.%.@.;.;.;.;.5.s.8.4.3.;.;.;.5.5.5.4.4.3.3.;.%.3.;.%.%.*.$.@.| @.| W K H } O.O.` m h 7 $ ",
"- ; ; 1 3 u n p p p u p x u r e p p p p p p p p p p p p u c v d v x p p v v k i r u u u p x p u p p p p p p p t u p d p p u p p p x v b B B B ! B B B B B B B B v v B B M F ! B ! B B B ! N B B B B ! B b v v v v v v c x x p p i u u u e 1 1 < e e u 1 < > 1 3 8 0 j j G I <.R ` } | $.X.$.X.X.Q } } @.@.} } +.$.$.$.$.$.@.@.@.$.$.%.*.$.#.#.#.@.@.+.} | @.@.@.@.@.@.@.+.$.;.;.7.7.0.0.7.0.0.u.q.8.4.4.;.;.$.+.+.+.E +.+.+.+.+.%.+.%.%.*.*.*.>.>.4.:.=.$.-.>.>.,.-.%.>.-.-.-.3.-.@.| $.$.@.@.| =...W K J l 0 0 B l d d r 3 - @ - ; ; 1 < q v u p u p p p u p p d x p p p p t u e p u e u v v t v M v v x d x v p p d x x c x v p p p p p p p p v u p u t u p x x p d p p p p u p u p p k x p u p p p v d x p t p u u e e e e e w e e u u p p u u p p p u p p x p p u p u p u q M M v u 1 < = O : 7 7 7 8 k I z S T { %.-.>.,.0.0.0.7.0.4.,.;.;.=.=.=.@.=.Q | | $.%.3.-.;.;.>.>.%.;.%.%.-.3.3.%.$.@.+.E Q E } } +.+.$.$.*.4.6.3.3.t.3.3.*.3.%.%.#.#.%.%.#.s.' %.%.%.;.;.;.%.;.;.>.8.8.8.8.8.5.-.%.;.;.;.;.4.5.4.3.3.>.;.>.%.%.%.=.=.=.| | W K H ` X.X.) A a 2 & ",
"; > - < q u B u p r t u u u u u p p p p p p p p p p t u u d p x v p p v v n p u p u t u p d p u d v v v x v d p p p p p p p p p p x x v B B B B B B B B B B B B B B v v M B B B B ! B B B B B B B B ! F N v v x x v p d p p p p u u p r e 7 1 < e e e 1 < < 1 e 7 0 j j G ` 2.K ` } { ..X.@.$.| @.@.$.@.$.@.+.@.$.$.$.+.} @.+.+.....#.#.#.#.} #.$.$.$.@.@.=.=.=.+.+.@.+.@.=.3.5.u.y.8.,.>.:.3.,.8.3.$.@.+.+.$.+.+.+.E ' +.+.#.' +.%.%.$.%.*.>.>.>.,.-.$.=.-.3.,.4.,.:.,.>.=.=.-.=.@.| @.$.$.$.=.} W J P J l 0 0 b b d y e 3 - o - = ; 1 > e B r u r p u t u p x p p p p u t r u p x v d x n b v v v v v v c v v p x p p v p x x c p x p x p p d v v p p u u u p p p p p p p p p p p p p p p u u p p p p p x p t p u e 1 e e e w u e r u u y p u u p t p u p p d d p p u u u r e n b v u q ; O o % 1 5 7 r m ` z S U | $.-.:.;.,.8.0.7.2.,.=.=.=.-.-.=.=.@.@.| @.$.%.3.3.>.3.;.*.3.4.3.3.3.4.>.%.>.%.@.} } +.+.+.+.+.#.$.6.7.6.>.3.3.t.%.#.3.3.%.%.#.#.%.%.%.+.#.;.-.$.-.%.;.%.%.3.8.s.4.4.0.7.>.%.;.;.-.;.4.5.4.3.3.>.3.>.%.$.%.@.@.@.| Q W K H O.&.X.P b 8 2 @ ",
"; ; ; < 1 u v u u r w e e e e u e u e e u t t p u u u u p p p p v p r u p p u e e e u e u t u r p v x p p p p u p u u t p p p u p p p v v v B v M n v n n n n B n M M v v B v v b M B B B B B B B B ! B M x x d p p p p p u u u i p r u q 1 1 1 1 e 1 1 < < 1 7 5 9 h h j K =.I E ` ` { | #.#...} ..| X.} } } { } { } { W { } } ' ' ..' ' ' } { +.$.X.| | $.$.+.Q } | | @.=.-.,.7.,.:.@.| | | $.-.=.+.Q +.+.@.@.+.' ' ' ' ' ' ' } } | | $.$.$.$.:.=.@.| @.=.,.>.,.,.,.,.:.=.$.=.=.| } | $.$.@.$.| K J K H j 0 9 B m b d r : % O - - ; 1 < w B u e u u t u u u r p p p p p u u i u u p n n v B ^ x p p p p g d x v v p v d x x d p p p p p p p p x p t u r e e e t u p p p p p p p t u u p t e 1 v p u u u p p p v u e 3 e e u e u r u u r u u u p p p u u p p p p u t u e e e q v v p t 1 ; O O % 1 7 8 r m { m D J ' $.=.=.=.=.1.:.:.-.=.=.@.| | Q Q Q Q | | =.+.$.%.$.$.@.@.+.%.%.%.%.%.*.%.$.%.$...} ' } | ..} } | $.>.1.*.&.#.3.3.%.' *.%.%.$.' +.%.%.+.' +.$.@.| | +.$.@.@.*.4.3.-.-.4.5.-.-.;.;.;.3.4.7.7.6.>.>.%.*.$.#.$.@.| | Q | W J H <.O.] L l y 2 + ",
"= ; ; < 1 e p 7 u e q e e e r t 7 q e e u u u r u e t p d p u u v p i u u u u u e e u e u u u e r u p u u p u u u u u p p u p p p u x x v v v v v x x v x v v v v v v x x v x x v v v v x B n n v v B v x p p p p u p u p p u r e e e e e 1 1 < e e e < ; ; > 1 9 6 h a j z W G P P R R ` ' ` ` P K R I T R R R R E R K K T R ` ` R ` ` ` ` ' } } { } } } +.} ' Q } Q Q Q } } | | | } Q W } } | +.Q Q E E E E T R R E R T R ' ' W W W { E ' Q } | } Q Q } | $.$.X.=.=.-.=.$.@.=.| } Q } } } } } } K J J H h 9 5 S S B k e : : % ; < < 1 ; q p q q r u u r e q e u u u p p p u u q e u p p e u v p p p p p p x p v x v p p p p u p u u u r p p p u u r e u e u u u u t u u u u u u r u u u u e e p p p t u u u p t u e q q e e r e e e u t u u u u u u u u u t p u p p r u e e w x v p u < ; O o % 5 7 r r l L z S J T { | | =.=.@.=.X.| | } } } Y W W Y Y Y W W E } } } ' } } } ' ' +.' +.+.#.} | } { T T R R E ' } { ..$.$.&.#.' %.%.' ' #.+.+.E E E +.' ' ' +.+.} Q Q Q Q } } +.$.@.+.$.>.-.=.-.-.;.=.*.3.4.6.4.6.>.>.%.$.$.%.Q | Q W { W K J &...` P M y 2 . ",
"O ; ; ; > < u 1 e 1 1 e q 1 e e e e e e e u u u e e e u u u e u p p u i u u e e e e u e e e u e u u r u t u u t e e e e u e e e u p d c x d p x d p p p p p u v x x d p p x d p p p x d p x v p x x c x u u e e u u u u t u u u e q e 1 w q 1 < e e q 1 ; ; > < 4 5 a g j 0 H h S S F D D J J D J K R K I E { ` P J P J L J P K T T P T T T R ' } | ..| | $.#.} Q W Y R R W W W I R R R E { } E R Y U Y R T U D J J T D D D T P K K I T R R E T { W E R R R E ` Q } X.@.} } } } X.} { } @.} ' } P P J l z j a 5 B A M d 3 3 ;   O < ; > < < e 1 e e e e q e 1 q u e u u t u u r r u u u u e e u u u r u p p p p p k p u p p u p u t t u u u u t u u u u e u u r e u u u t r e 3 u e e e r e e e u u r u e e u u 1 q q q w 1 q 4 w w q q e e q 3 r e u e e e r u u t p u u u r e p d x u < @ O o % , 3 8 8 y m l Z V S P W W K W } W { W W R K R Q W Y K K K K W E } { } ' } { } ' #.+.' ' #.#.#.} { W R R R ` R T R ' ' ' ' ' ' #.' ' ' ' ' ' T T T E D T ' ' T Q Q | Q Q @.} } E E } +.@.$.$.@.| @.@.@.#.%.*.>.6.6.*.%.$.#.#.#.W W W W W I I H O. .] L A y , + ",
"o O = ; = > e < q 1 1 1 q 1 < 1 q 1 q 1 1 1 q 3 e 1 1 w e r e u e q w r u 7 1 1 1 3 q 3 1 1 q < q e e e e u u r 1 q e e e 3 3 e r u x p u u p p u u u u r u u p p p u u u p p u u p p u u p p u p p p p r w e e e 3 e q 7 e e e q e e 1 e 1 1 1 q e q 1 < ; 1 1 5 5 a j j 9 G h z Z C z z z C l l S S A Z H H J H S Z Z z Z S S S S D S D D P P P P K K T R ` R K K H J K R R R K K K R W T T L Y K J J J T P U D D D A D A C S J J K K K K K K K R R R K K U J W { } { W Y R R K K J K K K J D H H G h a h h 9 b b f y 3 : % X   > = = < 1 3 < q 3 e e 1 1 1 u 1 q 3 e e r e u e u u 1 3 u u 1 u e q e u u i u p u p u t p u u u p p r u u u p u p u e 7 w q e e e r u u u e e e 3 1 q q e 1 1 < 1 e u e e 7 u 1 e u r e 1 1 1 1 1 1 1 < 1 1 1 1 1 3 q 1 1 e u e u i u r e q e p v x u 1 ; O O @ : , r 7 7 k k s h j Z V G K K K P J H H H H z z G z j j j G J Z D D Z Z J J P D D D D D P T L R T P J J D J P J P R R T D / ` ' ' T T ' T T D U T T D D E ' D U Y Q } Q Q E E E E +.$.-.@.} Q Y W Q Q +.$.*.*.*.%.#.#.+.' ' +.K K K K I K G z O...' F b 8 : & ",
"O   = ; O ; 1 < 1 1 1 < < < 1 1 < 1 e 1 3 q e 1 q 7 q q e q e 7 < 1 1 e e e < , < 1 q 4 1 1 e e 1 u u d u u r e u u g v p p x v B B B B n v v B x x d x p p u r e e u e u r e e u u u p u t r u r u r e e e e 7 e 7 q q q 3 e q e e 1 1 < 1 < 1 1 1 1 < ; ; > < * 5 8 y y a d h k z k j l z l l z m z m m z m S H z h k l l l z C A D A A A D D D D T D D T ` D J H P R { ..} ' X.&.*.*.1.6.2.*.X.1.X.2.:.I ..{ R ) I ) / S A C S Z Z D J F J P S J P P P D D D K P K I P R ) T T T D Z S D D Z H j j l k d d y l k p t 4 > % # O = = ; ; ; < < 1 1 < < < 1 1 3 e 3 q e 1 e e 7 e e 1 e e e e e e e e e e u r u u u p u e u u r e u p p p x d p v n B b M v v x d v B M p u u p t p p u e e 1 1 1 e r e w e 1 e 1 e e e q 1 < < 1 < 1 < 1 1 1 1 1 1 1 1 1 < e e u e q q 1 q e 1 u r u e < =     @ , 2 7 r y f k 0 j V G G V G G V G G z z G k j j j 0 j j h 0 G j l Z A S S S H z J L S C S F S P T ` / D / ' '  ...&.&.&.&.1.1.7.1.1.2.>.X.' } ' ' { ' ` T T J T T T Y E { { K { K R X.$.{ E } Y Q Q W W } | | #. .#.' D T ' / Z Z S S H H H H  . ._ L k r ; % ",
"  O = ; O ; < ; 1 1 1 e q e u e e u i r u p p p u u r u u r u u u u u t p u u e e e e e q 3 w e u p v n n v p p p x v v v n B B B B B B B v v B v v x x p i u u e r p x x v x x v v v v v v v x x x x p t p u u u u u p x x p e u e e e q 1 < 1 e 1 7 < ; ; ; < > 4 7 9 r r a a m H L I P R T P I I )  . . . . .) P H H L L L H F D T ` / ' ' ' O.&.&.#.' #.&.#.=.X.$.$.&.<.*.*.&.*.1.2.2.2.2.*.1.0.<.y.2...<.O.X...{ { ` D F P J J T } X.&.$.#.$.#.#.#.....#...$.:.&.*.$.&.#.&.....} ' } ' ' ` G G z l h s y y k k t r 4 > # O O O ; = ; > < < 1 q e u p t u u u u u u u r u p u p u p x d x p p p v v x x v v d v v u t p x x v v n M B M M n B B B B M v v v p x v v v p p x p p u u e w q 1 1 7 u p p x c p x v p p p u e e e e e e e q e w e e e e u u u t e e e 3 e 1 1 1 u u e e < ; = o @ & 2 8 8 y d l V G K K K K W I J H H P K I P P H G G L H G V H A F R R ) R `  . .X...P P ` ..O...&.&.*.*.&.&.&.&.&.*.*.&.1.1.1.1.*.1.r.e.*.&.*.#.$.$.#...{ ' ' R } $.:.7.7.1.$.$.%.>.6.>.$.=.6.;.,.4.0.2.y.a.y.e.7.e.6.*.6.1.%.S Z H H S m z l  ._ I G k r : + ",
"O O O ; O = ; - > < 1 e e e e e q e u u t p p p u u p p t p u i p u p u p u u u k u u u u u u p u p p p p p p u u u p p p v n B n M B B n x x x u p u r r e q w e u u v x v x x v v d c x v v v x n v x u u p p v u u k B n x e u u e e q 1 < > 1 e q 1 ; ; ; ; % * 4 7 8 8 y y j H ] ] ] _ ' ` _ `  .X.O.O....... . .` ' ] ` ` ] '  ...O.&.&.&.e.1.1.&.&.&.e.&.e.1.<.:.1.1.e.6...#.&.&.>.e.2.1.<.2.X.1.O.` O.X. .) P G A b A A S I ..*.1.r.r.>.&.&.....&.&.*.&.&.&.&.X.&.X.#.X.....' '  ...R D P H H z k p y 8 p p t 7 4 ; # # O = ; ; ; ; > < < 1 e u u u u u r u p t p i u u u p d x x x v v v v n v v v n n v n v p p x n n v n B b n v n v n v M n n v n B B n M n v d p u p u u e < 1 1 1 1 e u p v n n v v x p u p u u r t u u u u u r e u e u u u u u p u u u p u u e q u u e 1 < ; O o @ & 2 7 9 y d k j G K K W  .W { H J J P P I ` ` K P P I W L K K ) `  . .....O.O.&.&.&. .` ..&.&.&.&.&.*.*.$.&.&.#.&.#.&.&.1.1.*.&.&.&.1.&...` ` R T ` P P P P P R ..*.6.y.y.2.*.r.r.r.6.1.>.1.1.0.y.y.y.i.i.y.0.e.7.1.1.*.t.r.......{ { P m l d _ ) L b p 5 % % ",
"=   O = O O ; O = ; < 1 1 1 1 1 3 q e 1 1 q u e e e u u u u u r e e 3 e q e 3 q e e e 1 1 1 q q e 1 1 q w r e 1 7 1 e e q e u p p p p x u e e e < 1 q 1 1 < < 1 < < e e e e e q e q 1 1 u p u i u p p u q w r u p u q e u p i e 1 q 1 1 1 < ; = 1 1 1 < ; - O = % & 4 4 8 r r r y G I ` P P ` ` I ) )  .] ] ) I  .] ) ) ) ) ( I ] ] ' ] ] ] ' ..#...] ' ` #.&.#.{ ` I I ` ' ' { P ) ` ` ..X.&.X.:.<. ...{ L I I L S l h a d a f a S ) ' ..&...` L D S D ` ..&.&.{ { { .. .' ..{ ` ` ` ) R ` D l G G z h d y 8 7 y r r 3 > # # # O O - - ; ; ; ; > 1 q e r e e 7 e e e e e e u u u t p p u u p x p p p p p p p p p p u u r u u p u u u u p u u u u r u u u p p p v x p p u u q < e 7 1 1 < > < < 1 q e u r p u u e e 3 e u r u e r u e e e 7 e e e e 4 e u e 7 1 q 3 e e e 1 , < e e e < ; ; O   @ & 2 6 r y y h 9 G G K G K G I H H H G H G G H J H H L L L L I ) ` ] ] ` ]  . .]  .] ` / / / ` ` ) ) / / ` / / T / / ` ] ] ] ' &.O.O.#...T J J S S A S Z Z S J P ` ' } ..} ` R Z Z S J ..:.1.*.u.y.y.q.0.7.1.$.&.&.&.#.&.e.&./ z Z S G L m b l L H b k 8 , % % ",
"=   O = O O O = ; = > ; < < < < 1 q 1 < < 1 1 < , < < 1 1 1 < < < < < > < < > ; < < < < < > < > < < > < 1 1 1 < 1 1 < < 1 1 q q 1 1 q q 1 < ; > ; > ; ; - - ; < , , < > < > > > ; @ ; > 1 e 1 1 1 q e < > > < 1 e 1 < < 1 3 q 1 < < < < > ; ; = > < > ; = O = O % % , , 5 7 8 8 t z F F A m F L F L L L ( L L B G m m m B m B z A D D F D A A F F A A A A D D A S S S D J L T P F D F S J J P H z G j z h a a 9 k d y y r 3 r 3 2 j D S Z S D C l s a j D P T D F H J L P J D D F S C C Z S V a 9 9 8 y r r 7 7 8 4 4 > % # #     O O = = O = O > < 1 1 w q 1 q q 1 q e 3 e q e 3 e u e w e e u u u e e e q q 3 1 q 1 e q 1 q q q q e q e e 1 w e q q q 1 1 1 3 1 1 < < < 1 > ; ; ; > < ; ; ; < < < < < < > < 1 < < , 1 e r e < < < < 1 < < < < 1 < < < 1 1 < , > < < < > < < > < < < , = O O O % & 2 7 r y y y a G G H H H G G G G z k k k k k k k k h G z z G A A S A A M S A M S S F A A A b F D D A D F D F A D A A A f l l f l C A l s a s C l l j l l C Z J D Z Z C Z V j Z Z S J ..2.2.&.*.:.*.%.$.X.} P T T T D D ' T V y y y a f d d k k d r 8 , % % o ",
"= o ; 1 ; O = = @ = O - O ; ; ; - ; ; ; @ ; ; - = O = = O ; O O O @ O O O ; ; O = ; ; ; < ; = = > ; ; ; ; < ; ; < < ; > < > > < > ; ; > > - O ; O O O O O O O O ; = = # O = O = = = O ; ; ; = = O ; ; - O O ; O O O ; ; > ; ; ; ; < ; ; ; ; ; ; = = ; = O     O % % % : , 1 1 5 4 8 a a 8 9 9 s d t y d d k d y y p y y r y r r r r 0 s 0 f f f f f 0 C f C C a A A S S J J P L A A l j l Z S S z z z G z k h h 8 7 3 8 3 3 3 2 2 s C l l l A C j a 0 a l l V s s j j j s a 0 a 0 0 0 9 0 0 0 8 9 5 7 7 7 3 2 1 : ; % # # # o o o O O = - O O O O = = = > < < < , < < < < < < < < < 1 < 1 1 1 q 1 < < > < < > ; ; > < < < ; ; > 1 3 3 < < < < , < 1 1 < < < < < < ; ; - ; ; - O O = > < < < ; ; > ; ; = O = ; ; ; ; ; < < < ; ; ; = # ; - ; ; ; ; ; % ; ; ; ; ; < ; ; ; < , < < % ; ; O O O O @ $ * , 7 8 r r r a h h G G j h h j k h h 9 9 y y 7 5 7 8 4 5 8 7 8 8 r r y y y a a a y d a v v A A A A A A A f f a C C f s a a l l l C A l l s s 0 s 0 a a a s j j z C j j l z j j S D Z V Z A Z D J P J P J S Z C j z f f C f 8 k f a y 8 8 7 8 5 4 , % % O % o ",
"; ; e x e < ; ; ; = = O - ; = - O ; ; O = ; - = # - = = O O O O - = = - ; ; ; O O O O O O # O   - = ; ; = = = ; ; ; = = ; ; O - - O = ; ; = O O O O O O = ; = O = ; O = = = O O O O O O o O O O   O @ @ = ; ; ; O = ; O = O O o % % ; > ; ; - = O O = O       O > % % ; > : , , * , 2 * & , 2 * 3 , , : < , , : , , , , : , , : - 2 2 2 3 6 6 0 r 6 f f r 0 C 0 0 a s h s l l l l s s s s z A A j d a a d a y 8 7 7 3 8 3 3 3 3 6 0 a s s l C C j a 9 8 0 a 8 2 a s s h s a a 0 9 0 0 9 8 8 6 2 9 8 5 , , , & % % % % # o o o o = ; ; ; > ; ; ; O O O O O % ; ; ; ; ; ; > ; > > ; ; ; ; ; > ; ; ; @ - ; ; ; - - ; O ; ; > - - < < > < < ; ; ; ; - ; ; > < > < < ; > > ; > ; ; % ; ; 1 1 1 1 1 < < < < > ; ; ; < ; ; ; > > ; ; O = ; ; ; ; > ; > ; @ ; O O O O O O o O o O O O O = O O O O O O @ & & * 2 7 5 7 5 9 9 a a 6 9 8 5 9 8 7 4 4 4 4 4 * 4 > > * > * > , , , 2 2 3 3 3 r 8 3 3 r r y f a y s a f f a r a y s f a a a f a s s a 0 0 0 8 s 0 s a 0 a s j 0 j j h j j z h h j C C j l Z H z S H H H J J A l j l l f f s 0 : 2 2 2 2 2 7 3 ; ; % % $ % + O ",
"< q v B c 1 , > > ; < , < , , > > < 1 1 < , , > < , , > < : < , > > < , < 1 1 , e 1 , > < < , > ; , , < , > < < ; % % ; - ; % O ; O O @ - O @ = ; ; ; > < 1 1 , , < < , > ; ; O O O O     o O O ; ; < 1 < 1 1 < 4 1 > ; = O = O O O % ; ; - O o O = # O O     O > ; > > : , , : , 4 , , , 2 , & 5 1 ; % ; : ; % # ; ; % % % ; % - & : 2 3 1 3 3 2 2 6 r 8 r f a 9 9 y h f k z z l h d 9 a s l k h y 9 4 7 7 4 4 % @ @ % : : & : 2 2 2 2 8 y y a f y 6 6 3 0 8 8 6 r y y a a 9 8 2 8 0 8 2 2 2 * , > ; % % % @ % % % % $ # # # # > < 1 1 1 , < 1 < < , > : ; < < ; ; ; ; ; ; ; ; : ; % ; ; > ; ; % ; O ; ; < ; > ; O O ; ; = ; > ; ; % ; O ; % ; O % % ; ; % O @ O O = - ; ; < < < 1 3 q 7 7 1 3 1 3 3 1 , < 1 < 1 1 < < < > < , < , < > < 1 1 1 1 1 3 < ; O O ; O O O O O O O o ; ; O o     o @ @ $ * , 5 4 4 , 4 5 t 9 4 * * 4 4 4 4 4 > $ $ % * % > $ % % % % : % & , : : , , : : : 3 2 2 2 2 3 3 2 3 3 3 3 3 y 3 2 3 r 3 7 6 8 8 8 7 3 6 8 6 8 9 8 8 8 8 y 8 9 0 s 9 9 0 9 9 j s a d h h l z z H H S z z m z s 9 8 a 3 3 3 3 3 3 3 3 2 , < & % % % % % % % % ",
"; 7 p k p , ; > > 4 7 8 8 8 8 5 e 6 r 6 q 6 6 2 6 2 2 6 6 : 2 q 4 4 7 7 e r e 8 t e 7 5 4 1 1 , 4 4 4 4 5 4 5 5 4 , 5 , , * * ; - @ - - : : : : 2 3 3 3 3 1 3 3 1 4 5 1 4 5 4 , , ; % % > , > > , * 4 7 7 1 5 8 q 3 3 3 , @ @ : & @ o @ @ % O o O # # O O       ; O = = - ; > > , < < 1 3 < , < ; ; = o O o o   O o O o o o o O O O - ; ; > ; > ; > > , 1 , 1 1 9 5 5 8 y 9 y y h y 9 8 y a y r 7 e 3 < > ; @ O O O       o O o @ % > > 1 1 e r 7 1 1 < 1 3 e 7 7 7 e 8 e 7 7 7 7 4 , , , , > % ; ; ; O @ O O O O o O o = o O % : : : : 2 2 1 < 3 2 1 : 3 3 1 : : , , * * 4 , : * * : , 4 4 * * * , 4 4 4 , 5 5 3 1 ; : , < - @ : @ @ O % % % % o o O % % % % % O @ : & & : , 4 7 , 5 8 6 5 5 5 5 9 5 5 9 t 9 y y y 9 t y 7 7 7 7 4 8 9 * * 9 7 5 7 7 4 8 4 * 5 3 : : & . @ @ . o . . O o X X o o $ % % 4 4 * > 4 % 4 4 > * > > > > ; # ; ; O O O % = ; O O % O @ % O O ; ; , ; > < < ; - < < ; : : < < : < : : ; < 1 , : ; < q < , 1 , < , < : 1 , < : 1 , , , * , 5 5 2 3 7 r 8 8 r r y d d n a h v k g h t t 7 4 , , % & % % > ; ; ; ; ; ; ; ; O O O ; ; O O ",
"; < w e 4 : , 7 7 9 9 y 9 9 9 9 f 0 r r 0 0 r r r r 6 6 6 6 6 6 r r 7 7 7 e y g p r 7 , , 5 4 7 8 9 9 a h h 9 9 9 9 9 9 8 7 6 2 2 2 3 3 : 3 3 3 3 3 3 3 2 2 1 1 , 5 1 1 , , , , 3 3 2 , , , , , 5 4 4 7 7 4 4 4 7 3 , , , & ; - & - o + @ @ o               O O ; ; O = O O = ; > ; > > < ; ; ; O O O O O o O O O O O O = O = - o O = - ; ; - ; ; - ; = ; < < , 4 , , 4 7 7 8 8 7 7 4 7 4 4 7 5 1 1 1 < > ; ; O O O O O - = O O O = - ; ; > < < 1 q 3 1 1 1 < < > > 4 4 > 1 > > > > > > , > % % ; = @ = = O - O =   O O O O O = - @ & : < 1 3 3 6 < < 2 3 3 3 2 5 9 9 5 5 5 5 5 8 8 9 7 5 4 5 2 4 5 4 5 5 4 4 7 8 e 5 1 , : : ; o + o O o # O o > & > > ; : : ; : 2 3 3 3 8 8 9 9 9 y y 0 9 9 G h h a 9 a h h h k h h k k h h h k y h h 5 4 9 9 9 a 8 8 y 9 8 5 7 7 8 3 , , 2 : & @ . + o o . o % % # > 4 > % > % > % > * % > > # # = = = ; ; ; ; O - - ; O = ; ; ; ; O ; ; ; - = ; < ; ; : ; ; - ; ; ; ; > ; ; ; ; > ; ; ; ; > < , < > < < , ; < > > < ; < < ; % ; : , > , 1 5 8 7 7 4 7 7 4 7 7 4 t 4 7 4 4 4 , > % % % > % # # = = # - - @ = O O   O O O O o ",
"; : , , : : 4 r a y y y a a h h f f 0 r f 0 0 r f f 0 r r 0 0 6 8 r y p a y r 8 8 7 7 7 8 9 8 9 9 9 y d h a 9 9 y a y 0 9 9 6 7 r r y r r r r r d r 3 e 8 7 7 7 y p y y r t y d y y t t r e r r r 5 5 7 9 8 7 4 r 3 3 2 , : : : 2 : 2 , 2 , < : , , > > > < 1 e ; = O     O O O - - ; ; > = O O O O O = = = ; ; = = = = = ; ; ; - - ; ; ; - @ - ; - % - % ; ; ; % $ # % % > % : % > > % % % % : > ; ; = - ; ; % ; % = = ; = = = O O O O O O = ; ; O = % @ O O   # # # # # # # % # % # % % % % % O ; = = ; ; ; - O O O O O   O O - - @ : 2 2 3 3 3 1 3 3 r 8 3 r 7 9 9 9 5 9 9 9 9 9 9 9 y a y 9 9 9 7 7 9 9 r 8 7 7 e 3 3 3 3 3 t y s d y 8 r y 5 5 5 5 7 7 7 8 7 8 7 7 7 8 7 6 9 9 h y h 0 j 0 a G h G G h G h z h h h h h h j a 8 t a 8 8 a a y h y y h h y 9 y b k k s y r 8 7 , ; % % @ o + % > ; % % # # % # % % > % # % % > = > = ; ; > > ; > < > ; < > > < 1 < < > < < ; % ; < : < < < ; > < < < 1 < ; ; ; ; ; ; ; ; - - ; ; - - ; ; > - < < > < > ; ; ; > > > * ; , , , , > ; % % % % % > > > > > % $ > > % # # > > % # = ; ; ; ; ; ; - ; = O O O     o ",
"% ; , , 1 5 8 d h h h h h j j j A f 0 0 0 f f 0 f f f 0 r r f 0 7 8 9 a a t 7 5 7 9 p y k k h y z j h h h h j h a a a a a y y 9 y r y y y r y y b d d y d d d f y 8 r 8 r y p y r r r 8 8 8 r 9 9 8 7 9 y y r r e 3 3 q 3 3 3 1 3 3 3 : 2 , , , % % O O   O O ; ; ; = o O O ; ; ; - = ; ; = ; ; = = ; ; > < < < ; ; ; ; ; ; ; ; ; ; ; ; ; ; ; ; > < < < > ; ; % > > & > > > : % % & & & % % % ; < < > < < < < 1 1 < ; ; ; ; ; > - = ; O ; O = = O O = = ; - = =   O # # # # # # # # > # > # % ; ; ; ; > > ; ; > = = = = O   o O & & - : : 3 3 3 r r r r e r r 3 9 9 9 9 9 a y 9 7 9 9 0 h h h a 9 9 9 9 r y y p r r r r r r r p 8 8 r 8 8 5 7 7 8 r r r 9 y y y k s y 8 9 s s 9 9 h j h h j h 9 9 h h h 9 a a h G z k k n j k k k a a 9 8 5 5 5 h k a a z z h h b ) ) G P S k M b y 3 2 , % @ o % , & # % # # % # % % % > > > > 4 < 4 4 < < < < > < < < < 1 1 1 < 1 1 1 < < 1 , < 1 < < 1 1 1 < 1 q 3 q 1 < < < > > ; < < < ; ; < 1 1 < 1 q 1 < 1 1 < < 1 1 1 , 4 > > 4 , 5 < 1 1 , , > > > 4 * > ; > > % > % > > ; % ; > > > ; 1 1 1 1 1 1 1 1 > > - = = O O O ",
"% ; , 5 7 y p h g h k k z G V H A C 0 s f f C C f A A f 0 0 f f h h 9 9 8 9 y d h k k k k z k h j j h j k G z G z z j h l s j f C l b b B A A A f f f f l l l A m l k l b m b z d d y 9 k h k y y 9 9 j k k h h f f d d a a r 3 3 r r 8 7 7 e r r r 1 , & % > > > ; = O O ; ; ; ; = ; ; > > < < ; > < 1 1 1 1 1 < ; > < < ; ; ; > < < < < < < 1 q 1 < < < < < < > , , > , , > ; 4 4 4 , < , , > < < , < < < < < e 1 1 1 1 1 1 1 1 < < > > < > ; ; ; ; ; > > < > # ; ; ; ; > < 1 4 1 1 1 1 < < < 1 1 1 1 < 1 < < < > ; ; O o O = < : : : 3 3 3 3 8 9 y y r r r r h a 9 9 0 a 9 7 h 0 y h j k j a k h a h k k z k A b d y r r y y d y 9 a y y y h y y 9 9 9 y a a d d y 9 d l l s h j z z z G G j K J K G G V G H L m k z z j k z l j h h k h g z H L z G L L G H K X.O...O.] I I / M y r 7 ; @ O > > 4 # % # # > % % > > > , , : 4 4 1 1 < 1 , 1 1 1 1 1 q q q 1 < 3 q 1 1 q q 1 r q 1 1 1 1 q 1 1 1 1 1 1 < < , < < < < < 1 < < > 1 q 3 1 1 3 q q 1 1 q q e e q 4 4 4 4 4 8 8 4 5 4 4 , 4 , 4 4 1 1 1 1 4 1 4 4 1 7 e 7 1 3 1 q t e u u u t u e e w 1 < = = O O ",
", , , 1 4 y k k h h h j z z H z A A C C f A A A D D F D A A A A G z H H H G H H H m l h k k n z j k G H H H H z z z z j f f l z f f f l F F M l b v l S S M B D l l l b m z k k m k y y j k h y H z H H L m m m S F F F B m b f b f l d k k k b p y r 1 % % O # < > O O O O = = ; = ; < 1 < < 1 < < 1 e e q q q e e e q q e 3 1 e e e u u u u t u u 3 1 > < 1 e > < 1 1 1 1 1 1 w 4 w 4 1 1 < 1 1 1 < 1 1 1 1 < > 1 1 e u u 7 1 e q q q q 7 q 1 1 1 1 < < < < < 4 4 7 w 7 e r e i i p r r u t r u u u u e e e 1 1 < < < =   O = : & : 2 3 r r 8 y y y y 0 0 y a 9 h h h j z z h z z z H H P H z I I I I I ) ) ) H M k a d d d d d a y k j h a j j k h a a a a h k k k l l z h 0 z z z G z H H G G j G l V G H H P H H L H H H H G H H H I P I `  .{ R I ` I I R X.<.2.<.2.<.O.[ ] P m k r , % % > 4 # # % % # 4 > % > 4 4 4 4 , < w e e 3 e e u e p u e e p u u u p x p p d x p u e 1 e q q q w 1 1 e e e e e 1 q 1 1 1 1 1 1 1 < e p u e q q e e e e e u p p p e 9 t y g g t t t t t 7 7 4 4 4 y p p u g i p g u p p p u e u y p p x p v k p p u r u < ; = O O ",
", , , 2 8 h z k z j j k z H J H ` ` T T / ' ' ] O.....&.../ / T H L ]  ...{ ) P L H S m H L P ) { { { | ....I K P H H z A D D / ..]  .#.&.*.&. .T D F ` ' ) P ) P ) ` .. .P I ) X.{ R )  . . . .] ` { { .. .) L ) ] ] ) F S F F B l l f v m z n b k p r 1 ; % % < - = O = ; ; ; < > ; < 1 < 1 1 e u u p x p p u v x x v x x p p p p p p x k v x v p u e q e r u u p v p p g d u e u i i e e e e p p p g x p p u e e u u u p p u v p u p u u r u p p p p p p p p p t p t y p p p k g g p v k p p p p u u u u r t q 1 < < O   o ; : : : 3 r r r r y y a 0 0 y s C z z L P K I ` W { R {  .X.X... .O.O.O.O.X...X.X./ P F b f M S F H S H I H z n z z z z k z m H L ` ' ` ` R ` ) L { K P K Y W W W Q | | X.O.=.=.=.&.=.<.,.<.=.:.:.=.<.<.X.&.W P { <.,.=. .....| O.<.<.e.y.e.e.<.X. .) F b y 7 , : > > # o # % # > > 4 > 4 4 7 4 4 i i c c x p x v x b B x v B B v M B B B M B B B n p u u p u r y u u u p p t u e u e e e q r p x v B ^ ! B B B B x p d v x n v b g g G G G G G z B G m n v k n k v n N n n v b n v b b v d x f v n n M B B B n n v p u q ; = O O ",
"@ , , 7 y v z j K H H G H P K P *.1.1.&.&.<.6.t.6.#.#.*.6.' T ] H L I ` ] ` ) I I I {  .O.O.:.&.,.:.=.X.|  .I K { { R R ] #.*.*.*.&.&.1.r.i.*.O.&. . .&.<.&.X...)  .O.<...{ _ ..` I P P P {  . .X. .{ X.:.X.` P '  . .) F S H L P L F F L L L L B b k p 7 , % % ; O O O ; < > < < < < 1 1 < 1 q u p v B b B B n v v M n v n n v v v v v x v x x n n v v v x p p p v n c p u u u u v n n x x c M p p p v v d p u B B v x x n B B B B n v v c p u u u p v v v c d d g g p p p p c v k g g v v v d v v d p p p p u q q 1 > =   O ; : : 3 r r r 8 3 8 8 8 0 0 s s C { =.1.,.O.$.:.1.2.,.<.,.2.,.:.X.| O.O.X. .`  . .&.&.X.` P P ` ] I `  . .I z h z G m m H P { ..X.X.....{ ..$.&.*.2.:.:.:.;.-.:.0.y.e.2.y.y.0.0.,.1.2.u.i.i.y.y.a.=.0.0.2.r.:.&.r.y.y.2.:.$.O.=.2.,.<.y.i.i.i.e.X. .` L B k 7 , , > > # o % > % > , , > 4 4 4 4 1 M N ~ ~ B M B B M ! B n B B B n v B B n v n B B B N v n n n c c x p v x d u e e r u u u p x B _ ! ^ _ _ _ ( ! B B B B B B ! ^ B G G I ( I G G ( B G L G k g n G B L L B L G B G B B n n n n M M B ! ~ ^ ! ! B B n v p q > = O O ",
"& 2 7 k B b l k H H H J K K W { / T ' ' #.&.&.&.s.#.O.*.1.&.#.' I { { R P H J I I R { X.&.:.1.1.:.:.>.=.$.} } X.#.#.#.*.*.6.6.6.1.e.r.t.i.r.*.1.1.>.1.&.*.:.:.*.1.1.<.X.X.:.&...T ' &.#.O...{ K {  .W Y W Y K K R ` P J A z C D F Z Z S L P L S v j h y 7 4 , * ; o   = = = < ; 1 < < e e < 1 e r e u r x v v p B v v B n v v v n n v d x p u p c p p p x v p u n x c M i u i ! n G ~ ~ N N M x p v d x p p n B _ o.( B M M B ! F ! B B n x p u 1 e p v n v p p u p p p u i u u v d p p x x v x p p p p p u u u e 1 < ; = O O > , : 1 5 7 7 8 y 8 9 s Z S S J J A J } } $.$.:.4.8.7.6.*.>.>.3.%.X.=.&. .W R I P R } ..) D P T ` ` { ..} K V z J H J P K { } ..:.#.#.&.&.e.e.r.t.0.y.0.7.3.4.4.s.y.w.2.,.6.4.,.1.%.2.a.a.y.4.:.:.,.6.8.1.%.$.%.>.2.>.| X.$.:.:.=.=.0.y.2.,.e.:.$.) P S k y 7 2 , > o # # O # , < ; < < 1 1 7 e u u u p p n B n v n n v v v n v v v v v n v v v M v n v v x p v v d p v p u u v v p v n n B ! ^ ^ _ _ _ _ _ ( ( ^ ( ^ ^ / ( ^ ^ ^ ( [ [ L G ~ L ~ v n G G v v n n B B ~ ~ ! F N B M v v v x x v F B B ^ ^ ^ ! ! B v x u q < ; O   ",
"$ 2 r k H R P z H G H J Q Y W { ' ..] ' ' ' ` ' T ' T T T T D A K P I P H Z H J H J P P I K P K K R R R K K K R #.#.%.*.%.%.%.%.1.7.6.,.7.2.*.1.6.6.1.>.&.*.$.| E { } K K K I K D D T T P T H Z J J J G G V H G J Z z l j s s a a 0 8 8 d a y 9 y y t 8 4 4 : ; ; O = - ; > q 1 1 < 1 u u 3 1 e e e u u i u u u p u u p p u t u r u u u u u r u e e e e e e e e p e w e u q u i t c c M c c c c u u u e e e p M B ( B v v p p d p p u u r u e e e e e q e e e u e u e r r w 7 e q e q w e q 7 q e e q q 3 1 < > 1 < ; ; O o O ; : , 3 8 9 8 9 y 0 s z J P T R E } | | X.} } { | { ' ' E ` ' ' D K I K J H H J J z H P z l l l A l l S S m j z z H K K J ` { { X.#.%.&.*.6.7.8.t.y.u.i.q.7.*.%.%.=.| | | } | { | R } | } { E Q } R E ` R T T R R | W W W K W R R W W { R R I J G z j d y y 8 3 3 4 o O # O ; > > > > 1 1 1 4 4 e p p p p p x p u p p x u e u u u p p p p p u u p p p t u e r u u u u u u e e u t p v v v B B ! F ! ^ ^ ^ ! ! B B B B B ! ! ! B ! c G G c g G n g y i i y i t i g v p p x x p p p p u q u e u u p u p v v d x p u u e e 1 , ; ; = ",
"& 7 j S ] :.O.I H H P R | X.$.| &.$.#.#.#...' #.#.' ' ' T T T T K P K K J J J J J K T R ` E ` R R R E Q } } | | ' +.%.#.#.' ' ' } $.+.} #.| ' #.E E E E ` E T K K { } R K Y { W ` E ' ' E R R K K K K K J K H H P D C C Z C z s j j s s j l h y y 9 8 8 7 5 4 , ; O O > < 1 e e 3 q q r u e 7 e e u u i u p p p p u u u p r u u e u e u r t u e r e e r e 1 q e i q 1 w e w w u t i t t u e e w u u u 1 1 1 u p r p p u u p u p e e u u u t u e p u e e e u r u 7 u u u e e e e q q q e e q e q i t r e q e 1 1 < ; ; ; = O O ; : , 8 p d h k z V A L R } | | +.%.%.>.*.%.$.@.$.#.$.+.' ' +.' ' R W R K K R W W J R R P D D D D J J J J K K J J H J J J K K I { D T E ' #.#.$.$.} } @.@.| E E E } Q W W Q } } } | @.@.| +.+.+.$.} } | | | | +.+.} } } } W E E W Q | | Q { R I K S k y y y y 7 , > ; = ; ; , 3 3 < > , 1 1 e 1 e u u p u u p p u u d x p r u d x u u t t r u u i p u u u u u r u e w e e e e u u u d x v c M b M b M B v v n v x v v v B B B N B c c G c g g n g n g g i p p g g v x d v x p y x y e y p u u u u u p x p p p p r u u e 1 < ; O O ",
"& 8 z P X.<.:.X.I K I ..=.=.=.$.%.*.*.$.%.*.*.>.#.#.%.#.#.' ' #.W R R I R R R E R R R E { } } W W Q Q Q } +.| | ' ' #.' #.' ' ' +.$.$.%.>.%.+.#.$.@.$.@.%.-.%.$.$.=.=.| | | $.=.>.*.3.*.>.>.>.%.=.| | W W W W W ' T T P R R P S D Z Z z Z z k j a a 9 9 9 9 7 7 > = = 1 1 e u u q 1 e p u u e u e u u k v v B B v k p v v v x v x x p p p u u t u u u p e e e e p e w e i u i x i t g t i e w w t r u e e e 1 1 1 u u u p p p p p p p p p p p u p p p d x x x u u u u p p i p p u u p p d x x p u p u u e q 1 1 < ; ; ; = O = > , 5 y v b m L I J J T | &.*.>.*.>.3.6.3.,.2.4.7.,.>.*.%.%.>.%.%.| | | | } W { Q ` E ` R T D P P T E E R R { R J J K K K R E T { E T ' +.$.%.$.$.@.=.-.-.-.-.3.4.=.=.X.=.$.%.%.%.%.%.-.>.>.>.-.%.%.=.%.=.-.-.$.@.=.=.=.=.$.$.@.=.=.=.=.=.=.| { { K z f a f y 7 : 1 # ; > < 7 u t < , , 1 1 e 7 1 r p p p p d p p p x v x p x v v r e u u p x v d x d c d u t u p e r u u r u u r u p v x c v M v v v v M v v v v v x n B B B B ! G G G G G G G n G G G n y p g n B M n M M v M M x x x c M v x x v b M M v v v v v p r e 1 = O   ",
"* 5 z ] .. ...O.I R R W | @.$.| >.>.%.%.$.$.%.%.%.%.%.%.+.+.+.%.+.} } } } @.@.| } } Q } E E E E +.+.+.@.@.@.@.+.&.*.*.#.*.%.#.+.;.4.4.4.8.4.3.;.3.-.%.%.%.%.-.-.-.;.=.=.=.-.;.;.#.#.#.$.+.' ' ' =.@.| Q E E Q | ' R E ' E R R J P P H S H S z l h h 9 9 9 9 7 5 < = ; 1 3 e u u 1 e e u p p u u t u p v k n M B v p x v v v v v v v v x x p p u p u u t i t t 4 t 4 t t i t i i t g g g g g g u u u u u e e 1 1 u v p u p x p p p p p p p r u u u u p p d v u u u u p p u u p p p u p u p p x x x x p u e e 1 1 1 < < > = = - > 1 7 p b F L )  .F D E #.*.6.4.6.8.4.4.4.4.4.3.4.4.7.4.3.*.3.*.%.>.>.-.-.=.} } } } ' E R T T T ` Y W Q E R } } E E } Q } $.X.} @.$.$.%.;.8.8.7.4.3.-.-.=.#.%.%.;.3.>.-.-.-.3.;.>.-.-.3.3.3.3.%.$.-.>.3.>.%.%.$.$.-.%.%.%.$.=.%.$.=.=.=.=.$.|  .{ P z a h k d 7 : > = ; < 1 e p u 1 1 1 1 e e 7 q u p g p u p p p x d x u p p p u r e u u d v v x u p p p u u u u e u u p p u u u p v v B v B B B B B B B B F ! B n n B G ^ ! ! ! ~ ~ ~ ~ G N N G ~ ~ G c i i x N M v v M M M M M x x v v x M x x v n B v v v v x d p u e 1 > ; O ",
"2 9 G ..X.] } <.R R R { } | $.@.*.%.%.%.$.$.$.%.%.3.%.%.%.%.%.;.@.@.@.X.$.$.$.$.:.%.-.%.%.$.$.$.%.%.3.4.4.4.4.3.s.6.s.s.s.s.s.s.5.8.5.3.7.4.4.8.9.5.4.5.4.5.8.q.,.;.=.-.-.4.,.,.s.s.s.s.f.s.s.s.;.-.=.=.@.@.@.@.' ' } } ' ' ' ` { { ` R K P H S k h 9 9 9 9 5 , , ; ; q e u p p e q u t p d p p p p p p p u p p p p p p p x x d v v c x x p p p p i u u p g t 4 4 t t t w w i g g t t g g i e t p u 4 1 q u p u x v p p v v x x v c p p p p u p p p p t u u p p p p u u u u u u x x x x p x x x N M b v p u u e 1 < < , ; = ; > 7 r k b S L ) X.D T ' #.;.7.8.8.8.8.8.8.5.4.4.5.8.t.8.4.3.s.s.*.0.,.0.0.7.-.-.-.%.$...| } +.#.#.} @.$.$.$.$.%.%.@.$.$.$.>.>.-.>.%.*.>.3.8.u.0.8.d.q.s.s.s.4.s.3.0.5.4.3.3.3.3.3.8.8.7.4.8.4.8.7.4.4.8.8.8.8.4.4.8.3.;.>.-.3.-.-.,.,.,.;.:.,.=.} L l a h l d 7 2 > ; ; 1 1 w p u 1 1 1 1 e e e q e u u u u p k x u p u u p x v p u u u p x v x x x x v d x x v v p p p x v x x p p v B v B B B B ! B ! ! ! ! ! ^ B B B B ! F B ^ ~ ~ ~ ~ G G G G G G G n g i c N M M v M M M M N M ! ! M M M x x v N B n v v M x x p u q 1 < = = ",
"5 a L X.:.X.<.7.R W } } } =.-.-.%.-.*.*.%.%.*.*.%.%.%.%.+.%.+.+.@.$.$.%.-.=.-.%.%.%.%.%.%.%.*.*.;.;.5.8.8.5.5.8.s.s.s.s.s.s.s.*.f.g.u.8.f.f.s.g.8.4.4.4.9.9.9.f.w.0.0.4.4.4.0.w.6.3.*.s.s.*.%.3.0.,.,.4.;.-.-.;.+.+.$.$.%.#.$.#.{ { ` ` I P H H z j y 9 r y 8 5 < ; > q u u v p e e t u p c x x p p u u u u u u p p p p v v v x v v v v v v v v k x p x c p t i t t g t t t i g g t t t t t t t v p e 1 r u p u u d p p v n v n v v x p d v v v n v v p p p v v x x p u u u u p x x M M v c v v x v x p t e 1 < 1 1 < > = O ; > 4 r y b b F ` &.T ' #.%.3.8.8.8.8.8.8.8.8.8.8.8.3.4.5.4.3.3.3.6.,.,.,.,.,.=.=.-.%.+.| +.$.#.#.$.$.$.$.$.%.$.$.%.-.>.*.*.4.3.>.>.4.3.6.8.f.g.g.f.s.s.s.s.s.s.s.4.q.q.9.8.8.5.5.4.8.8.8.8.5.8.8.q.5.4.4.4.8.9.5.3.8.s.s.q.9.5.5.5.,.0.0.>.-.,.:.R J j h j l y 5 4 > = ; 1 1 e i u 1 q e e w e e e 1 1 u r u u v x p p p p c b M n x x c d p p x x v n n v v b B B n v v v n v v d p v M n v v B v M B B B ! ! ^ ^ ! F B ! L B ! ^ ~ ~ ~ ~ ~ ~ ~ ~ ~ G N c c N N ! ! B ! ! ! ! M N M ^ ^ ! M M M M M B B B n n n v v p u e 1 ; O O ",
"2 h L { X.1.2.e.J W | } | =.>.:.>.>.*.*.$.$.$.$.3.3.%.%.%.+.+.+.@.$.%.>.>.-.>.-.%.>.%.-.-.>.*.;.3.4.8.s.s.8.s.f.s.s.s.s.3.s.s.s.u.f.f.f.g.g.s.f.g.q.q.f.s.8.9.0.w.0.0.0.,.,.0.w.s.s.s.s.s.s.s.s.0.,.,.,.,.-.-.;.+.+.+.$.$.$.#.#.| #.} ` R I P J z j 9 9 9 9 7 5 > @ > w r u v v q u r u p x v v d p u p k v v v p p v v v v v x v n v v d v p v u v v v v p g t t t t t t t g t G g g t g g n B v p u e i u r u u v p p v v d p p u p p x p v v p v v v u u p n x x x p u u e u u p x M M c x x p v x d p e 1 1 1 < < ; ; = > 1 7 r h v S L  .1.T ' $.*.3.4.8.s.s.s.8.8.s.8.8.8.5.8.8.8.3.s.s.s.0.,.0.,.,.-.=.-.*.$.+.$.*.*.$.$.%.@.$.-.>.%.>.,.4.6.,.,.8.7.,.,.4.4.3.8.f.j.g.g.f.s.s.s.s.s.s.s.s.q.q.8.5.8.8.5.8.8.q.s.q.q.s.s.8.5.3.4.8.q.8.;.3.5.q.s.5.4.4.5.;.0.0.;.=.,.$.K z s 0 l l y 7 7 > = ; 1 e u p p 1 1 e e e e e u e e e e r p u u v n n x p u p p v v p u u u p v v v v x x v v B B n v n v M v v v B B B B B B v B B B F ! ! _ ( ^ ^ ! ! ! B B ! ~ ~ ~ ~ ~ ~ ~ ~ ~ G c c n N N n ! B ! ! ! M M M ! ^ ^ ! x x x ! v M B c v v v v c p u q 1 ; ; ; ",
"2 j J Y ` X.1.r.R R W } =.>.>.-.%.%.;.%.%.%.%.3.3.3.;.%.;.%.%.%.>.-.=.>.:.,.,.:.=.=.=.,.:.,.,.:.s.s.s.f.j.f.s.f.g.h.f.j.f.f.s.s.8.d.h.h.g.h.g.g.w.0.8.s.s.s.9.8.s.*.j.s.s.s.s.s.*.6.j.*.s.3.s.3.0.7.7.7.4.3.*.%.%.%.%.%.;.>.%.%.} | } Q W K H H z j z 9 9 9 7 8 < ; < e r u p p e e e e u u t p p p p x x x v v v x v v v v v v v v v v v v x p u v n v p p p p i u x v v g x p v v v g x n B B n x u e u p u e p x v v v v v x v c p v p p p v c c v v p p p p x p x x v p p p p v p v v v v p p p u i u u e e 1 1 < 1 < O < 1 e 8 a l L ` &.<.T } ..-.7.q.u.8.8.8.8.4.8.8.t.t.3.s.3.s.3.s.s.7.7.6.6.7.7.*.%.$.%.*.%.%.%.%.%.' $.%.-.3.#.%.s.+.%.s.%.s.%.s.%.s.3.s.s.s.s.j.g.g.g.f.s.s.s.t.7.t.s.s.s.*.s.*.*.s.s.s.s.s.3.s.s.s.q.5.8.t.f.7.4.4.3.3.3.3.s.6.6.s.6.s.7.6.>.*.#.' P l a a h h y 4 > ; ; e p u p v q 1 1 3 e u i r u e e e r u e q v p p p p p p k i p x x p p p y x u u u p v v v B n v v v B v x B B B B B ^ ^ B B B F ! B B ^ ^ ^ B B ( _ ^ B ! B ^ ( ^ ^ ! ^ ^ B ! B x v B B B ! v B ( ! B ! B B ^ ! B v M B v v M v B v B x x v p 3 e < O < ; ",
"6 z J R  .2.t.p.T R W } =.-.=.=.%.;.%.;.%.;.3.3.s.3.;.3.%.;.%.%.>.-.=.$.=.,.,.7.:.,.,.,.4.0.0.0.s.s.s.s.j.f.j.f.f.g.g.g.g.f.s.s.q.f.h.g.h.h.h.u.s.w.9.s.s.s.s.9.s.s.s.*.j.*.s.j.s.s.s.s.6.s.6.j.9.8.7.8.8.3.3.3.%.;.>.;.>.%.%.+.@.| | }  .W K J z H z j a 9 5 , < ; < r u p v v w e e e u u r p p p d c c d v v v v v p x v v v v v v x p x p p i p x p u u p r r t u p p p p x c v c k x n B B b v p u y p p u y x v x x v v d x x p p p p x p d v v x v x v p x x x x p u u u u p x x v v v n v v k p u u e q q e < < ; = 1 1 r r d l B R ..&.T ' +.%.7.8.8.7.8.8.8.8.4.8.8.8.7.6.s.6.7.3.7.7.7.7.7.7.6.*.$.%.%.%.#.%.%.%.%.+.%.%.*.;.s.%.#.s.s.%.s.%.s.%.s.%.3.s.s.s.j.s.f.j.f.f.s.f.s.s.s.s.s.j.s.s.s.s.s.*.s.6.s.6.s.s.6.s.f.8.8.8.8.8.4.8.s.3.3.s.s.s.3.s.j.6.s.3.6.*...T P L G a h h 9 4 ; ; ; 1 r u u x e q e e r u u u u u r u u t e e p u p p p t p p p k p p p p t t p p p v v n B v B B B B B B B v B B B B B B ! ! M B B ^ ! B B B B M B ^ ^ B B ! ^ ^ ( ^ ^ ! ! ~ F ! M x v n B B B B ! ^ ! ! ! B ! ^ ^ M d v M v b M B v B v v v x v e q < = ; @ ",
"9 j H ` &.r.t.r.T R W | %.-.=.$.%.%.%.%.;.3.3.3.3.3.3.%.;.%.;.%.:.=.$.=.=.,.,.4.4.,.,.2.2.y.0.0.f.f.s.j.s.s.f.f.f.f.g.h.g.f.j.s.s.g.h.h.g.c.g.g.s.s.9.9.s.9.q.8.s.6.s.6.s.j.s.j.s.6.s.6.6.6.3.j.u.8.8.8.8.3.;.3.3.;.;.>.;.%.%.+.@.| | } Q I K J z L z z h 7 9 , , ; < u u p v x q w e u u u u e u u p p p p v p v v p d d x x B v d p p p p v p p v k x p x p u u u e r u u g x p x c v x v B ! n c p p y u u u p p x x x v v x p p p p p d x v k x v v v x c v x p p p p r u u u p k v x v v v v p k p u u e e e r 1 1 ; # 1 1 r r h k m P ..&.T ' #.%.3.8.8.7.4.7.4.4.4.4.8.4.3.s.3.3.3.s.6.s.t.8.7.7.7.%.$.$.%.*.%.%.%.%.%.%.%.%.;.;.s.+.3.%.%.%.s.s.s.s.s.%.3.s.s.s.f.f.j.f.h.f.f.f.f.s.s.s.s.s.s.s.s.s.s.s.s.s.s.s.s.3.s.6.u.8.4.7.8.4.8.8.3.3.3.6.6.s.3.6.7.s.t.6.,.*...P H ` L h y y 7 7 ; O ; 1 e u p p e 1 e u u u u e p p i u t u e e r e u u p u u p p p p u u u u u p p d x v v v n x v B ! ! F B B B ^ ! B B B ! ^ B B ! ! ! B B n b M B ^ ! B ! _ ^ ^ ^ ^ ^ ^ ^ ^ ^ ! n x B B B B B B ^ ^ F ^ ^ N B ^ ! b x v M v M M B M B B v v d ! p 1 > O = ; ",
"8 l L { 1.r.r.1.T R Q | %.=.=.=.%.%.%.;.;.3.3.3.3.3.3.%.%.%.%.%.=.=.-.:.,.,.:.=.0.7.2.4.7.7.0.u.j.f.f.s.j.s.f.h.f.f.f.h.j.j.s.s.s.g.l.h.h.h.h.g.g.s.s.8.8.s.8.5.6.s.6.s.s.6.s.*.6.s.6.s.s.3.s.6.u.8.7.7.5.3.3.3.3.;.>.>.;.%.%.+.| | Q Q W K H H Z K a a 9 6 l 7 < ; < e u p v p 7 e e e e u e e r u p p p x v x v v c v x v v v v v x x d p x v v v c v v v v p i e e u r u k v u p x p x d B B c k v p u e u p p p x p d v x x p p p p p p x x c v v x x d x v p p p p p p p p p v n v v x v v v c p u t e 3 1 e t 1 < ; = q 7 7 r p k b P O.2.P ' #.$.>.7.7.3.3.3.4.4.4.4.4.4.3.s.3.s.3.3.3.7.8.r.6.t.7.>.%.%.*.*.%.%.%.%.%.#.%.%.>.*.%.%.%.3.%.s.%.s.%.%.s.s.s.s.s.f.f.j.h.h.g.f.j.h.f.s.s.s.6.s.s.s.s.*.s.6.s.6.6.s.s.s.s.s.8.7.3.4.4.4.7.8.6.6.s.s.s.6.6.s.6.6.3.3.,.>.} T k { I a y t 4 7 ; O ; < e u u p q 1 e t u u r u p u u u u e e e u e u u u u u p x p u e e 1 e u x x d u u u x b p x M B B B B b B ! ( ^ B B F ! ( ! B B F B ! B B B B ! ! F ! ( ^ ^ ^ ^ ^ / ^ ( ^ ^ B n B ^ B B B ! ^ ^ B ^ ^ B B ! B v x B B v B b B B B B B v p ( x < < O ; < ",
"0 C P  .&.6.6.1.K W W | $.=.-.-.%.%.%.%.%.%.3.3.3.3.3.%.%.%.%.%.$.-.3.3.,.>.-.=.0.y.7.0.0.0.0.y.s.j.f.j.j.j.j.s.f.h.j.h.g.g.s.3.s.g.l.h.v.l.h.g.g.f.s.s.9.8.5.s.6.j.s.s.s.s.s.s.s.6.s.6.s.6.3.s.q.8.4.7.4.3.3.3.3.;.3.;.;.>.%.%.$.@.} Q { R I K H { h a y 5 z 7 , ; < 3 e p d u 7 u u u e u u e u u p p d v B v v v v v v v v v v c x v v p v p x x p p v n x p u p u u p p p v p d x x d c n B M M v v x d v v p p x p x v v p x x p p p p p v x v v p p d x x x p p p x p p v p v v v v k x v u p u p u e e q u u 1 < > = 1 7 3 r d b m I O.1.T ' #.$.;.3.4.3.3.3.4.4.4.4.6.3.3.4.3.3.3.3.3.7.8.8.6.8.6.3.%.*.%.*.#.%.%.#.#.%.%.%.3.%.%.%.%.3.s.%.%.s.s.s.%.s.s.s.s.j.g.j.j.h.h.f.g.g.f.j.s.j.s.s.s.*.s.*.s.s.s.6.s.s.s.3.s.3.8.7.4.4.8.7.7.8.s.3.s.7.t.s.s.7.;.,.;.;.,.>.} I G { H y y 9 , 4 % = ; 1 u t p p 3 1 e u u u u u p u u e 7 e e e u r e u t e u p x p u u q e r u p x p u u e u x p p x v v M M M B B ^ ^ ! B B ! ( ( B B ! ^ ^ ! ^ B B ! B ^ ^ ^ ^ ^ ! ^ ^ ( ^ _ ^ ^ B B _ ^ B B F ! ( ^ B ^ ( N B B B v v B B B B B B B B B B v p ( v 1 < = ; 1 ",
"s C D / ..1.r.6.K Y W Q +.$.-.;.%.%.%.%.3.3.t.s.3.3.3.3.%.%.%.%.>.-.-.:.-.:.-.,.8.y.7.7.2.7.8.0.s.s.s.j.f.f.j.s.f.j.f.j.f.f.s.s.s.g.l.h.h.l.h.g.g.f.d.d.d.s.s.9.s.s.6.j.6.s.6.6.s.j.s.6.s.6.s.3.8.3.3.4.4.3.*.;.3.>.>.;.;.>.>.>.=.=.@.Q W W I I ) } H z d 9 a 4 , ; < e u c v p e u u r r u r e e u p t p x v v v v v n n M v v x x v v v p p p p p p p v v v p p p p p p x d x x c c v v v v B v B B B v c v B p p v x x v v p c v d x p p p p v x x x x x d x v x p x p p p p x x c v v x x x u i p u u u e e r u 1 < ; = 1 1 e r a d m P X.&.R ' $.$.%.;.3.3.3.4.3.3.4.4.4.4.3.3.4.4.3.s.3.3.6.6.6.6.6.3.*.3.%.*.%.%.%.#.#.#.%.%.%.%.%.%.;.*.' %.s.*.%.s.%.s.3.s.s.f.h.h.h.h.h.j.f.g.f.s.s.s.s.s.s.j.3.s.s.s.s.s.s.s.s.s.6.s.8.8.8.8.8.8.7.4.6.7.6.s.3.7.7.7.,.,.,.-.>.:...K P { L h a 9 4 > % ; > 1 u p p d e e e u i u t e p p u u e e u u i u u r r e u p p p p r u u u p u p c x t u u u p p d x c v v M v b ! ^ ^ B B ^ ! B ^ B ~ ! ! B ( B B B ^ ^ ^ ! ^ ^ ^ ! ! ! B B ^ ! B B ^ ^ B ! ! ! ^ ^ ^ ^ ^ F n v v v v B B B B B B B ! B B n v ^ v 1 > = < q ",
"l Z D P  .*.r.e.R W Q @.$.$.=.=.%.%.%.%.%.3.3.s.3.3.3.3.3.%.%.%.-.-.;.-.;.:.4.0.2.7.7.7.7.0.8.8.s.s.s.s.f.h.j.s.f.f.f.s.s.s.s.s.s.g.h.h.h.h.h.k.d.f.f.f.s.s.s.8.s.s.s.6.s.6.6.s.6.6.j.s.6.6.3.s.3.3.3.4.4.3.3.3.3.3.>.%.>.>.;.3.-.=.| } { W R K ..X.I z y 9 9 5 < ; < q u n B p e u u t u p p u u p u u e x v p v v v v v v v v v x d x p p p p k c v x v v v x p p p p p p p u v p p k x v v v n M v v c x v c p d c p p v x p d p p p p p p p p x k p p p v n v x x d x p d x x p p p v d p i r e u u r e e 1 u u 7 > = = 1 1 3 8 a l F ` X.&.T ' #.$.%.;.3.3.4.4.4.3.4.4.4.4.3.3.7.3.3.3.3.3.6.,.1.6.3.*.*.*.*.%.%.#.%.%.#.%.%.%.%.%.*.*.s.%.s.%.%.s.s.%.s.s.s.s.j.h.h.j.f.f.h.f.f.g.g.s.s.s.s.s.s.s.s.6.s.s.6.s.6.s.s.6.s.3.t.8.8.4.4.8.7.6.3.s.s.3.6.s.3.s.,.,.=.=.$.$.{ P ` I H j y 8 , & = - < 1 i p p p e e e e e e e e t u t u u u r u u u e u e 7 e u i i u u r u u p u p k x p y u r u u p p v n M v v v n B F ! B ! B ! ! ^ B ! B B ^ ^ B ! B ^ ^ ! ( ^ _ ^ ^ B B ! ! F B B ^ ! ! _ ^ ! _ _ ^ ^ ! B M v v n v B M B M B B B B B B v B ! x e ; O 1 e ",
"C S P ' &.r.r.*.W { +.$.$.%.=.=.3.%.3.%.3.3.3.s.s.s.s.3.3.;.3.3.=.=.,.,.4.,.4.4.7.7.0.0.u.u.q.i.s.s.s.s.s.j.s.s.f.s.s.s.s.s.s.s.9.g.h.h.h.h.h.g.s.d.s.s.9.s.5.5.6.s.6.s.*.s.j.6.j.s.s.s.s.6.3.3.4.3.3.7.7.4.3.-.3.3.>.>.;.;.3.3.:.:.=.$.$.| { I .. .I h 9 h y y ; @ < 7 u B B v r u p u t p v u d v v u u x v v v v v x x v n M v v x p p p p v x v v p x d x p p p p p p u i u p u u p x v v x B v v v v x x d p x k p u p p u p p p u p p p v p x x x c v M B B x v v v v M B v d p p p p u q e e u e e e q 1 u u q < - O < 1 3 8 p b P  .&.&.` ' $.$.%.;.3.3.4.4.4.3.3.4.4.8.3.3.3.3.3.s.3.3.7.4.3.4.3.>.3.>.*.%.%.%.%.*.*.%.%.%.>.%.3.3.%.s.#.s.s.%.s.s.s.*.s.s.f.h.h.j.s.j.h.j.f.h.f.s.s.j.s.j.s.*.s.6.s.s.s.s.j.s.s.s.3.s.8.4.4.4.6.4.3.3.*.s.7.3.>.3.s.3.-.=.@.} } | { H I H m n r 5 4 & O = > q u p p p 1 1 q e r u e u r u r u u u e 1 7 e e u u e e u e r u r u u u u p p p u t u u u r e u x v B n v n x v M B B ! ! ^ ^ ! B M B F ^ ! ^ ^ ~ F ! ! ( ^ _ _ _ ^ B ! ! ^ ^ B B ^ ! ^ [ o.^ _ _ ^ B B M M v M b n B v v B B B B B B B B ^ B x u ; o 1 e ",
"A D A ` 2.y.p.r.K W =.=.$.:.-.;.s.%.+.%.s.%.3.3.s.*.s.s.s.%.s.s.s.s.j.s.s.%.s.%.0.8.q.u.f.f.f.k.j.s.s.s.s.s.*.j.s.s.j.s.s.s.s.s.4.s.h.h.l.l.h.d.d.f.d.f.d.s.5.5.6.s.s.s.3.s.s.s.3.s.s.3.3.3.3.3.4.3.3.3.3.3.3.3.3.3.3.3.3.3.3.3.$.-.=.@.X.| W H | X.W G 9 G h 9 ; = ; 1 u v ! b u u u r p p v p v x p x v v v v v v v x x v v n v v v x p p p x x p x p v v p p x p p p e e u k u p x x v n M B v v v c x d v v c v v p d v c v p p p p v d p p v v v x p p x n v v v v v v v v n x x v p p e 7 u e 7 e e e q 1 e u e > ; , 1 1 r d b b L  .*.&.P ` $.$.%.;.%.%.4.4.3.3.3.3.4.4.4.4.3.3.3.3.7.3.6.6.6.3.,.>.>.>.*.%.%.#.%.%.#.#.%.%.%.3.%.%.%.3.s.%.*.s.s.*.s.s.s.s.f.g.s.g.l.l.f.f.j.f.j.j.j.j.s.s.s.s.s.s.s.6.s.s.*.s.s.6.6.s.8.4.8.4.3.3.3.3.3.3.3.3.3.7.4.3.,.4.,.=.| | R H P P L y 5 9 * # ; ; < e r x n v 1 e e q e e e 1 u u u u u u e 1 e e e q q u u e e u u r u u u p t u r p u e e u u e q r x v v v v v n n v B B ! ! ! ! ^ B ! ^ F _ ^ ! ! ^ ( ! ^ B ! _ o.[ ^ N B ! ! ^ ^ ! ! ^ ^ ^ ^ ( ^ ! v v v v M B M v b B B ! ^ B B B B B v ! ^ v e < @ < p ",
"s S F ..r.y.r.1.K W =.$.$.-.=.-.3.3.%.%.%.%.3.3.s.s.6.6.s.s.s.j.j.j.j.*.%.s.%.%.q.y.u.u.u.u.f.p.s.s.*.s.*.s.s.s.s.s.s.s.s.s.%.%.4.s.h.n.v.v.h.h.g.g.f.d.f.d.s.5.6.s.*.6.*.s.s.6.s.7.6.s.7.3.7.3.4.3.3.3.4.7.7.3.7.4.7.4.3.3.3.3.=.=.@.} | } { P  .| W h 9 h y 4 ; - > e u M B n u u u u u p p p x d v v v v v v v v v x v v v v p v v c v v p v x p p p p p p v v p p d p u p p p x v n v M B ^ x v x d v v v v n v v x x p p u v x p x x c v v d x v v x x v n v v v v v v v v x x p v p u u u e u e e e e e e u u e > O < 1 1 r d b b L  .O.X.R R #.$.%.3.%.;.;.;.>.3.3.;.3.;.4.4.3.4.3.7.3.s.7.7.3.>.>.>.>.*.3.*.%.%.%.%.*.%.3.%.%.%.3.3.3.3.%.s.s.s.s.s.s.%.s.j.x.l.j.h.h.h.f.f.f.j.f.s.s.s.s.j.s.s.s.s.s.s.s.6.s.s.s.s.s.s.8.8.8.7.7.4.7.3.3.3.3.3.3.3.7.s.,.4.,.=.| | K H H L P y 4 5 & # O = < 1 w p v u q e e e e e e e u r u r u u e e u u u e u r r u e u t t u e r p u u u u u e e e e e e e p v n v p v v v v n ! ! F B ! ^ B B ^ ^ ^ ! ! B B ^ ! F B B ! _ ( B B B B B B B F ^ ^ ( B B B B B v x B v v v B M B M B B ^ B B B B v x ( / B u < ; < u ",
"s F P #.r.i.y.6.R { $.| @.,.=.;.3.%.%.%.%.%.s.s.6.j.3.s.s.s.j.j.j.j.s.s.s.s.s.s.u.q.q.q.9.8.8.8.s.s.*.s.s.s.s.s.s.s.s.*.*.s.*.s.4.s.l.b.v.l.h.h.g.g.g.g.f.s.s.5.s.6.s.3.6.s.s.s.6.3.7.7.7.s.s.3.4.3.;.3.7.s.7.7.8.7.7.4.3.3.;.;.-.=.| } } Q W K =.X.W G G 0 9 5 < ; < e p B B v u u t r u u u p x v v v n B n v n v M v v v v v x v v v v p x p p p v p x x v d v x d v v p u u r p v v x d v B p v x v c v v v M v v x x p p p p p p p p x p p p x x v v n v v v v v v c d x x p x x c u r u u r i u u e q e e u p u ; O ; < < r d b b F ` ....T R #.$.%.3.%.3.3.3.3.3.;.3.3.3.3.3.4.4.3.3.3.7.6.4.,.,.>.-.%.%.3.*.*.%.*.*.%.*.%.%.%.3.3.%.3.3.s.*.s.s.s.*.s.*.s.g.l.l.g.g.h.h.g.f.s.s.s.f.j.j.s.s.j.s.s.s.j.s.6.s.s.s.j.s.3.3.t.8.t.8.7.7.7.7.3.3.4.4.3.3.3.7.4.0.,.=.| } K z L L I a 7 4 * & % ; < e u x p u e e e e e e e q p u u u t t r u u u u e w e u u e u p u e e u p u u e e u u u 7 e e 1 e u x v M v v x v c B B F ! ! F ~ B B ^ B ( ^ F ! B ^ ! ^ ^ ! F ! B B B B M M B B ! ^ ^ ! B b M M B v v n n n B B B B B B B B B B B B v d B ! B e < ; > e ",
"l S S ] 6.i.i.6.{ } =.@.$.:.=.,.%.%.%.%.%.3.s.s.j.6.s.3.3.s.s.s.j.s.s.s.s.%.s.s.g.g.u.q.q.q.8.q.s.s.s.s.s.s.*.s.s.s.s.s.*.s.s.s.;.s.l.v.l.g.g.g.h.g.h.h.h.d.s.s.s.s.6.3.s.6.s.j.3.3.3.3.3.3.3.3.3.3.4.4.3.3.7.7.4.3.3.3.>.>.;.*.:.=.| } } { I P <.X.K V G a 9 9 , ; < q u b ^ B p u t p p p p v v x v M B B B B n B b v v v v x x v v d c v x d v v v v v n v v c p p v v x p p u p p p u u p p p p x x v v x v v v v x x x x d p p p p x p p p p p d x v v c x v v v x v c x d x d p p u e u p p p p p e e 1 1 p p u < O - > ; e y b S L ) ` ' J J | +.$.3.;.3.3.3.4.4.7.7.7.7.4.3.4.7.3.3.s.3.7.2.,.,.>.>.:.*.*.3.%.*.%.*.%.%.3.3.3.%.3.3.%.3.*.s.s.*.s.s.s.s.s.s.g.f.s.s.f.j.j.f.s.s.s.s.s.s.j.s.s.j.j.j.s.j.s.s.s.s.s.s.s.s.s.s.8.8.7.7.7.7.3.3.3.s.3.6.s.3.4.4.3.=.| } K H K I L h 7 7 > % ; ; 1 e u k v u 1 1 e 7 e e e 1 u t u u r u p u u t t r e e r u u r p t e e u t u r u 3 e t u 1 e q e e p x v n v v v x v v B B ! B B B v v n v B ! B ! ^ B ^ ! ^ B B B n x v b B B ! F ^ ^ B B B B M B B B B v v v B B B B B B B B ! B B ! B x M N x e 1 ; ; 1 ",
"a l s J :.r.7.:.} } =.@.=.,.-.>.%.*.3.%.*.*.3.s.3.j.s.3.s.s.j.j.f.s.s.s.s.%.s.s.j.h.j.f.g.f.f.f.j.s.s.s.s.*.%.s.*.*.s.*.s.s.s.s.5.s.h.v.l.g.g.g.l.h.g.h.h.g.d.s.s.6.s.6.s.6.7.s.3.3.3.3.3.3.3.3.4.4.s.3.3.3.3.7.3.3.3.3.3.3.;.>.>.-.=.| X.} K P :.O.I G h 9 9 5 < ; ; 1 e n ^ ! p r u u p d x v x v v M B B B B v B M v v v v v v v p p p c v x v v v v v v v n x u u p v x p x p p p p p p p p p p x v v v c x v v v v v v v v v d c v v v g v x x p x x v d x v x v v v v v v p g p p u e i x x p p u u u q 1 r u u < ; ; ; ; 7 y l M J P ` ` J J } } +.3.;.3.3.3.3.3.7.7.4.3.s.3.s.6.3.3.3.3.4.6.6.>.:.>.,.>.*.*.%.%.%.3.3.%.%.3.3.%.3.3.3.3.%.s.s.%.s.s.s.3.j.j.x.j.f.s.f.f.g.g.f.s.s.s.s.s.f.f.f.j.f.f.f.f.j.s.s.s.s.s.3.s.t.8.t.8.4.4.4.3.s.3.4.7.7.s.t.s.4.,.;.=.$.} K H L H H a 7 5 & # ; - < 1 e p v p 1 e u e r u u u r u t u t t r u p p u u u u u r u u r u u u e e u u t e u p u q e q 3 u p d v v v v v v v v v c n v n v p p x u v v n B B B B M B v k x p u u p B B B B B ! B n B B M B B B B B B B B B ! ! ! ! F ! ! ! ! ! n x B ^ B u 1 ; ; < ",
"6 s s P :.2.2.&.Q { =.X.-.4.>.,.*.*.3.3.3.*.s.s.3.3.3.s.s.s.j.s.x.h.f.s.s.%.s.j.s.f.f.s.g.g.f.g.f.f.s.s.s.s.s.s.s.s.s.s.*.s.s.*.5.9.g.n.v.h.g.g.h.h.l.h.g.f.s.8.3.s.6.s.s.s.7.6.s.3.7.s.s.7.7.7.s.4.7.3.>.;.3.7.3.4.4.8.4.4.6.3.,.-.=.=.=.} I H <.=.{ H G h 5 5 < % ; < e n ^ ! u u e u t p x v v v x b B B B B v v v M n v v x v v x p x x v v p p x c x p p x d p p p p p c v p p p p v v v v p v d v d v v v n v v v p v v p x v v x x p v v v v v p p x v v v v v v v v x v p p p v k p p n d u u u p u e 1 u u u 7 < = = ; 3 8 f M L P ` ` D J ' E +.%.%.3.;.3.3.3.4.3.4.3.7.7.3.3.s.3.3.3.3.6.3.,.4.>.>.,.3.*.*.%.*.%.*.%.%.%.%.3.3.*.3.3.s.%.s.s.3.s.s.s.s.s.s.f.f.f.j.j.f.f.s.s.s.s.6.s.s.s.s.f.f.j.f.f.j.s.s.s.s.s.s.s.8.s.8.7.8.4.4.4.7.7.s.4.7.3.7.s.0.,.-.=.=.} K V K G H h 9 9 * % ; @ < 1 r c M x 1 e u u u p u r u u u p u u u u u t p u i u u u p u u u u i u e u p r u r t u e 1 w e e u p p p x k p v v p p p p u p p u u p p u u p v v d x d p r u u u u u t p p p p v b B M M v B B B B ! B ^ ^ ^ ^ _ ( / ^ ( ^ ( ^ ! F n p n B v e < ; ; < ",
"6 z Z ` <.2.1.=.W W $.=.>.0.4.4.3.s.s.3.s.3.3.3.*.3.s.3.s.s.g.h.x.h.h.s.s.s.s.s.s.s.s.j.f.g.f.s.j.j.s.s.s.s.*.s.s.%.%.s.s.s.s.*.5.9.s.n.n.n.h.g.h.h.h.g.g.d.s.5.3.6.6.s.6.6.3.s.7.s.7.s.s.3.7.7.s.3.3.>.>.;.3.4.3.4.8.4.8.4.4.6.,.=.=.=.=. .I K =.=. .G h 9 9 9 < ; ; , q v B M u u t r u p p v n x d x B B B v c v v M v v v v v v d c v v v v v p x p p x p p u t u p u t u k p p p p v v v v x v x c v v v v v v v p v p p p p p x x p p p v x x v p x x v v v v v x x v x k p u u p x d x v p u u p u t e 1 i r e 1 > = O ; , 7 a l S L P R D J E R Q ;.%.3.3.;.3.3.3.3.7.7.s.7.7.s.3.3.3.3.,.6.,.,.1.>.>.>.*.*.*.%.%.3.%.%.%.%.3.%.3.3.3.%.*.s.%.s.3.s.s.j.s.s.s.s.s.s.s.j.s.j.s.s.s.s.s.s.s.s.f.f.f.f.f.f.j.s.s.s.s.s.s.s.t.s.8.8.7.4.4.3.3.s.3.4.s.t.s.t.q.4.,.=.=.Q K G K H H j t 8 > > : ; 1 e u n B c e e i e u p u u t u p r u u u u r e r i u e e e p r u r u u r e u e u r u e e e e e e e u u p p p p u p p p p p u t p p u p x x u p p p p u u p u u r u u p p p e r u u u p x n B B ! B F ^ ^ ^ _ _ ^ ^ ^ ^ ! B B ! B B B B v u p B d q < ; ; ; ",
"8 C D ` &.:.1.1.K W =.=.7.a.0.q.6.s.3.*.3.s.s.s.j.s.j.j.s.f.g.x.h.x.g.j.s.s.s.s.s.s.g.h.h.g.j.g.j.j.s.s.s.s.s.s.s.s.s.*.%.s.s.%.5.4.9.h.n.l.h.h.h.h.h.g.f.s.8.5.s.3.3.s.6.s.6.s.3.3.7.6.4.3.7.t.f.s.%.%.3.4.4.;.3.4.4.4.4.4.4.3.:.=.| =.=.} { K { Q Y G h y 9 t 1 > < < e x n x k p u p p p x p v x x x B B B B x d v v v v v v p p x v v v d u v v d v x p p p u u u r u e u u p p x v x d v v v v v x x x v v v v v p p p p p p p v v c d v v u x d v d p x v n v v v c p p p p u u p p u p u p p p p r e q 1 p t u 1 ; O O ; : 2 r f S F P ` J J E E +.;.;.3.>.>.;.%.3.3.3.4.3.3.3.3.3.3.s.6.6.3.,.>.-.>.>.%.*.%.%.%.%.%.%.%.3.3.%.%.*.%.3.3.3.*.s.*.s.s.j.s.f.s.3.3.s.s.s.s.s.s.s.s.s.s.s.s.s.s.s.f.j.f.f.f.s.s.s.j.j.j.s.s.s.t.8.8.7.4.4.3.7.4.4.s.3.3.3.s.y.0.,.=.@.Q J j G G H 0 9 7 * , ; ; < e p n B u e u u e r u u 3 p p u u e r p u e e u p p u e e u u u p t t u u e e e u u 7 < e u u e e e e u p p p u u p p x d p u d x p p v d v v v p i u p p u u i u p p p p p u u e e e u p ! _ ( ^ ! ! _ ^ ^ ! B B v v v p p p p p p p u q n B v e < ; - ; ",
"8 j Z T 2.&.r.*.Y Q >.-.0.q.q.q.8.8.4.4.3.5.8.8.s.s.8.8.8.s.g.l.h.g.j.f.s.f.s.s.7.j.x.l.l.h.h.h.l.h.f.s.s.s.s.s.6.s.s.s.6.s.*.s.5.4.5.f.l.n.l.k.l.l.k.g.f.8.5.4.f.4.3.8.8.;.*.3.7.8.8.8.8.8.8.4.s.3.3.%.%.3.3.3.3.%.3.s.%.s.%.*.3.%.%.#.' ' ' ` O.=.I j 9 9 y 9 , > < q u b B v u u e t p p p p c u p p v v B ^ v v v x v v x x p p x v p p x v v v x v p p p u p p u u e u u r p p p u p v v v v v x d x v v v p p p p p p p p n v v x v v v n p p p p p v p p x v v v p u u u u p p u p p u u p p p p t e 1 < 3 u r 1 ; ; ; ; , > 4 y z H L L z H W E W $.%.>.>.>.>.,.6.6.4.6.3.6.7.7.6.s.6.3.,.,.,.>.>.*.*.>.$.%.%.=.>.:.>.>.-.-.-.-.;.>.;.3.3.;.3.3.f.f.j.s.s.s.s.3.s.s.s.s.s.s.s.s.3.s.s.j.s.s.s.s.s.s.s.s.f.f.g.j.g.g.s.s.t.s.j.7.s.3.3.3.3.7.7.7.7.4.4.3.9.4.;.-.@.Y J H K J H h 5 * * 4 % ; 1 q u n B p u r d u u t e u p p u u u r u u e u u u u u u u e p p u e e u u 7 1 4 u u e 7 u e e w w e e r u u p d p p p p u p p p p p p v v v p p x v v x p u u p r u p p u u u p u p p u u B F ^ ^ ( ^ B p e e q q q q e e u u u u u u u i n v x u 1 ; ; = ",
"6 j A R 6.*.r.*.Q Q 3.-.q.q.q.q.q.8.5.5.5.8.8.s.8.8.8.8.5.5.8.q.x.x.x.l.g.j.f.f.7.g.M.l.l.l.l.l.h.h.s.f.f.s.s.s.s.s.s.6.s.3.s.*.8.4.8.f.l.n.l.l.l.l.k.f.f.q.8.8.8.7.4.8.3.%.;.3.4.7.8.t.t.8.8.8.3.%.%.3.%.s.3.3.s.3.3.3.s.3.;.%.3.*.%.%.#.' ' T O.O.[ G a h 9 9 < ; < 1 u n B v e q e u p u e e v p p x x c v B M v v v B v v x v p x v v v p v d c x v v x p p p p u r u r u e t u p p v v v x v v v v v v x v x x v v v x x x p p p p p v v p x v p p p v v d x x p p t u e e u t u p x p p u u t u u r e q 1 e p u q ; - ; ; , , 7 k n L I L z Z ` ` } %.%.>.>.>.>.>.,.3.6.3.3.6.6.3.6.6.3.*.,.,.3.,.>.>.%.%.>.-.=.%.%.%.%.%.$.%.-.-.%.>.3.3.3.3.3.7.s.j.f.j.j.s.s.s.s.3.s.s.3.s.s.s.s.s.s.6.s.s.s.s.j.s.j.6.g.f.f.f.g.f.s.s.s.s.s.7.6.3.s.3.3.6.s.s.s.7.7.s.8.4.3.-.=.W J H K V G h 6 5 4 * ; > < e u B B p u u p u u p u d u r t u u u e e r e t u u u r u r i p i r u u u e e 1 e u u r u e e e e e e p t u p p p p p c u x p p p p p x x v x p x v v x p u u i u u p p p p p v x x k p p x c v v M B x u p e u e e r u u r u p k d u u r x x x r 1 ; ; ; ",
"2 j D T 2.2.8.>.} +.0.-.q.u.f.q.9.8.5.4.5.8.s.f.s.s.s.8.5.5.8.f.j.x.x.j.j.f.f.s.s.h.l.S.l.l.h.h.s.s.s.f.s.s.s.s.6.s.s.s.s.3.s.s.9.5.8.s.k.l.k.k.g.g.f.s.q.8.8.5.8.8.8.4.;.*.3.4.4.4.8.8.s.8.s.t.3.3.3.%.3.3.3.3.s.3.3.3.s.%.%.s.*.%.%.#.} ' ' T X.X.K G a a t t 1 ; ; 1 u n B M r e r u d p u r d p u p d x x v n v B n B B b v v v d v v d x c p v p v v p p p u p u t u u u e r u p u d n v x v v n v n v v x x v x v k x x p p p p p p v p x v v p p u v v c p d x u u e e e e e t d d x p t t u u u e e q q u t u e ; ; ; ; 4 , y k m L ) I Z Z R E } %.$.>.>.>.>.*.*.>.3.6.6.3.6.3.6.6.3.6.3.3.6.6.1.>.>.%.>.-.%.$.$.$.$.%.%.%.;.%.%.;.;.4.%.3.7.7.f.j.j.g.s.j.j.s.*.s.*.s.s.6.s.s.s.3.3.s.s.s.s.j.s.s.s.s.g.g.f.f.f.f.f.s.t.s.s.7.3.3.3.3.3.7.s.t.7.7.7.7.5.5.;.;.@.@.Y H H H G 0 6 9 5 * > ; > q p B ! v u e u e e p u p p u e t u u t u u r u t t r r u p u p p u u e u u e e e u u e u e e u u u u p t u u p u p x d p v p p p v v x d n x p d v v x p t p u u u k d x k v n v v v p v u p u u p x p u p p p u u r p u u u p c v u u r B B n u 1 ; = ; ",
"6 j V P &.2.7.1.} Q 4.-.0.u.q.q.s.q.8.8.8.8.8.s.8.8.8.f.8.4.8.f.s.j.j.s.s.s.s.j.s.h.l.l.l.h.h.h.f.s.s.h.s.s.s.s.s.s.s.6.3.s.6.s.8.8.4.8.f.f.g.f.f.s.8.5.8.4.5.8.8.8.t.4.3.4.4.4.7.7.8.8.t.t.s.8.3.s.3.s.3.s.3.3.3.s.3.3.%.s.%.3.3.%.%.#.} ' ` T | | K j 9 a h t 3 ; ; 1 r B ! M u u u u p p u u u t u u u p x v v v v v x v v x v c x v v p p x p p p p p p p p t p p u p u e e p u t u u x v v v v v v v v v v d x p p p p p p x d c v v v v x p p p u p x x x v c p r r e e e e u u u u u r u p r u r e e q 1 t u u 1 > = ; ; , 4 y k m I ` I Z H R E } =.$.%.>.>.>.%.>.>.*.3.6.3.3.6.3.*.3.*.6.6.3.,.>.>.>.*.-.$.$.$.$.$.=.-.%.%.;.-.%.%.>.%.3.3.s.s.s.f.j.g.s.j.s.3.s.s.s.*.s.s.s.s.s.s.s.s.3.s.s.s.j.j.s.s.g.h.j.g.g.g.g.f.j.s.s.3.3.s.3.3.3.4.6.s.7.3.7.7.4.8.;.;.-.@.Y z j H K G 7 6 9 * ; > < 1 u M F v v u t e u v u u u u r u p p p r u p p p u u u u p u u p u e 3 u u e w e e e e u e e r u u u p u p p u p p p x x v p p x v v v x B v x v v v v d r p p i p p p p p x p v p x v p y p p p p x d p p d x x u u u p t u p x x u p p B ^ B p q > - O ",
"2 j C D ' 6.2.2.Q E >.$.4.8.5.8.f.8.8.4.5.8.8.8.4.5.8.s.8.4.5.8.j.j.j.j.s.s.f.f.s.s.l.l.l.l.h.h.h.j.s.f.j.s.s.j.s.s.s.s.s.3.%.s.8.5.4.5.8.f.f.f.8.8.8.5.4.4.5.5.8.f.8.4.4.t.t.8.s.7.7.s.8.s.7.7.s.3.3.3.3.3.s.3.s.3.3.3.3.3.3.%.%.%.%.@...E T P  .[ G 0 9 9 h h 1 ; ; < u M ! B u u e e u u r u u u r u u p v n x v c x p x v v n x x v v p p p x p p p p d p x i p p p p p p r p p p u u x v x v v v c v v b M x d p p u p p p v v v v v c p p p p p x v v p d v p p u e u u u r u u u u t u p u u p r e q 1 1 u u u e > ; ; ; , 5 y k z P ) L Z Z R W +.-.$.-.>.>.>.*.>.>.>.3.3.6.3.*.s.%.*.s.7.4.:.>.>.,.>.>.-.%.$.$.$.$.-.-.$.%.%.%.%.%.%.>.3.7.t.j.f.s.s.s.j.s.s.s.s.s.s.%.j.s.s.s.6.s.s.3.s.*.s.s.j.j.s.s.j.g.g.g.g.g.j.f.s.s.t.1.3.7.3.>.4.3.s.6.7.7.7.7.8.q.8.3.-.=.W Z H W W G 0 0 0 5 ; < 1 q e v B v x u d p p N p u p u p p v v x u p u p u p t u u p u u p u r e e t t e e 7 e u e u u u r t p p p p p p p p p p p p p p p v B v v B n v x n v x p u p u u u p p p p x p p p p p v u p d p x x x p d c M v x p p x d p p v p p p v n B B u 1 < ; ; ",
"2 s C Z P 6.2.7.+.Q 3.$.4.8.8.8.s.8.8.8.3.3.4.4.8.5.8.s.s.8.8.8.6.s.s.6.s.s.s.g.s.j.h.h.h.h.h.h.f.s.s.s.s.s.f.j.s.s.s.s.s.s.s.s.8.8.5.5.8.q.f.q.8.8.5.4.4.5.8.8.f.t.8.4.t.f.f.8.7.t.3.7.8.4.6.3.%.%.%.%.>.3.6.7.s.3.3.3.3.3.3.%.%.%.$.+.} R P J W [ K G 9 9 t t , ; ; < q v ! b p u e e t p p u x k p t u p v v v v v x d x v v v v v v v x p x v v v p x c x v p k x p p v g u p x v p v v v x v v x x x v M B v x c p p p x x v v x v x p p p x p x v v v x v p p i u u u r u u u u p p p p v p p p t e 1 q 1 e i u 7 ; % ; ; , 7 y p k )  .H j Z R E } >.-.>.>.*.-.:.*.>.>.6.3.*.3.>.*.#.*.3.4.>.>.>.,.,.>.>.-.-.%.$.$.$.$.$.+.%.;.3.;.3.4.6.t.t.s.s.s.t.t.s.6.s.s.s.*.3.s.s.j.s.s.s.s.3.s.s.s.s.s.s.s.s.s.j.g.f.s.g.f.g.s.s.s.s.j.6.7.3.s.3.s.7.3.s.8.8.8.8.8.9.8.4.:.=.R J Q W K G G G j * ; ; 1 q q d B B u u p t d M p r p p p p p p p p p r t u r p u u p r r t u e u r p u u u e i u u r u u u p u p p p p p p p p p p p p p p x v v x v v d v v v x u u p p u u p p u c p d p x p x p u i x p p p p u v v v v x x d x p p x n v p u p n B B u 1 ; ; = ",
"6 0 Z Z R y.2.y.} } >.%.4.8.q.s.8.8.7.4.5.4.4.4.f.4.7.t.f.t.8.f.s.6.3.s.s.s.f.f.f.g.f.s.h.h.l.l.h.f.s.j.j.s.s.j.s.j.s.j.s.s.s.%.5.8.8.4.5.q.q.8.8.5.4.3.4.5.8.s.8.8.8.8.8.s.t.8.7.3.3.3.4.4.>.%.%.%.%.>.3.3.7.s.6.s.*.3.%.%.3.%.$.$.$.| } T P J W W K 0 9 5 7 t > = ; < 1 x B M p p p u p v v p x v u u u p d p p p v d v x p v v p x v c p p k x v p p p p v d x x g p p v v p x x v v b B v x v v v k v x v v n v v x v p d x x v p p d p x x g p d v n v v v d p u u u p p p p u u p p r u v p u p p u e 7 1 e u u 1 ; = ; ; 4 7 y y b  .X.P j Z R { } -.-.3.%.%.%.-.*.>.>.>.6.>.>.>.*.s.#.s.:.>.>.1.4.6.>.%.-.-.-.$.$.$.$.=.;.;.3.4.8.s.s.f.s.f.t.s.s.s.t.s.s.s.s.s.s.s.s.3.s.s.s.6.3.*.s.*.s.*.s.s.s.s.j.s.f.g.g.g.h.j.f.f.s.s.s.3.3.7.s.3.s.3.s.t.s.t.s.8.q.8.8.8.,.| R R X.` K K L G h 4 : ; < q e x B B 3 e p t u v u u u p v p p p p p p p u u p p u r u p u u u u p t p p u u r t u r u u u u u p u u d p p v v p p x x x d x d c v v v x x v v v p u u p p u i p p u p p v v v x p p u u p u p p p p v c v v x p d p p p p v x t r p B B B p 1 ; ; O ",
"2 j S F R i.7.u.Q Q -.+.3.7.8.8.8.8.7.7.4.4.4.8.4.3.>.8.f.8.8.u.6.s.s.3.s.s.f.j.s.s.s.s.s.h.l.l.x.h.f.j.s.f.f.s.s.s.j.s.s.s.s.3.4.5.5.3.4.8.8.8.5.5.;.;.;.3.5.8.8.4.7.8.8.8.8.8.7.3.;.3.;.;.%.+.%.3.3.s.3.3.7.3.3.3.3.*.3.%.%.%.$.$.@.| W Y J J I W K G 9 t 5 5 > ; , < q p B B r t p u p v x p p x p u t p p p u p x v v p p p x p p x k u p p p p p p p u u p p x p u u p p p d x x p v v B n v v v v v v x p p v v n v v p p p p p p x c v d v p u p x p x v p p p u p g d v p r u v p e u p u u p u u e e q r u u 1 ; = ; ; 4 8 y y b X.O.I z Z } { } $.$.-.$.$.%.%.*.>.*.*.6.3.6.>.*.*.%.%.=.-.>.,.7.6.>.$.$.$.$.$.-.-.:.>.%.;.3.4.8.8.t.s.f.f.j.s.j.s.t.s.s.s.3.s.*.s.s.*.s.s.j.s.j.s.3.s.s.s.s.s.s.s.j.j.h.g.g.h.x.h.h.g.j.j.s.s.6.s.3.3.t.s.7.7.8.8.t.8.q.8.8.u.,.| R W I R X.| H k y 7 : ; < 1 e M ^ B e u v u p v u u u p v v p p p c v x x p x p p p p v p u u u g u u r u e u u u w r t u p p y u u p p p v v c v v v v n v x x v n v v x n M n x p p d p p p x d p i u v M b v p u u p x p p d v v B B n v v n v v x p p u u u u p p B M e < ; ; ; ",
"6 Z V S ' i.t.y.} } %.@.4.4.s.8.3.j.t.s.s.6.s.3.4.3.4.4.7.8.8.8.3.s.3.s.j.j.j.f.s.s.s.h.l.m.h.l.s.f.h.x.j.s.s.s.s.s.f.h.f.s.s.3.8.4.4.5.8.9.8.4.3.5.8.5.4.4.5.5.%.s.s.6.3.%.*.s.7.7.3.3.3.3.;.%.%.;.3.4.s.3.6.3.4.4.;.%.%.@.%.+.$.| $.+.} K P H P H { P 5 $ 5 4 > = O < u v v r p x v p r i p p n c u u p d u t v d x v v v v x p p p p p u u u u p p v v v v p p v d p p p c x v v n B B B M v M n v x x v v v x k v x v c p p d p x v c v v v p x v v v d x p p p x x p x p t x d p u u u u u u e e u u 7 1 1 e w e 1 > = = < 7 r y 8 y ) ` ` Z H E R @.@.-.$.$.$.%.%.$.$.=.:.*.*.s.*.s.#.*.*.-.%.=.>.>.>.>.%.:.%.$.=.>.:.4.6.s.6.3.6.6.s.6.j.s.s.j.s.s.s.j.s.s.s.%.s.%.s.s.s.s.s.s.s.s.s.s.s.s.s.s.s.s.j.f.g.h.x.h.x.x.g.f.f.j.s.6.s.6.6.s.s.8.8.4.6.3.4.8.8.8.8.8.7.>.+.R E { X.O.X.G a a 4 ; > < 1 e v ! B u u p p r p p d p t u n M p k M v v x x x x p u d v x p p n v p u r r u u p p u t p p p p p p x p p p x v B M v v v x v v v M B n x d v v x p r v u p p p p k n d x p v M M v p p t p p x v v B x v v v M B M M M k u u e r u u p B n u 3 - - 1 ",
"6 V j S ` 6.1.7.} Q =.@.4.4.8.8.s.3.3.6.3.3.3.*.8.4.4.4.4.3.3.3.s.s.s.3.s.j.j.j.5.5.s.h.m.m.m.m.x.h.l.h.j.j.j.s.s.j.g.x.f.s.s.s.8.5.4.4.8.8.5.4.4.5.5.3.4.5.4.3.3.6.3.3.s.s.s.;.3.3.3.3.3.%.%.%.3.%.3.3.3.3.7.7.4.;.;.%.%.%.+.%.$.$.$.@.} R K H { L ] L 9 5 7 5 ; = > < e x n p u p x p u u u u v k u u u p p p v v p v v d p p u p p p p k p p u p p x x v d u x v v x p d v v x v v B B ! B B B n v v v v x v v v x x p x v v c v v v v v v v p p p v x v x c i p p p p p p u x p v p u u r u t r e u u 1 < < e e e 1 > = ; 1 7 u k 9 k ) ) I S J ` R @.@.%.$.$.$.%.$.$.$.-.-.#.s.#.*.*.#.%.*.%.%.%.=.>.>.%.%.>.=.>.>.,.,.4.8.s.3.s.s.s.6.s.s.t.t.s.s.j.t.s.t.s.s.s.s.s.%.s.s.s.s.j.s.s.s.3.3.s.s.s.s.s.j.j.g.h.h.h.h.h.j.f.s.j.7.s.s.s.3.s.6.t.8.8.4.4.3.4.4.s.8.8.8.,.+.} ` :.,.X.I G 9 5 4 1 < < 1 q n B M t p p p u u u x u u p k x p u v v c p k x x d p p x x x x n x u p x p u u p u r u u p p p p x d p p p d x v v b v v v v v n M B v x x v B v p p p p p p x u x v p p p v v n x p p p p p d x v v v M v M v M v v v v p u e e e e p v v u q ; O < ",
"a V C J R ,.,.6.Q } =.@.4.7.q.5.3.3.6.3.3.3.6.s.4.4.7.6.3.%.%.%.3.3.s.3.s.j.s.s.s.s.h.h.l.m.m.l.x.x.g.g.j.s.s.s.s.g.h.x.j.s.s.s.8.5.5.5.8.5.5.3.5.4.3.3.4.8.5.3.s.3.6.s.s.s.%.%.;.3.3.;.%.%.%.%.3.3.;.3.3.3.s.s.s.;.;.%.%.+.+.+.+.@.$.| Q K J Z W J H G 9 5 7 % % ; < < 1 x B M r u p p p p p t u u u u p p p p v v c v v x p p u u p d c v x v p p p p p x v p v v x p p v v v v x v B F ! B B B B n v n v v x v v d x p x v v x v v v v v v v u p k c x v v p p p p u p p p p p c x p t u u u r u u r e 1 < < e q q 1 > = < 7 e r g y n ] ) P H J { R @.} %.$.@.$.$.$.$.$.-.-.*.*.*.*.s.*.*.*.%.%.%.:.*.>.>.*.>.>.>.,.7.4.6.y.6.s.s.3.7.s.s.s.7.7.s.s.s.t.6.7.s.s.s.%.s.s.s.s.j.s.s.j.s.s.3.s.j.*.*.s.s.s.f.j.h.h.h.f.f.f.j.s.s.s.6.6.s.6.3.s.s.7.4.4.4.4.4.3.q.8.8.8.>.| } E ,.,.K G j a 9 8 1 < < 1 e v ! M u p p p u p p p u p u p u r u u p p p p p p x p u p p d x n x r p p p u u p t e p u u p d x x p v v x p p p v B v v v v v v v v v x x v v v p x p x v x p p i x p p p p v v x p p p p p x v c c B b v v b v v v x v x i e 1 e e u c p e q ; = > ",
"0 l l J ` 1.2.r.Q Q =.$.7.4.q.5.3.3.3.6.*.3.6.*.3.3.6.3.3.%.%.%.%.%.3.3.%.s.s.s.s.j.h.h.h.l.m.l.x.h.f.f.s.s.s.s.s.h.l.l.j.s.*.s.q.8.8.8.8.5.5.3.5.5.5.3.4.5.8.5.6.s.3.s.3.3.s.%.%.%.%.%.+.+.%.%.3.%.3.3.s.3.s.3.4.3.;.%.;.%.%.$.$.$.$.} W R H H R G j 0 9 9 t * % ; < 1 q v B ! u p p p x v d p e r r u u i p v p x p v c x p p p p p p p p p p p p p p p v v v p x p p u p x v v v x v B B B v x v v v v v v p v v v x x k p v p p p x p p p p p p x x d v x p d p p p u p p p x p d p p p r u u u u u u 1 1 1 q 1 1 > = = < 1 7 7 y y z  .) I S H E R | } $.@.@.$.@.$.$.$.%.-.*.#.s.3.%.*.*.*.%.%.-.-.>.>.>.*.*.%.>.,.6.6.7.0.s.3.6.t.s.6.6.s.t.s.s.t.t.s.7.7.+.s.%.s.s.%.s.j.j.s.s.s.j.s.s.s.j.s.s.s.s.f.f.j.x.x.h.h.j.f.s.s.s.t.6.s.3.3.3.3.4.4.3.4.8.8.4.4.4.4.5.3.%.| E R Q =.G h H j a y , ; < 3 u B ^ B p p p p t u u u u p k u u p p p p x v v p u p p x x p u p x v p u p p u u u p u p p p p v v v p v n v x p x x B p x k c v v v x v x d v v v x p u k v n v u u p u p p x v n v v x v x d x v v M M v v v v M v M p c v p e 1 1 1 u r q < < ; ; 1 ",
"s l C R R *.>.,.Q } =.@.5.4.s.5.s.3.3.3.#.3.3.s.*.%.3.3.%.%.+.+.+.%.3.3.5.5.5.5.5.s.j.h.h.l.l.l.l.h.s.s.f.h.s.s.g.h.l.l.s.s.%.s.s.q.q.8.8.8.5.4.4.5.8.4.3.5.5.5.s.s.6.6.s.%.s.s.%.%.;.%.%.+.%.;.%.%.3.3.s.7.s.7.s.7.3.;.3.%.%.$.$.$.%.+.Q E K J R L h 9 5 y 9 5 ; = , < e n ! F p p p p v v p u w e u u u p p v p p x c p p p p p p p p p p p p k p x c v v x v p p p t p d p v v d p n B B v x x x v v b v v x p p x v v x v x x p p v p p p p p p p c x p p u x p p p u u p p p p v p p t t r e u u r w 1 1 1 e 1 1 ; = = , , e e y 7 j ) I P Z J E R +.} $.$.@.$.@.@.$.$.$.$.*.3.%.3.3.3.3.%.:.-.:.>.,.>.>.>.%.%.>.,.4.,.2.7.6.s.6.s.s.6.s.t.j.s.t.s.7.7.7.7.s.%.s.s.s.s.s.s.s.3.s.s.s.s.s.3.s.s.s.3.s.s.s.j.h.f.x.g.g.f.s.s.s.3.s.3.*.3.3.3.4.3.3.4.8.8.7.4.;.3.4.3.%.} R K  .:.I j G l 9 9 : > < e p ! ( b u p p e r e u u r p p u r p v p d v v p p t p p x d u i u p u t r p p u p p d p v p p x v b v x M v v x v v v v x p x x x d x x d x v x c c x d p v M n v p p u p p x v v n M n v v v v v n B b v x x n v v v M v v v d u 1 1 e u u 1 ; ; ; < e ",
"j Z S T L #.$...Q Q =.@.5.;.5.4.t.3.t.3.s.*.3.3.s.s.%.%.%.%.+.+.%.%.3.3.3.5.3.3.s.h.h.s.s.h.l.h.l.h.h.g.x.h.s.s.g.x.x.j.s.s.s.s.s.q.q.q.9.8.8.8.3.5.8.4.3.5.8.8.6.s.s.s.3.;.%.%.%.%.;.%.%.%.%.;.%.3.s.s.s.s.4.7.4.3.;.3.4.3.-.%.+.$.$.Q R T J H ` K l 9 5 9 4 4 ; ; < < e n ! B p p p p p p u e e e r u u u p p x p v x p u p u p u u p p p x v n x x v v c p p v p p p p p x x x p p v M B B B x d x v v M v v p x v v v v p x v x c d x c d x p x p k p p u u u p p p t u i p p p p p p u u p 7 u u e e q q 7 u u 1 > ; ; 1 1 t 7 y 8 h P P L S J ` T @.| %.$.$.@.$.@.$.$.$.$.%.#.%.3.%.3.3.%.-.>.>.>.,.4.>.>.%.%.>.6.8.6.7.7.s.6.6.s.s.t.7.s.j.s.s.6.7.s.t.s.s.s.s.s.s.s.s.j.s.s.s.s.s.s.3.s.s.*.s.3.*.s.j.j.f.f.f.f.f.s.%.s.s.s.%.3.3.*.*.3.4.4.3.4.4.8.4.4.;.4.7.3.%.} ` K } :.I G G k 9 4 < , 1 e p B B v u p p e e u p u u p p u u p x p c x x p p p r p u u u u p p u w u p p p t p p x v d v v M M B v v v x v v v v p v v v c v x v v v M v v v v v x v v M M v v v p v v v n v v v v n v v v v v v B v x x v B n c B v v v x u e e 1 x x w ; ; ; > e ",
"l Z J P S $.*.$.E E @.@.4.4.5.4.3.t.3.3.s.%.s.*.*.s.3.3.*.%.%.%.;.%.3.3.3.3.;.;.5.s.h.s.s.h.h.s.h.h.s.f.f.s.s.s.s.h.l.f.s.s.s.%.s.q.f.u.s.q.8.8.3.5.8.5.5.5.8.8.3.s.3.3.+.;.;.%.%.%.%.%.%.%.;.%.%.%.>.s.t.6.s.3.7.3.3.3.4.4.-.$.Q @.@.E R R J H I P l 5 6 7 4 * O ; < 1 e B ! n v x x p p p u u u i p p p p p p p k k p u u p p u p p p p v c x v c p p x p p v p u u p x p p p p p p x v n B B v v v v v v v x p d c v v v x p v v v x x p p p p p p p p p p u r p p u r u u d p x p p p u u p e u u e 1 1 q 1 u e 1 ; ; < 1 1 8 8 y y n ) ) ] L P { E $.+.-.%.%.$.$.$.%.-.=.%.%.%.%.3.3.3.%.%.>.>.>.>.,.,.>.>.$.$.1.6.7.7.2.7.s.6.s.s.s.t.s.t.s.s.t.s.t.s.s.7.s.%.s.j.j.f.j.j.s.s.j.s.s.s.%.s.s.3.s.s.j.s.s.s.s.j.s.s.s.s.s.s.3.3.s.%.3.%.3.s.4.4.3.4.4.4.4.7.8.q.8.3.$.| W K =.:.J G h h h 4 < < 1 e u v B x e p p r u u p p u p p p p p x v x d p u p u t u u r u p k p u u p p x u u p p x x v x v v M v B v v v v v M n v v v v k v v v v x v v v v v v v v n v v v v v u v v v v x x p p x v x v v v M B v d x M B v x v v n v x u u e q d x e ; ; ; < q ",
"z Z J P Z >.y.6.E E @.@.4.3.5.3.3.3.3.t.*.s.*.s.*.%.3.3.3.%.3.3.%.3.3.%.;.3.;.3.%.3.s.s.h.h.x.x.h.s.s.s.s.s.s.+.g.h.l.f.s.s.s.s.u.f.f.f.u.8.u.q.4.5.4.4.8.8.8.4.6.*.s.6.s.s.%.+.%.+.%.%.;.%.;.%.%.%.%.%.3.3.3.7.3.3.3.3.8.4.;.@.+.$.$.} R W I J I I G 6 h h 5 * O ; 1 4 q n B v v n v p p u u r u p p x p x x p p p p p u u p k v v p p p p d p x u r u x k v B u u t p p p r u x p p p p v v n B M n M B v v v v p x x d c v v x p v x k p p p u u p p p p p u u u p p p p p v v p v p p u p p e i p u 1 1 1 < r w < ; = < 1 < e 8 k h H  ...X.P K | } $.$.>.$.>.-.%.$.-.-.=.$.%.#.%.3.3.3.3.%.=.>.:.-.>.,.>.>.$.%.>.,.7.7.6.0.6.3.s.6.s.7.t.s.t.s.s.s.s.7.s.4.s.s.s.h.j.f.s.j.s.j.s.j.s.s.s.s.s.s.s.3.s.s.3.s.f.s.s.s.s.s.s.s.s.s.%.s.3.3.3.*.3.3.3.4.4.4.8.8.f.g.u.>.@.} ` K w.,.K l 0 0 h 4 < ; 1 1 e n B n e p v p u p d t p p p x c p p v u u t u u p u u u u t p p p p p p p p u i p d x p x v v v v v n v n B B n v B B v p x p p p v v p x v x x v n v v v v p v v k p x x d v p p p p p p p p d c x v n x v B B x d c n v x p p r q 1 u p e ; ; ; ; q ",
"6 z z H z ..0.7.+.E s.+.%.+.s.%.s.3.t.3.3.3.%.3.t.3.%.%.%.;.%.%.3.3.3.%.%.%.3.3.3.3.%.3.s.x.x.f.f.s.s.;.%.;.3.3.s.x.x.f.s.j.s.f.0.0.u.u.u.y.8.8.,.0.8.7.8.0.y.8.s.s.6.s.t.6.*.$.$.$.*.3.*.%.%.%.>.$.-.4.6.:.-.,.>.>.>.,.6.6.>.$.$.%.%.@.#.} ' ) ' ] D 6 r s 2 & < O ; e u u n ! ! B b v p p p t u u p p c x p p p n v u p x v v u u p x p p p v p p v v c v v v d p r u d p u u u u p p p v v v v n B B B v v p v x p v v p p x p v p p p x p u u u p v v d u i e u p p v v v x v x p x p u u u u u p u e 1 1 < w 4 w # o > * 4 4 y y G G X.:.X.K K } Q @.-.$.$.%.3.3.%.%.3.;.%.%.%.;.3.3.3.3.3.%.%.%.%.3.3.%.s.*.s.6.6.6.6.3.s.s.s.s.s.s.s.s.s.s.j.s.s.s.s.%.;.s.s.s.s.s.s.f.f.s.s.s.s.%.s.s.%.3.t.3.s.t.t.s.j.s.3.s.j.j.j.s.3.s.6.*.s.%.%.s.%.s.%.s.3.s.3.s.3.s.8.8.;.+.E E E 1.1.H h a a * 4 < % < 1 3 u n v e e u u u t e u i p p p p p p u v p p u 7 u p i p p p p u p p p p v v p p p v v p p p v B B v v B M B B v B B ! v v u p p x M v x v v v v v v v B B v d x x v x p x x v x x p x u p v v v p i u B v v M n p p p p v v p t p e 1 p u e < - ; ; 1 ",
"5 h a G G ..2.2.E U +.+.s.s.%.s.t.3.3.s.s.s.3.s.3.3.%.%.%.%.%.%.3.3.3.3.%.3.3.3.s.3.3.%.3.s.s.%.s.3.%.%.%.3.3.7.8.g.j.s.f.f.j.s.j.u.p.p.0.,.1.*.>.6.6.1.6.6.8.6.*.6.6.6.7.6.>.$.$.%.*.*.>.*.%.%.>.$.=.>.4.-.>.,.,.>.>.>.3.,.>.$.%.%.@.} ' ' ` T &.$.D 8 0 0 + & < = > e e p v B M n v p p u r u t u r p p p p p p p p p t d x p p p p k c p p p p v v p x x p x c u u p p u t r p u u u p p v x v v p v x v v v c k x v c x p k p p d p p p p p p p v v u u u p u x v v v B B v b x p p p u t d p u e q 1 1 1 1 w 4 4 # o > 4 > 5 h j K W <.2.:.J I | } =.-.%.-.%.%.3.3.%.%.;.%.3.3.3.3.3.3.3.%.%.%.%.3.%.%.%.3.*.*.j.s.j.s.s.6.s.s.s.6.s.s.s.s.s.s.s.s.3.3.;.s.3.s.3.s.s.s.s.s.s.s.s.s.s.s.s.s.j.s.s.3.3.s.s.3.s.t.s.s.s.3.s.t.6.6.*.*.s.%.#.s.3.3.*.s.3.s.s.6.5.8.4.%.' E T U &.:.H h 6 a 5 5 : ; < 1 q p v n u u u r r u e r u p v p k c x p p u u u u p v p p u p u p t r p p x p v v p x v x p x n B B B B n M B B B B B B p p p p p x v b v v v v v v x x n v p p p p v v d c v p k p p p u p p x x x p p v x c v v v v x p x x p t u e 1 p p q < ; @ < 1 ",
"5 0 9 H H | 2.2.+.E %.+.%.s.s.s.s.t.s.t.3.3.3.3.3.%.%.%.%.;.;.3.3.3.3.3.s.3.s.3.j.3.3.3.3.3.3.+.#.%.%.+.%.;.3.3.8.s.s.t.s.j.j.s.u.y.0.8.8.,.>.*.%.>.>.>.>.,.,.,.3.3.*.6.6.6.>.*.%.;.*.3.>.>.*.%.-.$.$.>.>.%.-.3.6.,.,.>.>.>.$.$.$.@.Q R R E R T t.&./ C s 6 + 2 % @ < q e p B n p p p v x p u u p u u p p p p p x p p p p p p x p u p d x x p p v v v p k p x p x p t p x u u u p t e e u d x v x x p p p v v v v x x v v p p p x v v x p v v c p c v p e r p v d v n v n B v v v x x p p p p v u u u w 1 1 < 1 e 1 4 o o 4 % 4 5 y a K H | <.:.K W | | $.;.-.-.3.3.3.3.3.%.%.%.%.;.3.3.3.%.3.3.3.%.%.%.3.%.3.%.3.3.s.s.j.s.s.s.j.s.s.s.s.s.s.s.s.s.s.s.s.;.s.s.3.s.s.s.s.h.s.s.f.s.s.s.s.s.s.s.s.s.3.j.j.s.s.s.s.s.j.j.s.s.j.s.s.*.s.*.s.#.#.s.3.%.3.%.3.s.3.3.4.;.;.$.+.E R J X.=.L j 9 a 5 4 , ; < 1 7 p M v r u i u i u u u u p v v p c p u v u u u r p p e t u p p p u p p x p p v v x p x u d v n v v v B B B B B B B b x d c d x p x c n v v B v v x d p v p p p p x v v v v v v p p x p v p p p v v v x p u p d v x v v p v v p u p u 1 d u e < = - > 1 ",
"6 9 7 H K X.r.7.+.E %.E s.%.s.%.s.t.s.3.3.3.%.3.%.3.%.%.%.3.3.3.3.3.3.%.3.s.s.s.3.s.s.3.3.3.3.%.+.%.%.%.%.3.3.%.4.>.4.s.4.j.j.7.7.4.6.6.6.6.,.>.$.%.>.%.>.>.>.>.*.3.*.6.>.3.>.>.%.*.>.3.>.>.-.*.:.$.$.%.-.=.%.:.>.,.>.6.>.>.$.+.%.$.} R R R R T t.&.' A f 0 2 & ; ; < 1 e d B B i p p v v p p u p p p p x d v p v u u v v p p v v p u p d c x p p v p p u p p x p u u u v x p x v p e u p v c k n v v v p v v v v v v v v p p v p v v x x d v v k x p u e u p v x x v n v B B v d x v n v v u r e u p i e 1 1 < e 4 4 o o 4 4 4 y h a L G W =.2.R R | } %.;.%.-.%.%.%.3.3.%.+.%.+.%.%.3.3.3.3.3.3.3.%.3.3.3.3.*.%.s.3.s.j.s.s.s.s.s.3.s.s.s.s.j.s.s.s.s.;.s.3.s.s.s.s.s.s.s.h.s.f.s.s.s.s.s.s.%.j.3.t.s.3.s.t.s.s.j.6.s.s.t.6.s.s.s.*.s.*.s.*.#.%.s.%.s.*.3.3.*.4.;.;.%.+.} R U ..&.) j 9 a 9 4 < - > 1 q u v v u u u r u u u r u p p p p x p r v p d u e p p e r u p p p u p u v p p v n p p d u u c v v v B B F B B B B ! M x x p v x p p v B n v v v v x p p p u p p x p v v v n v d c p v v v p p p k v v d p p u p p x x v v v v v x p u 7 p u 1 > O = < < ",
"6 9 5 G A  .6.6.+.E s.+.3.3.3.s.3.3.3.3.s.3.3.3.3.;.%.;.%.%.3.3.3.3.%.%.%.s.j.s.3.s.s.%.%.3.%.%.%.+.%.%.%.3.;.%.3.%.8.s.4.8.f.4.7.6.4.,.4.,.>.%.$.%.:.=.%.:.-.-.6.3.3.*.3.*.*.6.%.>.,.,.>.*.%.%.-.%.%.%.=.%.%.>.*.*.>.,.,.>.$.| $.$.+.E ` E T D *.&.] A a f 8 & % ; < < q v ! B p p d v x v k x p p p p v v v v k p u x d x p x p p t u p v p p p p p p p p p x p p u d d x p v v p p u p v p u d x x v x d p p v v p v v p u p p p p p p p p p v g p u i p p v p p v p x n M v x x n n v p u u u u u p e q 1 < e 1 1 O # 4 4 4 k G j K G W 0.i.' ' $.#.%.4.%.;.%.%.3.t.s.3.+.%.%.%.%.3.5.8.3.s.s.3.%.3.3.s.3.3.3.3.s.6.j.s.s.j.s.s.s.s.s.s.s.j.s.s.s.s.s.s.s.s.s.s.s.s.s.s.s.s.h.s.s.s.s.%.s.s.s.s.t.3.t.3.j.s.s.s.s.t.s.t.3.s.*.s.s.*.s.#.#.s.3.3.s.%.*.3.%.%.3.3.;.%.@.} W K ....` h 9 9 9 4 < - < 1 q p c c u u i e e u t u u x v p p p u e r u v v u p v p u p p p p p p x b x p p v p p x p u d B ! B B B B B v v B B n v x v k x p x v B v M M v v v x x p p p p x x p v v M v v p p k x v d x p v v x p d x p p p p x d x v v v v p u u u e q > O O > < ",
"9 y 5 G l  .1.6.E E ;.%.s.3.s.%.3.t.3.t.t.s.s.t.3.3.3.3.;.3.3.3.3.%.%.%.%.3.3.s.3.3.3.%.%.%.%.+.+.%.%.%.3.4.3.%.%.%.4.4.4.4.7.4.6.,.>.>.,.4.>.%.$.%.-.%.%.=.-.=.3.*.*.3.3.*.3.*.*.>.>.,.,.>.:.%.-.-.=.>.>.-.:.%.%.*.>.>.>.*.$.| $.$.$.} ' E ` T ] ' ` A a f y & ; ; < 1 e v B B u u p x v x x v p u u p p x v v x p p p v p p p p p u p u x v p p p p p u p x k p u p p p p u p v d u u p p p u x x v v v v x p p u p p p p u p u p p u p p p p p p p u p p p x u p p p p x v x v v v p p p u u p u u q 4 < < 1 4 > , O o 4 > 4 6 G G R K =.y.i.$.#.*.%.;.8.4.4.3.3.3.s.3.3.3.3.3.;.%.3.3.s.s.8.s.3.%.3.3.3.3.s.s.3.3.3.*.s.6.s.s.s.j.s.s.s.s.s.s.s.s.3.s.;.;.s.3.s.s.s.3.s.3.s.s.s.s.s.s.s.s.s.3.3.3.s.s.s.s.j.6.j.t.s.t.s.s.3.s.*.%.s.%.s.s.%.3.3.%.3.3.*.%.3.;.3.-.$.} { R J  .K I j 9 7 9 > < ; ; 1 q y M v r u u e e e r u p k x p p p t u u u n v p p v p d p v x d x v n v x x p p p p p p p x M B B v B B v p p p v v v c v v v p x v M b v n n v v v v x p p x x p p v v v v p p u u p u p p c v n v x v v x p p x v p d v v v v p u q e q 1 ; = O ; < ",
"5 h 6 V b  .3.3.' E %.+.s.3.3.s.s.f.s.s.3.3.s.t.3.3.3.3.8.3.8.3.3.3.3.*.3.3.6.3.s.s.%.3.%.%.%.%.%.%.%.%.3.3.;.%.%.3.3.4.4.3.;.3.>.=.=.>.6.6.>.-.$.-.>.%.%.%.=.$.%.%.*.*.>.%.6.3.>.>.3.6.,.>.-.-.-.>.>.>.>.>.>.>.%.>.>.>.*.%.$.$.@.%.%.} ' E ' D ' D D A a C 0 & ; - < 3 e p b v u u p p x v v x d p p x v p v p p x p p p v v p u p p u p k x p v v x x d p x x p p p p p u t p v p p r i u p u d x v n n x c p p u u p p u u p p v v v k v x p v x k p p u p p c v v p p p v d v v v p u p p p p u u q 1 > < 1 < > 1 O # 4 > 4 5 G j H G | 0.2.$.#.>.>.7.f.8.8.3.s.s.s.3.3.3.3.3.3.;.3.3.3.8.8.s.3.s.3.3.*.*.s.s.3.3.s.*.j.*.s.3.s.s.s.s.s.s.j.s.s.s.s.s.3.s.s.s.3.3.s.s.s.s.j.s.s.s.s.s.s.s.s.s.3.3.s.3.j.j.s.s.j.s.s.s.3.s.3.*.s.%.s.%.s.#.s.3.3.3.3.%.3.3.%.;.;.;.$.Q E R K { H J k a 5 y 4 : ; < 1 q u v v u u e e q e u u p v x p p p p u v v v v p p v p v c x p x x v n v n n p p v x p p p p v x x x v B v p t u x v v v v v v v v v n M M v M v v d x x p u v v p p d x v x v p p p u p u p x v v x v v v p u p x v x v x x v n p u 3 1 1 < > O O = ; ",
"* 9 6 j f ' 1.%.+.T %.+.%.s.3.3.3.t.3.3.t.s.s.3.s.3.3.3.3.8.s.3.3.s.3.3.3.s.s.3.3.3.%.%.%.%.%.3.;.;.%.%.%.;.>.%.%.4.3.3.8.3.$.3.>.%.%.>.,.,.-.@.=.:.>.%.$.%.%.$.#.&.%.*.%.%.3.3.>.,.6.6.,.>.>.>.-.:.>.>.>.1.>.=.>.>.%.%.%.$.$.$.@.%.%.Q ' D ` ` ..D F D f f 8 2 ; O ; e u p x p t u p x x v d x v v v v v v p p x v v p x B n u u p p u p x n v n v n v v x p x u u p p p p p x x p i u r u p v v v v x v p u u p p p d d p p p u g v p v v x u v n v p u u u v M b v x p v x x x v v x x x d u p p p u e 1 < < , , 1 # o > 4 4 0 H V j h W e.,.$.#.*.>.7.f.t.s.s.s.s.3.3.3.3.3.%.%.%.%.%.%.3.8.3.3.3.s.s.3.3.6.3.3.3.3.6.s.s.3.s.3.3.s.s.s.s.s.s.s.s.s.s.s.s.3.j.3.s.s.s.s.3.s.s.s.s.s.s.%.%.3.3.3.3.3.s.3.s.j.3.3.j.6.t.s.3.3.s.*.*.*.%.%.s.#.3.%.3.3.3.3.3.3.-.3.;.@.Q Y R R } H H l k 8 h 7 > @ - 1 3 u v v i r u e e u p p u p p u r p p u v p p p p v B M x p x p p d x M p B B v p v v p x v v v u r p B B v p u u p p x v v x x v n v v v v n v v v x p d t p v v u p x p p v x v v v v p v p v x p p c k v p u p v n n v x v v v v u e < < < ; - O O ; ",
"5 9 a a l H | <.*.T #.%.3.%.3.s.3.s.s.t.3.t.s.3.3.s.3.3.j.s.s.3.6.s.*.3.3.s.3.6.s.+.s.+.%.%.%.%.;.%.%.%.;.%.;.%.3.3.3.3.3.3.3.3.:.>.>.>.=.>.>.>.$.%.=.%.$.$.$.%.$.%.%.:.%.>.>.,.,.>.>.,.6.>.>.*.>.>.>.,.,.>.>.$.:.>.>.=.$.$.@.$.-.-.%.@.| R J T ..D A f A f a 2 , ; < e e p n n u u u p p v v x p v v M M n v v n v x v n n v x p p i p x v v p n B v x p x v n u g p p x v x u e u u k p p p v p x v n v x u u d p p x p p p v v v p u p v v v v p x x d p p v M b v v d v M B v M B M x x p d x p u u u q q e e > > ; # % 4 8 a j H j P  .0.<.&.' ,.>.8.t.f.8.s.t.s.3.3.t.3.3.;.3.%.3.3.3.3.3.3.3.s.3.s.s.%.%.s.#.s.*.s.*.*.s.3.s.s.3.3.s.s.s.3.s.t.s.7.s.s.s.s.t.3.s.3.j.3.s.3.;.;.3.3.s.s.s.3.3.3.3.3.3.s.3.3.3.3.s.t.3.3.3.3.3.3.%.%.3.3.3.s.%.%.3.%.%.3.3.-.4.;.$.+.E K T W H l h 8 8 8 4 < - = ; , u v v p u e u p d x p n p u p v x p x p x x p x v v x u p x v v M B ! B v p p p p p p x v v v v M M M v x x p r e u n v v x p x v v v M B B B B v v x n p p p p p x B M v d p x n v n k x x v v v p p p p v v v v v v u p p x k u u 1 1 < ; ; =   O = ",
"* 9 9 a l J X.:.3.T #.#.*.s.3.3.s.j.3.3.s.t.s.3.3.s.s.t.s.j.j.j.s.6.6.3.3.3.s.3.' s.+.%.+.%.%.+.%.%.%.%.s.%.%.s.4.3.3.3.;.;.>.;.>.>.>.:.>.>.>.,.$.$.%.$.@.$.$.$.$.$.$.$.*.*.,.,.>.*.*.,.>.>.*.>.>.>.>.:.,.>.>.%.$.%.%.%.%.$.%.$.$.-.%.@.| R J R ' / D A A f a 3 , - > e u p v x p u p p p p n v p x v v v v x k p p x v x v x p x p p p x p x x p v v x x v x p v v d u p v k u 1 e u u u p p p p x d v x p p u u i i p p p p x p p p p x x x d d p p p x x p v M M M v v M v M d v x c v v M B M M x p u e q e e < > ; # ; 4 7 a 0 G j H  .e.2.*.{ >.$.6.8.t.8.3.3.3.t.3.3.3.%.3.3.3.;.%.;.;.3.%.3.3.3.3.3.3.3.#.s.*.s.s.s.s.3.;.3.%.s.3.3.s.s.s.s.s.s.s.3.7.7.s.s.s.3.s.3.s.3.s.s.3.;.;.3.%.3.3.3.3.3.s.3.3.s.t.3.s.3.s.3.3.3.%.3.%.%.3.%.3.s.3.s.s.%.3.3.3.3.;.4.3.$.@.E K E W H j 0 8 8 9 7 : - = > 1 u v v p r 1 e u p p p p p p v v x d p v v v d p p p r v v v v c d x n B v c d p p p p u v c k v M b v b M x u u u p v v x v x x x B B B n v B M v c d v p p v x p x n v x v v v v v v x c v v v v c d x x p c p p x x v c v p u u e 1 3 < < ; O O = ; ",
"4 5 9 a h K X.1.*.D ' #.3.3.s.s.3.s.s.3.3.j.s.t.t.3.s.s.3.f.s.s.j.s.s.3.3.3.s.s.+.s.E +.%.%.+.s.%.;.;.;.s.3.s.s.8.4.3.3.3.>.>.;.>.>.>.%.>.,.,.6.%.%.%.%.$.$.$.%.$.$.$.%.%.>.,.4.,.>.*.3.,.>.>.>.>.>.:.>.>.>.%.=.%.-.>.=.-.-.-.-.+.$.$.@.| T J P ' D D A A f a r 1 ; ; 1 u x v x p e r t u d v x v v v v v v p x u d v v v x x x x k v p p x p p p x d x n B M v B n p u u p p e e e r u u u v v v v p p p p p p p u u p p p v v p p v x d x x v p u p x v v v v v M M M B B v v B v v c v v M v ! M x M p e e e e , ; ; # % 4 7 a h H h H { 2.7.,.} >.$.8.t.f.8.3.s.s.3.s.t.3.%.3.3.;.%.%.%.%.%.%.3.3.3.3.3.3.s.%.*.*.s.*.*.s.s.3.3.*.3.s.*.s.*.t.s.s.s.7.s.3.7.s.3.t.s.3.s.3.3.s.3.3.3.%.;.3.3.3.3.t.3.3.t.s.t.3.t.3.s.3.3.%.3.3.3.3.3.3.3.3.%.%.3.3.3.3.3.3.3.;.3.-.$.@.Q Y E W J j 0 8 9 9 8 < = - > 1 u v x k u w e u p p p p d x p p n v p x v v x x v x p p x v v x c v v b v c x d x p p p x v v v B n v v M v r e u d v k x v x v v B B B B v M B M c p u p p v v d c v x v v M v v v v v x v v v x v v v d v p p p p p n v k p i u e e e 1 > ; O o = < ",
"4 5 9 y h G  .=.*.D +.' 3.s.6.s.3.3.3.s.3.3.t.s.3.s.t.3.s.s.j.3.6.s.s.6.3.t.3.3.+.+.s.%.+.s.%.%.%.%.%.s.3.s.3.%.4.4.4.4.3.;.6.4.4.,.>.>.>.1.6.8.1.>.>.%.=.%.%.=.$.$.%.%.*.>.,.7.,.*.>.>.,.>.>.>.>.-.-.=.>.>.>.*.>.>.>.>.%.%.$.$.$.$.$.} } J D R ' / D C l f y r 1 ; < e u d v x p e e u u t p p x v v v v v v v v v n M n b v v v p v x v p k x b v v v B ! ^ ! B n p u u u u w e u p p u p g v x p p u u p p p d u u p x x p n v p p x v v x v x p x n n v v n v v M B B v b M ! N M b v v v x x M x x p e e u r 1 > ; o % 4 4 9 h G k k ` 1.2.6.} %.$.4.8.t.8.3.3.s.s.s.3.3.3.3.;.%.%.%.%.%.%.3.3.s.3.3.%.3.3.s.%.s.*.s.s.s.#.3.s.s.*.s.3.3.3.3.s.7.t.7.7.7.7.3.s.3.3.s.3.s.t.3.s.s.3.%.%.%.3.3.3.3.3.3.3.s.3.s.s.3.3.3.%.3.3.s.3.%.s.3.%.3.%.%.3.3.3.3.3.%.s.4.4.;.%.%.} Q } X.K G h a y y 7 1 - = < 1 u v v v u e u p x c x v v p u u n B v d c x x v n v v u r p p x d v n c x p u u p p p p x v v M v c p x n x e e x v x v x d v v v n n B v v B M B x p u p p v v v x v p x M b v x x v v v v v v v v v v v v x d x p p v p p u u e e u e 1 ; = O O ; < ",
"5 8 r 9 h H { &.#.T ' #.3.%.3.t.s.t.3.3.s.3.3.3.3.s.j.3.3.s.t.3.s.s.6.6.s.%.%.s.s.%.s.+.+.s.+.+.%.%.%.%.3.3.3.3.3.4.8.4.3.3.7.0.8.8.4.4.3.7.8.y.1.>.>.>.-.-.-.-.$.%.=.>.>.:.4.7.>.:.=.>.>.*.>.>.-.%.%.$.%.%.*.>.=.-.>.-.$.@.| } %.%.#.| { T T X.O.` A f a a a r , < 1 q e u n v p e q u t u p p d c v v v v v v M v d v v v M x x x v v v x v v B B B B F ( ( ^ B v p u p u u e t p d p x p x p x d p p p p p p d p u g v p p c k p u u v v v x x d c v v v v n v v v c v M M b B M b N B B M v M M x x p u u u p 1 > ; o # , 4 9 h G h l { ,.2.6.' $.+.3.4.8.4.3.%.3.s.3.s.3.3.3.%.%.%.%.%.;.3.3.3.3.3.3.3.3.3.s.#.*.*.s.6.s.6.s.3.s.3.3.3.3.3.%.s.%.s.6.3.6.s.3.t.s.s.s.3.3.s.3.s.3.s.3.%.%.%.3.3.3.3.3.3.s.j.s.t.3.t.s.%.%.3.3.s.%.3.%.3.%.%.3.%.3.3.3.3.3.s.5.7.4.3.:.=.| =.X.R G j d d a 7 3 ; - ; > e v n x u t p v n x d v v p u v B B x M v v v n v v x u p p x p p p p p p u u u u u u u v v v v M v x p x p e e p n x v v p v v x v v v M M M M v d x u p k x p v v v v v v v v p v v x x x v v v x v v v v p c p k p x x p x p u 7 e e 1 ; = O O = q ",
"5 7 8 r g P { &.%.T #.#.%.3.3.s.t.3.t.s.3.3.3.s.3.3.s.t.t.s.3.s.3.s.s.*.%.s.%.+.' %.%.%.s.%.%.s.;.#.s.s.*.3.3.3.;.3.4.4.>.>.8.q.2.6.,.2.4.6.7.8.,.>.*.%.-.-.-.-.-.-.=.>.>.>.4.6.>.%.%.%.*.$.$.%.-.$.$.%.%.>.-.>.>.1.>.>.-.$.$.@.>.*.$.$.$.W { ,.>.] A a y 0 0 8 < < q e 1 p B B k e e u p u p p p p p p x x v p B v x x n B B v d x v v d x v v M B B B ^ ^ ! M v p p p d p u u u p p x x p p p x x p p p p p p p p p p p u p p x p u p x v x d x p x c v x c v v x d x v M M B v M B B ! F B v ! M M x u q e u p 4 > ; o $ > 4 9 9 h j k ..2.y.4.+.*.+.3.6.8.7.s.3.3.3.3.3.3.3.3.3.3.;.%.3.;.%.%.3.%.%.3.3.s.3.*.s.s.s.6.s.3.*.3.s.6.s.s.3.3.3.3.3.%.3.3.s.3.3.s.3.t.3.3.3.3.3.3.3.3.3.3.%.;.;.%.3.3.3.s.s.s.s.s.s.s.3.3.%.3.3.3.3.3.%.3.3.3.3.3.3.s.3.s.%.%.%.4.5.4.3.,.| | :.X.I G j d d a 7 q > O = ; e v v k u u p v v x x x c p p b ^ M p B N B B F B B B p p p p p p t u p p p p p u p p u p v n v B b v u p p u u c v v x v v v v p p p x v n b d x p p p p x p p p v v v v v x p x v v d x v v v v v v x v v v v x x p v d v v u e q e u q > O o   ; 1 ",
"7 e 7 9 k L ..O.3.T ' +.3.3.3.3.t.s.3.s.3.3.3.3.3.s.s.3.3.3.s.t.s.6.s.s.s.%.%.s.%.+.s.+.+.%.s.%.s.#.3.3.3.%.%.s.3.3.;.3.3.3.4.5.>.>.,.4.6.7.7.7.,.>.=.$.=.>.-.:.%.:.%.-.>.:.,.4.,.>.%.=.*.$.%.%.$.$.$.$.%.:.>.*.,.3.6.4.:.-.%.%.%.%.%.%.$.} { 6.6.#.D s 0 0 8 8 , < 1 3 q x B B v u e p u p p x p p p p p x x p n v v v v n b M v v v v x x v B v M B ! ^ B B v v p p c x p u k p u p p p p p p c x g p p p k x p u p p p p p p u v n M v x x v c x u d d x v B v v v v v b M M N B F ! B M M v ! M x p u 7 7 u g 7 1 # o o > , 9 9 9 j h ..1.r.6.} *.%.3.3.4.4.s.3.3.s.3.3.3.3.s.3.3.3.3.%.3.%.%.3.3.3.3.3.3.3.s.*.6.s.s.6.*.s.s.6.s.3.s.*.s.%.3.%.3.3.3.3.*.%.3.t.s.s.3.3.3.3.s.3.3.3.3.%.%.3.%.s.3.3.3.j.j.t.s.3.%.s.3.3.%.s.3.3.3.3.3.s.s.3.3.s.3.3.3.%.3.3.3.5.3.,.=.} | :.:.W H j f f f r e ; = = ; q x x x u e u x v d v x d x x n v v x B n M B ! B B ! u p p p p p u u u p x p p p p p p v v v v M v x v p p p p x v v p v v v v v x x x v v v v x x p p p x u u k v v v c p k v v v v x v v v v v v v v v v v v p p p v p p v p e q r u q > = O O ; q ",
"7 7 8 y h H ..:.3.T ' ' 3.3.s.3.3.3.3.3.3.3.3.s.3.3.3.t.s.s.s.j.*.s.3.s.%.s.s.%.s.s.+.s.s.%.%.%.s.%.%.;.%.%.%.*.4.3.$.%.%.3.3.>.-.1.6.0.u.u.y.i.,.>.%.%.-.>.>.:.%.%.%.%.%.%.>.>.6.>.-.:.>.%.%.%.$.$.$.%.=.-.>.*.>.,.,.,.>.%.$.X.%.=.*.>.$.R R &.e.*.` C y 6 8 y 3 < 1 1 e v ^ B v e e u u r p p p x p x x d p p p x v v x x x x v n v v p x v B v B B B B B B B v v v v x p p n p p p u p c d p v v p u p p p v p u p v v x p x d B ^ ^ B v v v v p p x x x v B v M v v v v v M M B N N M v M M B M x p e q u p c w > ;   o ; > 5 9 9 j y ' &.&.*.R $.+.>.%.>.3.3.3.3.3.3.s.3.3.3.3.3.%.3.%.%.%.%.3.3.s.3.3.3.3.6.6.s.6.s.s.s.s.6.s.6.s.3.s.3.3.s.3.%.3.%.%.%.#.%.3.3.3.3.3.3.3.3.3.3.3.%.%.%.%.%.%.3.%.3.3.3.3.s.3.%.3.3.3.s.3.s.3.%.s.3.s.%.%.%.%.%.s.3.s.%.s.4.7.5.4.>.} $.,.y.| K l a f s r 3 > - - ; q p p x u e i v v v v n x p p p p v ! B v x v v x p p k x p p p p u e u y p p p u p d n b N M n v x p v p d v v v v v v p v v v v v d v p p x v v p u p x g p p x v x x p x x v v v v p v v v n n v v p v v v v p u u p p p v u e e u u e < ; O O < q ",
"7 y 8 y y ] &.X.*.P ' #.%.>.3.5.3.3.3.3.s.%.%.3.s.s.3.s.3.s.3.3.3.s.s.3.3.3.s.t.3.s.s.s.3.3.3.3.3.%.%.%.%.%.#.%.%.%.%.3.3.3.3.%.3.3.3.8.8.8.8.8.3.3.%.3.%.;.3.%.%.%.%.%.%.3.3.3.3.*.3.*.*.*.*.*.>.%.$.*.%.$.%.>.,.,.,.>.>.*.%.$.-.-.=.$.$.E W =.r.1. .j l 0 9 2 1 @ < < e v B B M u u p p p p p u p u u p v v v v p p x B B v x v v x v M B B v v n B B ^ _ ^ B B v p v v x p p p v x u e u v n v d p p p c p p p u p v v x v B v M B ! ^ B d p v x p x x v v x v n M v v B B v n B B B M v b N v d x p u q e t d u < O   o ; 1 * y G h 9 W W O.=.W } =.=.,.-.,.,.4.6.7.7.7.8.8.6.6.6.7.7.2.>.=.s.3.3.3.3.s.3.3.s.s.3.s.3.3.s.3.s.s.s.3.s.s.3.s.3.3.3.3.3.3.#.%.%.%.%.*.3.3.3.6.1.6.6.>.$.#.&.>.%.;.3.3.3.3.3.4.3.3.3.3.4.7.4.3.s.*.3.*.3.*.*.*.*.*.s.*.6.3.3.6.6.s.t.4.>.' #.1.r.&.] f f f f r < < = O ; e p x u u u p v p c v v p x p x v n M B B M M v k p p u e u u u e u u e e u u p x k v v n v v d p p p v v v v p x x d p x v v v x p x p p p v p p p p v p p p p v x p d p v v v p p d c x p v v v p v x x v v p p x p c v u p u r u p u u 1 O o O < 1 ",
": 3 3 y d ..2.1.$.T ' $.%.3.3.7.s.3.3.s.s.%.%.3.3.3.3.t.s.3.3.s.3.s.j.3.s.3.s.3.3.s.6.j.t.s.t.3.s.%.%.%.%.%.%.%.%.%.3.%.%.3.%.3.3.3.8.8.3.8.f.3.%.%.%.%.%.%.%.%.3.%.%.%.%.3.3.3.6.3.3.*.>.>.*.%.*.%.$.%.%.%.=.1.,.,.,.>.*.%.$.$.-.=.=.=.@.W Q :.8.2.X.z z 9 0 8 3 ; < 1 q n B B B p u p p v v v x p p p u p p p v k x v v M v p v v x d v B B v n B B ^ _ _ ( ^ B v d x v x p p p p k u i p v n v c x p v v v p p p d v d p p n v v B B B v x x n v v v v v v v n B B B B B B v v B B N B M B N v x p p u e u u x u 1 ; O O ; < > 7 9 h j | X.O.:.W } =.:.,.,.,.>.,.6.7.6.6.2.6.7.4.6.7.7.7.4.4.3.3.s.3.3.3.s.3.s.s.f.3.s.3.s.s.s.3.3.s.3.3.3.s.3.3.3.3.3.%.%.%.%.%.*.*.*.*.*.*.6.6.7.1.*.$.$.%.*.3.;.3.%.3.3.3.3.3.;.3.3.4.3.3.3.3.*.s.*.s.*.&.s.*.s.6.*.6.7.s.t.6.6.3.%.#...6.i.*...A C p f 3 1 > ; O ; 1 u p t u u p v v p x v x x d v v x v n n v c x p u u 1 7 u r r u u d t p t u p p x v v v v x v v n x p p p p p p v x p p k v v d x c x v v v p p p p p p p p c v x p x x p x c v p p x v v v v x c k d v p x g p d p p x u u u 7 q u i r < O O = < 1 ",
"2 y 8 a s ..<.&.$.P | %.%.3.3.4.j.s.3.3.3.3.%.s.3.3.3.3.3.s.s.3.3.s.s.t.3.t.s.3.3.t.3.s.3.3.3.3.t.%.%.%.3.*.%.%.%.%.3.%.%.%.3.3.3.%.3.8.3.3.8.3.%.;.%.;.;.;.%.;.%.%.%.%.%.3.3.3.6.3.3.3.>.>.>.>.;.*.$.*.$.:.%.>.>.>.>.>.:.%.$.%.=.=.$.$.+.W W =.6.2.&.S z s s d q ; 1 1 e v B B B p u p u v v v k p p p k u u p v v c v n v v v v v v x v v n n v p v ^ ^ B B B N v v v v v p p p p p p p v v v v p p v v v v p x v v p u p p p v v v v v x x v v x x x v v x v x B B B B M n v v B B B b M M M n p p p u 3 e u d u 1 > O ; ; , 4 5 9 h G <.O.e.X.I Q =.-.4.,.,.>.,.4.7.6.,.>.,.,.3.6.6.8.8.0.0.3.s.s.3.s.3.s.3.s.s.s.s.3.s.s.3.3.3.s.3.3.s.t.3.3.t.3.3.3.%.%.%.%.%.%.%.*.%.%.#.*.>.1.>.>.*.&.$.;.3.*.3.3.;.3.3.3.3.3.3.4.3.4.3.*.3.3.s.s.6.s.j.#.s.&.*.*.3.6.6.6.6.%.#.#.' ' *.t.1...C A a a r 1 < ; O = 1 u d t r r p v p x p v v x v v v x d v v x p i u r u e e u t u q q u d x p p p p x v v x x v M M v v u p p p p x v v v p p x v v x p v v v v p p p p p u p x v c x p x d x g v p p u x k x v v v v v v x x p p x x x x d t r u e 3 t u e > O o ; < e ",
"2 3 3 y y ) O.X.&.R } $.3.4.4.4.s.3.3.s.3.3.3.3.s.3.3.3.3.3.3.3.3.3.3.3.s.s.s.t.t.s.6.3.3.s.3.3.3.3.%.%.3.3.*.%.%.3.3.3.3.%.%.3.3.3.3.8.3.8.8.8.%.%.%.3.3.3.3.3.%.%.%.%.3.%.3.3.6.3.*.>.>.>.%.>.>.*.;.*.%.%.$.%.$.%.*.>.%.%.=.>.-.=.$.@.Q Y Y =.1.>.X.z Z s j h e > 1 1 q n B ! B d p p p p x p p u u v c u p v u p x v v v v v v v v v x x v v x u p v B v v x M v c v v v v x p p u p x v v v v x p x v v x u p v v p p x n v p x v n v p p v x d x d d v v x v v B n B v v v v v v v v v v v M d t p u e e u p u q ; = ; < < > * * t 9  .| O.=.K } X.=.,.-.4.4.2.,.,.>.>.>.*.,.,.,.6.2.8.y.0.3.s.s.s.s.3.s.s.s.s.s.3.t.s.3.s.3.s.3.s.s.3.3.s.t.t.3.3.%.3.3.%.#.%.%.*.*.*.%.*.$.$.#.$.*.>.*.$.*.*.;.;.;.3.3.3.7.3.7.s.s.4.s.7.*.*.*.6.*.s.&.*.*.*.*.&.%.*.3.s.t.*.+.' ..` ' #.t.*...A A a f 3 3 < ; O ; 1 u p u u u p v v x d v v v x v v v p v x k p u u u u u u u u e e q e p x v p p x x v x x p v v n v p t u p v p p x n x p i p p x p p p p p p p p p p x d v p p d p p p p x p p p p p u p x x v v n M v v v x x d x c u p u u u u e u u e < O o ; < < ",
"& 2 3 f f ..2.e.>.E ' +.%.8.3.4.3.3.3.3.s.3.3.3.3.3.3.3.3.3.3.;.3.3.3.3.3.s.t.3.t.3.t.3.s.3.3.3.3.3.%.3.3.3.3.%.*.3.3.3.3.%.3.3.3.3.3.8.8.8.8.8.%.;.3.3.3.3.%.%.%.%.%.%.%.%.%.%.3.3.>.>.*.*.%.*.*.*.*.%.%.%.%.%.$.$.%.%.%.$.-.>.-.-.=.$.@.W } :.1.>...z A j j y 3 ; 1 1 e v B F B x x v v d c p p r u p v u u n p p p n v v v n x c n v v x x v x v d p p v v p d x v x v v v x p u u p v v v x v p p p p v x x p x v p p v n x u p v v v p p n v v v v v v M M B B B B B B B M v v v v v v v x v p u u u q u u p u q - O ; 1 1 > 5 5 9 9 W W X.$.I { | $.>.-.4.4.,.>.>.>.1.,.,.,.4.,.4.6.7.0.y.t.s.s.j.s.3.s.f.s.s.3.s.3.s.s.3.s.3.3.s.3.3.s.3.t.3.3.3.*.3.3.3.*.*.6.*.*.*.*.#...+.| #.%.:.=.%.>.>.>.;.3.3.7.s.s.3.t.3.7.7.4.3.%.*.*.3.3.3.3.*.*.*.%.%.%.*.6.6.7.6.>.$.#.` ` $.1.&.] A A f f r , < = O ; 1 u p d p u u v v v v v v k x v v v v v v x p i p p u t u e e u p u e e u p d x p x x p p v v v v p x p u d x p x v v v x p u p v p p p p p p p u p d v v v v x p x x x x p c p p p p u p p x x v v v x v v d c k x g p p p t p r u p u u 1 O O = > < ",
"2 8 y b b O.2.r.1.' ' +.%.5.3.3.3.s.s.3.3.3.;.%.%.%.3.%.%.3.3.3.3.3.3.3.3.t.3.3.s.j.s.s.t.s.3.3.3.3.3.%.3.3.3.*.3.3.3.3.%.3.3.t.3.3.8.8.3.3.8.8.3.3.3.3.3.3.%.%.%.%.%.%.%.3.%.%.*.3.*.*.%.%.%.%.%.*.%.%.%.>.=.%.$.%.>.%.$.@.$.=.=.-.$.$.@.W } :.r.2.X.z A j 0 6 q ; 1 1 q v B ! B p p v v n v x u u i p p r u v p p v v v p x c p d x n v d p x x n x u u x c u u p p p x d d p p p p x v v x v v v d x p p c k p p g u p p x x p p x v v p p x x v v v v x b M v v v B B v v v v v v v v v v x v u p p u 7 e u u u 3 @ O < 1 7 4 4 9 9 9 G G  .} J R } | >.-.>.,.>.>.>.,.6.6.8.,.6.6.6.6.7.8.0.s.s.s.3.s.s.s.j.s.t.s.s.s.s.3.s.s.s.s.s.s.3.3.s.3.t.3.%.3.3.3.3.6.6.6.3.6.*.*.#.$.$.#.$.%.*.%.$.%.%.>.;.3.4.7.7.t.3.s.s.3.3.%.%.#.%.*.3.3.3.3.3.s.*.%.#.*.3.3.3.,.3.,.%.#.R T #.&.#...A f 0 s 6 , > = O ; 1 u p x p u p p c v v v v v c x v v x v v v u r u u e p r q e p d p e 1 e p x x d p p p d v v v v v v p p p p x v v v n v x p x d x p x v v x p p p p x v g x v v v v v x x x p p p p p p p p x p p p v x v v v v x p p p p u u e 1 u u u 1 =   = > < ",
": 3 8 f y P ..X.>.{ $.$.%.3.3.3.3.3.s.3.3.3.3.;.%.%.%.3.%.3.%.3.3.s.s.3.3.3.3.s.s.s.s.t.s.3.s.3.3.3.3.%.%.3.3.3.3.*.3.*.3.3.3.3.8.3.3.8.3.3.3.8.8.8.8.8.3.3.%.%.*.%.%.%.%.%.3.3.*.3.*.*.%.%.%.#.%.%.*.$.$.%.%.$.$.:.>.%.$.$.-.,.:.-.=.=.=.Q } 1.r.2.X.A S s 9 6 3 ; 1 1 1 v B ! v u t d x v v p r u p t u u u p p p p p p x p x x p x v v x x v x p p u p p x p u p p p p p p p k p p v v p d v v v x x x p p u v p p p p p p x p p p v v d p v p p x p p d x v v d x x x x p v v v c c v v x d x u t p u 7 3 u u t q ; - < q 4 % > * 5 * j G G W H T | $.>.%.>.*.%.>.>.4.7.7.,.>.,.3.6.,.6.6.0.s.s.s.3.3.s.s.s.s.s.s.3.3.s.j.s.s.s.s.3.s.3.3.s.6.3.3.3.3.*.%.3.6.3.3.*.*.%.#.#.$.$.$.%.*.%.%.$.%.;.3.3.3.4.7.7.7.s.s.3.4.3.%.%.#.*.*.*.3.6.t.3.*.*.*.s.*.3.3.3.>.>.%.$.#.T T ..#...] A A 0 a 3 1 < - O ; 1 t u p r u u x x x v v v v v v v v p p v x p u p u e v p u u p n v u e u p v x x x v p x x v v v v x p p p p x v v k v v v p u p u r p v v c p p u u p x v v v x v n g p x d x p p p p d p x d x x p v v v v x v p v p p u u u w 1 e u r 1 = O = ; < ",
", 2 3 l l ..1.e.$.{ %.%.+.*.%.;.%.%.%.3.3.3.3.3.3.3.%.%.3.%.%.3.%.3.3.3.3.3.t.s.%.s.3.j.s.3.3.3.3.3.3.3.%.3.3.3.3.3.*.%.3.3.3.3.3.3.3.8.3.3.3.8.8.8.3.3.3.%.;.3.3.%.%.%.%.3.%.3.3.3.*.*.%.%.%.%.%.*.>.%.$.$.$.| $.-.>.>.-.>.1.8.0.0.7.4.,.} | ,.1.>.X.A l 0 9 8 1 ; < < 1 v B ^ b u u p u p p u u p p u e u p p r u u p v v v d x p p x x x d v n p u d v p p v p x v x p x p u p p x d p u u x x g p x d p u u v p u v v p d v k u u p x x p p p p x x x x x v v x p x d x v n v x d x x x p p p r u u i q 1 e u t e < ; 1 q 1 4 4 5 9 6 G j K P z T X.%.>.%.%.*.>.>.,.6.6.,.>.%.>.>.,.,.4.6.7.3.s.3.3.s.3.3.s.3.3.3.s.s.s.s.s.s.6.s.3.3.3.3.3.3.3.3.3.3.*.3.3.3.*.*.%.%.#.#.*.| | %.-.>.:.-.=.3.4.4.8.7.7.7.7.s.3.7.7.s.4.;.%.%.*.3.6.*.6.3.3.*.*.*.*.*.3.%.*.%.>.$.$.$.R ` #.&.+.] A A 0 a r 1 < ; O @ 1 e u u u t u x d p p M M v n n v p p u p d p u v d p u p p p n B ^ B u x v v n v B B n v p x v v p u u r t u v v v p p v v p u u t e u p p x k p u p p x v v v d x d v v v p d x x p u p p x c v v n n v v v x x v v u p p u p r q u u u 1 O O = < 1 ",
"2 r y y k ) <.i.6.} E +.$.$.$.$.%.;.%.%.3.s.3.3.3.%.*.*.*.*.s.*.3.j.3.3.s.3.3.3.3.3.3.j.s.3.%.3.3.3.3.3.3.3.3.3.3.3.3.%.*.3.3.*.3.3.3.3.3.8.8.3.3.3.%.3.3.3.3.3.%.*.3.3.*.3.*.*.3.*.*.3.#.%.#.%.%.%.-.%.$.$.$.%.$.=.%.=.%.>.6.0.g.u.a.0.6.$.{ ,.*.2.' Z s 0 a 6 1 < < 1 e u x b x u t p u p p p v p u p p u p v p p i p p x p p p d v v v p p x n u u x v p u v x u r u p p u u u u p k x p p x v d v v p u p x c x p p p p p k x c p p d v c p y p p u y p x p x v v x x p d x x x x d x x x x p u u u t e e e p u 1 ; ; < e w * 4 4 * 8 f S I P H J } *.*.%.*.>.>.>.>.>.>.3.6.,.>.%.>.>.:.>.4.s.3.3.5.s.s.s.s.8.5.8.8.s.s.s.8.s.s.3.s.3.3.s.3.s.3.*.3.*.%.3.%.3.*.#.%.*.%.#.#.3.6.6.*.:.:.>.$.%.3.%.s.3.3.s.*.6.3.6.3.s.7.*.%.%.%.#.%.*.3.6.6.3.%.*.%.%.*.%.3.$.$.| $.| K I $.&...T S C a 6 6 3 < = O = < u g u e q p p p p v x v n x v v x p v x p d v v v x p k x p v B b M u p v n v n B B d x x v k u u e u p u p p p x v p x v v v d p u v p u u p p p p v v v v n v v v v v x x x p p x u u u p x p v v v v v n v v v v k t u p u u u t t u ; - = O < 1 ",
"2 r y a k / *.r.6.{ R +.$.@.%.%.%.%.%.%.%.%.3.3.3.*.s.3.s.3.*.*.%.3.s.3.3.t.3.j.s.3.3.s.j.s.3.3.*.6.3.3.3.3.3.3.3.3.3.3.3.3.3.3.;.3.3.3.3.3.8.3.3.3.%.3.3.%.3.%.#.%.3.*.3.*.%.3.%.3.*.*.s.*.%.#.$.$.%.$.$.@.$.%.$.%.>.>.>.>.6.6.0.0.7.,.$.Q K :.&.>.I C h 0 0 8 < < > < 1 e p n k u u p p p p p c p u p p p p v v p p p x p x p p x v v d p p p n p p v v p k v p p p u p u p p c p p v v p p p p p x x p u p v x d x p p u i u x p v p x v x x u x x x x x x p x v v v x x c v v v x d c c v x p p p p u 1 1 e u u 1 = ; < e 7 4 * 4 5 3 a B J J A J ` $.*.*.*.>.:.*.>.>.,.,.,.1.>.%.>.*.%.-.:.3.3.3.s.3.s.s.3.8.8.s.t.t.s.s.f.3.s.3.t.s.3.3.3.6.s.6.%.3.3.3.3.3.#.#.*.*.3.3.3.6.s.s.s.0.7.4.>.%.%.%.%.3.3.*.s.s.s.7.7.s.6.3.%.%.#.%.%.*.3.3.3.*.*.%.#.#.#.%.%.$.%.$.$.| T R *.&.] P A C a r 3 3 < = o O < u p p w 1 u c d p v v v v v p v v p c x p x x c x p v c v p p p x p x d v x x x v n x x v v x i e e p p p t p p p v p c v v c p v p n v p p k x p p x x v v v x p p x c p k p x x p x p p d c p p p v v v v v v x v p u u u u w 3 u r e ; = O   < < ",
"3 r a y f L &.r.1.} R +.+.%.;.%.%.3.3.%.%.%.s.s.s.3.s.*.s.3.s.%.%.s.s.3.3.3.3.s.s.6.s.s.s.3.3.%.*.3.3.3.3.3.3.3.3.3.3.3.3.3.t.3.%.3.%.3.3.8.3.3.3.%.%.%.3.3.3.3.*.*.3.*.*.*.3.3.3.*.3.*.*.*.%.#.$.$.@.@.@.$.@.@.@.$.-.-.-.%.>.-.3.,.;.=.} K K =.&.$.J l l 0 0 6 < : > < 1 q p B x u u u u u p t k p p p p p k c v x x p p p p p p v v v p p p p x v v d p v v v p u p p t u p n n v p v v p p p p p p p p p k v u u p p p u u u p x x d c v x p p p x v x v c d d v v v v v v M v v v v v v v d p p v p e < 3 u t e < ; = < e 1 5 , , 5 3 a l A S Z Z E #.$.*.>.%.=.*.>.>.,.,.3.3.>.>.>.-.$.-.-.3.3.3.5.s.5.s.s.5.8.s.s.8.s.f.f.3.s.s.s.s.3.3.3.3.s.t.3.3.3.3.3.3.*.*.3.*.3.*.s.6.s.j.j.a.u.0.0.s.%.%.3.%.3.s.3.7.s.3.s.s.3.%.%.%.%.%.#.#.3.*.6.*.3.%.%.%.%.%.%.$.%.+.| } J T &.&.' P A f a y 8 7 < ; O = > 7 u p q 1 u x p p p x v v x x v v p p d p x v v v x x v v p p x c p v x x p u p x v p p p p p u u u p u u p r p p x v v x d x x x v v v p p p p p u p v v v v x p p v p p p v p d x v p p p p p p x v v v x x p x v x u p p t e w u e u > ; O o > < ",
"3 8 y y k L X.e.1.} ' +.%.%.;.%.%.%.3.%.%.s.;.3.s.3.3.3.s.s.s.*.s.j.j.3.s.s.3.s.s.s.3.3.3.s.3.%.*.3.3.3.3.3.3.t.3.3.3.*.3.3.3.3.3.;.3.;.3.3.3.3.3.%.%.3.%.3.%.3.3.3.3.3.3.*.3.t.3.3.3.3.*.%.%.#.$.+.+.+.+.$.$.@.| @.$.%.%.$.$.$.=.=.-.$.Q W W 1.*.X.S Z l 0 9 7 , ; , < < q p n p e e u r u p r p p p p p p x x v x k p p u i p p p x x p u p p p v v p u p p p p u p p u r u k x u u p k v x x x c p p p u x c r p v p p p p p p p v c c v c d p x d x v v c v v v v M M b n v M v v v v v v v p x k u e 1 q u u 3 > ; ; 1 q 7 4 , 2 , 7 y k z S A D R +.$.%.*.>.>.>.>.>.>.>.1.,.>.*.%.=.$.=.-.;.;.3.5.3.s.3.s.8.s.8.s.8.s.f.f.s.s.j.s.s.3.s.3.s.3.t.3.3.3.6.3.3.3.3.3.3.*.*.6.s.s.t.6.0.u.u.u.s.s.3.s.3.3.*.s.6.6.3.s.3.3.3.%.%.%.%.%.3.*.6.6.3.*.%.3.*.%.%.%.@.$.#.| } J T &...' L A s a 0 r e 1 ; O = > e u r w 1 r p v p u d v v x x d v p x v x v v v v n v v v x v v n v n v v p d x v v p p u p p u r t u y t u p p x p v x v v x v x v v p p p p p p p v v v v v v v p v p p p p v v p p u u u u p p d v v v v v p x d v d x d u e r p u i < > - O < < ",
"8 7 y a k H X.2.*.+.+.+.+.%.;.%.%.%.%.%.%.%.s.3.3.s.3.3.s.s.j.s.j.x.s.3.s.s.s.s.j.3.s.s.3.s.%.%.3.%.3.3.3.3.3.3.3.%.3.3.3.3.3.*.3.%.;.3.3.3.3.3.3.%.%.3.3.%.%.3.3.6.3.3.3.3.3.t.3.3.s.&.*.*.*.%.$.@.| | @.@.$.@.+.@.@.@.$.$.$.$.| @.-.@.Q R T =.1.$.F C z a 9 8 < ; ; > < e u v u 7 e u u u p p p p p p p p p p v v p p p u p p p p x p p p p p p n v p u d x p p u p g p u u p d p u p x v x v v x p p p p d x p v n x p d x u u p x v v v v x x x x d c c v v n v M n B M v v v v v v v v v x c v p u e e 1 e e 1 > - ; 1 q 1 e 1 3 3 7 a k b A S D ` } $.*.*.>.>.-.>.>.>.-.>.*.>.=.$.$.-.%.=.%.3.3.3.3.8.5.8.s.8.8.s.8.f.f.j.j.s.s.s.3.s.3.6.3.3.t.3.t.3.3.3.6.3.3.s.*.*.*.s.t.6.4.6.0.0.q.u.3.3.s.*.%.s.%.%.*.3.3.s.3.3.3.%.*.*.%.%.*.*.3.3.3.3.*.3.3.%.%.%.$.$.$.} E J T $...` D C f a 0 3 u 1 ; O O < e e e 1 q u p g p u x v v g p v p p v x v v v v v n v v v x p x x p v x x x x v v M p u t p u u u p u r u u p x c x p v v v v v v v v v v x v v d c v v v v d v p v p p p p k x x c p u u p p p p v p v v v v p p p p u p p u 1 e u u u 1 < - O < < ",
"8 8 y d l L ..2.*.' +.+.%.%.;.+.%.%.%.%.%.s.*.%.s.6.j.3.3.j.j.j.j.j.s.s.s.j.s.s.j.j.j.s.s.s.s.%.*.3.*.3.3.3.3.3.3.3.3.3.3.*.3.3.;.%.%.3.3.3.3.3.3.3.%.%.3.%.%.%.3.*.3.3.6.6.3.3.*.3.*.*.*.*.*.#.$.$.+.| } +.@.+.$.@.@.+.| | $.$.| @.-.+.Q R J } &.&.J Z V s 0 6 : ; = ; < q u p p e e p p p v p u p p p p p d p v x v v v p p k p p p p c v v p v v v v p v v c p p p v x p u u v p u p c v v v p x d x p x n v u v v x x v v x u x v v v n n v B v v v v c v M M M B v v n v v n v v d v x x d v v x u 3 q e 1 e 1 < ; ; < e e r 7 3 3 r d b A l V D R #.$.*.*.>.*.>.=.*.%.%.$.%.=.=.%.-.-.-.-.%.;.3.3.5.3.5.5.8.8.3.8.s.j.f.s.s.s.s.s.3.s.s.s.s.3.3.t.3.3.%.3.3.3.3.3.*.s.*.*.6.6.7.q.g.p.y.0.%.s.*.s.s.3.3.s.3.s.3.3.3.%.%.%.*.*.%.%.%.*.*.3.%.*.3.*.*.*.%.%.$.%.%.@.} R R ..' ` P A f a 0 8 e 1 ; O - < q e e e e u p x x p p c d p p x c v p p d c d x x v v n v v v n b v p x d v v n M M x p r u u r u p u u u u p x v k v v v n v v v v x d p v v x x v v v v d x v v v v p p p p x p p v k p p c k p x x d v n v x p p p p p p u q 1 u u u 1 ; = o < 1 ",
"r r y f b H ..&.*.' +.+.%.%.;.%.%.%.%.%.3.3.%.s.*.s.s.*.s.s.j.s.f.h.s.s.j.s.j.f.j.j.j.s.s.6.3.3.*.3.3.3.3.3.3.3.3.3.t.3.3.3.%.3.%.%.%.%.3.3.3.3.3.%.%.3.3.3.3.3.*.3.6.3.3.6.6.6.s.s.*.s.s.*.*.*.$.$.+.} } } } +.| } } Q } Q } } $.@.=.| Q W J E &.&.L z l h a 7 > = O ; < 3 e u p e e u t u p u u p p r i p p p p c v d x p p p p x x p v v p p x v p p x v v k p p p v k p p g p p p v x p p v x x v x x v v x t p p p v B B p k n M n v v B B b v v v v v v M b B x v v v v x v v v v v x x x v M v u q q q q e q 1 > ; < 7 p u r 7 3 e a b b h z D R #.*.*.*.>.>.>.>.>.%.%.=.%.%.-.%.$.>.>.=.;.;.3.3.3.5.5.3.8.8.s.s.s.s.s.8.s.s.s.s.s.s.3.j.t.3.3.3.3.3.%.%.*.3.3.3.*.s.*.s.8.4.8.p.g.a.0.7.s.*.s.*.3.3.%.s.3.3.3.3.3.%.%.%.*.*.%.#.%.%.*.3.*.*.*.*.*.*.%.%.$.>.%.$.X.W K `  .` D A l y r 3 3 < = O - < 1 u e e u u p x d p p x v u u v d x p v v p x x p v x v v v v B B B v x x x v n v v x p u p p u u k p u i p v v v p v v n v v v v v p p x p p p p x x x x n n v v p v p p p x p p p x u p v v x p p v x v v x x c x v p p x p r e u u t 1 ; O o < 1 ",
"y y d d m F ' *.#.' +.+.%.%.;.%.%.%.3.3.%.3.s.j.*.3.j.s.*.3.s.j.j.x.h.f.j.j.j.j.s.j.f.s.s.j.j.3.3.3.%.3.3.3.3.3.3.3.3.3.3.%.%.3.%.%.%.3.3.3.3.3.3.3.3.3.3.3.3.3.3.6.t.t.t.6.t.t.*.*.*.*.*.*.*.*.@.@.#.} ' E } | } Q E E E E R R $.=.=.} } Q T { &.>.R C j s 0 2 < - O ; 1 q 3 e p q q u r u t u u u p u u p u u u u p x p u p p x d x v v p p p x u u u u p u p e p d p u u u v p u p p p p p x v n v d x v v p v v v u p v p q M B B M B B B B M x x v v x d c M v x v v v v v M v v v v v v x v b n u 1 1 1 e e e q < - > e u p r 7 1 3 a f l j z J `  .$.*.&.>.>.>.,.,.,.>.>.$.:.=.%.%.-.>.$.;.3.3.5.5.3.3.3.5.8.8.s.s.8.8.s.j.j.s.j.s.s.s.3.3.s.3.3.3.%.3.%.3.3.*.%.#.#.s.s.f.t.8.t.u.0.0.7.s.s.s.s.3.3.%.%.3.3.3.%.s.%.s.3.*.%.%.%.#.%.*.3.3.*.3.3.*.3.*.3.$.%.$.$.$.W P R  .' D A l f 8 3 1 > = o O > 1 e 7 u p p p p x p p x p p p p x x p p v v v p v v v v v v x v v x b M v c v v n v v d p c p p p x p p p p d x p u B B M v v v v n v v v n v v p v x x n M B M v v v v p p p p p p u e u g x p p p v v v p d x v v v p u x p u q u r p 1 > = O 1 e ",
"7 a a 9 z K { } { | +.$.%.3.%.%.%.;.3.%.;.7.s.3.%.s.s.s.s.6.s.*.5.s.j.s.s.j.h.h.f.j.s.j.f.j.8.5.3.3.3.3.3.3.3.3.3.3.3.3.3.3.3.3.%.%.3.3.3.%.%.%.3.3.%.3.3.3.3.3.,.4.0.0.7.4.7.y.t.6.>.*.1.>.*.#.$.| $.X.R R E K R L H J K P I R } $.=.| { R I { 2.:.H z m h y 9 3 ; O ; 1 q e q w e e u u p p p i u p t r e u u p t u p r p x p v p c d k p p u p u u p u p p p p p p u u p p r x p p u u p v n n p p v x p p n B v p p x p p p v v v n B B B B v x x n B v v n v v c v v M b c v v p p p x v v v u k i u u < 7 r i < , ; ; e r r 1 2 7 7 a k h l H P K | %.%.>.:.>.,.>.>.:.>.>.>.>.-.%.%.-.=.>.3.3.3.3.3.3.3.t.t.8.8.8.s.8.s.s.g.s.s.s.s.s.8.8.,.0.0.;.,.=.>.>.%.3.3.3.%.3.3.8.f.8.8.t.f.s.f.8.s.s.*.*.3.3.3.3.%.3.3.3.t.t.3.%.3.3.3.*.%.%.3.3.3.3.*.3.%.3.%.%.-.-.$.-.} } K W 1.X.R z C 6 a 3 < ; o O ; 1 q 1 e e u t u p x p x v v p p x p p p u p p p x p c p v v v v v v v v d d x v v v n v v v v p p p i u p p p p v v v x v v M M M v v x x v v v v x p x p x v B b M x v v v x d p p u e u u p p p x x n v p p x v c d x x p u u e w e p p e ; ; $ 7 4 ",
"8 h j h G W X.X.} | $.$.%.%.%.+.%.;.3.%.>.3.4.3.s.*.s.6.s.j.j.6.8.8.s.s.s.s.f.f.f.s.8.s.s.s.8.3.3.3.3.3.3.3.t.3.3.3.3.t.3.3.3.%.3.3.%.%.%.3.3.3.3.3.3.3.3.%.%.3.,.2.7.0.,.,.7.0.y.8.6.1.>.1.*.$.#.{ { ` P P K P { I K R P P K K R | =.=.W R I W 2.<.P m z h y 9 1 ; O ; 1 q e u e e e e u p p p u u u u p u u u p u p p u p v d p x x p p p p p p p p u p p p p x p p i u x x p p c v p u k c x v x v v v x x x v p p p p x p v v v n M v n v v b v v n v x x v M v v v M M v v v v v d c v v v v u v u u u 1 w u u < < > > u p t 7 5 7 8 h k j j Z J R | =.-.>.>.>.,.>.>.>.-.>.>.>.=.=.%.:.%.-.3.3.3.3.3.t.3.3.t.t.s.t.8.8.8.f.g.g.d.s.s.9.8.8.0.0.,.,.,.,.=.,.;.3.3.3.3.3.3.8.t.8.8.s.f.j.j.f.*.s.1.s.3.3.3.6.3.3.*.3.3.3.3.%.3.3.3.%.3.3.3.3.3.%.3.3.3.3.3.%.;.-.$.:.} } R W 1.$.` A Z 9 a 5 1 ; O O ; 1 e q 1 e i r p d x p p v p p x d p p p p p p p p p p p x v d p v v x v x x c v v v v v c p x p v x p p x p p p v v v v v M b n v v B M v v v v x x x d x c n B M v v v v x x p x p u u r p p p p p p x v x v x x x x v v x p y e q q r r 1 % %   4 4 ",
"8 h z z H { :.<.` +.$.$.$.%.%.%.;.4.4.;.;.7.3.3.s.s.s.s.6.s.j.s.8.s.s.8.5.s.j.f.s.s.8.s.s.8.5.3.3.3.3.%.3.3.3.8.t.3.3.3.3.3.%.%.3.%.%.%.3.3.t.3.3.3.3.3.3.%.%.3.:.4.7.7.7.,.7.7.u.8.6.>.>.>.$.$.$.` ` R P I ) K R R W ` W P P R W | | | { R R R 1.<.I z n y 9 r 1 ; = ; < e u r w e e e p p p p u u p p u u u r p u u p u p v p p p p c p p p p p p p p p p p p p d p u p p p p u u d x x d x p x v v n v v d p x p x x x d x v v B B M v x p v v v v x x x v v v v M n M v v v x p x v v v v v k p v u u u q e r u 1 < < < u p y e 5 7 5 h z k j Z J T +.*.:.4.>.>.>.>.>.=.>.>.>.:.%.%.%.-.:.-.%.3.3.t.3.3.3.3.8.t.f.f.s.s.f.f.h.g.f.d.q.9.q.8.0.5.,.,.=.,.>.=.%.3.3.3.3.3.3.8.8.8.s.f.j.h.j.8.s.*.s.*.3.6.3.3.3.*.*.3.3.3.3.3.3.%.3.%.%.*.3.3.3.3.*.3.%.3.*.3.,.;.=.=.} } R { 1.$.' S S 0 s 5 < ; O O > q u u q e u u p p v p p v v d p p x p p p p p p p d p p v v x p v v c x x v x v v v x x p p p p v x d p x x k x v v v x M B M v x v B B N v x p p x d x v n v v B v v v v v v x x p p p p p p p p p x p v B M v p p x x x x x u e e q u r 1 O # o 4 , ",
"5 9 j z G ..2.0.E | @.+.$.;.>.%.3.4.4.3.3.3.7.3.*.6.1.s.s.*.s.s.8.8.8.8.8.8.s.f.s.8.s.s.s.8.5.3.3.3.3.3.3.3.3.3.3.3.3.3.3.3.3.%.3.3.3.3.3.%.3.3.3.3.3.3.%.3.%.%.,.,.7.7.,.,.6.7.y.6.1.>.*.*.$.#...R R R K R { I I R { } W R R R R } | | | W I R 1.1.) H j y h 9 , ; = ; 1 u p p e e e e p p d x k x p p p p u u p u p x u p p p x v v p x p p p p p p p u p p p u u p u u p p p e u p p x v v x p v M v v v v p v v v b v x p x v B B M v d x v v x p x d v v v n v B v M M c d p p p x x p p x x p v u r u e 1 u t < < ; < u t t 5 5 7 7 j H m h Z J T +.>.>.4.1.,.>.>.>.*.%.%.>.>.-.%.%.-.-.-.*.3.3.3.3.t.3.t.8.8.f.f.s.f.f.x.h.d.f.s.s.s.u.q.w.,.,.=.=.,.>.=.;.3.3.3.3.3.3.3.3.8.8.8.j.f.f.8.*.j.*.s.3.3.*.3.3.3.3.3.3.3.6.3.%.3.3.3.3.3.3.3.3.3.3.3.3.3.3.*.:.,.=.;.Q } R W 1.&.' J D a h 6 < ; O = < 7 u p e e u u p v v v x v c p p c p p p p p p x p x p p x x p x p x k c x d v v v v x v v d p p p p p p p p x x x d v v b M n v v v n B N b v d x v v x v n M M v v v B v v v v v x d d p p p p u p x x n B B v d d v x x x p u u e q u p e % % o 4 1 ",
"5 9 k l z | y.i.' ' } +.%.6.3.%.3.3.3.3.3.3.7.7.*.s.6.6.s.*.s.6.8.8.8.8.8.8.s.f.8.s.s.s.s.8.5.5.t.t.3.3.3.3.3.3.t.3.3.3.t.3.3.3.%.3.3.3.3.%.3.3.3.3.*.3.*.3.3.%.;.,.,.,.,.,.3.4.8.3.>.>.*.$.#...W P K P P R { W } } } ..} { K J K W W | { R I I :.1.I m l 9 y r < > = ; 1 r p x e e e r p x v p v d p p t t d x v p x v p p p u v v p p p p p p p p t p p p p p u u u u p u p p u p x p p v x v x x v p d v n x x v v n c p p d c M B M v d c v p x p p p v v M v v b M B M d x v v v v x v v v x x n u e t 3 q u u 1 , ; ; e r 7 3 5 5 7 z P L h Z J Y #.>.>.6.,.>.>.>.>.*.%.%.>.-.:.%.%.=.-.>.3.3.3.3.3.t.3.3.3.8.f.f.f.s.f.h.g.g.s.s.s.9.q.9.0.5.;.=.-.,.>.>.3.3.3.3.3.%.3.3.3.8.8.f.j.f.f.8.j.s.6.3.3.3.3.3.3.3.3.3.t.t.3.%.3.3.3.3.3.3.3.3.3.*.3.3.3.3.3.3.-.,.=.-.Q } W W 1.&. .D S s h 6 ; ; O ; < e p x 3 e u u p v v p v v x p p p x p p p p p x x p c v p x x d x p p v x d v v v x x v p p p p p p p c p p p v p x x M b v v B v B v M v M v v M n v x v v B v v v v n v v v v v x v x x p p p p x v v M b M v v x x x x x p u u e 7 p p w > > # 4 4 ",
"9 9 l l j ..i.i.' E E Q >.4.8.3.3.3.4.6.7.s.7.s.s.s.s.s.s.s.6.s.s.8.8.s.8.8.8.f.s.s.s.j.s.s.8.8.t.t.j.3.8.t.8.3.t.3.8.8.3.3.3.3.%.3.3.t.3.3.%.3.3.3.%.%.%.3.%.%.,.,.,.,.,.>.>.>.,.>.>.*.*.$.#.' R K R W R } | { } } X.| | } { K K K W W R K K J :.<.) z k y y 9 1 < ; ; < u p p q e e u p k p x v v v u u p p v c u p d t u p e v p v v p p u u p p p p p x p x u p p x c d d x v n v x p v v x v v x p x v v v p x v n v x p x x v v v v p x v p p x p x v v v B B b M M M c d v v x d d x x x x d n p u u e 1 u u 1 < ; = 1 1 1 1 3 5 7 z I P h Z K Y | >.>.6.6.6.>.,.>.>.>.*.>.>.-.%.%.:.%.-.3.3.3.%.%.3.3.s.5.8.8.f.f.f.f.h.d.s.d.s.s.s.q.q.0.0.,.,.;.,.>.=.3.3.3.3.3.3.3.%.3.8.8.s.f.j.f.j.s.*.6.3.%.3.3.3.3.3.t.t.3.3.%.%.%.%.%.3.3.3.%.3.*.t.3.3.3.3.3.*.-.,.=.=.Q } Y K *.$.` A S a j 2 ; % - - < e p v e e e u p v v p p x v p c x v p p p x d p v v p v x p x v x p p x c x x v v c d p p p u p p x d v x x x v v v n M v v v B B B v v v n v B v B n v v M M B v v v M v v v n v v x v c x p p p d v B M v v v v v v c x c x p u e q t p w # % o 4 4 ",
"9 9 h l k ..0.0.' ' E +.%.7.8.6.4.4.7.s.s.7.s.t.j.6.*.s.j.s.s.j.f.8.s.f.s.8.5.s.t.s.s.j.s.8.8.8.t.t.j.t.t.t.8.8.8.8.8.8.8.3.3.3.3.3.3.3.t.3.3.3.*.%.3.%.%.3.3.%.,.,.,.,.>.>.>.-.$.$.*.&.$.#.' E R K Q } { } $.} { | | X.X.=.| } K K K W R K K L X.<.P z l a y 8 1 1 ; = > e p v e e u u p x x p n v c p x p p x x u p p p r p u p x p p p p p u d p p p p d x p p p k v v x v n v M b v x v n v b v v v v x x M v x v v b v x x x d x v v x p x p x x d x v v x v v M M B M v c v x x x x p p i p p v u u p e 1 p p q < ; = 1 1 3 7 7 7 7 z P H j Z J T +.>.>.3.6.,.>.>.,.1.>.*.>.>.-.%.%.%.:.-.3.3.3.3.3.3.3.3.8.8.8.s.j.j.h.f.s.d.d.f.d.s.q.0.0.0.,.,.=.:.,.=.3.3.;.3.3.3.3.3.3.8.3.t.8.8.f.t.6.6.3.3.3.3.3.3.3.3.3.3.3.%.%.%.%.%.%.%.%.%.3.3.3.*.3.3.3.3.3.3.-.,.-.:.Q } R P &.$.` Z Z s j 7 ; % - ; < e p v e e e u p c v u x v v x p v d x v x x x v v v v v d c v v p p p v d x c p v v x p p p p p p p p p d x v v v v v v v v v v B B v v v M b v v v n v v v M B B v v B v v v v v v v v v v p p p p x v B v v v v x v x x M x p u 7 q p y 7 ; % X 4 > ",
"5 5 a k j ..y.1.' ' +.#.%.3.8.4.3.s.6.s.7.t.s.7.s.6.s.j.s.j.s.j.h.s.s.h.f.8.8.8.s.8.s.s.s.s.8.8.t.j.j.t.3.t.f.8.3.8.t.t.8.3.t.3.3.3.%.3.t.t.t.3.3.t.3.3.%.3.3.*.,.3.,.>.>.>.-.%.} +...#.+.} E R R K { | Q ..} } } X.=.| } } } { W R R W R R I K ..:.P z k h y 5 1 1 ; = ; e p p 3 e e i p x v p v v v v x d p p d p v v x x v p p p x d p v p p p p p p p p p p g p x n v v x n v v v x v v B n B n v B M x x M B n v B N B v v v v v v v v v p p v v x d v v x v B M M M M v v x v n n v v p p u p n p u x e 1 p p 1 1 > O 1 1 e 7 8 7 5 z H H j J J T $.*.>.1.7.3.,.>.,.>.>.>.>.>.=.%.:.-.-.-.3.3.3.t.3.3.t.3.8.8.8.j.h.h.f.f.h.s.h.h.g.g.q.0.5.4.0.4.,.,.=.,.3.3.3.%.3.3.3.8.8.8.3.3.3.3.3.8.j.6.6.3.3.%.3.*.%.%.%.%.%.3.%.%.%.3.3.3.%.3.3.3.3.t.3.t.3.3.3.3.-.5.-.,.} @.T J &.$.` Z A s l 6 ; ; ; ; 1 r p n q e e u p k v u p v c d p v v p d c v v v v v v v p x n n x u u v v x x d v x x c p p p p p u u p p x p p v v n c v v B B B B B B B v v x x v x v v v M b B v v v v v v v n v v v n v v p p p x v v v n v v v v x x x x p e q q p p w % % o 4 > ",
"5 5 h h V G 0.,.K W W =.3.6.4.3.3.7.s.s.s.t.s.s.t.s.6.j.s.s.j.s.f.x.h.h.j.h.f.f.s.s.s.j.h.h.j.8.j.f.8.8.s.t.s.8.t.t.8.8.8.8.3.3.3.%.3.3.3.3.t.t.3.%.s.*.%.>.3.3.-.3.4.,.-.-.=.@.+.+.E E T R T T R R { | | X.| | X.| } X.| | } } K W W | W W K J W ..R k z y y 7 , 1 < % ; 1 p v u e 3 u p c v v v v p u p v v v v c x x p x d p v p p u p d p x p x p p p x x i p p p p v v v v n v v v v v v B v n B v v v v b B M v v v n n v n v v v v v x v d v v v M v v v B N B v v v M b x v v v v v x k p d x p u e q e u u e < ; ; > e 7 7 8 r r z H H l Z J E | %.>.>.>.3.6.,.>.1.>.>.$.>.>.*.%.:.>.-.6.3.6.3.6.t.3.s.3.s.s.s.j.h.j.f.h.h.h.h.s.s.s.s.0.4.,.,.,.,.,.-.%.%.3.3.%.;.3.3.3.3.3.3.3.3.8.8.t.t.t.3.3.3.3.3.3.%.%.%.%.%.3.%.3.%.%.3.t.3.3.3.s.3.6.3.3.3.3.%.-.,.-.-.| @.W K ..} R C Z s s 7 ; O = ; < u v c 1 1 3 u u g d x n x p p v v v p v p p x c v v v v x p p x p p p x p x p x v v v x p v p p p r u p p p p p p p v B B v M n B B B v v v v v v x x d v B B b v v v v M v M v x v v v v v x p x v v M v M v M v v v x i p x p u e u e 7 1 # # # > 4 ",
"9 5 9 h V G 0.=.K W W | 3.4.4.3.7.7.7.s.s.s.t.t.s.6.6.s.j.s.6.s.s.8.f.f.h.f.h.j.f.f.s.8.s.8.s.8.8.8.8.8.8.8.t.f.t.f.s.8.8.8.8.3.3.3.3.3.3.3.3.3.s.s.*.*.>.>.>.3.,.,.,.:.;.=.@.} U U T R R T R R Q } } } } } } } | } } | | | } { W W W W W Y J H I  .{ l z d y 5 1 < < ; ; e p v e e u u p d x p x x p p p v v v v d v v v p x c p p u i p u p u p k p p p c p u p p v p v p v p x v n v B v M n v v v B B B B B b M n v v v v v v x x v v v v v x v n v v n v B B B M v N B B x x v v v x c v x p p p x p r e q e u 3 % = O ; q 1 < 8 r y m I L Z S T W | -.,.>.>.3.6.3.>.,.>.>.-.1.>.*.%.>.,.>.*.3.3.3.3.3.3.t.s.s.3.s.s.s.s.j.g.h.h.g.s.s.s.s.w.4.,.,.,.,.,.,.%.;.%.;.%.%.3.3.3.3.3.3.3.t.t.t.3.t.3.t.3.3.3.3.3.3.3.3.3.%.3.%.%.%.%.3.t.3.3.3.6.3.3.3.3.3.3.;.,.4.-.:.} @.R K ' ` ` l z s s 8 > O = ; > e x k e e e u u p p p v v d x x v v v p v p x v n b v p p v p x d v p v c c d v p d x p d p x v p p p p p p p p p p v c v v v v B B B B n M B v v v v x v n M v v v M v n b v v c v v d v v v v x v v b v v M n v v c v x x x p u 3 q r 4 1 # # # , 4 ",
"9 5 9 0 j G =.X.K W W =.3.4.4.3.3.s.t.s.s.t.t.s.s.s.s.s.s.6.s.s.8.s.s.j.h.f.h.h.h.f.s.s.s.s.8.8.8.8.8.8.8.5.8.f.s.8.s.t.8.8.3.3.3.3.3.3.6.3.t.t.*.s.3.3.>.3.>.*.3.;.:.,.;.=.} W J U T R E ' ' } | W } } } } } } | | | | | } } W | Q W K Y K J H { X...z z y y 8 1 < > ; < q p p w r u u p p p x d p p p p v v v v v x v v v c x p p p p p p p u u p p i p p d p p v p v p v v v d v M B B M v b v v v n B B v B M v v v M v v p x x x v v v v v x v v M M v M v B B M b F ! n x v v x v x v v v p p v x p t e e u u e ; - = > 1 , , 8 r 9 G I ) S J K W $.>.,.>.>.,.6.>.,.3.,.>.,.,.,.>.>.>.,.3.*.6.3.3.3.3.3.3.s.6.3.s.s.s.s.s.h.h.d.d.s.s.s.s.0.4.,.,.,.,.,.,.;.;.%.+.%.%.%.;.3.3.3.3.3.3.3.3.3.3.3.3.3.3.3.3.3.3.3.3.3.%.3.%.%.3.3.t.3.t.t.t.*.3.*.3.3.3.6.3.,.4.=.-.} | K K } ` { z z a a 6 < @ ; ; ; q p p e e e u u u p p p x x v v v x v p v x v v v v v p p x v v v v v v v p x c p x p t p u p u p p p p p p p p p p p x x x v v v B M B M v b v v v v x v v n v v v M v v M v v k v n x v v v v x p v v v B b v v v v v c x x p u 1 1 t 4 1 ; o # > 4 ",
"5 9 h h y G X.| W W | =.3.4.4.4.s.7.t.6.s.6.s.7.s.6.s.6.j.s.6.j.8.8.f.s.f.j.h.f.j.s.8.8.8.s.8.8.s.s.s.8.8.3.8.s.s.s.8.f.s.8.8.8.3.3.3.t.3.3.3.3.s.*.3.3.>.%.>.%.;.,.;.,.-.=.} W U R ' } } +.$.#.| | | | | | | $.| | | | } } } Q | Q W W Y K J J X.O.X.l j 9 y 9 3 < ; - > e u x e u p p p u v v x x x p p c v v c v x d p x x d x p p p g p p p u u u e u p x p p p v v v p x v x v M B M M v v B M v v v B v x v v v v v v v p p d v x v d v v p v v v v B n B B B v M v n x u B B v v k v x v p p v x u u e w u p e > ; ; ; e 5 1 8 r h m ` ) S J I } $.>.,.3.,.6.7.6.>.,.1.>.>.4.,.>.>.>.6.,.*.s.*.*.3.t.s.s.6.s.s.s.s.s.j.j.h.s.g.d.s.s.s.s.0.4.,.;.;.=.=.=.%.3.3.3.;.;.3.3.%.3.3.3.3.3.3.3.3.3.3.3.3.3.3.3.3.3.3.3.3.3.t.3.%.3.3.6.3.3.3.3.3.6.3.3.3.3.3.6.-.4.=.=.} X.R K X.$...S l 0 0 6 > - ; ; ; 1 u p e e e e u u u u p p v v v v p p v p d x x p p u x d c v v v v v v x v p p p p p p u u u u u t p d p v p p p p c x d v v v v x v n M M v v v v v c v v v v v v M v v v c v x x v v v v v v v v n v B v b B v v v M x x x p r e q e e 1 % o # % 4 ",
"5 5 9 j z j {  .I | $.>.=.,.4.8.t.s.7.s.7.s.t.s.6.6.3.s.6.6.6.s.8.8.s.f.f.f.f.j.8.8.8.s.s.s.8.8.8.8.f.8.3.5.8.8.s.8.s.t.s.t.8.8.3.*.3.3.3.s.3.3.*.s.*.*.;.;.*.%.=.;.,.3.3.-.@.@.+.#.$.$.*.$.$.$.@.$.$.$.$.$.%.$.$.| X.@.@.$.| } | W W W W R J H `  .` h h 7 6 5 7 < ; = < e p v e u d x x p x c p c v p p v v p x p p x p p p p p u r p u p t r u r u e u u p r p p v p x x x v v v b M v v v v v v v v M v v x v v B v v p d x d p p v x x p v x v v v M M v B B v v d x p p v ! B M v x x v p p v v p p p u 7 u u e ; ; O ; < 7 4 8 9 9 H ` ) Z J T } $.,.6.7.8.r.8.2.,.,.>.>.>.,.6.,.>.,.>.>.*.s.*.s.3.s.6.s.s.6.3.s.s.s.s.s.s.s.s.s.s.s.3.s.0.0.,.-.>.>.*.*.3.3.3.5.3.3.3.3.%.%.3.%.3.%.%.3.3.3.3.3.3.*.3.%.*.3.%.3.3.3.3.3.3.3.3.3.*.*.s.*.s.6.s.*.4.3.;.>.-.,.$.$.Q } W K %.$...S l 0 a 6 > - ; ; , q u p u 1 1 e p x p u e u p v v x v x v p v p p x p u x v v v v v v v v v x p p p p p x p p p p p p u p p p p p g k v d c v v v x v v M v v v d v v v v v v v v v v v B v v x v x x p v v v v p c v B M M M M M v M x M M x x p p e q e e 1 > # o > 4 ",
"5 5 9 h K K | { W { =.=.-.=.3.7.s.t.t.s.t.s.s.s.6.s.s.6.3.s.s.6.s.f.f.f.f.s.s.s.s.8.8.8.8.8.5.3.5.5.8.5.5.3.8.s.8.s.8.s.f.s.s.8.3.6.6.t.6.6.3.3.3.3.s.*.%.3.;.%.=.-.;.3.-.-.=.-.$.%.*.*.*.$.$.$.;.:.:.-.-.=.=.=.$.$.$.%.$.$.$.| | | W W } R J z H R ` h k 9 9 * 1 > = > 1 u p v t u p x d c x k p v v x p p p p p x x p p p p p p u u u p u u u u u u r u u p u p p p p d p p p d x x v v v v n x d x x v M v v M v M v v v c x c v v v v x d p v b B B B B B B v x x p u p v B ^ B M v v v v p u v n p u p u w u p u < > @ ; 1 7 4 7 9 j L ] ` H Z J } %.>.3.6.6.8.7.,.>.>.,.>.%.,.6.3.>.,.,.>.s.*.s.*.6.6.3.s.6.s.s.3.3.s.s.s.s.s.s.s.s.s.s.3.4.4.4.,.>.3.3.3.3.3.3.3.3.3.3.3.3.%.3.3.%.%.%.%.3.3.3.3.3.3.%.%.3.3.3.3.%.3.3.*.*.3.3.*.s.&.s.s.s.6.s.s.6.>.*.>.-.>.$.=.Q } P K X.X. .z z a a 9 < - ; < < e p p e e q e p k u u q e u p x M b v v v p v x v v v c x v d v v p p p p p p p p p x p d p p p u u u u u u u p p x x p x x x v v v v B v v v x v v v v v v v v M M v M v x x x d x p v v v x d v v M M M M M M M v M N N M x p i e 1 r t 4 > # o # 4 ",
"5 5 9 h | W =.| W { | =.>.3.4.7.3.s.s.s.s.j.s.j.6.3.s.s.s.s.6.s.8.f.j.f.f.f.s.f.s.s.8.8.8.8.5.3.5.5.3.5.8.8.8.8.f.s.s.s.s.s.8.8.3.3.3.s.6.6.*.s.*.s.*.*.3.*.>.-.-.;.=.=.-.-.-.-.%.*.*.*.*.*.&.&.,.,.:.>.>.-.-.-.=.%.=.%.-.>.%.$.@.| W | { R H z I R ) h k 9 8 4 1 - - < u p x v t u p p x x p p p v v p p d x p d x p x p p p p p p u u p p p p r u u i u u u u n p u p x v v p x x v x x x c v p p x v v v b B B v n v v p p v v x p v x v v c v v B b M M M B x x d x p x v B B n x x x x x p u k v p u u u e p d u < ; = ; 1 4 , 5 a G ) { P S H P { $.%.>.,.>.,.,.>.%.>.>.*.>.>.6.3.>.>.1.>.*.s.6.6.s.3.6.3.s.6.3.3.s.3.s.3.s.s.s.s.4.s.s.3.4.4.7.3.>.4.3.3.3.3.3.3.3.3.%.%.3.3.3.3.3.%.%.%.3.3.3.3.3.%.*.3.3.3.3.%.3.*.*.3.3.3.6.*.6.s.s.*.s.s.6.6.3.3.3.,.,.,.=.=.} } K K X.} { V z h j 6 < ; ; < q i p u 1 e u r u p t t e e u p v B M B n v v p v v v n p x x x c p x x g p x p p p p p p t u u t r r e r t u u p u p p p d x p x v v n v v v v v v v v v v M v B v v v v v d p x x v d v v x p d x n M M b M b M M M v v ! M x p r e < t e e > # o % 4 ",
"* 5 9 V ) G W { W W | =.3.7.8.8.s.3.t.t.t.7.7.s.s.s.6.j.s.6.s.s.s.f.h.f.f.8.f.f.h.s.s.8.8.8.8.8.8.8.3.5.8.8.s.8.f.f.s.t.s.s.8.3.s.3.3.3.t.3.*.s.*.*.*.s.*.>.>.=.,.=.=.=.-.-.,.:.$.*.*.*.*.*.>.*.=.,.,.,.3.3.>.>.-.=.-.>.>.>.>.%.,.=.| W W W H G { ] L 9 y 5 7 4 > = - 1 u k v p u r u p x x p u p x p p u p v x c x x d c p p p p u u e r u t u t p u y u p u e n k u u p v v p x v v v v p p p p v v v v v v v M M B v x p v v x v v x x v v v x x x v v v v v v v v v n M v v n v p d d v x p u v v u u p p r t p e ; ; = = > 4 , 5 a G ` ] H J H K E $.$.*.>.%.>.*.$.$.%.%.%.,.6.6.>.>.,.6.3.6.6.s.s.6.s.s.3.3.s.3.s.3.s.s.s.s.s.s.3.s.s.7.s.5.7.6.3.*.6.3.%.5.3.3.3.3.3.3.3.3.3.3.3.3.%.%.%.3.3.3.3.3.3.3.3.3.3.3.3.3.3.3.3.s.6.6.*.6.6.s.6.*.*.s.6.3.3.3.4.,.5.-.,.} } K J $.X.} H H j a 4 1 ; > 1 r p p e < e p p u u r u p p r p x n B n n v v p p p p v p p p p p x p d x v d p u p p u u u p u p p u u u p u p u u p p x x p x d x v v x x x v x x p d x v M b B n v v v x p x x v v x d p x v x x v v M M B B B M v M x v v p u t e 1 u t w 1 # o > 4 ",
"* 5 9 h K [ X.<.| } } ;.0.0.0.a.q.q.q.q.f.s.8.5.q.q.8.q.s.f.q.8.8.8.f.h.f.f.f.f.j.s.s.8.8.5.8.s.3.5.8.8.8.s.t.t.s.s.s.8.8.t.8.5.s.3.3.3.3.3.3.3.3.3.3.%.3.%.3.%.%.3.*.$.$.3.3.&.$.$.#.%.>.1.>.*.%.-.>.:.,.>.>.>.-.-.$.-.>.:.-.$.:.%.$.X.R ` Z Z I ) I r 7 , 7 % O - ; , e v v x p e u v v p u c x v p r p v x v p p u p p p p u p p p p x x p r u u u u u u u p p r p x u p k u u p v v x x x p x x x d v n B M B v v v x p d x x x p x x v d v x v B c v M v x v x v n B b p u n v p x v v p u v x p p p p u e r p e 1 ; O O ; > 4 y y G R P R z H Y Q | Q =.=.%.%.%.#.%.%.%.%.%.3.3.3.3.t.3.t.3.3.t.3.8.t.3.3.8.8.8.8.8.t.8.8.7.s.s.s.7.s.j.s.6.3.3.s.%.3.%.s.5.8.8.3.3.5.5.8.3.3.%.3.%.%.;.3.3.3.3.3.;.;.;.%.%.;.3.4.s.3.3.3.3.3.3.3.s.7.s.s.s.6.6.*.*.*.s.%.3.4.;.-.+.+.T K X.:.&.P k h y 7 3 < ; < u p d p 1 e u i u u p p u u t r p n B B B x p p x p p x x p v p p p p p u v k p u x p u u u u u t u r u u u p r p v v e u x n v p p x v v x p v v p p v B v v M n v v x p x v v x x x v n x p v M v x x v B B B M B B x x p v p p v e q u v e > ; O ; > ",
"* 9 0 h I O.,.0.{ W } ;.0.9.0.g.f.q.s.q.q.q.8.5.q.8.9.q.8.9.8.4.8.s.f.f.f.8.8.f.f.f.s.8.8.3.5.5.s.8.8.s.s.s.f.f.s.s.8.s.s.8.8.5.6.s.s.6.3.3.3.3.3.3.;.%.%.;.%.%.>.3.3.&.&.*.*.&.*.*.&.*.>.*.*.$.-.=.%.%.>.>.-.=.-.=.$.$.-.-.-.$.=.=.$.X.R } A Z I ) _ k r : 5 ; ; @ ; < u v n x u u r x k u u d p v p u p d p v d c v d p p c v u t r t p u u u e 7 7 e e u u u t e u p u i p u u v x v x d x v d x x v v v v n v B v B v v c v v p p d v x x v v v x y p v B F B n x v v v x p M v n v v v v x b n v p d u u q u u e < ; O O , : 5 y y z W P P j H Y Q | =.=.=.3.%.%.#.%.%.3.%.3.3.3.3.3.3.3.3.3.3.3.t.8.8.8.3.8.3.3.8.8.t.t.s.7.t.j.7.s.6.6.s.3.3.3.6.s.3.3.3.3.3.3.3.3.3.3.3.3.3.3.;.%.%.3.3.3.3.3.3.3.3.;.3.%.3.3.s.3.6.3.s.s.6.3.3.3.3.6.6.s.s.s.s.s.*.3.3.3.5.3.3.} +.Y J W X.X.H h h y 9 1 < ; < e p x p 1 e r p p u u p p x p u p M B B n v p x p p p x p p c v v x p v u p p p i p u e d p u p p p u u u i u t u x p r p p x k p p x n v p p v p p p v B v p x v v x x v v v v v x p p v x p v v v v v v M v v v M v p p d v p p k w 1 u p u , = = = > ",
"* 9 h G G | ,.:.K I } 3.0.0.y.g.f.u.q.s.q.8.5.4.8.8.q.8.q.8.5.8.s.f.f.f.s.8.8.f.s.s.s.s.8.5.3.5.5.5.5.8.s.s.s.s.8.8.8.8.t.8.5.5.3.7.7.7.s.3.3.3.3.%.%.%.%.%.3.%.*.3.6.%.*.*.3.&.>.&.$.%.*.*.*.&.>.$.$.$.>.>.-.$.-.%.@.$.$.-.$.$.:.$.$.| P ` C l P _  .k r > , > ; ; ; 1 u v n x u u p p p p u p u p u u p p p v p x p p u u x v r u u p p p u u u e e u r u u u p r u p u u k u v v v v p v v v x v v v M M B n v B B B v v v v v x x v v v v B B x p p p p M ! ! B v p p x v M v B M n v p n B ! B B x c p e 1 u p e < ; = - < 4 7 y y G Y L L z H K W | @.=.=.%.%.%.%.%.%.3.3.%.3.3.3.3.3.3.3.3.t.t.t.8.8.8.8.8.8.8.8.8.s.s.8.s.s.j.s.t.6.s.t.3.3.3.s.3.3.3.3.3.3.3.3.3.3.3.3.3.3.3.3.;.%.;.3.3.4.3.7.3.3.%.%.3.3.s.7.s.6.s.3.3.s.s.s.s.3.3.3.6.3.6.3.3.%.%.%.4.5.3.3.@.@.Y J ` ....L k y y 7 3 < ; > u p p p e q u i p p p u x d p u x M B B B x x d p p p x r p p v v v x v p p p c d p u r u p u p t u u 7 u r u u u u u u p p p p u p x v v p p p v v p v v p i p p x d v n x x x d v d p v x v v v v v b B B M n b v v p p x M x u u 1 e p d u < ; O O ; ",
"* 9 a G g W O.W J K Q -.0.0.u.u.u.s.s.q.q.8.4.4.8.8.s.s.8.8.8.8.8.f.f.f.8.s.8.8.s.8.8.8.5.3.3.3.3.3.8.8.8.t.s.s.8.8.8.8.8.5.8.5.3.s.7.7.3.7.7.3.3.3.3.3.3.3.;.3.6.3.6.6.3.*.>.$.$.&.$.$.*.>.1.>.-.%.$.$.$.%.%.%.>.%.$.$.$.$.$.$.:.=.$.| P R l l H I ) v 7 , ; % ; ; < 1 u v M x e p c p u p p p u p i e p x p p u i p p p u p d u p p p u u t u p p u u i u k v v p v v p x n v k c v v n v v c v v v v v M B B v v B v B v v v v v v M B M n B M x p v B v v B B B v p p x n B v v M v x k M B ! B n v v p e e u i e < ; = - < 4 8 r r G { L H j J K W | @.@.@.%.3.%.3.3.%.%.3.3.*.3.3.3.3.3.t.3.3.3.t.8.8.3.3.t.t.3.8.8.8.8.t.j.s.t.s.7.s.s.s.s.6.s.3.s.3.3.3.3.3.3.3.3.3.3.3.3.3.3.3.3.;.%.3.3.s.7.3.3.%.%.%.3.3.s.7.s.3.3.7.3.3.3.6.3.6.s.3.s.6.3.3.3.s.3.%.3.8.4.4.@.@.E J { X.X.I l a 9 4 1 < ; ; e p x p e e e r p d p i p u u p d M ^ B n v v p p p p p u u p v d x p p p u p v v u u p u u t r e u e 1 u u u p p r u u p u u u p x d v v p p p v v x p x p p p d p p c x p p p v c v x x v n v v v M B v v n M B B B M x p v p u p 1 q u v u 1 > = O = ",
"* 4 G h h I | H H K W =.,.7.0.w.f.f.q.q.q.8.5.8.8.q.f.f.q.8.8.q.8.s.8.s.s.s.8.8.3.5.5.8.5.3.3.3.8.8.s.8.s.s.s.f.t.8.5.5.5.5.8.8.7.7.s.7.s.7.7.3.s.%.%.3.3.3.;.3.>.6.6.>.*.*.*.&.%.$.$.&.*.>.>.>.%.-.=.%.$.$.=.>.-.%.$.$.$.$.%.%.:.$.X.} J I l j L P G v 8 , % o ; - ; 1 u v n d e p v p i x p u u p p t x x p c u p x v v c x p d p p p p y u u u p t r u p p p v p p v u p v p p v v v v v p p v v v v v B B B B v M M v v v c v x d v n v B B M p x ! _ ! n n v n v v v v v M B v x x k v M B v M n p p p u r e t e < ; = O > 7 7 9 8 m ) H H j H W Q | @.@.=.%.%.3.%.%.%.3.3.3.%.3.3.3.*.3.3.t.3.t.8.8.8.8.3.8.8.8.3.8.t.j.s.j.s.j.s.3.s.s.7.6.3.3.3.3.3.3.3.;.3.3.3.3.3.3.3.3.;.3.3.%.%.;.3.s.3.3.3.3.;.%.%.>.3.3.3.3.3.3.7.3.6.3.3.3.s.7.j.s.s.3.3.s.3.3.%.3.8.4.4.$.%.{ K { ..O.) z y 8 7 q > ; ; 1 p d p e e e u p v p p u u u p p v B B v n v x p u p t u t p p d p u p p u u v p u u t p p u u e t p y u r u d x p u v p p p p p v p p b v x v v v d u p p p p x d x x p p x p p v v n v M n B n n B N v v b M B n M B v p v u p x e 1 p v p 1 < ; O - ",
"$ 5 9 h G { { G H J W @.,.4.0.0.8.f.s.f.q.q.q.s.s.s.s.f.f.q.f.s.s.8.s.8.8.8.8.8.3.3.5.3.5.5.5.5.8.8.8.8.8.8.s.s.f.s.s.3.5.5.8.s.t.s.t.s.7.7.7.3.s.%.%.3.3.%.;.3.6.6.6.>.3.*.3.*.>.:.*.*.%.&.*.=.%.:.>.%.@.$.%.-.-.%.%.%.%.%.=.:.=.$.X.} J T l l H P L z 7 4 % O ; ; ; < u v v x u u p p p k p u u p p p x v p v p p p v v n x p x p p p p p u e p p u p u p p x v p v p p d v p u u p v x p p u v v v v M v B B B B B B v v v v v x x v v v v v N d d B ( ^ B B x v v M v v v v p p p u p p x p p x x p u i u t e u e , ; O O > 4 5 9 7 z I L I V J Y Q @.@.@.=.%.%.%.3.*.%.3.3.3.3.%.3.3.%.3.3.3.t.t.t.j.8.8.8.3.3.3.8.8.8.s.s.s.s.6.7.t.t.3.s.3.s.s.3.3.3.3.3.3.%.3.3.;.%.3.3.3.3.%.3.3.3.%.3.3.3.3.4.3.3.3.3.%.3.3.3.3.3.3.7.3.3.3.s.3.3.7.s.3.3.s.3.%.3.3.;.;.q.4.4.$.>.} K { }  .I z h t 8 e < = ; q u p p q e e u p p v v v p u p p u p v v n v p u p r p u p p v x p p p v p x d v p u p p k p u u u x x p t u v v x d v k x p x c v v p M n v x x v x p p p p v v x x v d v v c p p p v v v M M n M B B B v M v v x x v v p d u u v u w p n p q 1 < = ; ",
"$ 5 5 y G { R J G J W =.,.,.7.8.8.8.8.q.q.q.f.f.f.f.q.q.u.f.f.f.8.8.8.s.s.8.8.3.3.5.5.3.5.5.8.8.8.5.5.3.8.8.s.8.s.s.t.s.5.3.5.s.s.t.s.t.s.7.7.7.3.3.%.3.3.%.%.3.>.>.*.3.*.*.*.3.%.%.>.-.%.$.%.%.=.=.%.%.$.$.$.:.$.$.=.%.%.%.-.-.=.X.| W H P l j G / m n 7 1 % % ; ; ; 1 u v v p t u u p p p u e u p p r p d u p p p d x k x p p v x p p v x u u u u p p u p p p x p x v x p v u v p p p p x p p v v v M M b B B b N N M M v v v v x x v v v v v M v c b B B B M v x x v n v d p u u r u u p p u p p d p u u u e r u e < > = O ; 4 5 7 7 k ) I ) V H W | @.@.=.@.%.%.%.%.3.%.3.%.3.%.3.3.3.3.3.3.3.8.t.8.8.8.8.8.3.3.3.8.8.8.t.8.s.s.s.3.3.s.s.3.3.s.6.3.3.3.3.*.;.%.;.3.3.3.3.8.3.3.3.3.;.3.%.;.3.3.4.3.3.3.3.3.3.s.3.7.s.s.3.3.3.3.3.3.s.7.7.t.3.s.%.%.s.%.%.%.3.9.8.4.$.:.} K { ....I n a 9 9 e , - ; 1 u p p u r u p p p p p v x p u t e u u p x x p u p p p p p x k x p p p v n v v x v c x u p x u e u u u u t p p x p x p g p x p p v x d v n v p p x x d v p p v v p x v c v x p p p p x x v b M v B v x B v v v x p d v v p v p p v r w p v p e 1 > = ; ",
"> 4 5 h I ..R K j J | =.2.7.7.0.4.8.8.8.8.8.u.f.f.s.8.q.f.f.g.g.s.f.s.8.s.8.5.3.3.5.8.8.5.8.5.s.s.s.5.5.8.8.s.s.8.s.f.s.8.8.8.8.7.s.7.7.s.t.t.s.s.>.3.3.s.%.3.3.>.>.>.*.*.3.*.*.$.$.%.*.=.:.-.-.>.=.$.$.$.$.=.$.$.$.%.%.-.=.-.-.$.$.| { J K j l z P S m , , % & ; = ; 1 r v v p p u r t p u u e e p u u p p t u p x v p u u p v v x p p v n v y u r t u u p p p p p p c p u p u n v p p x d v v v v v v v M B B v v M v v v v b n v x v M v v v c c v M v x p d n v x d v v p u p p p p v p p p p p x p r e e 1 u u u 1 < - o ; 4 4 9 5 k I I  .V J W @.@.@.@.=.3.%.%.%.%.3.%.%.3.%.%.3.%.%.%.t.3.3.3.8.5.8.8.3.3.8.3.8.8.t.8.8.3.t.3.s.3.3.3.3.s.3.6.%.*.3.3.3.%.3.3.8.8.3.3.3.3.3.%.3.3.3.3.3.4.7.7.3.3.3.3.%.%.3.s.7.7.3.3.3.3.3.3.3.7.s.s.7.s.6.s.s.3.3.3.%.3.u.8.7.$.-.{ K } &.O.I z 9 7 7 r < ; ; 1 i u p t u p p p p p p d p p i r e e p u p p p r p x x u p x x x p p x x v v u u k x p i v d u u u p r p p u u p v p u v x v p p u x x p p v u p p x x x p p p p p v v v d u p p v v x x v v x B B v p v v v n v p x v v v B p u p e e p v p q < ; = ; ",
"* > 5 G G W W R Z K X.$.:.>.,.7.5.5.8.q.f.f.s.q.8.f.l.l.f.f.8.8.8.8.8.s.s.s.8.5.3.5.3.3.3.8.8.8.8.5.5.8.8.8.f.s.s.s.s.8.s.s.8.8.4.s.j.s.t.t.7.3.6.;.;.3.3.;.%.3.6.6.6.*.-.-.-.=.-.-.-.>.>.-.-.=.$.$.$.%.$.@.$.%.$.$.$.@.$.$.-.>.$.$.| W P H j 0 H L G k r , % O = ; < 1 u p c c 1 e u e e u u e u t e e i p p p p p x p v p p v v v v n v x u u u u u p p p p x v v p x p u e p v v c x p p p x v u k n v v B M B B B v v v v v v v x v v v v x n x p p v v p u p x p p p p p p e r p x v p p p x p u t p p e 1 u t r q < ; ; ; 4 4 8 4 l I R [ J K W | =.=.;.=.%.3.3.3.%.%.3.3.s.*.3.*.>.3.3.3.3.3.3.8.t.8.8.8.t.8.8.8.8.3.8.t.3.s.3.6.3.3.s.3.3.3.;.%.%.%.;.3.3.3.3.3.3.3.8.3.3.3.3.%.+.%.3.3.8.8.7.7.4.3.%.%.4.4.4.4.5.4.3.-.%.%.*.3.s.s.s.s.3.3.6.s.s.6.*.3.3.q.8.q.%.%.W K R ..O.) z y 8 r e > = ; q u u p e u p p v x p x u u r p p t u u r p x d x p v p g p p p p p k v p p u p v v p u x x v p u u r u u p p p p x d x p v v x p x B B p x v M v d v v d c p p v v x x k p p x v v v v d c v v v v v x v v M v n v v v v v B p p p e e u v p e 1 > = - ",
"> 5 9 h G K [ W Z P | %.:.>.,.0.5.8.8.s.f.f.f.f.q.g.l.l.k.f.f.f.s.8.8.8.8.8.3.5.3.5.5.3.3.8.8.5.8.8.8.8.f.s.f.s.8.s.s.s.8.8.s.8.4.s.8.7.7.s.s.3.8.4.3.4.3.%.3.3.>.6.6.;.-.,.,.:.-.-.=.-.,.:.>.-.$.$.$.%.@.| | $.$.$.$.$.$.$.$.%.=.:.X.} R H z a m S m k r , % # = = < < r p v p 1 3 e e e u r u p r e r u p u p u p u p p p v p v x v M B x d x x p p p p v v d v p v p p u u p p p v d p p p v v u x n v v B n B B M v v v B M v v d x v v v d v p p p p v u t v v v x p p d x x x x x p p p u v p p u p p u 3 t u p q > - = % 4 4 8 8 G ` { { H K | @.=.=.=.=.3.%.3.3.*.%.3.%.3.3.3.*.>.3.7.7.3.3.3.3.8.8.8.t.8.s.t.8.8.8.8.8.3.s.s.3.3.3.3.3.3.*.;.>.;.>.>.;.3.3.3.%.3.3.3.8.3.3.3.3.;.3.;.3.8.8.4.3.3.3.3.;.4.3.3.3.3.3.3.-.s.3.j.j.s.j.6.6.3.s.*.s.s.*.*.s.8.f.8.8.%.$.R J { X.X.) m a 8 8 e > - < e r p p e u p d d x x p c p p p p p p p u p p x x x p v p p u p t p p p x x d v v v v p n v v x u u u i t p p u p v v v p v v x v v b B v v v v v v v x p x p x n c p p p u i p x p p p v v v v v n v v v v v x p v v v v x v p p p 7 1 u x u e < > = ; ",
"> 5 5 t G I W W Z J } %.-.,.4.7.8.8.f.f.g.f.f.u.g.k.l.l.k.g.f.f.f.8.s.8.8.3.3.3.3.5.5.3.8.5.5.5.8.8.8.s.s.f.f.t.t.s.t.s.s.s.s.8.s.8.s.8.8.8.s.s.t.8.4.4.4.3.4.4.-.3.*.%.-.4.>.=.-.-.=.-.-.,.-.-.%.%.:.-.%.$.@.$.%.%.$.%.$.$.@.@.X.X.| { U J j 9 k m b d 7 , % % ; ; ; 1 e p x p 1 e e e e u t u u r u u t u p u t r u u p p v p v v b ! B B n n n v p d v v v x v p x x p p p p u u p c p x x x x u x v M M B B v v v B B n n v v v v v v v x x v x u u u u u u d x p p u p x x r u t u p p x x x p p u t p e 1 u u u w < = O O $ 4 9 8 h W ` I G K | | =.=.=.=.%.%.3.3.%.3.3.3.3.3.3.*.3.3.7.7.8.8.8.8.8.3.8.f.f.s.t.8.8.8.8.8.3.4.7.7.7.3.3.%.;.3.3.3.3.;.%.%.3.3.3.3.3.3.3.3.3.;.3.3.3.3.3.3.8.4.4.3.3.>.>.;.3.4.7.4.3.3.3.;.3.3.s.6.6.j.s.6.s.6.s.3.*.s.s.s.q.f.8.8.%.$.R K } X.X.) m d 8 3 1 > - < q u x d 7 u u p x x x x v p x x d p p p u p p p p p p p p u u u p p u p p p p x x v v v n v v p p p p u p x d p p v v n v v v v n M M v M v v v B v v x p x x d v x p p p p p p u t u p v M v x v n n v B v d x x v n B v p v p p x e e p v p 1 < ; O ; ",
"> > 5 t G I  . .z H { $.-.>.4.7.q.f.f.g.g.g.f.f.g.g.k.g.f.8.8.q.s.f.s.8.5.3.5.8.5.3.5.5.5.3.5.3.8.8.8.f.8.f.f.s.f.f.f.f.t.t.8.s.t.8.t.8.s.t.t.7.s.4.4.8.8.4.7.8.3.*.3.*.,.4.:.=.-.-.:.-.-.,.-.>.-.%.>.>.>.%.$.%.-.-.$.$.$.$.$.$.| } } K J Z h 9 z m b d e , % % ; ; < 1 e x c k 1 q q e q u r u u u u u p p p p p p p u p p v v v v N B B B B M v x c p v v v v n v d p p u p d u r p p p d p p v u p v v B B n v B B v B v M v v v n M v v v x v p u r u r u r e e u u p p p p e e e t u d v n v v v u p u e < 7 u u e 1 ; ; ; $ 4 a 8 l [ { I V K | =.| =.=.;.3.3.3.3.3.t.t.3.s.*.3.>.>.3.3.7.3.8.8.8.3.8.8.j.t.8.8.8.3.8.3.3.7.7.3.3.3.3.>.3.3.3.3.;.>.>.%.$.%.3.3.3.8.8.8.8.5.3.3.8.8.3.3.3.4.3.3.>.;.3.%.%.3.4.8.8.5.3.-.-.%.s.s.s.6.3.6.s.s.6.6.s.s.*.6.s.u.f.8.t.%.%.{ T ..X...I m s 3 3 1 ; ; < e p x x w u u p d x v v v v p x x p p x p p p p v x p p p p p p p p p p u p x p x d v M b n v v v x d x v v v p x x c v p n B B M B v p v c v v v B v v p n v p v x p v u p p v p p d M v v v x x v v p v v x x x v v B v p n p u v u u u k u q < = O = ",
", , 4 9 h I X.X.j J ` X.-.-.2.7.t.f.g.g.g.f.f.f.f.g.f.f.u.q.q.9.8.f.f.8.3.5.5.8.3.5.8.8.8.3.3.3.8.8.8.s.s.f.8.s.s.t.s.f.f.s.s.8.s.7.8.t.s.s.8.8.6.4.8.8.8.7.7.8.q.8.0.0.0.7.,.,.0.5.4.4.,.,.4.,.-.%.-.1.:.>.%.%.>.-.$.$.$.=.-.-.=.$.} R J Z l s Z S B d 3 2 - @ ; ; < 1 e p v p 1 e e 1 1 3 e q p t p u p p p d x p p p x d x v p x v n v v v x u p x x d x v v n x p p p r u t u u p p x p p u x p d v v M B M B M v M v v v v B v n v n v v x p p p t u p u t 3 e u x p x k x p p p p p x x x v v x p u p e 1 e u u r < ; ; % 4 5 h y l | | [ G R | $.@.=.;.;.6.3.3.3.*.s.j.*.#.*.*.s.;.>.6.7.8.8.f.t.8.8.8.t.3.8.8.8.8.8.3.3.s.3.3.3.3.3.4.3.3.7.3.;.;.*.%.;.3.3.3.3.3.3.8.8.f.3.8.f.f.s.8.t.7.4.3.3.3.3.3.>.3.4.4.8.5.,.-.3.3.s.3.s.s.6.s.s.s.s.s.*.*.s.s.s.f.f.8.8.=.=.{ W ..X...I F d r 3 < ; ; > w x v v e e p p x v v n v x d v x p p p v v d v v v d x p p v v x d p p p p g x c v n B ! B B b M v v v v x v v x p x x p n B B n v x d v v M v v v v v v n x p x x x n u u p v p p v B v v v x x v v x d x p x k v v v v p n p p k e e i x u 3 1 ; o = ",
"4 , 4 8 k P { ( j S E $.=.:.4.7.u.f.f.g.f.f.f.k.f.q.u.f.u.f.f.g.s.8.8.8.5.8.8.s.5.5.8.8.5.5.8.5.8.8.8.8.s.s.f.8.s.f.8.f.f.s.8.s.t.t.8.s.t.t.8.7.3.3.4.s.8.8.8.t.k.u.y.u.0.0.7.0.y.u.u.y.0.0.7.0.,.>.>.4.4.,.,.,.4.-.$.@.$.-.-.:.:.$.} R J J l s F F S k r 2 - @ = ; > < q p v x 3 e u e e e e q t u p p p u p p k p p p p p p v p p x p p x p p u p x d p p x n v p p u p u u u p u p p p v p p p p x v p n B v B B b v v v v v v x x v v v d p v p p u r p u u e u u p v p p x p u p p x x d x x d v p p p u 3 i p p u < ; O O * 4 y y G  .....H I | @.| =.;.9.6.3.t.3.3.3.3.*.s.%.s.%.3.3.7.t.3.8.f.8.8.8.8.8.8.8.8.8.8.3.8.8.7.s.3.3.3.4.7.7.3.3.3.%.*.>.3.3.3.3.3.3.3.3.8.8.s.8.8.8.8.f.s.8.8.8.4.4.3.4.4.4.4.4.4.3.;.4.0.q.3.j.s.3.*.s.6.6.*.s.s.s.s.*.s.s.f.g.8.8.:.=.Q K X.X...R A f 3 3 % ; ; < e x M n e u p p x v v n n x c n v v x v v x x v v p p i p p p p p p u u u p u p p v v v B B B M x x p v p p p x v v d v p M B B x x x v v M B n v p p x v M x p v d p v r u p p p u p b v M v v v b v v p p p v v x v v p p v u u p w q p d u e 1 ; o ; ",
", : * 5 c P I I h Z R ..%.>.4.7.q.f.f.f.s.u.f.k.q.q.q.q.f.f.s.s.8.8.8.5.8.8.8.s.5.5.5.8.8.5.5.8.5.8.s.s.f.s.f.f.8.s.s.8.s.f.s.8.f.8.4.t.8.8.4.4.4.4.4.t.8.4.8.f.a.y.u.u.7.4.4.0.a.u.a.u.0.8.0.0.8.6.6.0.8.7.6.6.4.:.%.$.=.-.-.-.X.X.} E J Z j 9 F F B f 3 : - + - ; > < e x v v e u u u e u e e r p p p p p p p u u p p p p p p p d x p p p d p p p p p p p p x v u r p p u t t p p u u p p p p u p M v p v B v M b M v v v v d v x p x v v x u p p p u p p u p e e r p p u p p e e r p p p c v x v v x p u e 1 p x p u 1 ; O O $ 4 y h G R X.X.J K @.=.=.=.,.,.3.3.s.3.3.6.3.*.*.s.*.s.6.4.8.p.8.f.t.8.8.t.8.8.8.t.8.8.8.3.3.3.4.3.>.3.4.4.7.7.%.>.;.*.;.>.3.3.3.3.3.3.3.3.3.t.8.8.8.3.8.8.8.3.s.7.8.4.4.4.8.8.8.4.4.4.5.0.9.9.3.s.3.%.3.s.s.3.*.s.s.*.*.s.j.s.f.g.0.q.>.>.{ R =.:.&.] A f 6 : @ ; ; < e x B B u t d x d x v v v v v B b v x v v v x x x x p u p x k p p u u u u u u t p p x c c M B v p u p x x p p v v x v n v B B v v v v v M b n M v v x x v v p p v d p x p p p p u r p x v b v v v M v p x p x x v v x v v p v p u p e 1 p x t e < = O ; ",
"5 , 4 8 G ` [ I h A R ..$.>.3.8.t.q.f.f.q.u.g.g.f.s.f.s.q.0.0.0.s.8.5.5.8.8.8.3.8.5.5.s.8.8.8.8.8.8.8.s.f.j.f.f.8.8.s.8.s.t.8.s.f.s.4.7.8.4.8.4.8.8.4.8.7.6.8.f.q.q.q.0.,.:.,.q.w.w.w.0.0.8.y.y.y.7.6.7.6.6.,.3.4.:.%.-.-.>.-.-.X.@.| } T J h 6 S F S f e : - + ; > < < u v N b 1 e u e e e e e e u u p u u p p u u p p p x v d u p p u u p x i p p t p p p p p p u u u p p p u u r r t u p p u p x n b p x M M v v M B M n v v v d p x B B x u p p p p p p p u u u p t t u u u u u u u u v v v n n M k p u e < p x k u 1 ; - % 4 4 g z P X.O.:.J W =.>.;.=.,.>.3.3.6.j.3.6.s.*.s.*.s.*.3.4.8.y.t.8.8.8.3.8.8.8.8.8.8.8.3.3.3.3.3.3.3.3.3.s.s.7.3.;.3.3.3.3.;.;.3.3.8.s.t.8.8.8.3.8.8.3.8.j.x.3.8.8.6.4.4.4.4.4.3.4.4.8.9.9.;.@.%.%.%.#.#.s.*.&.s.*.*.&.s.j.j.s.u.g.8.0.>.,.} R :.<.<.{ A f 6 2 @ ; ; < e v B B u t p p x p x x v v v B B v v v M n v v n n v p x p x p p u p r t u r u x k v p p c M v d x v B n x d v v p v v v B B v v v n v v v x v n B b n x x p p v v p u v x c p u u t p v v v v v v x p p p p p p p p x b v B p u p q 1 v v u e < = = < ",
"8 3 3 y 0 F ] D A D ' $.>.,.6.0.q.u.w.q.q.y.w.u.0.0.4.0.0.0.4.;.5.0.0.w.0.0.0.4.3.0.0.,.;.0.q.q.8.8.s.s.f.f.f.f.f.f.f.f.j.f.s.8.5.8.4.;.3.4.4.4.3.5.8.8.7.8.q.f.g.s.8.q.q.q.q.8.s.q.8.8.q.9.9.0.0.u.a.0.2.,.,.-.>.-.%.=.-.,.:.-.=.X.| Q K J z 0 P ) F b f : - + - ; ; 1 q p B p u p p e e e e u p u r u u u u u u u p t t t u p p d p p u e r u p p u u p u t p v p p r u e u u u t u i r u u u p x v v v v v v n v B v v v v v p v v p v v n p p u p x p p p u u r u u t p u r u p p p v v B B B B v v p u e 3 x p p u 1 < ; @ * 5 9 9 A ' X.&.| $.1.:.-.=.:.,.,.6.7.7.4.>.4.6.4.4.,.1.>.,.8.8.8.8.8.8.8.8.8.3.q.8.8.8.8.4.3.;.8.4.4.4.8.4.4.8.3.3.3.3.%.%.;.;.%.3.8.5.3.8.8.5.0.0.0.0.q.0.0.0.0.q.q.0.,.,.-.-.=.=.;.=.=.=.@.;.%.%.s.' #.+.s.+.:.4.0.0.q.0.y.q.0.0.4.4.;.=.} W e.<.&.] A f r 2 O < > < < r M x x p p p p p p p v v v v n B B v v B B M v v x p v v p p p p p p u r u u u u p d v v v p p v M B B B v x d x v n v v B B b v x x v v v v v x x v x d p u u u p k u p v k p p u p u v B v x c v p p x p p v B B d v M v x u e e e p p p u < ; > q ",
"7 3 2 e r A / A A D ' #.*.:.,.2.0.0.0.0.0.0.0.0.0.0.0.0.w.0.0.4.4.0.0.0.w.0.0.0.4.0.0.,.,.0.q.0.8.8.8.s.s.j.f.f.8.8.8.s.s.s.s.8.8.5.4.3.;.4.5.4.5.3.3.5.8.u.q.q.f.9.8.q.q.8.8.9.s.9.8.8.8.8.8.5.7.7.7.,.,.7.0.0.7.,.=.=.=.-.-.-.=.$.@.} K H Z 0 P P F A p 3 : - - < ; 1 q p n u r u p r e e e e p u e e e 4 q e p p p p p p p u u u u y u e e e u r t u u u r u p u u u u r u t u r u r u u u u r p p v v v v n v n b v n v x x v v x p p v v p n c x d c x k p u u p u p p p p u p p x v v B B B B B v x p u e n v v u q , ; O : 7 9 y z ` X...{ ..$.:.=.=.,.0.4.4.6.>.:.>.:.,.>.>.>.>.>.>.6.7.f.s.t.f.8.s.s.8.0.7.5.8.5.4.3.3.8.4.4.4.8.4.4.8.7.4.4.3.3.3.3.;.%.3.3.3.3.8.8.5.0.0.4.4.,.4.4.,.7.4.,.;.:.-.=.=.=.=.@.=.@.@.@.;.%.#.%.%.%.s.%.%.=.,.4.0.0.0.7.0.0.0.0.3.;.| { W 6.&.#./ F f 6 3 O ; > 1 1 u B x v g p v p k p p x v x v v M M v B B B M v v n v p c p u r p p u e e t u p p v v x v v x v v B M B n n v c x x v v B v v v v v v p v v v M v v v n n x x p p p u u u p p t p p p d B B n v b v p x v v p v B N x v v v x p t e 1 p p u e < % < 1 ",
"r 3 : 3 y b / f A P ' #.%.>.,.4.0.0.4.0.4.,.,.0.4.,.;.,.0.4.,.;.,.4.,.4.3.5.,.,.;.4.,.;.;.,.4.0.5.5.5.8.8.s.t.s.s.s.8.8.s.8.8.8.8.8.4.>.4.5.8.7.8.3.3.3.8.f.u.8.7.3.3.4.4.3.3.4.8.8.4.4.4.4.3.>.,.,.,.-.,.0.u.i.u.q.0.,.-.-.=.=.=.=.$.X.K J S j / / P A r 3 & - - < < 1 1 p b e u p p p u u u e u e e e u t r u u u t p u u r u u u p u t u u u u u u p p p p u i u u u u u u p u u r u u y p p t u p c p v x v M v M M v v v x v v x x x v v p v v g p p p p p p p p p p u p p d x v n v B B B B B B n x p u u B M v u q < O O % 8 8 h b P &.L J R } | X.$.:.,.,.>.:.>.>.,.4.4.>.:.,.>.,.,.6.7.8.8.8.8.8.8.8.3.8.8.8.8.8.4.4.4.3.3.3.8.8.4.3.3.4.3.>.3.3.4.3.%.+.%.;.%.%.3.8.8.;.-.=.=.=.=.=.-.,.-.=.=.@.@.=.-.=.@.@.=.=.@.@.@.#.+.+.+.%.%.%.%.;.,.4.4.7.7.7.7.5.4.4.,.-.| W K &.&...' F f 3 < @ > ; 1 e u b p p p p p x p p p d x v v n B B n ^ ^ B M v v B v k x u u u p p t p u p p u u p k p x v v v B M B v v v v v v p p v v v x x x v M x v v n B v b M v p p c d x p u u p i i u u p k p x x p v B B x v b M v v N v v v d x p p p e 1 p p u q > = > q ",
"r 3 3 r y A / A D D ` ..$.:.,.,.4.0.4.,.;.-.;.;.;.-.,.;.,.,.,.;.0.4.0.4.4.4.0.4.0.w.0.0.4.0.0.0.5.s.s.8.8.s.j.t.8.s.s.t.3.3.3.8.8.4.3.3.3.5.4.4.4.3.3.5.u.f.0.7.8.8.8.7.3.3.>.7.7.3.3.3.3.3.3.>.=.-.-.,.0.u.u.0.y.w.0.8.4.-.-.-.$.| =.| I J H l D P ( F d 2 & @ O < 1 < 1 p M e u u p u u u e e e e e e u u p p r u y u u u e e p u t u p p i e u p p x x d p p u e e r r t u u u p u u u u p t p u p p p p u p v v v v v v v c v g x d p v p p x p p u u p p p p p p p u u p c x v v n B v B B n B v v d p u u v n v r 1 ; O   % 6 5 k z ) 1.S S L K R E W | =.%.$.@.$.-.>.-.=.%.-.>.1.>.,.3.6.3.3.8.8.8.8.8.3.3.>.3.4.3.;.%.;.3.;.3.3.4.4.3.3.;.-.%.-.;.%.$.$.%.%.%.+.+.3.3.3.=.=.=.Q | @.=.@.=.@.=.| @.| =.=.@.@.@.@.@.@.@.@.#.%.%.#.+.%.%.%.-.-.,.,.,.,.,.,.,.,.,.=.$.} I J &.&.#.] F A r 2 - ; ; 1 e u n t p p v p x p p p p p p p x v v n B B B d x d x x u u u u i u p u p p u r e u u u u d v v v n b B v B B M v v v v x x x d p x v v p v n n n n M B x p p p c x p p p p p p u p p v u i p p p v v p v M B n v v v v v v v x u u e 1 d p e 1 ; - < e ",
"r 3 2 r 0 A / b H P R } ..X.$.=.:.,.-.=.@.| | | =.| | | =.@.=.=.=.=.=.=.=.-.,.,.,.0.2.,.,.,.,.-.%.3.3.%.%.3.3.3.3.3.3.3.3.3.3.s.7.4.:.-.-.,.,.:.-.>.2.7.8.8.7.6.>.>.>.>.$.$.@.=.>.>.>.%.:.>.>.-.=.$.=.=.4.0.0.0.,.,.0.,.,.;.=.=.$.$.$...K Z l s F P ` ^ f 7 : - @ < < 1 q u n e e e e e 7 e e w u u e e e e e e u u r u u u e e u e q e u u r q r u u t t t u u u e e e e e e e e e e e u e e e u u u u u p p p x v v v v x k x v p p u p p u i p p u p x p p u p p g p u u p x p g v v x v x x M n v x g u u e B v v u e > @ O & 3 2 d f S &.b C V S H D D T T } Q Q } ..| } R | | $.$.$.=.=.=.%.%.3.3.3.3.3.%.6.,.4.6.4.,.:.,.>.%.%.%.*.*.*.%.%.>.>.*.%.$.#.$.#.%.%.#.+.%.%.%.=.=.| =.Q =.=.Q Q @.| Q Q Q | Q W Q | Q | Q Q W | @.$.@.%.%.%.%.=.=.=.=.=.=.:.=.>.>.-.%.$.} K J &.O...] F f r 2 ; ; O < 1 r x u u x x c p p p p e e u r u p p v x x d t u r u e w e q 3 u u u r r u e e e u t p u p v p c n B B B b M v n v v v p p p p p x d c x v v M v v B v v k p u p p u u p p p x p p p p x v v x p p p u n B B v x p v p v c v p u e e 1 u u e 1 ; - < e ",
"r < : r e f D f A H H T ` } } } =.| $.} } Q { Q W Y K K K W W W K W W W { } | | =.=.=.| X.| | } ' +.+.E ' ' +.+.%.%.%.%.%.%.%.%.:.=.-.=.=.| } @.+.$.>.,.>.*.=.-.$.$.+.#.} E E W +.} } } | | @.| @.} } } $.=.,.0.=.=.:.1.,.,.:.=.,.:.&.$.R H l 0 / `  ./ b e : @ @ < < 1 1 e p e q e e 7 1 e e e e e 7 q w e e r u u t u u u u e r e w e e u e e u u u r u u r u e r e q 1 1 1 e 1 e 1 e e e e 3 e e u r t u u p p p p p p p u u u u u r u e u r e e u r r u u u p p p u u u p x p p p v x d p p v v v p p u u e v v x u q < ; O : 2 2 y y k I h s s C V Z A D D J J J Y ` } E Y R { { } } } ..$.+.%.%.%.%.+.+.%.@.| | @.@.} Q Q | $.#.} #.$.$.$.#.$.%.$.| } } | +.' +.' ' +.+.+.| Q W W Q W Y K W W W W Q Y Y Y K K W K Y W Y K } } } } #.%.%.%.X.| | X.| =.=.=.-.%.$.$.} { I J &.&.../ F f 3 2 - ; = > 1 1 u u p d v x p p p p u e e u u u p p d x p u u u e e w e e e u p p t u u u e e e u u u u p t u p x v x x x p p p p p u p x p p p p u d x v c c v v v v p u e r p p u u u u u p u u u p p x d p p c v M B B v v c p v x v v p r < 1 1 p u q < ; = > e ",
"3 : : r 3 r A f h h l Z P K { R W W W K K K K K K K K K P K K R K K K K W W W W } { } { Q } { R ' +.+.E T ' +.%.' ' ' ' ' ' ' T } ..} | } W R } E } | | { W } X.$.} | { } E W W R T T Y K K K K Y K K K I R { } { { } | $.&.X.X.:.X.X.$.` H z s ` ' ] P f 3 - . - ; < 1 < , e 1 q e u e q e 1 e q e e q w u u u r e e u u u e e e e e e e q e e e e u u u e w e e e q e 1 q 1 1 q 1 e q e e q 1 1 q q e r e r u e r u u r u e u e e 1 e u e q 3 e 1 1 q w e q e u u u u t u u r u p p p p p p x x v d p p u r e v x x r 1 < - O , , 2 8 y d k y 0 a s s V s C C j j z Z H J P K P K I T ) ` { { %.%.%.%.%.+.+.%.-.=.=.:.=.$.| X.R ` ' ` ' ' ' R ` ' ` E R R ` E ' T T T ' T T T K K J J J J J H K K K K J H K H H H H H J J H H K K T T ` ' ' ' W W { W { { } ..| } } { } R P S &....._ F f r 2 @ = = < < 1 u q u p p d u u u u u u e u u r u p x p u t u u u e e e r u r i u u u u u e 7 q e e e u r u r u p d p p p p u p u u u p p p p r u u p p p p p p x x p u q 7 u p p r u e e e u r u p p u u u p p x x v v x x k p p p p x p u e q 1 1 r e 1 > - = ; q ",
"3 : : r 3 3 A r s s h z z H H H z H m H z H H H z j k h h h z z k j k j z j j h H Z H H H J H Z D D D A A D T T D A D D T T T T K W { { W K K W R T K J J J K W T K J J K J J J K Y J J J K K J z Z H H J z z J J P H P R { R R { K K ` P H l 0 M D F M d 3 : @ ; ; ; 1 < ; < < > 1 q q q 1 1 > q 7 1 1 < 1 4 1 q e 1 q 7 1 1 e q e e 1 1 1 q e e e e 3 q q 1 q w e 1 w 1 1 1 < 1 1 1 1 1 1 1 1 1 q 3 1 q w e u 1 q e q e w q 1 1 < 1 e u e 1 < e e q 1 q 3 q q 3 1 1 7 r e e 1 1 e e u u u r u p p p p t u e e B n v p e < > - & & 7 7 y k 9 k 8 0 0 a a 0 0 0 h h 0 a h l l z Z S H H H H P I T T E E T T T E { R R W R K K K J T T R T E T P T T J P T R R P T T T T T T D D K J H V j G H H H H H J V G H H H H V H V H z G H H D C D D D A H J J H J J K K R R ` E P P S Z .... ./ A y 3 : O ; ; 1 < < e 1 e i p p u 1 e 3 e 1 1 e 1 1 1 u u u u 1 e e e 1 1 e q q 1 q 1 1 q e 7 e q e e e q e e e e u u u u p u u u r u u u t r u e q e e e e e e e p p d u u e e u u u q e e 1 3 e u u p v p u u x d u u d p p u u u p u u r e u i e q < e 1 < ; = O ; 1 ",
", : 3 8 7 r d y d 9 r h l l l Z l j k k z h h y k j a h h h h h k h 9 9 9 h 9 a l l S z y j z y A A A A A A D A A A A / ' ' &.O.X.X.&.&.:.R | ` { K W {  .P J K J J H H J J Z H P H H z z z Z H h l H z l j j h j h 0 G H K P K ` P D A z l d y F F S b y , $ % O ; ; ; ; 1 1 1 > < 3 q q 7 q 1 e q < < 1 w 1 < 1 < 1 1 1 1 1 1 1 1 < 1 1 1 q 1 1 < < > < < < > 1 1 1 q 1 < < < e e u u u u u t u u u p p u u u p r u e e w 1 < < < 1 1 1 1 1 1 1 1 1 1 1 1 1 1 < 1 1 1 1 1 1 1 1 e 7 e e e e e u u p u u r u p c v v p e ; O @ , , 2 3 8 r d d y y y 6 0 C f r h z m h 9 9 a k l h k z l k m H D T ' ' T D J P J P ' I H P W P J P P P P ` ` ` X.$.X.&.&.&.&.&.' &.' &.O.L { ) ) I P L G z z z l j j G z z G G z z j l z G z l H z z j k H H G j G H z z z m H P J J J D / D A ..] ] / F y 3 - ; @ ; ; < < q u 1 i p e 1 q u e e e e q 1 e q 3 e 1 e q e 7 q 1 7 w 1 1 e 1 e 1 1 q 1 e e q 1 1 q 3 q 7 e u u u v n B M B v v p p p p v v p u p c x d c v d e e p p p p e w q q e 1 1 4 e u u p t r u e u u p u u u u e e u u e e q e q q 1 q 1 1 < ; ; =   = < ",
", : , 7 5 r d y h l F P I P P R ) P P I I H H H H H z z z z z l z j z k z z z z m A P H m H ) P D F T D / T / D f A T ] ..O.#.] ..} X.&.<.W :.O... .{ }  .K H K P K I W ..{ R K I W K K P K H H H J H G G V G G J G V H K Y `  ...T F Z l l s y F S B k y 2 % O O ; < ; ; < 1 1 q e u u u u u u p p u r u p u r 7 e u e e 7 e e e u e u r u u u e e e e e u e e u e e e u e e e e u u p k p d p r p p p p p u p u u u e e e 1 1 1 7 1 e e e e e e e e q 3 q q 7 e e e e u u u u u u p p c v v v u p u r w q 1 1 p p p u 1 ; ; ; , 2 2 2 3 3 8 a y f m b A F A A J I I H m S H P H H H H L m P ) ' #.#.%.......#.X.$.&.X.{ } O.X.{ { ' ` ' X.O.X.] { ' ....X.O.O.#.&.o.&.&.` :.O.I I L L H z z z G H K W  .{ R K K P L I I ` K P { ) I H L { { ` R { { Q {  . . .P L J D D A A f ] ` / / v r 2 - ; - = ; > < 1 3 e x n x p p p p p p u p u u u u u u u r u u i u u u u u u u p u p r u e e u r u p u u t u u u p p p v v v v v v v p x n v p p v x x p x c x p p u p b B B n v p v v p p p v v x x v x x d v v n v n b v x v v p e e e e 1 < ; = < ; ; ; =   O < ",
"& % : 3 3 r d y k m )  .` ) ` ' ) P ) ) ) L H L L I L L S m F H z G H H L L H H l l A b z H _ ) D / / / / / ] ' T T / F / ] ] O.O.<.:.<.<.{ O.:.` L J K P z j H L I I I X... .) H L L K H J H H K K K P H J L L H H z H L J I I P P P F S b d 8 F B B k r 1 % + O ; ; ; ; < < 1 q e u p p p p p d p p t p p p u i u u u e e u u e e u u u i e 7 e e w e e e e r e e e w 7 e q e e u r t u u p u u u u i t u r u e q q 1 < 1 < > 1 q q q e u e u q q q q q q 1 q 1 q e e 7 e e q r u u u p d v v n v v x p u e e u u u e 1 = O ; , , , , , 2 3 8 r l L P / F / / P P L H F P P L L L L I P P ) ) / T T '  .` ] ] X...X. .( { O... .` ) P I {  .` _ ) ) ) `  ...O...O.] &. .P ] ' L H L H m z z j G K R | X...{ W X.{ ` I  .) L H ] ` ) L I ) ] { ) ) { `  . .{ ) ] ' ` ) / F A A / / / F f 7 2 : ; O O ; > < < 1 e x B b x x p p x d d x p p u p p u u p p u u r p u u i p p v g p p e e e e u p u u u r e e r e e u p i p x d p x p u d x p p x y e e u u e e u p n B B B n x x v p p p v v v p v n n B v B B n n M M v x v v v p p p u u 1 > ; < > ; ; =   o = ",
"% % : 1 3 e y r k S P ) L S F L l m F L L G m m m m F S m m B S m m S H B z b z z z M C k H P L F F F A F D F D F F A f f f / ]  ...{ ..{ L ` ) L H z H H G z H L H m m H L m H z k h h k G H J L I H H H G H H H G G G G z G G s l A S S l d 8 S m k p r 3 % O O = - = ; ; > < < q r u p p u t u p u u u p p u r u u e e w 1 e 3 w 1 q e 1 1 < 1 1 < < , < < < < < > < ; ; < > < < < < < < 1 1 1 1 q 1 1 1 1 1 < < ; ; ; > ; ; > ; ; < > < < 1 ; < > > < 1 1 q < 1 1 e 1 1 q q u e e e e u u u u r u u e q < 1 p t e 7 < = O % : , : % & , 3 7 3 s M F A A F B L L m m F L L H S G L L F L L P / / / D D / D D  .`  .` I ) { { ) P S m B F S l J F S F L / ) ' ..&.] O...F P F z z k k h a a y j j G G G L H G k h h G P ] ) L ` ] ) L L L L L ( I I I I _ I H S S A S A A b f F F D v r 2 : : ; O o O ; > < < < p v v p r u u u u t p t u r u r u t u u u e e u u r e r u e u w e e e e q q 1 1 q 1 < > 1 < < 1 q 1 1 1 q q 1 e e e e e q e u q 1 q q q q q w p v p u u e e e u q 1 e u p k u v v v v v v x p p p p r u u r u 1 1 1 1 < > = O < > ; ; = O o = ",
"$ % : 3 3 7 y r z M D F F S b l d v S F S b k h g k k k k y k k k k k k y p y y 3 3 8 3 3 3 r 3 A b f u f r r u r f f f r u f f h k a z z j G k G z k z G z z G z z h h k k a a h h 9 9 9 h z H k z n n k v h a a d h h a h y 9 a 8 8 3 7 8 y a k d t 7 5 , : # O O O O ; O ; > < 1 e u r u u e u p p u i u u r e q q q < < < < 1 < < ; ; ; ; = ; ; = ; O ; = = ; - - O = O = = ; = ; ; ; ; ; ; ; ; = ; ; ; ; ; ; = O O O = = O O O O O O = O O O = O = = ; > > ; = ; ; ; ; ; ; 1 < < < < < 1 1 ; < 1 1 1 < < < u e 3 1 < > ; < 3 , : % ; : , , 3 y f v f v A f n k v l b k b b v z m n m m B m A A A f A A A A k y k k h k z k B S b l b B b d l k f d d l B S f M v A v 0 y e g y a y y 8 9 8 0 a y y a y a a 7 7 8 h n G m z G m G j j n z k v k n z z b n h y a f f f f 0 0 b b b y 3 & : : < = O o = - ; ; < e u u e e e u e r e w 3 e 1 e e 7 q 1 7 q 1 1 e 1 1 < < , < < < < 1 1 1 < > ; < > < > > > < > = ; ; ; = ; ; O ; > ; < > ; ; > ; ; < 1 3 < 1 1 q 1 < < < 1 3 e 1 1 < 7 r p u u e u u p p u u e q q q e e 1 < < ; ; O O O O O O = = O = o     = ",
"% @ : , 1 5 8 5 a l b M B A h r r k v k d t r 7 r r r r 7 7 7 7 e 7 7 8 7 5 8 8 e 3 8 r 3 r r 3 r r r q 3 3 q 6 3 3 e r r 3 3 3 5 9 4 9 a h a 9 j h h h k k j j y h y h h y 5 7 0 9 8 5 7 9 9 9 4 9 9 8 9 t 8 4 , 4 7 7 5 8 5 4 8 3 3 2 2 2 7 6 8 7 3 , : % % % O O O # O O = ; ; > 1 3 q q 1 1 q q 3 1 < 1 < < > ; < > = = ; % = O O     o   O o o     O O O O O O O O O = O O o O O = % = = ; O O O O O = = @ = # O = = ; ; ; ; - O @ O o O O O O O O O O O O o O O O O o O = O O O O O = O ; ; > < 1 < < > > < ; < > ; ; < < 3 3 : : % % & % 3 3 3 3 r r r r 3 e 7 r e 7 e y r y y y p k k y f f r 6 r r 0 r h y h z k k z h d d d y f l k y d d a y y d k k A f f f f p y f 9 y t 8 8 8 7 8 5 8 8 8 8 9 8 8 y 9 8 8 8 9 5 4 4 5 8 5 5 5 7 7 4 5 5 5 7 8 8 5 3 r 0 0 f r r r r r 3 2 & - - : 3 ; = = = O = ; ; < 3 1 < < < 1 < < 1 1 1 1 < < < < < > < > ; ; ; ; = = = = ; ; = - ; # = = = = = O = O = = - = O O = O O = ; ; O - ; ; ; = = = - = ; > < - ; ; ; ; ; > < < < < < 1 < < < < < < ; > 1 < 3 q 1 < > > < < > > ; ; ; - ; - O = = #                 ",
"% + % ; % , 7 2 3 8 y y a a 7 , , 5 r 5 1 , , : 3 1 > > : : : : , ; : : , , , , : : : : & : < : < 3 2 3 3 r r 6 3 3 3 3 < 2 3 3 7 9 * a 8 9 9 9 h a d h k z h a 8 y 9 9 9 5 5 5 6 5 5 5 5 4 * 2 4 4 7 7 7 8 4 4 4 5 8 7 5 8 7 5 2 3 8 8 6 3 2 , 2 , , ; % % @ O O O = ; = O = ; = ; < , 1 < < 1 > < > ; % = O O = - = = = O o O O   o O O O = O % O O O = ; ; ; ; > ; ; ; ; ; ; = O O @ O O O O O o O O ; ; ; ; > > > < < 1 1 < 1 < < < > < ; ; ; - ; - O O O O < < < > > < 1 < < < < , ; > ; ; = - ; ; ; ; ; % ; O O = - O - : 1 : % $ & % % & : : : : : : 3 3 3 , 1 5 3 , , 5 , , , , , 5 7 5 6 6 6 6 6 r r r 8 7 9 9 9 9 9 7 7 7 8 8 8 r r 7 r y r r y y a y p 0 r 6 3 3 3 3 7 4 7 5 4 4 5 4 4 4 4 4 4 4 4 4 > * > > * 4 * * & , 4 * 4 5 7 7 4 5 7 4 4 7 4 5 3 2 2 2 1 3 3 3 : 2 - & @ + @ - 1 < ; = = O O ; ; ; ; > ; ; < < > > < < < < < ; ; ; ; ; ; O = O = O O o O # = O = O O o O O = - O O O ; # ; = = O ; ; ; > < < < < < < ; ; - ; ; = O @ ; ; O - ; ; - - ; > > % O ; < > > ; ; ; ; ; ; < < < ; > ; ; % ; ; - O O O O O O O @ = O O O   o o O = = = ",
"; % % % @ % 3 1 3 3 3 3 : , , & ; , < : ; , 1 1 , > % # % > % % ; % % % > : ; ; , - : 2 : < 3 2 3 3 r r 3 e r q 3 1 3 3 3 3 2 : , 5 * 4 & 4 5 7 4 4 7 7 9 t 8 4 7 y 5 4 4 4 , 8 2 4 2 4 , * 4 4 7 7 8 7 7 9 5 7 4 7 4 4 , , 4 4 2 2 1 3 , , , , , , , ; % o O # % O O % ; O @ ; % ; < 1 , < , , 1 , < ; O % % O O O O o o O o O O = ; > , 1 1 < 1 1 1 1 1 < < 1 1 1 3 1 3 q 1 1 > > < > ; ; O o % o o O ; ; < > < , 1 1 7 7 e 7 u 7 q 1 1 3 1 1 1 , , , < < 1 < 5 1 < < , 1 1 e 3 4 3 < < ; ; # ; ; ; > > ; ; ; ; ; - @ @ O @ @ % @ O o % % % % @ : : : : : : : , ; % : ; % % % % ; : ; , 1 1 , q 3 q 3 3 3 3 8 r 7 8 t 7 8 r 7 r r r 1 3 7 e 5 3 1 7 7 e 7 r e q 3 q 3 3 q 2 : , , , , , , 4 > * * $ % # $ $ > & > % > % % % % % , 4 4 4 5 4 , 4 5 7 4 , & , > 2 & : 2 : 3 : 2 : - - @ + O O + ; ; ; > > % ; ; ; ; ; : : ; ; ; > , 1 < 1 < < > > > ; ; ; ; ; = O O o O O O o o ; = ; ; ; > ; > < > , 1 < 1 1 < > , , 1 < 1 3 < 3 1 1 > : : < 1 < > ; ; % ; ; < ; ; - ; ; > , < % < < < , , < 3 1 1 3 1 3 1 < > < ; O O O O @ ; ; , < < < < > > = ; = O ; > < < ",
"% % O ; ; ; < , < ; ; > , < ; @ ; ; ; ; > > ; ; ; @ = O O O o o - ; ; % ; # = O ; ; % O O % ; ; 7 1 q e 1 1 3 1 1 1 1 1 3 1 1 1 1 1 , < > < < , 3 1 1 < 3 1 1 < 1 < , 1 < > > < < , < < < 1 1 1 3 1 4 e e u u r u t r 1 1 1 1 1 < 1 1 : < 1 1 : : > ; > ; ; O @ > # # % % % % > 4 4 4 5 3 r 3 r 3 2 2 , , : * % + % & % % : 3 : , 2 3 e 7 t 7 7 7 t r 4 4 7 7 1 : < 2 1 3 3 3 3 3 3 2 , 3 1 , % $ & * 4 5 5 8 4 5 5 7 9 9 5 5 5 a 9 9 9 r 9 9 y 9 9 y 8 8 9 r 9 7 9 7 4 * 4 7 7 8 7 5 4 4 4 5 4 4 * , , > , , , & * * % & % @ @ O O O o O O ; @ @ @ ; ; O O O O O o O o   O O O o O O O o O @ ; > > 4 4 4 7 7 4 4 4 4 4 7 7 1 , 7 r e 1 1 1 < > , < < > < < < < ; > > > ; % % O O % % ; % ; O ; O O O O O O O ; # O O O O O O O - ; > > 1 1 3 e e 1 1 > < > ; @ ; ; ; % O - ; - O O O o     o O % $ $ > * * 4 4 1 , , 1 5 4 3 2 3 3 3 8 8 4 7 7 8 9 7 4 5 4 * > * $ % % * > & * 4 , 4 4 3 3 q , , q 7 3 1 3 3 3 , , 4 4 4 5 7 7 4 4 8 e 7 e 8 e , 3 3 3 3 1 2 , , 7 4 4 8 4 4 8 4 5 5 8 8 8 r 9 d 8 8 9 t 6 7 7 , 4 5 , , 1 , : : : 3 3 1 , , , 1 3 4 4 e r w 4 ",
"> ; = O O O O O = = % ; > < ; = ; ; ; ; ; = = O = O O = O ; = ; ; > ; ; ; ; ; - % = ; O O O O O < > ; < < , < < < 1 1 1 1 < < < 1 < < : < ; < < < > > < < > ; > ; ; ; > < ; ; ; ; ; ; > ; > ; < < > , < > 1 1 < < 1 1 < > , < > , < > > > < < < < > ; = = = ; > 4 * * > > 4 4 5 4 5 8 y a r r 0 y r 9 6 6 6 5 5 , , 2 , , 6 3 3 3 e 7 r e r r e 7 7 7 4 , 4 7 5 8 r y 8 8 8 r r y y r y r 8 6 7 5 6 5 9 a a a 0 9 0 h a y a 9 9 h h h h k l k h h k h s a h h a y 9 9 7 8 9 y 8 y 9 9 9 9 6 8 5 5 4 5 4 7 e 7 7 4 4 , * & & & @ O O O O O ; = - = - ; ; ; = ; ; ; ; = = % = O = O O O = O O O O # % > > 4 , > > 4 , > # % % > > < < < > ; < < ; ; ; ; ; % % ; ; ; < < > = = ; ; = = = = ; - ; ; - @ ; ; ; ; ; ; ; ; # O O O O O     O ; > < 1 1 < > ; ; ; ; = O O ; - O O ; ; - o O O O o O O = % % * 4 4 4 4 9 8 8 8 8 8 8 r 8 3 3 6 y 9 8 9 9 y y y 8 8 8 8 8 4 4 4 * 4 4 4 4 7 4 5 , : < 3 < 2 3 3 3 , , < , 4 4 r e e 7 7 7 8 7 8 8 8 8 r r 8 8 r 8 3 r 8 7 7 t 7 4 9 8 4 7 0 a a a a a s a h a a h h g h h r y y r 5 5 3 3 3 3 3 3 5 , , , , , 4 , , 4 7 4 ",
"v i 1 > ; = ; ; O o O = ; ; ; O o O O O - - O = = = = - , < < < < , < > > > < ; ; ; ; ; ; ; % ; ; ; ; ; ; > < , > ; ; ; > ; ; ; ; > ; ; ; ; ; ; O = ; = = O = - ; = ; ; ; ; - ; ; ; ; ; ; ; < > - = = = = = ; = O - - = = O - O ; - = = O ; = = O =   O O ; q e t 4 * > 4 4 9 y 9 8 y a f y a y 0 8 0 0 9 9 9 9 9 9 9 9 8 y 8 7 r 8 r r r r r 7 r p r y y p p d y y a y y r y a y y d a y y y d h h h l G j l j j h j 0 h a h h j V G G A S C z z Z Z l j l l j h d y 8 9 a a a a a a y y y 9 8 8 8 8 r r r r 8 4 5 5 * * & & $ O O O O ; ; ; - - ; < < > ; , > > < > < > ; ; ; = ; - = = = ; ; # % % > % % % # % % > # # o % ; = ; = O @ ; ; = ; O = O O @ % @ = = ; % O O = ; ; ; = ; = ; > < ; ; ; > > < > > > ; ; = ; = ; ; = = O O ; = ; - = = O O O - = - O ; ; = ; ; > > = - = O O = = > $ * * 5 5 5 9 9 r 9 8 r y y y r 9 9 y d a a 9 h h k k h g h h a a y 9 8 9 y 9 7 r 3 5 4 : 2 3 3 3 2 3 3 7 3 7 8 7 9 y y 9 8 8 y k d p 9 y y d s a y y r r y a y y v d h j k k z 9 a a a s j l j h j j a 0 h h h h k h 9 8 6 8 3 2 2 3 : 4 , > > : ; % % # 4 e y ",
"B u < ; O O O @ ; O O O - - O O O O O ; ; ; ; > < > > > < < 1 1 < < < < < < < < < < < > < < < < ; ; ; ; ; ; ; ; O O = O - ; ; = = = % ; ; - ; ; - ; > ; = O ; ; ; ; > < < > < < ; ; ; ; < < ; > ; - - O = # O ; O O ; ; = = = ; = = = O = - O = O o O   O > u u t 4 4 4 4 4 9 t y y y h f a s l a a s a a h 0 9 h y 9 9 d d y 8 7 8 e r e 8 r 8 7 7 y y k k k y d d a p y y y y r y y d a d h k h h k l j j G l l j j j h h h G V G V V Z C l l l l l s s s h a a k h d a a h k k k h l h h h 0 h g p y k d y p h g a 6 , , * % % O O ; ; ; ; > < < 1 1 1 < < < 1 1 1 1 < < < > ; > > < ; > ; > ; > % > > % % % # # # > % # % ; = ; ; ; = - - @ - ; = ; ; ; ; ; < > < < < < < < ; ; > , < < < < ; ; < < < < < < < < ; ; - ; - ; ; ; ; ; = = O O ; - = O ; ; < ; ; > < > < < 1 < > > ; ; O = ; , , 4 8 8 t 9 9 h y r r y y a y y d a a s h h h h y h k h l l l l h g 9 a a h y t r 7 r t r 3 3 3 3 3 3 8 8 8 r d 8 y d d y d p y d y r 9 y y y d y y f y y y f d 8 y y 9 y a h k a a a h Z S S Z j k h y 9 0 G k k h h d a p a y r r 8 r r 8 4 , , % % o # % 8 n ",
"M u ; O       O = O = ; = = O = = ; > ; > ; ; ; < < < < < 1 1 1 q 1 q 1 1 1 1 1 u 1 1 < < < 1 < ; ; ; > ; ; ; ; ; @ ; ; - - ; - O ; ; ; ; ; > < < 1 1 1 > > < 1 < < 1 1 1 1 1 < ; < > < < < < < < > < > > < < < > < < < < > ; < < < < < 1 , > > ; ; = O O = < r t 5 > 4 9 9 a a n h s h h k l C j G G l h h a a h a y a h k a y y y y y d d p d k h y h d d d a l f k f d d 0 r a y y y d s k k V G l G H J H H H G H G S z z m K I K H P P P H H J J S Z Z S Z j z H z j z m H L H G K L G G G G b k h k z b b H L G h 9 * * > ; @ = > < < < 1 1 1 3 q 1 q 1 < 1 1 1 1 < < < , 1 < < < < < < < 4 4 4 > , > < ; > > ; ; ; > ; - ; ; ; ; ; ; ; ; ; > ; ; < < < < > < 1 1 1 1 < > > < 1 1 q 1 1 1 1 1 1 1 1 1 1 < ; < > ; > ; ; ; ; ; ; ; > ; < < > < < < > < 1 1 q e e 1 1 e 7 1 q q 1 < - O > < * 9 9 t 9 t 9 h y a a h f a a a y 0 9 h h j h j y g l l G G j j l j h l m m m k b a y y e 3 7 q y 9 5 9 8 6 8 a d a d h k k h h d a d h h k k k 9 d k l f y k l m G H G n j z m j h h z H J H z G G G G H P G G m z l z F S l f M C k b b b k d 7 4 & # X # 4 g ",
"v e ; O O O = = O O O O ; ; ; > ; ; < < 1 < < < 7 1 1 q u u u u x d v v v v x x v u e 1 1 3 1 1 1 1 q 1 q q 1 < 1 1 < < < < < , < < 1 1 1 1 q 3 1 3 1 < < < 1 q < q 3 1 1 3 1 1 q q e e e e q e e e 1 q 1 q w r q q 3 q 7 1 1 e e e q e e 1 1 < ; ; - = O ; < e t 4 4 9 a g g g n j h k s s s C j j V G z j j z S m z S S A b b F F L L L P P P ) H z h k d h h d l l k f f f A f f s s h h k l j j j G G V H G P H H H H P H L G H H H H H J H F J L H H H H S P I { I I P  . . .{ {  .W W I W L H m n v m G L H G G j 9 4 4 * ; O = ; < < 1 1 e q 1 e q q e 1 q e e e e e e 1 e e q e e e r e e e t t u e e e i 4 , ; > , > ; > ; ; < < < > < < < > < < < , 1 q 1 q w e q 1 < 1 q e u e e e w 1 q 1 1 1 1 q q q 1 q q q q 1 1 q 1 q 1 q q q e 1 1 1 e e q e e u u r u u u u e e e q < ; O ; 1 9 t h a 9 a h 9 a a h h f C f f 9 9 a h j z G H H P P I J J J H G L I I ` ] ) I ) b k d 8 8 y y h 0 9 a h d k l k h a a y h h h a 9 y d h l k y a k A m l f b S m z H H j h l l G H J { ..$.X. .Q W | O.=.W K V ) / P ) ` ) F S P P / P L L H G n g 7 , o o 4 i ",
"u < O   O O O O = - ; ; ; ; , < 1 1 q q e e e e p p p p n B B B B ^ ! ^ ^ ! B B B n x p p p p p p p p x p u e e u e q e e e q u u u u t u u u u u u e e e e e e u r u u u u u u p p x v x x d x p p u i u r u u t r t u u e u u t u u u u e < < < > ; = O ; 1 u 4 4 5 9 a g l l j j j z z C C S H K R R R P K W { ` I ` R I P ` ` { { ..........) L z n z m S H F D P D D D D D S S S S A H P I | =.X.=.O.=.=.=...{ W { } ....' =.<.,.:.:.2.2.>.>.1.6.6.6.6.1.1.:.<.<.:.:.:.:.:.1.=.<.1.:.X.X.X.{ I L H m H H H j V G G a 9 4 > ; O O ; > ; < 1 e q 1 q w e e e x x x x x p p p v d u p p x v v k k p g k g g p g p e 4 3 1 7 e e e q e 1 1 1 1 1 1 1 q q e e e B v v v v d x p u u u u p p u u u e e e e e e e e u u p p p u e p p u u t r u e e e u u i i u u p x x u u p p p u u u 1 ; O < 1 5 t h a 9 h 9 9 s s l C A D D A H J J J I } X...=.:.O.$.|  .W W I I {  .{ {  .{ ` F S S l k b S j z G z z H S m k z z z k z m L { { ..X.$.&.....P K ` ` ` ) ` {  .{ X.X. .} X.{ =.,.p.j.N.N.N.N.c.w.a.a.2. .K H ....X.X...` ) ` ) ) ` ` ` ) I I H z y 4 % # > 8 ",
"r < O O O = O = < > < < < > < 1 u p p p p p u u v v v n B B ~ / ! ^ ^ ^ ( ( ^ ! ( ^ B ! ^ ^ ^ B B B B B n p u q u u r u p p v c B n v v x d v x n v v x x v v v v v n p v v v p d x v v n v v v B v v p p p p g p u p p u u u v p p p k p u 7 1 1 1 > O o ; 1 t 4 > * 4 y g k h z j z H L J P T ;.;.2.r.,.:.:.=.}  .{  .' I T ` ` { {  . . . .{  .{ ` ..O.O.:.:.*.e.*.&.../ D D D ) ' ` { } :.2.,.,.1.1.0.0.,.9.i.7.<.1.2.y.r.6.0.c.a.a.a.k.a.y.2.8.u.y.i.i.y.8.i.y.0.2.r.y.7.1.y.y.0.y.y.2.1.2.:.$.} _ I P L L G H J G h 9 5 > ; = o = < > < e 1 1 1 1 q e e r B B B B ! B B B M n x p x v n n n v v v v k v v p p k g p p p v v p p p u e q q 1 1 q e p p v n B B v x v v x p n v c k d v v n v v p p p x d v e u p p p p i e p p p u u u u p e i p k k p v v v n v v x v v k p p u 1 ; ; < 7 5 9 a 9 9 h 9 9 s l C D F T / D >.2.2.2.2.i.i.u.y.0.1.&.X.| } { H I ` ` ) P J J ) S P ] ) P ) P G I ` P L H z h z L I I H H  .&.1.:.*.&.1.<.:.&.2.1.&.<.2.2.1.2.i.<.e.i.2.r.r.%.0.b.J.J.D.B.B.C.G.m.C.C.0.| | =.>.1.<.2.&.....&.' {  . . .] [  .L b g 8 4 $ 4 i ",
"e < O O O - ; ; < > < 1 < < 1 1 < 1 1 e e e p p u v B v M ! ^ ^ ! B ^ ( ( ^ F B ! ^ ! ! F B B B B ! ^ B n n v p B B b M b M B B M M n n M n n M B B B v p p u u n n x p x b v e u u c v v p v p p p p e u u p u t e e r u t u u u u p p p u e e q < > - = ; 1 e 7 > , 7 9 a l l j Z P K R R } } | W | | =.:.,.:.$.$.X.X.#...' ' P P ` R I K P K ` { { { ..X.<.:.3.3.*.&.' ' ' T ' #.*.*.1.6.s.*.1.0.y.y.t.t.p.p.p.a.u.y.8.8.e.8.l.x.j.j.j.s.s.s.*.1.5.4.7.8.y.u.y.7.,.>.>.1.,.1.,.>.1.,.6.8.6.6.&.| ' ` ` R P J m z k l a 7 5 t ; - ; = = ; 1 q 1 < < 1 r u u p u r u v n B B v B b v v v B B v x n n x p p p u p p p d x x p p p x p p u r w e u i u u u p v n B B n v v v v x n n v v v d v v v p u u p p u u u u u u u e e e p u u e e e u e e 1 w q e e u p v p p x c d x x p u e e > ; < q 5 9 h h C a 0 s C D D R ' ..' ' R R { *.2.6.8.6.2.2.,.:.=.X.| | +.+.E T T T J J D D D T T A A A Z K { R K P I I R { X...` { :.r.&.>.6.6.1.6.6.4.1.r.y.t.1.>.r.i.t.e.7.6.1.1.*.:.j.x.x.x.x.x.x.x.a.a.c.b.q.-.=.=.:.:.1.:.1.1.*.&.| W W W ` W R I L G n 9 , & , 7 ",
"e ; O O ; ; ; > < < < q e < 1 e e 1 e 1 q e e 1 1 u p u u p d p u r u k x x u p p x p p x p p u p p p u u p p p x v v M M M c v x d x x p p x x x v x p e e u u u u u e u p u q 7 e u r e e e u q e q 1 1 1 1 < e 1 1 e e e 7 e e e q 7 1 1 , < ; ; = O ; < e u 7 : 4 8 9 d j h l S J K { | $.-.| | @.@.=.=.$.| W R R R T T P D K J P K P K P K H H J K K K K R T T ' T T T D D ' ' &.*.O.#.#.s.=.1.2.0.7.t.8.r.6.7.,.1.%.$.$.} %.;.%.#.+.E E E J E E E E E E ' } E ` E E } } } } { } } X.{ E U H S Z Z V l j a s 9 r r 9 5 5 5 % - = ; > 1 q e u r u u u e r p v x x x p p p u x p p u u u u u u p u r e e r u e e q q q q q q 1 e e w e 1 q e 3 u u e e r u u p p u p p p d x p u p u p u u u u u e q e 1 1 1 1 1 1 3 1 1 1 1 1 1 1 < > 1 1 < q 1 1 e 1 < 1 1 e e e e u u e e 7 1 < < ; = > 3 7 9 9 G A C f C C D R ..$.&.$.#.} } | $.*.$.$.+.| } R K K J H Z D D D D Z Z Z z C A A C f C V V h Z H H P J P H I ` { { ` { X.:...#.$.*.*.*.6.4.1.6.6.,.*.| ..{ +. ...' ' ' { W %.3.s.s.s.%.%.%.@.=.=.:.@.Y Y } } } Q } ..' R T H G G j g h h h k h d 8 4 , 7 g ",
"e < O O ; < 1 1 < < 1 u e e w r r w e e u u e 1 u i p p p v x p p u p p p p u p p u p p i u u e u u u u u u u c u p v v v v d p p u u r u u p p u d p e 3 e u p w u u r e u e e u u u e e q r u q e e q e q e 1 e 1 1 e u u e u e 1 < 1 1 < 1 < < ; O O ; < 3 u 4 : 5 y k G H H z H R } @.%.,.3.;.,.,.,.>.-.$.$.| } Q E R R R T K K K K K K Y W Y W Q Q Q Q { Q ' ' ' ' ' ' ' ' ' T ' #.#.' ' ' Q Q } | +.$.+.+.} } | @.+.+.' E #.3.+.+.#.+.E E Q +.@.+.Q } } } R E E ' { } } @.$.$.%.-.%.| E D J J J J J S Z C a 8 5 5 5 5 5 5 ; = O ; 1 e u u u u p p t u u p x v k c v x v d x v x p u p u r i p u e e e e e w q w q q 1 1 < e e e e e 1 1 q q e e q 1 e 1 e 1 q q e w e e e e e 1 e e u e e t e q e 7 1 1 3 e 1 1 1 e 1 1 1 1 1 1 < 1 q w < 1 1 1 e e q q e 1 1 1 3 e 7 1 1 < < < < > ; 1 e 9 0 j J ` / / D D T ' *.3.>.%.%.=.,.6.,.1.4.4.*.=.| } } Q Q Y K D E T D K K J J D T T D A T T D Z H J K P J J Z K J P T R R R T P U T E ` R E T E R E } #.+.+.} R R ` ' { } } } +.+.+.+.E +.+.' -.=.,.>.=.| +.$.| | } } } ' E T K K H V j h j j z h d y 7 1 4 8 ",
"w > = = < 1 q e < 1 3 u u e e e e e e u u r u u k v v n B ! B M x x p p p u u u p p d x x p p p v u r p p r u p u u p v v c x p p p p u p p p p p p p e e t u t e r u t u u t r p p u r u u u u u p p p u r u u u e e u u p p k u u e q 1 e 1 e 1 < = O ; < 1 1 4 > 8 k G P K P j J { $.>.>.3.-.0.0.0.0.4.,.4.3.,.>.>.*.%.$.$.+.| | | | } } | Q Q } } | | } | | %.%.%.%.#.#.#.#.#.' ' %.#.' T ' | | | @.$.+.+.' Q } | @.+.%.+.+.+.s.%.s.%.s.s.E %.%.-.%.%.%.%.%.$.%.%.%.$.$.-.>.=.-.>.:.>.$.E U U T R R R T K Z z h 9 9 t 5 5 > % = = > e p p r q u r t u u t p u u p p p v v M B B B v v v n v x p u u u p p i u e u u e 3 q 1 e u e e e e e e 1 q w 3 w 1 1 1 1 q e 3 q 1 1 1 e e q q u u u 7 r e q e e u u u u e q e u r e q e r e e u i u r 1 1 e t r e e u e e e u e u e u e e 3 1 < > 1 q 9 h G K $.#.' ..T R +.%.3.3.%.%.-.6.8.2.,.8.t.8.,.,.=.=.=.$.@.Q T E E D T E R T T ' E T D T T T E E { } E E Y J K K T E W E T K R E E ' ' E E E X.} Q E } } } } ' #.+.+.%.%.%.-.%.s.%.s.s.s.s.s.9.,.,.,.-.=.=.-.>.-.-.>.>.*.%.$.W W W J H H z z H z k d 8 2 , , ",
"e > = ; < 1 e r 1 1 e e r e u e u u u 7 q q r p B v v v n B B B v v v v v u u u u p p c x d x x p t r x p p p v p p x v v v v v x x v v v v x d v p p u p d p e u u u u p p p u u p t t u e e e u r u p t u e r p u e e u u p v u e e e q e 1 1 < ; O O ; 1 r t e , 9 b m L H Z V H W =.,.4.4.4.9.9.5.4.4.4.8.8.3.3.3.3.3.3.%.%.>.>.,.;.-.-.=.=.=.=.=.@.| | =.=.' +.%.' %.%.%.#.s.%.%.s.*.%.' #.,.>.3.>.6.3.>.$.%.%.%.;.*.$.+.+.%.s.s.s.s.s.s.s.+.+.+.+.%.%.%.@.%.%.;.%.$.%.>.3.>.>.>.3.>.%.+.E E E E E E R J S z j 9 9 9 9 5 > ; O ; < u p x p 1 q e u p p t u r t u u u p v x v M M n n B B B M x x x v x x u u u u u e e e e 1 e u u u u p p e e e u u u r u 3 q e e q 1 1 q u 7 e e u p u i e e e r e e e u i e 1 e r e e q 3 q e e u e e 1 u r e u u 4 e u e r e u e e u u e q < 1 ; ; > < 9 h S } *.&.#.$.E ' +.%.;.3.%.3.>.8.u.4.3.4.8.4.3.3.3.%.%.@.@.@.' #.#.#.' ' #.' ' T T ' E T T T K E } | } E R E } } | $.| | } } +.+.+.+.%.%.%.%.;.;.;.+.@.@.+.$.%.#.%.%.%.%.3.%.%.%.%.%.#.%.s.' ;.;.-.;.;.;.3.5.-.-.%.-.3.%.%.$.| | W W W K G j z k h d y 7 3 7 ",
"q ; O ; < e u t < e e e e e u u u u u e 3 e v B B B v x v B B n v v n B n p p k d p p v v v v v v v v v x p p p v v v v v b M M v v v n v b v v v v p p x x p q p p p p v v v p u u p d p p u e u u u u r e e u p u e e u u u p r u e e e e 1 < < > = = ; < e u 8 3 8 b L I K H V H Y | -.5.0.q.w.w.8.5.5.5.9.q.3.3.7.8.7.4.3.%.;.,.,.0.0.0.0.4.9.0.;.,.;.,.,.,.s.s.s.s.s.*.s.s.3.*.s.*.s.*.s.*.>.3.3.3.3.3.>.>.3.3.3.3.;.%.%.+.s.l.l.j.h.h.h.s.s.s.s.;.;.;.;.;.3.4.3.3.3.3.8.8.q.0.8.8.u.8.8.3.;.%.@.E ' ' ` J G l h 0 a a 5 > % ; O < e p p u q e e u p p p e u p p p p p p v x v n v M B B B M x M M v x p p u u u u e e u p u r u u u p p t e e e u u u i u e e e e e e e e u u e e p p p u u e u t e e e u u e e e u e q q e e e u r u e 1 u e e u r e u u u u u u e u p p e 1 1 < ; - > , 9 0 S { *.&.&.1.' +.%.%.3.7.3.;.4.0.u.8.4.8.8.4.4.5.8.8.3.-.%.-.%.s.3.3.s.%.s.*.3.+.+.%.+.' ' %.} @.%.>.@.} | $.@.$.>.>.$.$.$.%.@.@.%.%.%.>.%.%.$.%.3.4.4.3.;.4.*.>.*.3.3.3.3.%.s.s.s.s.s.s.s.s.w.9.5.5.5.5.8.5.4.3.3.3.3.3.*.$.=.=.| | X.} K l z h d d y r 7 7 ",
"q > = - < w u u 1 e e e e i p u i i u e e u B ^ ! B M v B B B B p x v v p u u p v v n v v M M B v M M x p p x x n v v v M n M B M M v v v M n v x v v p p v p p p v x v v d x v d p x v n v x p d p p p p u t p p u p p u i u u i u u r e w 1 1 q < ; = = ; < e 7 , 8 n )  .{ R Z J E } :.0.q.d.d.s.9.9.s.s.s.s.q.q.u.u.t.8.8.4.0.0.0.0.0.q.0.q.0.0.0.0.,.5.9.w.f.f.j.s.s.*.*.*.*.s.s.*.6.6.s.*.8.8.8.8.7.8.8.8.3.3.3.3.3.>.%.%.s.h.h.g.d.d.h.s.d.s.s.s.s.s.s.s.q.q.8.f.f.g.g.k.g.g.g.g.f.g.f.8.8.5.$.E E Q E J V z j 0 a y 9 5 % = = < e p p u e e r u r u u 1 u u p v p p v v v v v M B F B B x x x M x u u x u u p p u p u p p u r u p u r e r w e u p u u u e e e e e u r u u u u r t p p p u u u p u r u t p r u u u r e u e u r u u p p u e w e u u u p x u u p x d p g v u e 1 < < - ; > 5 0 V ` &.&.&.j.+.+.+.%.3.4.s.s.3.4.7.8.3.3.5.;.4.4.;.5.;.;.-.%.%.%.*.#.#.%.*.%.3.%.%.%.+.+.%.3.4.,.6.6.3.%.%.>.%.*.*.%.$.$.$.%.;.;.%.;.>.3.3.3.3.3.4.4.3.3.3.;.3.3.3.3.s.3.s.3.;.%.s.s.*.s.s.s.w.0.9.5.5.5.4.3.8.5.8.8.8.8.4.3.=.=.=.| | { K S S z f d y 8 3 3 ",
"q < = ; 1 7 e u 1 e e e e p p p x p r e e p x v B B v B B B B B B n M M d p u v x v p x x x d x p d p u u c b M v n n v M B B n B b v v x v M B x n v v p p x v p p v x p i u x x p x v M v v p v p u u p u u u p p p k k p u e u i e e e e 4 1 1 < ; # O ; 1 7 5 : 8 b P ) } T Z J E =.4.0.w.0.w.0.w.q.g.g.f.q.f.f.u.q.f.8.8.4.w.w.a.w.q.q.q.d.0.w.q.w.w.a.y.c.j.j.j.j.s.s.s.s.s.s.j.s.6.s.s.j.8.0.q.8.4.4.4.7.3.4.3.4.3.3.%.%.%.s.s.s.s.s.h.s.s.s.;.s.s.s.s.s.f.8.f.f.h.l.g.f.l.k.l.g.l.l.f.f.x.s.;.E E +.} K H z j 0 9 9 5 4 % = - > 3 t u u q e p u e e e e u p x p i e r u d x x x v N B v p p p x u e e p u u x x p u p p u u e u t u u u u e 1 r u t r u e e q q e u e e r p u p u u p x p r u p p u u p p u u p p u e p q e e u t u t u e 7 e u u e r t u p x v v p x p i e 1 < ; = O % 5 9 j T ..#.1.x.' +.$.>.4.s.s.4.f.q.f.q.s.4.4.3.8.3.3.;.5.;.;.@.%.%.s.*.%.s.*.s.*.*.s.%.%.3.3.3.,.>.>.,.3.>.>.,.,.,.>.%.$.$.%.%.%.%.+.%.;.4.4.4.4.4.3.3.3.3.4.3.3.3.3.3.*.s.;.s.s.s.s.s.s.s.s.*.0.5.4.4.8.0.5.4.4.4.4.5.8.8.8.4.;.;.;.=.@.{ I K H z l k d y 7 3 ",
"e <   ; 1 1 p p 1 1 u u p p p u v p p p p p x v n v v v B B B B F N M v x p p x x v v x x v v c x p p p p p v v x v b M b M M B n v v M v v v M M v x p p p x B v x x d x d v c p x v p v n n v v x p p p p p u x d p u u r e 7 p t r p u 1 1 < , < - O ; ; < q , 5 y n G K ] ..G J W =.:.7.u.k.g.g.d.s.g.g.s.s.s.s.s.s.j.s.s.s.w.q.g.h.9.s.n.h.h.d.h.h.h.h.s.s.h.h.f.s.g.h.f.s.s.s.s.s.s.s.s.s.s.s.j.s.3.s.s.6.s.s.3.t.3.3.3.s.s.s.s.s.s.s.s.s.s.s.s.s.s.s.s.s.g.f.8.f.g.g.g.f.k.l.l.g.g.g.g.u.y.q.,.=.| W R J h G j h y 5 5 4 ; O ; < e e u u 1 e u u e e e t u p d c x p u u t u p d v v v p p p p p p e u u e p x p p p p u t u u u u u p t r u u e 7 q e e e u e 1 e u r e u u u u d v v x p p u u u r u p p p u u p u u y u p t r r u p u u u u u r u u p x v v v n v x p u r 1 > ; = O ; q f A ] #.3.j.j.T E %.3.5.8.5.j.f.t.8.t.s.*.*.*.*.s.3.3.3.3.*.%.%.%.3.3.8.8.3.3.3.3.3.3.%.;.3.3.3.3.3.3.t.j.t.t.3.3.3.%.%.%.%.#.%.%.%.>.3.>.>.6.6.3.6.,.,.>.,.>.>.3.3.3.4.8.8.8.s.3.s.s.3.s.s.s.7.3.3.3.3.3.7.3.4.4.7.3.3.6.7.3.=.=.,.;.$.E R R F J k l l 8 7 7 ",
"q < = < e 7 u p w e r u p p p p p u u p d v M B v B v M B ! ! B ^ B B M v x x v v v v v x v b c v x p p p p x v x v M B v v M B v B B n v x v v b x x v v x c v v v x x x x p x p v v v x v n v p p p p p p p p u p p u u i u u p u u p u e 1 e 1 1 > = - ; > 1 & 4 y k m K ` ..H J W =.,.0.u.u.s.s.s.s.g.f.s.s.s.s.s.s.s.s.s.s.h.g.g.h.g.h.v.h.d.s.s.h.s.s.s.s.d.h.s.s.h.h.s.s.s.j.s.j.s.6.6.s.s.j.s.s.t.6.s.s.3.3.3.6.6.3.3.s.s.s.s.s.j.*.s.s.6.s.s.s.s.s.s.s.g.u.u.f.k.f.f.f.g.k.g.f.g.g.f.8.k.w.0.=.} | R P z H z 9 y 8 4 > ; O ; < 4 u r e 1 e r u e e u u r p p x p p u u u t u p v v p p p p x p y u u u e p p p p p x p p p p r u p u u u u r e u u e e u u u e e t e q p t u e u p p p p u u p p p p p p p p u u u t t u u u u t u p u e r t u u v n v M M M B B M x d u u q ; = O O ; u A A ] 6.t.x.j.E E %.3.5.t.3.t.8.4.4.4.s.*.*.s.%.%.3.3.*.*.3.3.3.3.3.3.8.8.8.3.3.3.3.3.;.3.3.3.3.3.3.3.t.t.t.3.3.3.3.%.%.%.%.%.%.$.%.3.>.>.>.3.3.6.3.,.,.>.>.>.3.>.3.3.5.8.8.8.3.3.*.3.*.%.*.s.s.s.4.t.3.s.3.7.4.7.7.3.7.s.7.3.0.;.,.;.%.} ` R D P m z l r 7 3 ",
"e < O > 1 1 p p e e u u p p x p u u u t x v v M B B B n n B ! F ! B v B B n v v M v v x v B M v p p p p p p p p x v v v v B B M B B B v v v v v n x x v v v x c v v x x x x p x x v n v x v d v p c p p p u p u u u u u u u p p u r u u e q e 1 1 e < ; = = ; < > 4 9 j H P {  .H K W @.4.0.u.0.s.s.s.s.s.g.s.3.s.s.3.s.s.s.s.s.g.h.g.g.n.l.0.9.%.%.+.s.s.;.;.+.h.l.h.h.h.f.s.s.s.s.s.s.s.s.s.s.s.j.j.3.t.s.3.3.t.3.3.6.s.s.3.j.s.s.s.s.s.s.s.s.s.s.j.j.s.j.s.s.g.f.u.f.g.g.f.g.g.k.k.g.g.k.g.f.a.w.0.@.W } R P H R n 9 y 8 8 & ; O # < w u u u q w e e e e u r t u u p v x p r r u e u u p p p p p p p u p p p u p p p u p x d x p p p u p p u t u e i u p u e e e r e u u u u u e e e u u p p i p p x c x d x g p p u u u i u p p p r u p p p u p p p p v n v B F B B B n x p u p e ; = o O > q f A ] 6.t.j.t.+.E %.3.3.t.8.8.t.4.3.;.*.s.*.3.#.*.s.3.%.%.3.t.3.3.3.8.8.8.8.8.3.3.3.3.3.8.3.8.3.t.3.t.3.3.3.t.3.3.3.3.%.*.3.3.%.$.%.*.*.>.>.>.3.,.>.>.>.>.1.>.*.3.3.4.8.8.8.t.s.*.3.3.3.*.s.3.3.s.3.3.s.3.7.3.4.s.7.4.7.7.3.3.0.,.;.,.>.$.' T J ' P A l y r 2 ",
"7 < = > 1 1 u p 1 e u p x k p p v p r u x v v c v B B M x B B ! ! B B n b M v v v B b n v n M v x d p p p p x d v v v v M B N b B M B B B M v v n v x x n v v d v v v d x d x v x d x p p v x u x d x k p p u p u p i r e u p p e e e u e e 1 1 1 e 1 > O o ; < & 4 r n G K ` { H K W =.,.0.y.0.s.s.s.s.s.s.s.s.s.s.s.s.s.s.s.s.w.g.f.g.l.5.@.+.E E E +.+.%.;.s.h.h.h.f.s.j.s.h.s.s.s.s.s.s.s.s.s.3.3.3.s.t.s.t.s.3.3.s.s.6.s.j.s.*.s.s.s.s.*.s.*.j.s.s.s.6.s.s.g.f.f.g.g.g.g.k.g.g.g.g.k.g.g.f.c.u.,.@.W W R J G W m 9 r y t , ; O ; < 1 e r u 1 < < e e e e e p p u u p p p u u e e e u i p r e u p u u p p p e p d p u p x p x k p u u p t r p u u u p p u r e e e e u p p r 7 q e e p p p v p p p k v v v x p p p p p p p p p p p p u p p p x p p p p v v v B B ! B B B x p u x e ; O O ; 1 < f A o.1.6.j.x.E E +.+.3.s.8.t.8.4.6.>.*.*.s.*.3.3.*.*.%.%.3.t.8.3.8.8.8.8.8.3.3.3.3.3.3.3.3.8.3.3.t.3.3.3.3.3.%.3.3.*.3.3.3.3.;.%.%.*.>.*.>.,.3.1.>.,.>.>.>.>.%.3.3.4.8.8.f.8.*.s.3.3.3.s.3.s.s.3.s.3.7.3.3.3.3.3.7.3.7.s.s.3.;.,.;.,.>.$...` L ..) B d y y 2 ",
"1 < O > 1 q u u e e u u x g p p v p p p x v v d v B B v x B F ! ^ F M v B B v v x B B x p x v n x p p p p x x x v v v b B B B B B B B B B B M v B x d p c n v x v x k p u p v v p p p p v v x u x g v p p p p x t p p u e e u u e e e e e e e 1 1 w 1 ; ; o O < & 4 8 k G I ` { H K } =.,.0.0.q.s.s.s.3.s.s.s.s.3.s.s.3.3.s.s.s.s.g.f.s.q.$.E E +.+.+.E %.%.%.s.s.f.f.s.j.h.f.x.j.j.s.s.s.s.s.s.j.s.3.s.s.s.3.3.s.3.3.j.s.3.s.6.s.*.s.s.s.*.s.s.s.s.s.j.s.s.s.s.g.f.f.g.k.g.g.l.f.t.f.f.f.q.s.q.a.u.4.| } Q W P z K G 9 8 8 8 > ; % = > q e r u 1 < 1 1 e u e 4 d p u u t u u u u e e 1 e u e u w p p u y p y u u p v p u u p r p p p u u p p u p r e e i u u u p u p u t r e e 3 e u p k v x p p p p p d x x c p p p p x v x d p x x p i p p p p u u p d x v B B v B B B n d p u d e = O O , e q 0 A ..3.3.j.x.E E %.+.3.t.t.j.7.7.6.3.s.6.*.s.t.3.%.3.3.3.3.3.3.8.3.8.8.8.3.8.8.8.8.3.3.3.3.3.t.3.t.3.3.3.6.3.3.3.3.3.%.3.3.3.>.=.%.>.>.*.>.,.>.>.1.>.>.>.>.,.;.3.4.4.8.t.t.s.*.3.*.*.3.3.3.6.t.3.7.3.s.3.3.3.>.3.4.7.7.s.7.3.,.4.7.3.-.$.} ' I X.) l d r y 2 ",
"1 1 = < 1 e p u 1 e t p p p v p p u r u p v v p p v B x x B ^ ^ ^ ^ B B B B B B p v v x u p p v p p p p p x x v v v M M B B B B B B ! B F B B v n v x p x v v x c x p u u p p k p p p p v n v p v x v p p p p d d x p u 1 e e e 1 q e e e w e 1 q w 1 ; O O O > & 4 8 k G I ` ] H K | =.,.,.0.u.s.s.3.s.;.s.;.s.s.3.3.s.s.s.s.3.j.j.f.7.;.+.E %.+.+.+.s.+.+.#.%.s.h.x.h.x.f.s.f.s.s.s.s.s.s.%.s.3.3.3.3.3.s.t.3.t.3.3.s.3.3.3.s.s.s.s.s.s.j.j.*.6.s.s.6.6.s.s.j.g.f.f.f.g.f.k.l.f.q.8.q.f.q.q.q.y.w.,.=.W Q R P H W H h 8 5 4 > ; O = ; 1 e u u 1 1 1 e u u u e u u u e e e e e e e e q 1 e e e w p x u e u e q e u p p p p u u p p p p p x p u u u r u u u u r p u u u u u e u u t u p x p p u v p p p p x p d p p p p p v v n p x k p p p p p d p p p x x v v B v v B v v p u u x e ; = > 1 u r e f / 3.t.j.3.+.E %.+.%.8.8.8.3.3.s.3.6.s.s.3.t.3.%.%.3.3.3.%.8.8.8.3.3.3.8.3.3.3.3.3.3.3.3.3.3.3.3.3.6.3.3.3.3.3.3.3.3.3.3.3.,.>.>.>.>.>.>.>.>.>.>.>.1.,.>.,.;.3.3.4.7.8.t.8.s.3.s.3.s.3.s.s.3.s.s.3.3.7.3.3.3.3.s.3.4.t.s.6.5.0.u.7.>.+.} ` ` &./ k a r r 3 ",
"< 1 O > q e k u q w r p p x p p u u u t p x v x p v B p x B ^ ^ ^ ^ B B v B B v v v x x p d v x v v p p p d x n v v B M M M N B B B B B B B B v x v x d p x x d d x p u u p p i u p v d x v c p v x p u u p p p u p t u e e u r e e e 7 1 e 1 1 w e 1 > ; O O ; > 4 5 h G J I ) K K } =.:.4.0.0.s.s.s.3.3.s.3.s.s.3.s.3.s.3.s.6.j.s.s.4.%.+.+.;.' +.+.+.+.+.%.s.s.x.x.x.s.s.s.s.s.*.s.f.s.*.s.s.s.t.6.s.6.t.3.s.s.s.3.s.j.s.3.s.s.s.s.s.s.s.s.s.s.s.s.s.s.s.s.s.f.8.q.f.f.f.g.g.g.f.f.f.f.f.q.f.y.q.4.=.} } R H L { z y 9 4 5 , ; = O < 1 q u u 1 q w u u u u e p r u e 3 e u u 1 q e q q e e e e p p q w u p u e t p p u p v p p p p u p p p p u u u u p u p p u u r u d p u p u p u p p p p p p p p p x x p p d p p p p v v p x v p u p p p p v p p x v p x v B v M n v x p p p x e = = < e u r p u T 3.x.x.5.E E %.+.+.3.%.3.>.3.3.3.3.3.3.3.3.3.3.%.%.3.3.3.8.3.8.3.3.8.3.3.3.3.3.3.8.3.3.3.t.3.3.3.3.*.%.%.3.3.6.3.%.3.3.3.>.>.>.>.>.-.*.>.>.>.>.>.3.3.,.3.3.3.3.4.4.4.8.8.6.s.6.s.s.s.s.6.s.3.6.3.3.7.3.3.3.3.3.3.7.s.s.7.0.0.q.4.>.$.{ ` ' ..P l f r 8 2 ",
"< ; = ; 1 e p u q e u p p p x p p d v p x n M n p n n p p B ! B ! ! ! B v B B v B n x d v B n x n v p p p p v v x v n B M v B N M B n B B B B B p v v v x x x p v v v v v p u u u x v v p p x k v p t u t p p p u u r e e u i u e u u u u u u 1 u u q < > = O ; * 4 5 9 z H I I J K W | -.4.0.4.3.;.s.3.s.3.s.3.3.s.;.s.s.3.s.3.f.4.s.s.+.E +.+.%.%.%.%.+.s.*.*.s.f.f.s.s.s.s.s.s.s.s.j.s.%.%.%.3.3.6.3.s.3.3.j.3.3.3.3.6.3.s.j.s.*.s.s.s.*.s.s.6.s.s.s.s.j.s.*.s.8.8.u.f.u.f.g.g.8.8.q.f.8.8.s.w.q.,.=.| } K H I I z 9 9 7 7 4 ; # # > 1 e e u 1 1 w r u r e e t u u u q e i k e e q 7 e 1 1 e q p e q q d c x e t p p p v v v p p p u r p r u u r u p p t p t p u i p c p u p p p p p p p g v u u p p v p p u p p p p p p p p p v p p u p p p v u p x v n B B B B B n v x p u p p q @ ; < e r 3 0 p A +.3.8.;.U E %.%.%.3.3.3.*.3.>.>.*.s.3.*.3.3.3.3.3.3.3.t.8.3.3.3.3.3.3.3.3.3.3.3.3.3.;.3.3.3.3.t.3.%.%.3.3.3.t.3.3.%.3.3.>.%.*.,.>.:.%.%.,.>.>.,.,.6.4.1.4.6.4.3.4.4.4.4.s.s.6.6.s.6.6.*.3.3.3.3.3.3.3.3.s.3.s.3.7.7.7.7.7.8.7.3.-.%.} R { ..F b l y 7 3 ",
"q ; - > q p v u 3 e u u p p x p u x x x p v v v x d x p v v B B ^ ^ ^ B B n M B v M v x x v v x x p v p p p v v x v v M v M b N v B B B B B B B v d x x x p p n v v n v v v v v x p p p p v p p p d d v v v x p u d v u u p u u q e e u t u q 1 7 e e < - - ; = , 4 * y z z L P z K } @.:.4.7.0.3.3.s.;.4.3.3.3.3.s.*.s.3.s.s.s.7.t.s.t.3.>.*.*.#.*.6.3.s.s.s.j.g.f.s.s.s.%.s.s.*.s.s.s.s.*.s.s.3.3.3.3.3.3.s.3.s.3.3.3.s.s.s.3.s.6.s.s.s.*.s.s.s.s.j.s.s.s.*.s.g.f.q.9.f.f.q.q.f.f.f.q.q.s.s.8.0.0.7.1.$.| W J ` I G k a 7 5 4 < = = ; < r u u 1 e e 1 q e u u u u t p u u u u e 1 q 1 e u u q w e r u r p u u u p p x p p p p r p p p u e t p p u u p p p p p p u r t p u u p p u u p v p p v u u p p p x p p t p p p p x x x v v p i u x d u u u u x n B B B M B B ! b x u u p u q ; ; < e e 3 r f P ..1.i.6.E +.%.+.3.;.3.3.%.3.%.3.3.3.3.%.3.3.3.3.3.3.3.3.8.8.3.3.3.3.3.3.3.3.3.3.3.3.%.%.3.3.3.3.3.t.3.3.3.t.3.3.3.3.3.%.$.$.$.%.-.>.%.%.:.:.,.>.>.3.6.,.4.4.4.4.3.7.7.4.3.3.4.s.7.s.6.s.t.3.7.3.s.3.3.3.;.6.4.4.4.8.7.3.u.8.4.3.>.>...T { ` ) k y a 3 , ",
"1 ; ; < q u v p e u u u u p k v p p p y x n B x p x p p p n v n B B B B v v v v v M b v v M v v v x p p p p x n x B b M M b M M M B B b B B B B B v v v v p x n x p u u t p d v p x p p p v v u n v p u p v n B p x p u r u e 7 e 3 e e u e q 1 e u e 1 ; - ; ; , 5 5 k H L I H z K Q } -.4.6.8.s.3.3.3.s.3.s.3.s.3.3.3.s.3.6.s.s.s.j.s.s.3.s.s.s.s.s.j.s.s.j.s.s.f.s.s.s.*.s.s.s.s.s.3.s.%.%.s.3.3.3.3.s.3.s.3.3.3.3.3.3.6.3.3.*.s.s.s.s.s.s.s.*.s.s.j.s.s.s.s.8.8.8.8.q.q.f.s.f.f.f.q.q.s.q.8.0.0.0.,.=.| K H ` I H h y 8 4 * , O O ; < u u w < 1 7 e e e r u u u t r u u u u e e e q r u u e e w e u u u p p y p d x v x d p p p p p p u p p p p p u u t p p p u u p p u u p p p p p p p p x v p d x p c x x p u p p p v v v p p p u u p x p c k d x M B B B N N B B M x p u p i q > ; < w r 3 q a P X.1.p.3.E E %.+.;.%.3.%.%.%.%.%.%.3.3.3.3.3.3.3.3.3.3.3.3.8.8.3.8.3.3.3.3.3.;.3.3.3.3.3.3.3.3.3.3.3.3.%.3.t.3.3.3.3.%.3.*.%.$.%.>.-.=.%.>.4.4.>.,.6.7.4.4.4.4.8.s.7.7.4.4.s.s.7.s.7.s.6.t.s.s.3.6.3.s.3.3.4.4.4.4.8.8.4.8.7.3.3.>.%.' J ' ` ) l y d 6 , ",
"1 - = < 7 p v p e e t u u u v v p p p p v B n p x d x p p v M B B B B b v v v n v B B v v B M v p p v p p x v n B v B B M v B n B B B B B B B B B M B N B x p x c x p u u u x v p p v x v v v p x x x v v v v B v p p p u 4 w e u e e e e 3 1 1 u p e < ; = - % , 4 4 h H L P z z K W } -.,.3.6.3.3.s.3.4.3.;.3.3.3.3.s.3.3.s.6.t.s.s.t.s.4.4.s.s.j.j.j.s.j.j.j.s.s.s.s.s.s.s.s.s.3.s.*.s.%.*.*.3.3.3.3.3.3.3.3.s.3.3.*.6.s.6.3.s.s.s.s.s.s.s.j.j.s.s.*.s.*.s.s.8.8.8.8.q.f.f.q.q.u.q.q.q.f.q.8.0.y.8.,.,.@.I z P I L k y 7 4 % ; O O = < u r e 1 1 w u u e e e u r e e e e r e e e e e e e e e e e e u u u p p p p x v v x x p v p u p x v p u p p p u u t u u p u p p p p i p p p p p p p p v x v v p p p d v p p p u p v v b v v x p p p p x v n v n B B B B F ! B B B v p r p u 1 ; ; < e u r 3 a F &.6.p.%.E +.%.+.3.;.3.%.%.%.%.%.%.3.3.3.3.3.t.3.3.3.t.3.8.3.8.3.3.3.8.8.3.3.3.3.3.3.3.%.t.3.3.3.3.3.3.3.6.6.s.*.3.%.3.%.=.%.:.=.-.>.-.-.4.6.6.,.>.6.6.,.4.4.3.4.7.7.7.3.3.7.7.7.6.s.s.t.s.7.6.3.3.3.3.3.3.4.4.4.3.8.8.8.7.7.4.3.,.%.E D ` ) ) k y a 7 2 ",
"q ; = > 1 p v u e e p p k x p p x d x p v B n p x x x x v v B B B B B B v v M B M B B B v n v d p v p v x x v v v v v v n M B B B B B B B B M v b B B ! B v d x p d v v v p p d p p x p x v v x u p v v v x x x x p p v p u u u t u u u e e e q p p u , O = # = % , * y m H L z z K W Q =.,.6.4.s.;.3.s.s.s.s.3.s.6.3.6.s.s.s.s.t.s.s.7.7.4.4.s.s.s.s.s.s.j.g.f.s.s.s.s.s.s.s.s.3.s.s.s.*.s.s.*.3.3.3.s.s.t.6.3.6.3.s.s.s.6.j.s.s.s.s.s.*.s.j.j.j.s.s.s.s.s.s.s.s.f.s.q.s.8.8.8.8.q.9.8.8.q.q.8.0.8.7.,.:.X.K j P { L h 7 8 4 % ; O O ; , e u q 1 1 q u t e w u u u 1 w e e e e e e e e e e e e u u e u r u u p x x v v v x p p p p u p p p u p t p d p p p u p p p p p p p p p k x p p p p p x p p p p u t p x x d p p p x v n v v n d p u p p x v M B B B ! ^ ^ B B v M v u e u r 7 ; ; < u y e e y P &.6.t.$.E E %.%.3.3.3.%.%.%.%.%.%.%.3.3.t.3.t.3.t.t.3.3.3.3.3.8.8.t.3.3.3.3.3.%.3.3.3.3.3.3.3.3.t.t.3.%.3.3.*.s.%.%.%.%.%.%.%.%.-.>.:.>.,.>.,.,.,.,.4.,.4.3.3.4.7.3.7.3.4.7.7.7.s.3.6.t.s.s.7.3.3.3.3.3.3.4.8.4.4.8.4.4.7.7.7.3.>.$.` J ) ` ) l y y 3 3 ",
"q ; - < q p k i 7 e p x v x d p p v n x v B M v x v c v v B B B ! ! ! B M B B B n B B B n v v p p x v v v v d v v v v v v v M B B B B B B B v B v M B N B v x p p p x v x p p u p p p p p p x v v c d p u p v n p p p v v u r u u u p u u e 1 1 p p t < = O O # * 4 * 9 G L K z J K { Q $.;.6.8.7.s.s.3.7.s.3.t.3.*.3.3.6.7.6.s.7.s.s.s.s.4.3.s.3.s.s.s.j.j.h.f.s.j.s.g.s.f.s.s.s.s.s.6.s.s.s.s.s.3.s.3.3.3.6.3.6.s.6.3.*.s.s.*.*.s.s.s.*.s.j.s.s.s.s.s.s.s.s.*.f.f.f.s.8.8.8.4.8.8.9.8.8.9.q.5.0.0.,.,.-.| K z I _ L y 7 7 5 : , = O ; < e e 1 1 < 1 u u u e u u u e 7 e e u e e u r e e e e e t e e u u r p x v p v v v x u p u p p p t p u u r u p p p p p p u p p p p x p p x x x p p x x x u u d x p u p p p p p p p p p p p d x p p r p x x v v B b N ! ! ^ ! M B N b p q u u 1 > = < e t e 8 y P &.r.r.#.E E 3.%.3.%.3.%.%.%.%.%.%.%.%.%.3.t.3.t.3.3.3.3.3.3.8.3.3.8.8.8.3.3.3.3.3.3.3.3.3.3.3.3.3.t.3.3.s.%.%.*.%.+.%.%.X.$.%.%.=.>.1.6.>.>.>.,.>.,.2.4.3.3.3.3.4.7.7.4.7.7.7.7.s.3.7.s.s.s.6.s.s.3.3.3.3.4.8.4.4.4.4.4.4.7.4.3.-.@.E D ' ` ` b y r 2 3 ",
"1 ; ; > w u x p u u u p p x x v x M B v v M B v p x p x v B B ! B ! ^ B B v B B v B B M M n B x p x v v v v p x B v B v v v n B B M B B B n M v v v B B M v x d x v d p p u p p v p p p p p x v v c v v d x x x p x v v v u u u r u p u e e q 1 p x r 1 O O O O & 4 4 9 z P R G J K { Q +.%.3.8.7.3.6.s.s.7.3.s.3.3.3.s.s.7.s.3.3.4.s.s.s.s.s.7.s.s.s.s.s.s.f.s.j.s.j.f.f.f.f.f.6.s.j.6.s.s.s.s.3.3.t.3.s.s.t.s.*.6.6.3.*.*.s.s.j.s.s.*.s.s.s.s.s.s.*.s.s.s.s.s.9.q.q.8.5.4.5.5.8.8.8.8.8.q.q.8.4.4.,.-.-.| K Z I ) H h 3 5 5 1 < # O ; < 1 e 1 1 1 e u p r e e t u e e e e r u u u u u u r e e u 7 r u p u p v v v v v v p p p p p p p p u u p u u t u p p p p p p p p p k p p p k x p k c v v i p c v v p v v x p p p p u u p u u p p x x x v x v v B v M B B F B B M B v p e p i q ; = < w t 4 8 y L O.2.t.%.' E +.+.3.3.3.+.%.%.%.+.+.%.%.3.3.3.3.3.t.3.3.t.3.3.8.8.t.8.8.8.5.8.3.3.%.3.3.3.3.3.3.3.3.t.3.3.%.%.3.%.%.s.%.%.@.$.%.-.>.,.7.8.,.>.,.4.6.6.2.7.4.4.4.4.4.8.8.8.3.s.7.3.6.s.s.s.6.6.s.6.7.3.3.3.3.4.8.4.4.4.4.3.3.3.3.%.$.} R S  .' ] S y 8 3 3 ",
"1 ; = < q p v p e u u p p p v v v B B x v B b x v p p d x v B B B B ! ! B B B B v B B b B B B M b M n v v v v v B M b M v v n v B M B B N M v B B v B n v v d x v n x v p p u p v p p v v p d n p x v B B v x p x v n k p p p u u r p t e 3 q q p p u 1 > O = O % 4 4 y z H R H G R Q } %.>.3.t.3.7.3.7.3.t.s.s.6.s.s.6.s.s.s.t.s.3.s.s.s.s.s.s.s.s.s.s.s.f.s.s.j.j.f.f.f.f.g.s.s.s.s.s.s.s.6.s.s.s.s.t.t.s.s.3.*.s.s.*.j.s.s.s.s.s.s.s.s.s.s.s.s.s.*.s.s.s.s.s.8.8.8.5.5.4.5.8.8.q.8.5.8.q.0.5.7.0.7.,.-.| I H I I F k 8 3 7 1 1 ; O = ; 1 e 1 1 e q e t p u e e e u u e e e u i u u r u t u u u e e p p u p x v v v v v x k x p p p p r u u u u u r p p x u u p p p p p p p p p v x p p v v p x x p c d x v g v p u u i u p u p p p n v v v n v b n v v v v v B B B B B c p e p u e ; O ; 4 r 4 7 y P X.2.j.8.' E +.+.3.3.3.%.%.%.%.%.%.%.%.%.3.%.3.8.8.t.t.t.3.8.8.3.8.8.8.8.8.8.5.3.3.3.3.3.3.3.t.3.3.t.3.3.%.*.%.#.%.s.%.%.%.-.>.>.>.6.0.u.6.6.3.6.7.7.7.8.8.7.4.3.3.4.4.3.3.3.7.s.3.s.3.7.3.s.6.s.s.7.s.3.4.8.8.3.3.3.3.3.;.3.3.-.$.} P Z ' ` ] S y 8 3 8 ",
"< = O > e p v x e u d v v v x p B B n x n B M p v v x x v v M b B B ! F B B B B N B ! N B B M v B B n v v x v v c v v v x v n M B v v B B B M b B B M v x x x x u p v v v p u t p v v v v p x v v v x v v n n v n B M p u p v p p p p u e e e e p x u q ; O O O $ 4 5 y z P K H H R } } %.3.%.6.3.3.3.3.s.t.t.s.6.s.6.s.6.s.s.6.s.s.s.s.s.s.s.s.s.s.s.3.s.f.g.s.f.f.f.g.f.g.g.j.s.s.s.s.s.s.s.6.t.3.s.3.t.t.s.3.1.s.s.s.*.s.j.s.j.s.s.j.j.s.s.*.j.s.s.s.s.j.j.j.q.q.q.8.5.4.8.8.8.9.8.5.8.q.0.5.2.0.0.4.,.X.K z I P S k r 5 3 3 e ; # ; > 1 e e < q e e r p u 1 e e u e e e r u u e w e u i r e u u i p x u r p n n v v v v x c d p t u p u r e p u e p k v p u u p p t u p p p u x c x d v v v d p p u p p p u x d p u r u p x x p p v B v x x v M v v v v v v B M B B B x u e p p w > = ; 1 e 4 7 p L ..e.z.j.+.' %.+.3.3.3.%.%.%.%.%.%.%.%.%.%.%.3.3.t.t.j.t.8.3.8.8.3.8.8.8.8.8.8.3.%.3.t.t.3.t.3.3.t.3.3.%.%.#.s.s.%.#.%.%.-.:.,.3.1.7.y.f.8.6.6.7.6.6.4.7.4.4.3.3.3.3.;.3.>.3.3.3.3.3.3.s.3.6.s.7.3.7.6.s.8.8.4.3.%.%.3.4.%.3.4.3.%.+.P Z ) ) ` A y 8 2 8 ",
"; @ ; < e u p x e u c p p p p v v B B x x n B B F v p x v v B B v B F ! B B B B B B B B B M B B ^ B v v v p x B v v x p d v M M v M M B B B B B b M B B v x v v p p u u u p p p d x x x p x b B v M M d p p M B B M v p v B B p p p p p p u e u p v u e > = O   % , 5 8 k )  .) L K ..W $.%.>.4.7.8.8.8.8.8.7.8.3.s.s.s.3.t.t.s.8.f.f.q.8.f.f.q.f.q.8.q.f.g.f.f.h.g.g.g.g.g.g.d.s.s.s.s.s.5.s.s.3.3.s.s.s.3.3.3.s.s.s.s.s.f.j.s.f.g.g.d.s.s.s.d.s.s.s.s.s.g.s.s.s.q.g.s.8.q.h.g.q.8.q.q.q.q.8.8.7.0.7.0.,.{ R J m H P B e 3 r 3 e ; O = < e 1 e 1 1 q e e u e 1 u u u u u e e u t r e e e r u i i u u p v d x v v v v v x x v x v p u p p p p e u u p p p p p p y p p v x v p p v p u v v c x c n p p x v p p u d p u p p p u u x v p x n v p x p x n n v v v v M v M B B v u e p u q - O ; 1 u 4 8 k P o.1.2.6.&.*.%.$.%.5.4.3.%.3.%.%.%.%.%.s.%.;.%.%.3.j.s.s.s.s.j.s.s.t.3.s.3.3.3.3.3.s.3.3.3.s.s.3.6.3.3.3.>.*.3.3.;.3.3.3.>.,.,.2.4.4.,.,.>.,.>.,.3.3.3.,.3.,.,.4.6.3.,.,.6.6.7.7.6.6.3.6.3.3.3.s.*.s.3.s.s.s.3.3.*.3.s.%.%.3.*.3.&.' D D ' ` P A e p , 3 ",
"- = ; 1 u p p d e u p x p v k u v M n p u p x p M x p p x v v B v B ! B B B B B B B B B v v M B ^ B v v v v d B x v v x x v v v v v n B B B v B M B n M v v v v v v p p p p p p x p p x x c v v d M B B M B B B v B B v B B B x p p u p u u r u v v p e < = O   % : 3 8 z  .O...K P $.{ %.=.:.6.4.4.4.4.7.7.8.7.3.s.3.t.3.s.s.s.8.f.f.q.q.u.f.f.s.q.q.u.g.k.f.f.h.h.h.l.h.h.h.h.s.s.s.s.s.s.s.s.s.s.t.s.s.3.s.s.s.3.s.s.j.j.j.f.s.g.g.g.s.s.s.f.f.d.s.s.s.s.s.s.f.q.f.u.8.f.k.s.q.q.q.q.q.8.9.8.0.0.1.,.=.R K J z H ) S r 3 r e e > O = < 1 1 e < 1 e q q e e e e e r t u y u p e u u e u u u r e e t p p p p x v x v x v x d x v p p p p p i u p p p v v p p p u u p p p p p p v p p d v p x k v p p p v x p p x p p u u y u u x v v p v x p x v v v v n v v c B v M B B x u e x p e ; O ; 1 r 5 8 k L ..1.e.2.' ..} } @.%.%.@.%.%.%.%.%.%.%.3.%.3.%.%.3.3.j.s.3.s.j.3.j.3.s.t.s.3.3.3.3.3.3.%.>.s.3.7.3.3.3.s.*.3.3.%.3.#.3.3.>.6.6.8.7.6.6.4.3.6.6.3.,.1.>.>.,.,.>.:.,.>.>.:.3.>.6.6.3.3.3.3.6.s.*.s.s.*.3.3.3.s.3.*.*.3.3.3.3.*.3.*.$.' / A P / ) B 8 y , 3 ",
"= = ; < u p v x e u u k p v x i n M N k d x p e x p x d v n M M M B B M N B B B B B F B B N B B ^ B d v v v x v x x d x x x x v v v v x x v n v M M n v v v v v n v c x v p p p p p p d x v x v c M B B N B B B n B B M n B b c B n x d u 1 q w v v p w > # O   O : 5 r b  .&.X.H H X.} $.%.>.,.4.3.3.3.3.4.7.7.7.3.3.3.s.7.s.7.8.q.f.q.f.f.g.f.f.q.f.f.k.k.g.f.d.h.l.l.l.h.h.h.s.s.d.g.g.s.s.s.3.s.3.s.s.3.3.s.s.6.j.j.h.h.j.h.s.g.v.h.g.s.9.9.f.s.s.s.d.g.g.s.f.q.q.f.u.g.k.q.u.f.f.q.q.q.q.s.0.0.-.,.$.E J z b H P B y e p u i 1 O O ; 1 e e > q u u e 3 e u u r u u u u t t e u u u t t u u r e u p p p p v x x d v v x v d v d p p p x u u p p x d p p p v u u p p p p p p p u p p p p p x v p p p v p p p p p u p u r r e p v v d x p p v v v v v v v v v v v v N B v p r p p e > O - < 1 8 8 p F O.e.e.1.` | #.$.;.3.3.%.%.%.3.%.%.%.%.;.;.3.3.3.s.s.f.f.j.s.s.3.3.s.s.3.3.t.3.3.3.3.3.3.3.3.s.7.s.s.7.3.%.3.3.3.%.s.3.3.,.6.8.0.8.7.6.6.6.6.1.>.>.>.>.,.>.>.>.-.>.%.=.%.*.;.>.>.>.3.6.7.3.6.3.6.6.3.s.3.3.3.3.3.3.3.3.3.3.3.3.*.$.' D A P ) / A r y , , ",
"# ; ; 1 r x v v e u p p v v p u v n v v c v x u p x v x p B B n B B B v B B B B ! ^ ~ ! B B ! F ! n x x n v v x p v x v v c d p d p x d x v v M B v B v v B n B B n v k v p p p p p x v v B B B ! B v v M b M v B B B x x B M v ! B v x e e 1 q p p p 7 < ; O O % 1 5 8 k )  .) z H } W $.$.%.>.4.3.3.3.3.4.4.7.7.3.3.s.7.s.6.7.8.q.q.f.f.f.f.g.f.f.f.g.g.k.k.g.d.g.m.l.g.g.g.g.g.g.g.h.h.g.s.s.j.3.s.s.s.s.s.j.s.s.s.s.h.x.h.j.9.g.h.h.s.5.8.s.s.s.s.s.d.g.g.s.q.q.f.f.f.l.l.f.q.f.f.f.8.8.8.s.q.0.,.,.:.W H j H H P m y y k d p q = o ; 1 q e > e u i e e p v p p p u u u r u e e u r p u u u u u u p p p x n v v n M n v x x v p p p p d p v p p p p p p p p p p d p v p p p p p v p u p p v d v x x p p v v c x p p p t u u p v v x d x p n v x d x x v d p v x v b n x u e p i e < = ; < 1 e r d S  .2.e.1.T } ..+.+.%.;.$.%.%.%.%.3.%.%.%.3.%.3.3.3.s.f.j.s.s.s.s.s.j.3.t.s.3.3.3.3.3.3.%.3.6.3.7.s.3.6.6.3.%.3.%.3.;.3.*.,.4.6.6.,.2.4.4.6.4.,.>.>.>.>.,.>.>.-.:.%.%.$.$.$.*.*.*.*.>.6.3.3.s.s.3.s.s.6.s.s.3.3.3.3.3.3.3.3.3.3.*.$.' D A ) ) ) A r y & ; ",
"; ; ; < u x v v u u p p v v p r u p p p x v k u u v d p p v M n B B B M M B B B F B ^ B B B B B B n x x v n v d v v v v v v x x x x p p p v v n v v v v v v b M n B x x v x p x p v v v v B B ! ^ ! B N B B B B B B v p x B B x M v v p u u e e p p u e > ; = O ; , 7 7 h L K J z V { R $.$.%.>.3.3.3.;.3.3.4.8.3.3.s.3.s.7.3.s.9.q.f.f.f.f.f.f.f.f.f.g.g.g.g.f.g.h.l.v.h.d.s.g.h.g.g.g.g.g.d.d.j.s.s.s.6.s.s.s.s.s.f.f.h.l.x.g.s.g.g.g.s.9.9.s.f.f.d.g.g.g.g.g.q.f.k.k.f.f.k.f.8.f.f.f.8.8.q.f.w.q.,.4.;.Y H 0 L H S l y p v k x e = O ; q u e 1 e e r p p v M p u t r p p u p u t u u p u u y u u p x x p v M n M B v b M v x v p p p p p v v p p p p u p p p p p p v p p x p p x x p u p p v x v v p p x p v x v v p p u p u p v v p v x p n v v x x v v x x v p p v x p r e u u r 1 ; = < 1 1 9 d B ` &.2.&.T ' ' +.+.%.%.%.%.%.3.3.%.3.%.%.%.%.;.3.3.s.j.j.j.s.s.3.j.j.3.s.s.3.s.3.3.3.3.3.7.3.3.3.3.s.3.3.%.3.3.%.3.3.%.s.6.3.,.>.>.>.:.7.,.,.>.>.>.>.6.4.6.>.*.*.%.%.$.$.$.%.%.%.*.>.3.3.6.s.*.s.6.s.6.s.3.3.3.3.3.6.3.3.3.*.*.*.#.' D D I _ ) m r r ; % ",
"O ; ; < e v n v r u x x x x x i p u u u p x p u p u p u u x v v B B B B B B ! B ^ ! ^ B ! B B B B n x x v M v x v v v v n v v v v v x x p p p p v x x d x v v v v v v x x d v p p x v v c v B ^ B B B F ! ! N b B M v v b B n p v v v x u u e e p k p q < = O O > 2 6 5 d H L Z z z } E $.$.-.>.3.3.3.3.3.3.4.4.3.3.3.3.3.s.7.4.8.8.q.f.f.q.u.f.f.f.f.f.f.f.g.g.g.l.n.l.g.g.g.s.h.h.g.d.g.g.g.g.s.s.s.s.s.s.s.s.s.s.s.f.f.h.g.f.g.g.g.d.s.s.d.g.g.g.g.d.h.g.d.s.g.g.l.h.u.f.k.u.q.q.q.q.q.9.s.f.a.y.,.-.| J H j I H B k r p v k p q ; O ; 1 e e 1 e w u p p x v p p p u u u p u p u p u p p p p p u p d v x c v v v M v v v v x p p v p x c v v p p p p g x x d d c p p p p p p p p p p p x v v x v v v p v x x p x p p u u t u r p x c v v v B M M n B b B B v x p p p p u e e r t u 1 = ; , < , 8 f l L X.:.&.` #.$.+.%.;.4.;.3.3.3.3.s.%.3.%.%.%.%.;.3.3.3.s.s.j.s.j.s.s.s.s.s.t.s.3.s.3.3.s.3.3.3.s.3.4.3.4.3.%.;.3.;.%.%.s.6.4.,.>.%.>.,.6.>.>.>.>.>.,.6.6.3.,.>.*.%.>.%.%.*.%.%.%.*.>.3.6.3.*.s.6.s.6.s.3.s.3.3.3.3.3.3.s.s.*.*.*.#.' D D I ) I m r y : ; ",
"= ; ; < 1 v n v e i d x x p p u p p p p p p p x t p y p p u u p n B ! F B B F B ^ ^ ^ ^ ^ B B B M v x v v v v p p v v v v v v v v v v x x x x x v v x p x v v v B b v v x v v p u x v v v v v M x x v B ! N B B v b v p v B n p v v v d u u 1 1 i x p e > O = % ; 1 5 5 a G J G z H } W $.%.:.,.3.4.3.3.3.3.3.3.3.3.3.3.3.3.3.4.4.5.9.f.f.f.f.f.f.f.f.u.f.f.f.g.h.h.h.g.g.d.f.s.h.g.d.f.d.g.g.g.s.s.3.3.j.s.s.j.f.s.f.f.g.g.f.f.g.d.s.g.f.g.h.h.g.s.g.h.h.h.g.g.g.g.k.l.f.g.l.f.f.q.q.s.u.f.f.g.w.0.,.;.| J V j L G S k r r f x u e ; O ; 3 q 1 1 1 e u u p p x p p p p u r u u p p p p p p p x x u p d v v d v v v v v M n M B v v v p x v p v p p p x v v v x v c p p x p p p p x p p p v v v p v v v v v x x p p p p r u t p u p x x B B B B B B ! B B B n M v p p p p r q q u u u 1 O ; ; , , r d d m { &.O.D ' +.#.%.;.3.;.*.3.3.3.%.3.*.3.%.%.3.;.3.3.3.s.j.j.s.3.3.s.j.j.t.t.t.t.s.3.s.3.3.3.3.s.7.3.3.4.%.3.%.%.%.%.s.3.3.1.>.>.*.>.>.1.>.>.>.>.>.>.,.,.,.,.>.%.>.%.*.%.>.*.*.*.*.*.*.3.s.*.3.s.s.6.*.s.3.3.3.3.s.3.3.6.*.*.*.&.%.' T A { I I m r h * * ",
"= ; ; > e p v x u u v p p p p p k p u u u u x d u t p x p u r x v B ! ! B ! ! ! ^ ^ ^ ! B B B v v v v v v v v v v v k c v M v M x x d v v v b n M v v x v v n n B B v v v c v v p x d x v v c d v x x v M v B B v v x u u x v v u p x p r u r 1 u p u e < - ; ; > 4 5 5 9 H J G Z Z } R $.$.>.4.3.3.3.3.3.3.3.-.%.3.3.3.>.%.;.3.4.4.8.f.f.u.f.g.q.f.f.q.q.u.f.g.g.f.d.d.f.g.d.s.h.g.g.d.s.g.d.s.s.s.s.s.s.j.s.s.j.j.f.g.g.g.f.f.f.s.s.s.g.h.g.g.s.s.s.g.h.v.h.h.g.f.f.g.f.l.n.f.f.q.8.q.u.f.g.g.0.0.,.;.| J H 0 b H H l 3 e p d u 1 ; O ; 1 e 1 q 3 u u u r i d u u p p u p x v p p p p p x d x v p p x v n v v v v v n M B B B v v v v v p p p p p p v v v v v n v v v x x d v p p p r p v n v p p v v n n v d u p p p u u u r u u p v ! F B B B ^ ^ ^ B M v v v p p p p u e q u p u 1 = o ; < 3 8 y y b ` ....J ' $.+.>.4.4.3.s.3.s.3.s.3.3.3.s.;.s.3.%.%.3.s.3.j.s.s.s.s.t.j.s.3.s.s.3.3.t.s.3.s.7.s.3.%.3.3.;.%.;.%.%.;.%.;.>.>.,.>.>.>.>.>.>.>.,.>.,.>.>.>.1.>.>.%.%.%.-.%.>.>.*.*.*.*.6.s.*.s.s.6.6.s.s.*.j.3.3.s.3.3.3.3.s.#.s.#.#.' T A {  .) m r y * % ",
"; = ; < 1 x M v e t x r M p p p u p p p p p p p r u p g p r u 1 u x N N N ! ( ( B ( ( ! B B B v x v d x v v v p x v v d x x v p n v v d p x v B n x p v B B n v v M M n x p p p p x v v v v x p b v x x v v v x v v n v v v x v p p p p t u e e u u u e > = o ; , , 2 8 d S I L Z Z } W %.%.3.6.5.8.4.5.4.3.7.8.7.4.3.3.3.3.3.3.4.3.4.8.d.f.f.h.f.f.f.f.f.f.u.f.g.g.g.d.s.s.f.h.s.g.h.h.h.g.s.g.s.s.s.s.s.f.f.j.s.s.s.s.s.s.s.%.5.s.f.q.9.f.g.s.5.d.g.g.d.l.l.g.f.g.f.g.g.k.g.g.q.q.q.f.f.g.k.l.k.0.,.=.W J z 0 b P S M y , r b p q o O O e 1 e 1 1 e q e i e u r u p p u u u v p p p v p u p d p u p p v v v x v v M ~ ! B B ^ b M p p v x d x p p p p v v v v v c x v v p v v p k x c v v v v p v x p p x x d p u p p p p u u u t d M n x M ! x v M M v v x x v x p u u u u r e p u 7 > = O < 3 8 3 r n ..&.' D E *.$.8.8.f.7.*.s.*.s.s.s.3.%.%.*.s.*.3.3.6.s.s.s.s.s.t.s.s.s.s.t.t.3.3.3.3.3.4.7.4.4.3.3.;.>.%.;.;.%.;.%.%.%.%.*.>.>.>.-.-.%.=.>.-.=.>.>.>.,.>.>.%.$.=.=.:.-.%.*.*.*.*.*.*.*.*.s.s.s.s.*.s.6.6.3.s.3.3.s.3.s.0.,.;.=.| W W V G { R G a * 4 * ",
"< = ; > 1 p v d u u v p B x x p p u p u p t p u u u p p u u u r e p x v ! _ ( ( _ ( ^ B v B v x x x v x x v v p x v v v v v n v v x x x c c v v v v v p x d v v v v v v p u p p p p d v v n n n x x d p d x x v n v x v v v v p p p p p u e 1 q r p u q < ; = > 1 , , 7 8 z P L Z Z ..` $.*.,.1.4.4.8.4.4.4.7.8.7.4.3.3.4.3.4.3.4.;.3.8.f.f.g.f.u.f.f.f.f.f.f.u.s.d.f.d.s.s.f.h.s.g.g.h.g.s.s.s.s.s.s.s.s.f.f.f.s.s.s.s.s.s.s.s.5.9.s.9.9.f.g.s.s.h.v.g.g.l.l.d.f.f.f.g.f.f.f.f.s.f.f.s.s.f.f.f.w.4.-.=.W H V 0 A P A b p < r v p e o = = e e e < > e 1 e p u p u u p v p p u p d p x v x p p x v p p p d n v n p p v B ! B B ^ ! ^ n u p x x p p x v x x x v v v v x v v v p p u p p x p x v v p p v v v c p p p p p p p u p t p u p p p p n B v v v v v v v x v v v v p i u u u u u 1 ; O O ; 2 r y y z ` ..` S T #.$.7.8.g.t.s.s.j.s.j.6.6.*.3.s.6.s.s.6.s.3.t.t.t.3.3.t.s.j.s.3.s.3.j.s.3.s.s.4.7.3.3.3.3.3.%.%.%.;.;.;.%.%.%.-.>.>.:.%.>.:.>.>.>.>.>.>.>.>.>.*.%.%.$.%.%.-.*.%.*.3.%.s.6.*.s.*.s.*.s.6.3.s.j.s.s.6.3.3.3.3.,.=.,.;.| W W G K X.R H h 5 4 * ",
"< ; ; ; 1 u v v e u n x B v v u p p p u p r u p p p p p u u p u y p x v ! _ _ ^ ^ ^ B p p x x p d v v x p v d p p v v v v n B v v v M n B B B M v v v p u u u v v v x x p p p p p v x v x x p p p x x x x x v n n d x x v M v x d x p u e 1 1 1 u u u 1 > ; - < 7 , , 5 7 z H L Z Z { } %.>.>.,.4.4.4.4.4.4.4.8.7.7.4.3.3.3.3.3.3.;.%.4.s.f.f.f.f.f.g.k.l.k.f.f.s.d.g.g.g.d.s.g.s.d.g.g.d.s.s.5.s.%.s.s.s.f.f.s.j.s.s.s.s.s.%.s.8.s.s.w.f.g.g.s.h.n.m.h.l.l.l.d.j.g.f.f.f.f.s.f.q.f.q.q.q.q.q.8.5.-.=.=.W H z z S P b f y : e y p e O = ; e e e 1 > e q u p u x u u p p d p u u x x x c x p p p v p p p x v v v x p v B ^ ^ ! ^ ! ( M e u n v p p p v v d x v v v x x v v p p p p p p p p v v v v v v v v p x p p p v c p u r u p p p p u p x B v v x d v b v v x v v v x p u e u p e < > = O ; : r y y b ` X...J E $.$.4.4.f.8.*.j.*.j.s.s.*.s.s.s.3.3.s.6.s.%.3.s.j.t.s.t.j.s.s.s.t.s.3.s.s.t.4.4.4.3.3.3.3.3.%.;.%.%.%.;.;.%.%.>.>.,.=.%.-.>.>.>.>.>.>.>.:.:.>.%.%.$.$.$.%.%.*.s.s.*.*.3.6.s.s.*.*.s.s.3.3.6.s.s.6.s.3.3.3.%.0.,.,.,.=.W W G  .&.I G k 5 5 * ",
"> ; ; < 1 p v v r p v p B v v k x p p u t p p u p g p p u p p p p u d v B ! ! b M v x u p x d p p v n x x x c x p p x p p v v v n v n B B B M v p p c p u e u p x x x k x x x d x v v c x p p u p x d x x d x n v v v v v n v x x p u u e 3 e 1 e u 4 > ; @ ; < r , 5 7 9 m P H Z S ..E %.>.>.>.4.4.4.4.7.4.8.8.7.7.4.3.3.3.3.3.;.;.;.;.8.s.8.8.f.f.k.l.l.l.l.k.s.g.h.l.g.g.f.s.s.s.s.s.s.s.s.5.s.s.s.f.f.j.f.f.s.f.j.s.s.s.%.s.9.s.s.q.h.h.h.s.l.m.m.l.h.h.h.g.l.g.g.f.f.f.s.q.8.8.8.8.8.8.8.8.5.=.=.=.W Z z V m H f y r 3 e r p w   = ; e q e q 1 u e r v u p p p p p p p p p v p d v x p p p x g v v x p u u p u x b ^ ! ! F M F n u x n v p u p x d x v v n v x d v v v p p p p p x v v v v v v v v v p p p u d p p u r t u u p v v v d p x v x x x v v M M v v v v k u u e k g u < < ; O O : 8 y a m ` X...R ' *.$.4.3.7.3.s.s.j.s.*.j.s.6.s.*.s.6.6.s.s.3.3.s.s.s.s.3.6.s.t.3.3.t.3.3.3.3.4.4.4.3.3.>.%.;.;.%.;.%.%.%.%.;.>.,.6.6.-.$.$.$.-.>.>.>.>.>.>.%.%.%.%.$.$.$.%.$.*.#.#.*.*.3.3.6.*.s.*.s.6.3.s.j.6.6.3.3.s.3.s.3.0.,.9.9.=.| W K ..X.L k h 9 6 4 ",
"; - ; < 1 u v t u p v p B v v x v p p p u p u p p p k p p u p p p u p d x p p u u p u u p v x u p n n v c p p x p x p u p d c p x c x x d x p p p p p u u u p u u u p k v v p p p x v d c v v n u p p u u u u p x x v v v v v c p p p u e 1 e 1 u u q ; = O - < r 1 , 7 k L P S S H | } %.>.>.>.4.4.4.7.8.t.8.8.7.7.3.3.4.3.3.>.;.3.3.4.3.5.8.8.u.f.g.f.k.n.n.l.d.g.l.v.h.g.g.s.s.f.s.g.g.s.s.s.s.j.s.s.f.f.h.h.j.s.j.s.s.s.s.s.s.g.s.g.l.n.h.g.h.n.n.h.g.h.g.g.k.k.g.f.s.q.q.s.8.8.5.5.5.5.5.8.0.=.Q =.Y H V j z m d r e 3 r 8 p q O = = e w e q 1 e e e r e u t p p k p x k x v p p v p p p p x d x u u u e u r u p v B B B B M M d p x v d x u p p v v v v v v x x x v p p x v p p x k v v n n v v x x p x p u p p p u u u p r x v M n v p p p v v v x x x v v d p p p i r e c x e > < ; O O : 3 r a m ` ..` D T $.$.8.4.8.8.s.*.s.s.6.s.s.s.%.*.s.s.6.s.6.6.6.3.s.3.s.3.s.3.3.s.3.s.s.3.t.3.7.7.3.3.3.%.;.%.;.>.>.%.%.%.%.%.>.,.7.6.>.%.$.$.=.>.>.:.:.>.=.%.-.%.$.$.$.$.$.$.%.%.%.%.*.*.s.*.*.s.*.s.*.s.6.*.6.3.3.s.s.j.s.s.0.0.0.9.=.| W G | | G a h 9 4 4 ",
"< ; > < < u p e u p x r M c v v v x d x p p p x p p p p u u u p p u p p i w e e r t p x v v x p x v v x d x x x p p p p p p p x x d x p p p p p p p p p d p p u u u p p p p p u p p x v p x k v u p p p u u t p u p x k p p k v u u p t e e q e u u 1 ; ; = ; 7 8 1 4 9 k P I m J H | } >.>.,.>.4.4.7.7.8.s.t.8.4.s.7.7.7.7.3.>.3.5.5.4.3.5.8.s.u.f.g.f.f.l.l.l.d.g.h.h.g.d.d.g.f.s.s.s.s.s.s.s.s.s.s.s.s.j.h.j.s.s.s.s.3.s.3.s.g.s.d.g.v.v.l.h.g.g.g.g.f.g.h.g.g.g.f.q.s.8.8.8.9.8.5.5.4.4.4.3.,.=.@.Q Y J Z 0 m H d y y 8 e e u e = = = 1 1 r q < e e u p r p u p c x p p c v v p p p c p p d v p p u u r p v p p v B ! B B B B B t u p p p v x v p c x p p p v v x v v x p p p p p p p x v v n v v x d p p c u u u p p p p p u p v x v v v v u v n v d u y x c x p p p u e e v p 7 < ; = O o 3 3 3 y b P ) P D J #.$.8.4.t.8.j.s.*.s.s.s.6.*.*.s.s.*.3.3.s.3.t.3.3.3.3.s.3.s.3.3.3.3.3.s.s.j.3.s.7.4.3.3.3.%.3.;.;.%.%.%.%.%.$.-.>.,.,.>.%.%.%.-.>.>.>.>.>.%.=.%.$.@.| $.$.$.%.%.%.%.*.*.%.*.%.s.s.*.*.s.s.s.3.j.3.3.6.s.s.s.w.9.0.,.=.| { K | W G h h 9 9 5 ",
"< ; > < 1 u p u e u x u n v v v v c p p p p p p p p p u u e u u p p e p u r e r u u u d v p d x x v n p x v d p p x p p p p v p p x v v x p x v x p u p p p p u t r u t p x p u p c x p u u u p k x p p k p p u u u p p p p x p u u u t e q q w r u 1 ; ; > < e 4 4 8 y n P I H P J ..} >.,.3.3.4.7.7.7.s.s.t.t.s.t.7.7.s.7.6.3.3.5.5.5.8.q.f.f.f.k.k.f.g.l.l.g.g.h.h.g.f.d.g.g.s.s.8.s.s.s.s.s.s.s.s.s.f.f.s.j.j.s.3.s.s.s.j.s.d.g.f.g.h.v.h.h.d.g.s.s.s.f.g.h.g.f.u.8.8.q.q.8.q.8.5.4.3.4.5.5.;.=.=.Q Y K Z a m L k a y e r 5 e 7 = ; O q e u 3 1 u u i p u p p p v p x v v p p u u p p p p x v x p u u u v M x n B B ! B B B B B x q u p p v p p d p p p p p v x v v v p p x v p p p p p v v v v x d p p p p d p r i p p p u p p v p p v x p p x v v x p p d x k p p x p u e n v e < > - O O 2 3 y a l L T L J T #.$.4.3.8.8.s.*.j.*.6.s.6.s.s.*.s.6.6.s.3.s.3.3.s.3.s.3.3.3.3.3.%.3.3.3.3.s.3.3.3.3.3.3.3.3.3.;.>.%.%.%.-.-.$.$.$.%.>.>.=.%.=.%.-.>.>.>.-.>.-.$.$.$.@.$.$.$.%.*.*.*.s.%.3.s.*.*.s.s.s.s.s.*.s.s.6.s.j.j.s.s.0.0.w.0.=.=.W W | | G V G 9 5 * ",
"< ; ; < 1 p n d u p v p B v v p x k p p u p p x p p i e e e r u e e w e u u u u e e t u u u p x v v v x x v c u p p p r u p p p u d v M d x v v v k p p u u p p p u u u u p x k p p p p p r u p p p i u p p u u p p u p v v x p r u u r e e 1 1 e e 1 = ; ; < 4 7 7 r h z H  .I P P | } -.,.4.3.7.4.7.s.t.f.f.s.s.s.s.t.s.7.s.3.3.4.4.3.5.f.f.f.f.l.n.l.l.B.l.f.n.l.l.g.f.d.g.l.s.s.8.5.8.s.8.8.s.*.s.s.f.f.j.j.j.s.s.s.s.j.s.s.g.g.f.g.k.h.h.h.f.s.s.s.s.d.f.h.g.g.f.q.q.8.s.s.8.8.4.4.4.5.8.q.-.-.-.Q K J H j z P l y t 7 4 , 1 1 ; > ; 1 e u 1 1 u e u u u t d x x p x v v i k p u p p p p x p v n v x k p x p n B B B B B B v B v e u n x u u u p p u p v n n x d v v v d x v v v p x x v v p x v v v v u u c p u u p p p r p x n v v v v p x d v x v c c v x p x v v v p u M v u < < ; O ; : 3 r f l F ` T R R +.+.3.*.8.8.*.s.s.s.s.*.s.s.6.s.s.6.3.s.s.*.3.3.s.t.3.%.3.%.3.%.%.%.%.#.%.%.3.%.3.;.3.3.3.;.3.;.%.%.%.%.-.-.%.+.| X.$.=.%.%.$.-.>.>.:.>.>.-.-.-.$.$.$.$.$.%.*.*.*.*.*.*.3.%.s.s.s.*.*.j.j.s.s.6.s.j.j.j.j.s.y.w.w.0.=.=.| { =.=.K j h 9 t * ",
"< < < < 1 u p d u p p v n v n v x x p p p p p v p p x p p p p p p p r e e e e e e e u u u u u p v k v p p g x x p x v x u u p v x x d x x x c v p p x p p p p v p p d p p p x v v v d x d x p u u p t p p x u u k t u u p u p v x v v u r 1 1 1 i p q ; O > q 1 8 8 9 k G K :.} P P =.$.3.3.4.4.3.4.5.8.8.q.q.u.f.q.8.f.f.q.q.q.5.8.5.5.8.q.f.g.f.g.f.g.k.k.k.h.h.h.h.f.f.f.f.g.s.7.8.s.s.j.s.8.s.s.s.s.s.s.s.j.l.g.s.f.f.f.s.s.g.g.g.g.g.h.g.g.s.s.s.f.f.d.d.s.u.8.8.8.s.q.8.8.8.5.4.4.5.8.8.8.>.%.=.| K H V 0 L H G h 9 9 4 * 1 1 O O ; < u u 1 7 u u p p p p N v v x x p p x v p p p d v x p d c v B B v M v B B B B B n v v v M n p u p v g u i p p p p p u v M B n v p u p u t u p p x v d v x d x v x p p d p u u p u u e v B N B v x p x M p y c B M v v M M B n k p u r n v p q < ; % O : 3 t d l A L K S J $.} %.>.7.y.7.8.8.7.7.8.8.8.s.s.7.s.6.s.6.6.s.6.*.s.#.#.*.*.>.=.>.=.=.=.=.=.-.;.,.4.6.4.,.,.,.>.-.=.>.%.-.-.$.$.$.$.+.%.#.%.%.%.%.%.3.%.%.%.%.%.%.+.+.%.+.s.E E s.+.%.s.%.%.4.4.4.4.4.4.5.8.8.q.g.v.v.h.h.s.c.w.q.0.-.=.} W :.X.I z k g 9 , ",
"< < ; < q u p c r p p v v v v v d p x x p u p u u u p u p u p d p p u u e e u u e e e q e r u u p p p p p p d p x x x d p p p v x p p x d v v x v v v x v p v p p p p p p p p x p u u p p p u u k p u p p k p p u u u u u u r u p p p u u 1 q 1 p u 1 ; ; < 1 1 , 7 7 j z J X...K K $.$.4.3.3.4.3.4.4.8.q.8.f.f.l.f.f.f.g.f.f.q.f.s.f.f.f.f.f.f.k.g.k.g.l.l.l.k.x.h.f.f.f.h.f.f.s.8.8.s.s.s.s.8.s.*.*.s.s.j.j.s.l.j.g.f.g.j.g.s.g.g.g.s.g.s.s.s.d.s.s.s.s.s.s.5.f.f.q.q.s.q.q.8.8.8.5.5.8.8.8.8.-.@.@.Q J V j 0 L L G 0 9 5 4 * 1 1 O ; < 1 p p e u u p p x x x v x v n v d p x p p p p x v p u x v v M B v v v v v B v v v v v v b v u u p p p p p p k v v v x p x d v p p p p p p p p p x v x v x c v p p p u u u u r e e r p N N M v d x c M v p p v v x p v M b n v x u u t B n p e > ; ; O ; 3 r f m L I ) J J $.} >.,.7.6.7.8.8.8.8.8.u.u.6.t.s.6.6.s.s.s.s.s.s.s.6.#.*.*.=.>.=.=.=.=.=.=.=.;.>.,.6.7.,.,.3.-.*.>.%.$.$.$.%.%.$.$.%.%.%.+.%.%.%.%.%.3.3.3.%.%.%.s.s.%.+.s.%.s.+.s.3.%.3.s.4.4.4.4.4.4.5.8.5.q.g.h.l.g.g.g.h.q.d.9.-.=.{ Y <.&.P z h d 9 , ",
"< > ; < 1 u p v u u d x v v v v x x x x p u t r e u u p p p p p p p p u r p u p u r e 1 e u e q i u p p p p p p p p p p d x x x g p p p v p v v p c v x p v p v p p p d p p p p c p p p p p p u v p p u u p p c u u i p p u u u u u r e q q q 1 p u 1 ; ; < q 1 5 8 y k z P <.<.K K $.$.4.4.4.4.5.5.8.5.8.s.f.g.l.f.f.g.g.u.q.f.g.g.g.g.g.f.f.u.f.k.k.l.l.l.l.g.x.l.g.f.h.l.g.s.s.s.s.s.s.j.j.s.s.s.s.s.s.s.s.s.f.f.g.f.f.f.g.h.l.h.g.g.s.s.s.s.d.s.s.s.8.s.5.5.f.f.f.f.f.s.s.8.s.8.8.5.8.5.5.5.3.$.$.} K V H 0 R I H h 8 5 4 , 1 1 O ; , 1 v v e e r u p p d c x x v n n x x v p p x x v p p p v v v v v v v v v v b v v M b v n v v u e r p u u u u p p v k x p p p p x p d v v k p p x x v v p x v x p i u p u u p t e u x B ^ F B x c v v c x x x v x p p b B B v x u u p p B n u 1 ; = = O ; , 8 a m L P P J H { { :.6.4.>.4.8.8.7.7.8.8.t.7.s.s.7.s.s.6.3.6.s.j.s.s.%.*.*.>.>.;.;.-.=.;.,.=.-.-.>.3.4.6.,.1.=.%.:.>.$.$.$.%.+.%.%.%.%.%.%.%.%.%.%.%.3.%.3.%.;.%.%.+.s.+.%.' s.s.+.s.%.%.s.4.4.4.4.4.4.4.5.4.q.g.h.g.g.g.g.g.s.s.0.-.@.} K ,.O.I k d y r , ",
", > ; ; < e p v u u p x v n v v x x d p p u u p p p d p p u p t p p p u u u u p i e e e e u e 4 u p p p p p u p y t t p x p p p u u u p p p p p v d v v v p p v x x x x x v v x v v v p p c v x v p p u u p p k p p p x k p p u u e e w e 1 e e u u 1 > ; , 1 1 7 y j m H ) 2.0.R R -.$.5.4.4.4.4.5.5.8.8.8.f.g.k.f.f.f.f.q.q.q.g.g.f.f.f.f.f.f.f.g.l.l.l.l.g.k.x.h.g.f.g.g.f.s.s.t.s.s.s.s.s.f.s.s.j.s.s.s.s.s.s.f.f.f.s.g.j.l.l.l.g.g.h.g.h.s.s.s.8.s.s.8.s.s.f.f.q.q.q.q.q.q.8.8.5.4.4.5.5.4.,.=.=.| Y K H V K K G h 7 7 4 , 1 1 ; ; < e p v e e u u p p x x B B n x v p p x p v v n n v v v v v v M B B B B N B M M M B B v M B g u e u p u x k p p p u p u v v v v x v x x v v p v p v v v p x d p p x d p u g v u e u v B B B B B M v d p v v v v c d v M B B n x p p p p B B p 1 ; = - O % , 7 a k L L L S J { W >.4.,.%.>.3.4.3.4.8.8.8.6.s.7.s.6.6.s.*.3.6.s.3.3.%.#.s.;.:.,.,.;.-.=.=.,.:.,.,.,.6.6.>.>.%.%.>.>.>.%.:.+.+.%.%.%.%.%.%.s.%.3.3.%.%.%.%.%.;.%.%.+.+.+.+.+.+.+.s.%.%.s.%.4.4.8.7.4.8.4.8.4.q.h.h.g.q.d.h.h.f.f.9.-.$.X.R 1.:.) z d y r 3 ",
"< > = ; < e p k u p x v v M B v v c p p u p p p u p p x p p t p p p p u u p u p e u r u e e r u u u u u u p p p u u p p p p p p p p p p p p g v x v v c v x v v v d x v v v v x v p p p x p d x p p p u i u u p p p p p p p u r t u e q 1 e 1 1 e u q ; O ; < 7 5 r h z m I 2.y.} W >.$.7.7.4.5.5.5.5.8.8.9.f.f.f.f.u.f.f.8.u.g.f.f.f.f.f.f.g.l.u.g.k.k.k.k.g.g.l.j.j.f.s.s.s.s.t.8.s.s.8.s.s.s.j.s.s.j.j.s.j.s.g.j.l.g.f.h.h.x.l.l.l.h.h.h.g.f.g.d.s.s.5.s.5.s.q.f.s.s.8.8.8.9.5.5.4.4.4.8.5.8.;.@.@.W K J H V P P G h 8 7 4 4 1 1 ; ; 1 1 v v e e u p v v v n B B M x p p d p x c v v x v v n v M M n n M N B B B b v M M B v B M d u t u p p v c p p p p x p n v v v v v v v v v v v v v v p p x p v x v v p p p p t u u v v n v B B M v p r v v c v M v M M B B c x p p p u B B p q < > - O > , 9 y k H I  .S H } Q -.>.>.%.%.3.3.3.3.7.8.7.7.7.t.s.s.7.6.6.6.4.4.8.s.*.*.3.,.,.,.,.>.>.=.>.6.6.>.,.6.,.,.>.>.*.%.>.:.=.%.%.%.%.*.*.%.%.%.%.%.3.%.3.3.%.%.3.3.%.;.%.;.%.%.%.+.s.%.s.#.%.s.%.7.7.8.8.8.7.5.8.5.f.h.v.g.g.g.h.h.d.f.s.>.$.| W &.X.I z d y r : ",
"< ; # ; < e u v u p x n B n B n v x p p p p d p 7 e p p p y p u u p u u u u r t e u e u e e e u e w 7 e u u p k p p p p p p p p d p x k p x v v x v v M v n n B M v v x v v v v v v p p x p p p u p p u u e u p p p p u u p p t u r e 7 q 1 q 1 1 q q ; = O < 1 5 9 y m m ) 2.2.| { >.$.8.8.5.8.3.5.8.8.8.8.s.f.f.q.q.f.f.s.f.g.f.u.q.q.u.f.k.l.q.f.g.k.f.f.f.f.h.h.g.s.s.3.s.s.8.7.8.8.t.s.s.j.s.s.s.s.s.j.j.j.g.g.g.g.h.h.h.l.l.l.h.h.h.h.h.h.g.g.f.d.s.s.s.s.8.q.8.8.8.8.8.8.8.8.4.5.8.8.8.8.9.=.=.| Y J H j H H H a 8 5 5 7 , < O ; < 1 p c q q r p v x p n x v n v c d p u u p d x p x v n M n v v v x v v M B B v v v v n v v p p u p d x x p p p x c v v c x x v v v v v x v v v v v x x n v p x d v p u x p r p u k v n v v B v B M M B v v d x M M M M n v v v v p u u v v p q < < ; O % , 8 9 k H )  .Z J $.} -.:.>.>.-.3.3.3.4.8.8.7.s.3.3.3.6.6.s.s.4.4.8.t.3.3.3.*.,.;.,.;.>.>.>.;.7.6.6.3.3.,.,.>.,.>.>.>.>.%.$.%.%.;.3.3.%.%.#.%.%.%.3.3.%.3.3.3.3.%.3.%.%.%.%.%.s.+.#.s.+.s.%.#.7.8.7.8.8.4.4.5.7.q.l.v.h.g.h.h.h.g.f.s.3.$.| R  .' L l a y 8 : ",
"< > O O ; e u v u p x v v B n B v v x p p p p u e e p p p p u t y u p r p u u u i u p u u u u u e 4 e e u u i u x x c d p u p x x p x p p p p p d x c v v n n B B M v c n M v v v v c v v v p p p p u t e e u u p x k p p p p u u u u e 3 1 1 1 e 1 1 ; O O > 1 7 9 h z H I 2.2.X.{ -.$.7.7.8.8.5.8.8.q.q.q.q.q.f.f.q.f.s.q.f.k.u.q.q.8.q.f.f.f.s.f.g.f.f.f.f.g.j.f.s.s.t.s.s.7.7.7.s.s.s.s.s.s.s.s.s.s.f.s.j.j.s.g.f.f.h.h.h.h.x.l.h.h.h.h.h.f.g.g.g.f.s.s.s.5.8.8.s.8.8.8.q.9.q.8.8.8.q.s.s.s.0.;.=.| W K J V H H G h 8 7 4 5 > < O ; < w k v u 1 e u p p p v d v v v x p p u u p p x x v v v x k x v x p p d v B B v p p x v p u u e u u p p p p u p p x v p v d x v v v v v x x x v b M v v v v v x c p p p x p p u p v n B B B B B B B B ! M v d x v M b M B M v v x x p r x d u q < > ; O % > 5 7 d m I ) S H ..{ %.=.-.%.%.;.3.3.3.7.7.4.3.3.3.7.7.3.7.s.8.7.t.8.7.3.*.%.,.,.,.,.=.,.;.,.6.4.3.,.1.3.>.>.,.>.>.>.,.>.:.,.3.3.3.3.3.%.3.%.%.3.3.3.%.3.3.3.#.3.3.*.3.%.*.*.+.s.+.%.%.s.%.s.4.4.7.8.5.4.4.4.8.u.h.l.h.h.g.h.h.s.s.9.>.@.} W I P S f y y 7 , ",
"< ; - O ; 1 u v u p d v v B B M v x d p c u e e u u p x p p t u p u u p t u p p k p u u v p p r u u r u u u e e p x v p u t u k p p u u u u p u u p d x x v v v B B M v n B M M v d v x v p p p p p p r e r u p u p p p u p i r e e u e q 1 < 1 e 1 > - = ; > < 7 9 y z G I 1.,.$.W -.@.4.4.5.8.4.8.q.s.f.s.8.q.8.8.q.q.q.8.q.f.f.f.g.g.g.f.f.f.f.f.g.g.u.u.f.g.j.s.t.7.s.s.s.3.8.s.s.s.s.7.7.s.s.s.s.s.s.s.s.s.g.g.g.x.l.l.x.x.x.l.h.h.h.h.h.h.s.s.d.d.d.s.s.s.8.8.9.8.8.8.8.f.9.s.8.8.q.q.f.f.0.,.=.| W Y K J z H H k 9 7 4 4 > > O ; 1 e v v p u u p d u p n x v v u u p p u r u x c b v B v p p p p p v p v v B v x u e u p u e q e u p p p x d x p x k x x v x v v n n v p v v p v v v v v p v v v x p p v v p u u u x v v v B B B B n n M M M v x v v v v B b v x x p p u p p e 1 < ; > % , , 4 7 d m H H S Z } R $.%.$.$.$.;.3.3.3.3.4.3.s.s.4.7.3.3.3.s.8.8.7.7.3.%.$.$.,.,.-.=.=.=.,.0.4.>.>.>.,.3.1.>.,.>.>.4.6.7.7.0.3.s.3.3.3.*.s.3.3.t.t.3.3.%.3.3.s.3.s.3.3.s.3.3.s.%.s.+.s.+.%.s.4.4.7.4.4.4.3.3.5.u.g.v.n.h.h.d.g.s.s.9.-.=.} W P P S a y y r 3 ",
"< - o = < e u p p u p d v M M p v p p d v d i e q u v p p p p u d p p p p p p p p u u u r i u t u u u u u t r e u p x p p p p p u p x k u u i p u p x x v v v v B n v b B B B b v v n v d p u u p p u u p p u p u u p d x p r u u r u e w q 1 < 1 < < > ; = ; > 5 , y h j P :.1.$.E #.%.4.f.8.8.s.q.9.9.s.u.f.q.q.q.s.q.q.f.q.f.g.g.g.g.g.f.f.f.8.f.g.g.u.s.f.f.f.f.s.s.s.s.s.7.7.s.s.s.s.7.s.s.s.s.s.s.s.s.s.s.s.j.j.s.h.x.l.h.h.l.l.h.g.h.h.g.s.s.s.s.s.s.5.8.9.8.5.4.8.q.q.8.8.s.s.8.5.8.q.q.0.,.| W W K J K L H z a 9 t 8 7 1 ; = > < u n n p u 3 e u u p u u u p y i u p p u p p d v v M n v u u v k i p B v v v p p x p u p u u e r p p p p p p p p p x B x x v v v x p v v v p p v v v x v v c v x c p v p d p u d v n v x b ! B B B B B v M b x p x x v v M p x v p u u p p e e 1 > O O ; : 7 r h k S L J Z { | } +.#.%.%.;.;.*.3.4.4.4.3.4.7.8.3.3.7.6.7.7.7.7.4.=.=.=.-.;.,.>.,.,.-.,.>.>.>.>.>.>.>.>.$.%.,.,.4.,.6.7.3.3.3.3.3.t.t.3.3.t.8.t.8.8.3.t.6.s.6.7.6.s.6.s.s.4.3.%.3.3.4.3.>.3.4.7.3.3.3.4.8.9.f.g.h.h.h.g.g.g.s.9.>.@.W R R S h a y 8 3 2 ",
"< ; O O < e p d x u p v v b M v v p x x v p u e u p x d p p p v x p p u u u r u p u r t p u u u t r t u u u u u r u u u u i u p i p p u u u u p p d x d x v n B v n B ! ^ ! n v v v M n c p p u p p p p p u p t u p p p p u u u e u t u i r e < e 1 < ; - = ; < 5 5 9 d k H X.<.*.} $.>.4.f.9.8.s.q.8.8.8.s.f.q.s.f.f.f.f.f.f.f.f.g.g.f.f.f.f.q.8.q.f.f.8.8.8.q.s.s.s.3.7.t.s.s.3.s.3.s.7.t.s.j.j.s.*.s.s.s.j.s.j.s.s.j.g.h.l.h.h.h.h.d.s.g.h.g.s.s.s.5.5.s.s.s.s.8.8.8.8.8.q.q.8.s.q.8.5.8.9.8.9.>.=.Q W W K P P L z h 9 8 7 4 1 ; ; < 1 p n B v u e u p p p u u p p t p k p u p p v v v n v M v p p v x p p v n v v x v v d p e r e t u x v v p p g v p u p v n v x x p p v n n v v x v n v v x v x d v d c v p p u t u v v v p v B B B B B B B M M B v x v v p p p p p p r p x p e 1 < < ; O % : 5 9 a n H I H Z ` | | $.$.>.5.4.4.3.3.4.4.4.4.8.8.8.7.3.s.s.y.0.0.0.4.,.-.-.;.,.;.,.;.;.=.;.>.>.>.>.>.,.6.6.%.>.,.6.6.6.4.6.3.3.3.3.3.3.3.t.t.t.t.8.8.8.8.t.s.7.s.3.3.6.6.s.3.4.7.4.4.3.3.3.3.3.4.4.4.4.4.4.5.0.f.g.g.g.d.g.s.s.q.9.,.| } W ' J j h d 7 3 3 ",
"< ; = = > q p x n p x v v B B v v v x p u t e e r u p p p x k v p p u u u r u r u u u u u p u r p r u p u e e e e u u t u u p p u u r u r u u r x x p p p d x n p x N B ! B x p x x x p u u r u u p p p p p r u t y u u u u r u e e u u u e e q e 1 > ; - O ; > 7 6 9 d z P X.,.>.} %.>.8.f.s.8.q.q.8.8.8.q.8.s.q.q.q.q.8.q.u.s.f.f.f.f.f.f.q.f.8.q.f.q.8.8.8.q.7.s.4.s.7.s.4.s.7.4.4.s.s.s.s.s.j.s.s.s.s.s.s.s.f.j.j.s.h.x.x.h.h.l.l.h.s.h.h.f.s.s.s.5.s.5.8.s.s.8.8.8.8.f.s.8.8.8.q.8.8.8.8.8.0.;.=.=.W K P R ` K G a 8 8 4 4 < - ; < 1 u v v n u e u v k p i u p u p p v p u x x v v n v v v v p x x x p v v v v n v v v v v e e u u p x v v p p p x p p p p v v x d x d v n v v x v v M v v v v v v v x v p p u u u p p v x p n n B B ! B M v v n v B v v d p d x x v p u v n x u 1 < ; ; ; ; , , 9 h m I  .I S R } | %.%.>.8.8.4.3.6.8.8.7.7.7.s.7.7.s.7.s.y.7.6.7.4.,.-.=.,.;.,.:.-.=.=.=.=.=.%.:.>.>.,.>.>.>.>.6.7.7.6.1.3.3.3.3.3.3.8.8.t.t.t.t.8.8.8.t.s.7.s.7.3.3.3.3.3.7.7.s.4.3.3.%.4.3.3.4.3.3.s.4.8.q.q.s.s.d.g.g.s.9.9.5.-.@.{ W ..P z a y 8 3 , ",
"< ; ; ; < e p n M p p c x v v x v v p u u e w 1 1 u u p p p v v p p p u u u u t p u u p p p u e p u u r e e e e e u u r r u u u p p u u u i u u x x p p u u u p u p x c v p p u u r u u r t u u p p p p p p u u u t u r u u u u u q e e 3 1 3 u e 1 < ; = O ; < 8 7 9 k z I <.2.2...$.3.8.t.8.s.q.8.8.8.q.q.q.8.8.q.q.8.8.s.q.q.f.f.f.u.q.u.f.f.s.q.f.8.8.5.8.8.s.4.s.3.s.7.7.3.s.4.3.3.t.s.s.s.s.s.*.s.s.s.s.s.f.f.f.f.f.h.g.h.h.l.l.h.g.h.h.h.s.s.s.s.5.5.s.5.s.s.q.8.q.q.q.f.f.s.f.9.8.9.8.5.0.;.=.| { K K P { K G y 8 8 5 4 > = - < < e x x p u 3 e u u u u u r u t u u p u x x v v v v v v p v v c x v v p v v p x x v v v u p u p v g v p u p v x k p p x p x v v v x x x v p x v v v v v v v v v x v v p p p x u p v v v x x v N B B B v B v v M v n x x x B M v v u u n B d u 1 < > - - % , 5 r k m P  .I V P W } %.%.,.6.8.4.8.t.f.f.f.7.7.s.t.7.7.t.7.0.,.,.,.4.-.=.@.>.,.:.;.-.=.=.=.$.$.$.%.>.*.>.>.,.>.>.3.6.7.4.>.3.3.3.3.3.t.3.t.t.t.8.8.8.8.8.t.t.j.s.7.s.3.s.3.7.3.s.4.3.3.3.3.8.4.4.4.s.s.s.s.s.s.g.s.s.g.g.g.g.s.0.9.,.} R R O.` z d 8 7 3 , ",
"< > ; ; > e v B n u u d x p x p v p r u e q w e e e u d x p p p p p p r u u u p p t u p p u u e p u e u r e e e u r u u e e u i k p u u u u u r p p p p u u u u u p v k d p x p x p u u p u p u p p p p u p t p u p u p p u t u u 7 e q 1 < e u u 7 < ; = O ; < 7 5 9 h z { <.y.2.| $.>.7.8.8.8.q.8.q.8.8.8.q.q.f.f.f.f.f.f.f.f.g.f.u.u.s.f.f.f.q.s.s.8.8.8.8.8.3.s.4.s.s.4.3.s.s.3.3.s.s.s.s.s.s.*.s.s.s.s.s.j.f.f.s.j.f.j.j.h.h.l.l.l.l.l.h.f.s.s.s.5.5.s.s.5.q.q.f.8.q.s.s.q.g.f.s.8.8.5.5.5.0.=.=.=.Q K P W  .I G 0 9 8 7 4 < ; : < 1 w x p u 7 1 q r u e w u u p u e r p p v v v v v v x x x v x d x v v p v x p d v x k x p x v x v x p x p d x p p x d v p p p v v v p p x p x c v v v v x p x d p p p p x x p p p v b M v x v M N B B B B B n v n n v v v M M x u u u n n p u 1 > ; = O % , 7 r d m L I K z J E } -.>.,.4.8.t.f.j.k.k.f.s.s.s.s.t.t.s.s.u.0.7.,.4.2.,.=.=.>.=.,.=.=.=.=.%.%.=.-.>.,.,.6.,.>.>.,.6.6.,.,.3.3.3.t.t.8.3.3.3.t.3.8.3.t.t.t.s.s.3.s.3.s.3.s.s.3.3.3.3.6.7.7.s.7.7.7.s.s.s.s.g.g.g.g.d.s.s.g.g.9.q.9.>.} E W $.R Z a 8 3 3 3 ",
"< ; = - < u v B b u u x p p p p v u e e e e r u p p p v x p u u i r p t r p u u p p p p p u u q p u u u u e w e u i u u e e e e p i u e e e u p u p x p p p u r u u p v v x p u v x p p u u r u d p p p p p p p u u p p p p u u e e u u u 1 1 e u e 1 < ; O > < 5 5 9 h k I 1.u.2.} $.>.4.8.8.8.9.q.8.8.s.q.s.8.q.f.q.f.f.f.f.f.f.f.f.8.q.f.u.f.s.s.8.s.9.q.8.9.s.3.s.4.3.s.s.3.3.s.s.4.4.s.s.7.s.s.s.s.s.s.*.s.s.s.s.s.j.s.s.j.g.h.h.h.g.h.h.d.g.s.s.s.5.5.5.5.q.q.q.s.8.8.q.9.f.8.8.8.8.4.3.3.;.=.Q =.Q Y R } X.I G h 9 9 4 * : ; ; < > 3 u p t 1 1 q e u e e e p d u u u x v v v v v v v v v x x u p x x d x v v x x p x x c p x k v d x p v u p p p p x v x v p p p p x x p x d v d v v v v n v v x x x x p p d p p x n v v x x v b B b B B ! B B B B B B v n B n d d u u B B x u 1 < ; O   # : 5 8 y l S H J l H W } =.>.,.7.8.s.f.j.f.f.8.s.j.f.f.f.s.f.f.u.u.0.5.0.4.4.:.=.=.>.>.=.=.=.;.$.%.%.:.>.>.>.,.>.>.,.3.4.6.4.,.t.3.3.t.t.3.8.8.3.3.8.8.3.t.3.8.3.3.3.s.7.3.3.3.>.3.3.7.t.s.s.6.7.t.s.s.s.j.f.j.f.g.g.g.f.g.s.s.g.9.9.8.3.} R W O.` Z 0 r 8 r 3 ",
"< ; O ; 1 u v n v e e p p u p p k u u e e u u u n v x v v p u u u u p t u p p p t u u u t u u 7 u r e u t r e e u u r e e e e e u u u u e e t p p p p d p p u u w e u u x p p r v p u y u y u u p p p t u p p d p u p t p r u u u u u p i 1 1 r u u 1 < ; - > < 4 5 y h k I 1.i.,.} @.>.4.8.8.8.s.8.q.q.s.q.q.8.q.q.q.q.8.q.8.q.f.f.u.8.s.8.u.f.q.8.9.8.8.8.s.8.s.s.4.s.s.s.3.3.4.3.3.s.4.s.s.7.%.s.%.%.*.s.*.s.s.s.s.j.f.s.s.s.d.d.d.d.d.f.d.h.s.d.s.s.s.5.5.s.8.9.s.q.8.8.8.8.f.8.5.8.5.4.3.;.>.=.| =.=.Y W X.X.` G h a y 7 4 ; @ ; ; ; 1 p p u 1 < e e u e q r u v p p p x x v v x v v v v M v p u p v p p x n n x p p g x p p p x c x k p v p x p p p v v p v p p p p x x d p p x p x v v n M v v v v d v v x p u p v v n x x x v B B M B B B ! ! F B M M b v B n x c p p B B v u q > - O   % : 5 7 9 z H L H j J } @.-.>.4.4.8.s.t.s.f.j.4.j.g.f.g.j.f.j.j.0.u.0.7.4.,.4.,.;.=.,.>.;.,.=.-.$.%.%.%.:.>.>.>.>.,.6.3.3.,.6.6.3.8.t.t.3.t.3.3.3.3.8.3.3.3.3.3.>.3.3.6.3.3.3.3.%.>.3.s.s.s.s.6.s.s.f.f.f.f.f.j.s.g.g.g.g.g.g.g.g.s.9.s.,.} E ` X.' S a 8 8 3 3 ",
"< > = ; 1 p v v c e w p u e u r c p e q e p p p M c p x p p v v u u u p p p p x r u r u r u u e u u e u u u w e e e e e e e e r 7 r u e e e r p u p p p p u t u r e e u p p p t u u u u p p t u x p p u u p x x p p r u u u i p r r t u e 1 e p p u q < ; ; > , 5 7 h k z P ,.i.2.} @.>.3.8.5.q.q.q.8.q.q.f.q.s.q.f.q.s.q.f.s.f.8.q.q.8.q.q.8.q.s.q.8.8.8.q.q.8.4.s.s.3.s.4.s.s.3.;.s.3.s.4.4.s.s.*.s.s.s.#.s.s.s.s.*.s.f.j.s.s.s.s.d.h.g.d.f.f.s.s.s.s.5.s.s.8.8.8.8.q.8.8.5.8.f.8.4.8.8.5.4.5.,.=.=.=.Q W Y } O. .J l h d 7 4 > ; < < < e x v u e 1 4 u u e q e u p p p x p p x d x p d x v v n r e p v p p v v v x p p p p p p x x p p u p p p x n x v n v p p p p v v v p u p u p p p x v v n v p p u u p p v p u p v B B p d x M B B v B ! B B ! ! B v x x x x v x x p u d B v u 1 < ; = o % , 7 7 y S P ) S j T } @.>.>.6.3.7.8.s.f.k.j.g.j.j.j.g.f.j.f.f.u.a.a.0.7.0.0.,.>.>.>.;.=.=.=.-.=.-.%.>.>.>.,.,.1.3.6.6.4.6.7.8.t.3.3.8.t.t.3.3.3.t.3.3.3.3.3.3.3.3.3.3.s.3.3.s.%.>.3.3.3.3.3.6.t.s.f.g.j.f.g.j.s.g.g.h.h.h.h.l.n.f.q.q.,.} K ` O.` A a 3 e 3 2 ",
"< ; ; ; < u v d v 1 1 u u u u p c x u u u v c p p p p p p t u p e u k p e r u e p p u u e u e 1 u p u u u u r u e e r u e e e e e u u u e u u u r e u u u e e u e e e e u u u u t u p p u e e e p p u p p p p u x p u p p p p p q u u u d e q p v p t ; ; # , % 8 0 0 l j X.6.r.6.} %.>.s.3.s.;.s.s.s.s.s.s.s.s.s.s.s.s.8.s.8.s.4.8.s.s.s.s.t.s.8.4.4.4.5.4.8.5.s.s.3.3.3.s.s.s.3.s.3.s.3.s.3.s.*.s.3.s.s.s.s.6.j.s.s.3.s.3.3.s.s.s.s.s.s.6.3.s.s.s.s.s.s.s.s.s.6.s.t.s.s.6.7.7.7.s.7.4.4.7.7.4.4.3.4.=.| W K =.<.=.W j h 9 y 4 < ; > < < u p x e 1 u e 1 v v p u < 7 u p u v v u u d n n v v n x p p u r p p p c v M x p u p M p p v p p x p p p v v v v c v v p p p p x d x p u u p p v p p p v p x v v v x p u p n M p v B x n v p v b B ! B ^ ! B v v v v v x v x v v u u B B B p 3 < > O O @ , 1 r 8 H L { z h K Q } -.>.0.s.3.s.*.*.s.*.s.s.g.x.g.j.f.f.f.s.8.8.8.8.5.4.3.-.,.,.4.,.,.:.=.%.>.>.>.%.>.>.=.1.>.>.>.,.2.7.7.3.3.t.3.3.3.3.*.3.*.3.s.6.>.3.7.3.3.3.s.%.3.%.*.s.%.s.*.t.3.3.>.f.s.8.s.s.g.l.x.g.g.g.g.g.g.g.l.h.g.7.7.4.} R } X...L d r r 3 ; ",
"; O - < q p v p v r u p d p v v x d u r u v v p x d p p t u u p u p v v p p p u u u p u u r u e u r t u r u u u u u e e e e e e e u t u e e t p u u e u t r e e e e e e e e u u u r u u p u e e p p p p p k p i p u p p p t p p u p p r u q w p x d p , % % , , 5 8 0 j j X.6.0.6.} %.%.3.s.s.;.s.s.s.s.s.s.j.s.f.s.j.s.s.s.s.s.8.s.t.s.8.s.s.s.8.8.5.4.5.8.5.8.7.s.3.s.s.4.4.s.s.3.s.3.s.4.s.4.s.*.s.3.*.*.s.s.s.s.s.s.*.s.s.*.s.s.3.j.s.s.s.s.s.s.*.3.s.3.s.s.6.s.6.t.7.s.s.t.s.7.7.7.7.8.4.4.3.;.4.%.$.} K X.1.=. .0 k 9 9 * < @ ; < 1 r x d u q u r 1 u u p x q q u p k x x v p p x v v v n v x p p p x v n d v n v p u p p u p x d p p p u u p v v d x x p n n v v x x p p p p p p p v v v c v v v n v x p v x b M v B ! v v x d x v B B B B B B M B v v B M v v v v p p B B ! c q < ; O o ; , , 7 8 z G S H z K W } -.3.0.s.3.s.s.s.j.j.s.s.g.h.g.f.f.f.f.s.s.s.8.5.8.7.3.-.:.>.4.,.,.-.=.%.>.>.=.%.>.>.:.,.,.>.,.,.2.7.y.t.t.3.t.3.3.3.s.*.s.3.*.>.%.>.3.%.3.3.3.3.%.%.s.' s.%.s.3.3.7.7.s.s.s.s.f.g.l.l.g.f.g.d.g.d.g.g.g.u.0.4.:.{ K  .O.X.) y e 7 7 , ",
"> - ; < 3 p x u p e p v v x v v n x p t p v v p p p p u p p p p u u p v p u u u r u t r e e e u u u r u u i t i r i u e e w r e r u u u r e t u p u u e u u u q e 1 e w 3 e e e u e 7 e r u p t p p p x x x p p p i r u p u u t u u w w e 7 e x x x d 1 > # 1 5 y h s l z &.r.u.8.} %.%.3.s.s.s.s.s.f.f.j.s.s.s.j.f.f.f.j.j.s.t.8.t.s.8.8.8.8.8.8.8.4.5.5.5.8.8.s.3.s.7.s.7.7.3.s.4.4.s.4.s.4.s.%.s.3.s.j.s.*.s.s.s.s.s.j.s.s.s.3.s.s.3.s.3.s.3.*.3.3.s.3.s.s.3.s.s.6.s.s.t.7.s.7.7.7.3.4.7.4.4.;.;.4.-.$.Q R =.0.<.| G l y 9 * ; = ; < 1 u v v u e u u u p v B F p e p v n n x B v x p x v k v p p u u p p x n x v v v v p u u u u x p k x p u p p g p v x x v c x x x p p x p x p p p p p v v d v v n v v v x M n M b v B B d v x x x v B B B M B n n v B B B M B v v v p p B ! ! v 1 < ; o O @ : : y b  . . .J z K Y } -.,.0.3.s.s.s.s.s.s.s.s.j.g.g.f.s.f.f.f.f.s.8.4.9.7.4.;.,.>.>.,.:.=.,.>.:.-.$.%.:.>.>.>.>.,.,.4.6.7.7.8.t.t.3.3.3.3.t.*.*.3.s.>.>.3.3.3.3.%.3.s.3.3.%.6.3.*.s.*.6.s.s.s.s.s.s.s.g.h.h.s.s.s.s.d.s.d.d.u.u.7.,.=.W J W O.O._ d 3 3 7 < ",
"< ; ; > < u x x p u u v x x v v B n p p p p p x p p u u x d p p b t u u i u p p t u u u e e u u r u u t u u u r p p t u u u u u p y p t u u u e u p t r u p i 3 e e 1 w e e w e u e q e p u p u p p p d x p p u p u e u r u u u e u e e u q e v v d x < > % 4 7 8 0 8 l l *.y.y.u.@.-.%.s.s.s.s.s.s.f.j.f.s.s.j.f.f.f.f.s.s.s.s.s.s.s.s.s.s.8.s.8.8.8.4.8.8.8.8.7.s.3.s.3.s.s.3.3.3.s.3.s.4.s.4.3.s.s.3.s.s.s.s.*.s.3.s.s.s.s.s.3.s.s.s.6.s.3.s.%.s.3.s.3.s.s.3.6.s.s.7.s.7.s.3.s.7.7.7.4.4.4.4.3.;.4.-.@.} R X.0.:.| G k 9 9 4 ; - > 1 q p B B n e p p p v n ( ! x p v n M B x B n p p x v c p r u u e u p p x p p x v v p p r r p c p p p p u p p v v v p v v p p p p x p x d d p p p p p p v c v M v x d v v v B M v x n M x p x p p x v v B x v v B B B v B B B b x v u p b B B d q < > O O @ : : r l _  .` K z H W Q ;.-.,.s.*.*.s.3.s.s.s.s.s.f.f.s.f.f.f.g.g.f.8.8.q.8.3.;.:.,.:.-.,.=.,.>.=.%.$.=.>.>.>.>.>.>.>.,.6.7.8.3.3.3.t.t.3.3.3.*.*.*.*.-.3.4.4.8.3.%.3.%.s.s.%.s.6.3.3.s.s.f.g.t.s.s.s.g.d.g.d.s.s.s.s.s.s.s.8.y.0.7.,.:.W H I O.O.{ h 3 3 7 1 ",
"; O = ; < u b B v x v v v v n v M v p u u p p p p p u p p v v v ! p u c p p k x d p u p p p i u u u u u u r u u u u u p p u r e p u e u u r r e r u u u u u u e 1 e e r e e e e 1 e u t u p u u u p p p d p p p i u e e u e e e p x p u u q q u v p p < 1 > 4 4 7 9 0 z Z 1.p.z.p.$.%.-.s.f.f.s.s.j.g.g.f.s.f.f.s.s.f.f.f.s.f.f.s.s.f.j.s.8.8.8.8.8.8.5.8.8.8.5.s.7.s.3.s.4.s.3.s.3.s.3.s.3.3.s.s.s.s.s.s.s.*.s.s.*.j.s.j.s.s.3.s.s.s.6.s.3.s.3.s.s.s.3.s.s.3.s.j.s.s.6.3.s.6.6.6.3.7.7.4.4.4.4.;.;.3.%.=.Q K =.1.:. .l h 8 9 > > - < 1 e p B B B u u p u p p v n p p v d v v p B v x p v v p u u r u u p p p p d x p g x v d p p c x p u p p p u x d v v v c v v v v v v x x d p p p p u p p p x v v n v x v v v B B v v v M M v v d p x v v v x v M B b M M v B B v v v p p B B B p e < > O O O , 2 y d I ) I K z K R | >.:.,.*.%.s.3.3.s.s.3.s.s.s.s.f.f.g.g.g.g.j.s.f.q.8.3.,.,.>.>.=.-.,.,.%.%.=.-.>.-.=.%.>.>.>.>.,.6.7.7.%.3.t.3.3.3.%.3.;.;.-.-.-.-.-.-.5.3.3.%.;.3.;.;.*.*.s.s.s.j.g.s.s.s.s.s.s.s.s.d.s.s.s.s.s.s.s.5.q.0.4.4.:.W H { ..O._ f r 3 q 3 ",
"; O ; < q e x c n p v v p v B v p u u r u u u k u u t u p v v v v p p n x v v p c p u u p r e e u r r u u u u p e e u p u u u e p u u r u u u u e u p t r e e e e e u u u e e w 3 u u u r t u u d v v v c x p p p r 1 u u r q e u p p u p u q p b g p > , > 4 4 9 h h V z :.i.j.f.$.3.3.f.g.g.f.s.g.g.h.j.f.j.j.s.f.s.f.f.j.f.f.s.s.f.f.s.8.s.8.s.8.8.5.s.8.8.5.s.3.3.s.4.s.7.s.s.4.3.s.3.s.s.s.s.3.s.3.s.s.s.s.s.s.3.s.*.s.s.s.s.6.s.s.s.6.3.s.s.3.s.s.3.s.s.3.s.3.6.s.s.t.s.7.7.s.7.s.7.4.4.7.;.-.3.$.| W W :.1.O.W G l 0 y * ; = ; < q p B B B u u u p d u x p u x v p p p p v v d p x x p u u t p p p p p u v x x x x v v v x v c p p d v x p p x v k x x v p p p d p x c g p p p p p p p u x v v v x x x d u B B x p p v b v n n p p v v v v v M b M v v M B B B v v p x B ^ ! p e < ; O O O < 3 y p L )  .R H R } $.,.4.4.s.s.s.s.s.6.3.s.s.s.s.s.g.f.g.h.f.g.s.s.f.f.8.3.-.,.4.,.,.:.:.,.$.$.-.>.>.-.>.>.>.>.,.1.6.7.6.7.3.3.3.t.3.%.%.%.=.=.-.=.;.4.;.;.5.3.3.%.3.;.%.%.%.%.#.s.j.j.f.s.8.s.5.s.s.s.f.s.s.d.s.8.9.s.s.5.0.0.4.,.=.K K {  . .` f 3 7 3 , ",
"< = ; 1 1 w p v v u u k x n b p d t e u u r u p u u p t u u p x p p x v x v v i d u r p u e e e u i e e e u u p e u r u r u u u u u p t u e u u e w r u u e e e u e e e e e e e e u u e u p d p v v v v x p p p p u w e u e 1 e e u u u u u e x v k g , 1 > 4 5 7 a a s a { >.8.p.+.-.>.f.l.h.f.g.g.g.j.h.h.h.g.f.f.j.f.f.f.f.s.t.s.j.s.s.t.s.s.8.s.8.s.8.8.8.5.s.s.s.7.s.s.s.3.3.3.s.3.s.s.4.4.s.3.s.3.s.3.3.s.*.s.s.s.3.s.s.j.3.s.s.s.3.s.3.s.s.3.3.s.s.3.3.s.s.6.6.s.t.s.s.s.3.t.t.s.8.7.4.7.;.;.3.$.@.| W :.0.:.X.G G 0 a 4 < @ ; 1 1 p B B b u x x x v n v x x v v p p v p v v x p u p p u u r u u u p p d c x x x v v v v v v v p p p x v p p x v v v v x u p p p d x v v x p p u u p p p d x x v v v p p p B n p p p p v x v v p p n n v x n B M n v v B B B B M B x x F ^ ^ v 1 < ; O O - 3 3 3 5 k j G I J W } =.7.7.0.s.6.s.s.s.s.s.s.s.s.s.s.f.f.j.h.s.s.s.s.f.f.8.,.=.,.4.7.,.,.:.,.$.$.>.>.%.$.-.2.6.6.3.7.7.6.6.8.3.3.3.3.%.%.%.%.=.=.,.,.0.c.w.w.5.8.5.5.5.5.5.5.s.s.s.s.l.j.f.h.s.5.5.s.s.s.s.g.s.d.d.5.9.f.s.;.,.4.,.-.$.K P } .. ./ d 3 7 e 3 ",
"< O O ; > e n B p u p c v M M p x p u u u e u u r u p r r u u u p p x p u x v p v c x x u 7 e u p u e e e e u r e u t u p u t u u u p p r w u u u 1 < e u e e e u e e e q e e e u u 7 w u v v x x c v v p p p p p u 1 7 u u e e u u u q u e e p v v c 4 > % 4 7 6 d j z l $.p.x.t.} %.;.g.l.l.h.j.g.g.g.j.h.h.g.g.l.g.f.j.f.s.s.s.s.8.s.8.s.8.s.s.8.8.s.8.s.8.4.3.s.7.s.7.s.s.4.3.s.3.s.s.3.s.s.6.s.s.s.s.s.s.s.j.s.s.3.s.s.s.*.s.s.j.6.s.s.s.s.3.s.s.3.3.3.s.j.s.s.6.s.s.s.6.7.7.7.s.7.8.4.7.4.5.;.3.%.@.| } 1.2.=.| j l y 9 4 , ; > < q p B B n u v v d n x p n v M v p x v p x v v p u p u r p p u r u p x v x d v v v p x x d v v x p x p p v v v n v v v v v v v c x x p u v x p i u p p k p x p v v v p p v B n u v v u p u v v u u v M v d v v B v x v B n M v n n x v B ! B p 1 > ; = ; - , 3 r r H P R I J Q } $.2.7.u.s.s.s.s.s.s.s.s.j.s.s.s.g.f.f.f.j.s.s.s.s.f.y.4.=.,.7.7.4.,.-.;.$.%.>.=.$.$.=.7.7.6.8.8.0.r.8.8.3.t.3.3.3.%.3.3.;.9.w.y.c.n.n.c.h.h.h.x.h.x.h.x.x.j.f.x.l.l.l.x.s.s.s.5.5.s.s.g.8.s.s.8.8.d.5.;.:.>.=.=.X.K H { O. .F r 3 3 e 3 ",
"> = = ; < e n M p p p u p B M u u u u u u u u u u u u 1 e e i p r p p v v v p d v p p v p u p v p u e r u u e u u u u p u r r u r p p u u u u q u r 1 e e r u u e e e e e e e e u u p p p x d p x v v n v p p u y u r u e w e u p e e p u 1 e u n g u 1 > > , 4 8 0 C f A ` e.z.f.+.+.3.f.j.h.g.s.g.g.g.s.s.f.h.f.h.g.f.t.f.f.t.8.f.s.s.q.f.s.9.s.8.8.s.8.8.8.8.s.4.s.7.s.4.6.4.7.3.3.3.4.3.s.7.j.s.s.s.3.s.s.3.s.s.s.s.s.s.s.s.s.3.s.s.3.s.j.s.s.s.s.s.s.s.s.3.s.6.s.t.s.s.t.6.8.8.8.8.8.8.7.7.;.3.3.%.$.} ' 3.7.1.{ z k h 9 7 ; > > < q r v B v v p p v d x n x v p p x p v v n p u u u p r u p p u u u p d p v v v v b M v x v p p p v v v x p x p v v v x p d v x x p p x v p p p p p d x p v x d x v v p u p p p k M v x p u p x p x v M n x v n M M M v x v B v M B x x B ! ! p < < ; - o - < 3 3 3 a F .. .` T +.%.3.0.0.s.6.j.s.s.s.j.j.j.f.j.f.h.x.h.f.l.j.s.s.j.s.s.s.y.q.7.4.,.2.:.=.>.$.$.>.>.6.7.8.8.0.7.,.,.6.7.6.3.;.3.4.s.f.s.s.a.d.g.h.h.h.l.v.s.h.h.h.h.h.h.h.l.l.l.l.l.l.l.l.s.s.s.s.q.q.w.0.9.9.9.s.9.8.5.5.;.@.=.=.W J H Q  .) M 2 2 f q 3 ",
"> = ; ; > u v n n p p x v x p u p u u r u r t u e e r e e e p d p p p v v x x c x p u u u u u p p t t u p u r u r p p u u u t u u t p u u e e e i e u e u u u u r e e e u i r e e u p u p x v x v v v x x p p u u u e u r u e u u u u p t w e x v p r < > > 4 5 3 0 0 f A ` 6.j.f.%.+.s.f.h.h.j.g.g.h.h.j.f.j.h.f.g.f.j.s.s.f.s.f.q.q.s.8.s.8.8.8.s.s.8.s.s.8.s.4.s.7.s.s.s.s.3.s.s.s.s.s.s.s.s.s.s.s.s.j.s.s.j.s.s.s.s.s.s.s.s.j.s.3.s.s.3.3.s.3.s.3.j.s.s.6.s.6.s.s.6.6.s.s.s.u.8.8.8.8.4.7.7.5.5.8.3.%.+.} 6.2.<.] z k h y 7 1 1 1 1 1 u x B v u u x v x v B M v v v v v v v n v p p p p u u p i u u u p x v p v v n v v v v v v v v d v p p x k v v v n v v x v v p p p p x c x k p x v v g x c x v v v p u p p p x d x p u p p p u p x v c v v M B b M v x v B B v b x x B B B p < < > = o % : 3 8 e a F ' ' T T @.>.4.7.7.3.s.3.s.3.s.s.s.f.j.f.f.f.h.h.j.f.s.s.s.s.s.s.6.q.0.8.6.,.>.:.=.%.$.-.,.4.,.6.7.2.7.2.,.,.6.7.6.%.%.3.7.f.j.s.s.g.c.g.h.g.h.h.h.h.x.x.h.h.x.h.x.l.l.l.l.l.l.x.l.h.h.h.h.l.h.g.s.f.s.9.8.5.5.5.5.;.=.=.=.Y H z J ' ) F 3 3 y 3 7 ",
"< = ; ; ; e v v B u u M v u u p v p p p u p p u 1 e r u u u p p x p x p p v x v n v p p p x p u u u p u p p i u u u p u t u y u p u p p t e e r u u e 7 u u t r u u u u u u t u u t p u u x v n B v x d p v p p u e e e u u e e e e u p u e u k k p r 1 > > 1 7 6 0 f f C ' *.t.s.+.%.3.f.h.f.f.g.h.l.k.g.f.j.j.f.f.s.s.s.s.s.f.f.8.s.8.8.q.s.q.8.8.8.s.s.8.s.8.7.s.s.s.7.7.s.s.s.s.s.f.f.f.t.7.s.s.6.s.s.s.s.s.f.f.f.f.s.s.s.s.s.s.3.s.3.s.s.s.3.s.s.3.3.3.s.6.s.s.6.t.6.s.t.6.u.8.8.8.4.4.8.4.8.5.8.4.-.| } 7.2.1.] z z z 9 7 < < 1 < q u v B B u t n x p M n b M v v v v n B n x d x k x p p p p u u p p x c p x v n v x v M n v v p c x p p x c x p v n v v v x p x p p d p p u p u p p v p p p v v v v p u p p p p p p p p u p i u r p k x v B B n M b B v n B B v v p x B B B u > > ; O O @ , 3 7 r l L I ' D D #.,.3.3.4.s.3.s.3.3.s.s.s.j.s.s.j.f.h.f.f.s.s.s.s.s.s.j.s.0.y.0.4.>.,.-.=.%.-.,.6.6.3.2.7.6.7.4.>.>.,.6.6.%.3.7.s.f.j.g.g.c.v.h.h.h.h.h.h.h.m.m.l.h.m.h.h.l.l.l.l.l.l.x.F.m.m.l.n.v.h.g.s.d.s.s.8.9.s.5.;.;.-.-.Q K H j H P P L r 3 y q e ",
"< ; - ; < e v v b u u B n p p d v p p p k p u r u u u p v v p u x p p p p p p p v n v p k n v u r u p p p c x r u r p p u u u p p u u p u 3 u u u u e e e e e u u e r u u u u r p d k u p x v v M n x x v v x p u e e e p u e e q e u u e 1 u v v g t 1 > > , 4 r 0 0 f C D &.t.s.#.+.3.s.s.s.s.j.g.g.j.s.s.s.s.g.s.s.f.s.s.3.s.q.8.8.8.8.8.8.q.8.8.8.s.8.5.8.8.s.7.7.7.s.s.7.s.s.t.7.s.f.f.s.s.s.s.j.s.j.j.s.j.g.g.f.f.s.s.s.s.s.s.s.3.s.3.s.s.3.s.3.s.s.s.s.s.s.6.s.s.s.j.s.s.q.t.8.8.8.t.8.8.5.4.8.4.>.@.X.r.2.,. .m G z d 8 , < < 1 3 u v B B e r M p p v x n v v c x v v v v v x x c c x p x d p p p p x v p x v v v v v v x v x v v v v v v x v v v M M b v x x d x x p p u u u u u p p u p p v v v p p p p x p p u p p v t p p p p p u u x v v M M B B v M B M M v p p B n n u < < ; O O - 1 3 3 r m P P T D D #.>.,.>.>.*.s.s.s.s.s.s.s.s.s.s.s.f.f.f.f.s.s.s.s.s.6.s.s.0.u.y.6.:.,.,.,.,.1.8.t.8.,.,.6.8.7.4.:.>.>.>.,.%.3.s.g.l.l.l.l.v.n.v.b.c.v.v.v.m.m.Z.Z.x.m.m.m.l.F.F.l.l.l.l.l.n.m.n.l.h.g.s.q.g.s.s.8.s.s.9.4.-.-.;.Q K J Z Z L ) F y r e 3 7 ",
"< ; > < 1 u v v v p c v x x v d v x p p v c p u p p u v N B n p v p p u u p x x p d x p p n p e u p x p p x x p u p t p p p p u p u y p u e e u p p t u u i u u e u u u u u e r u u k p p x v v v v p v v v p u t e r i p u e e u u u u w w e p v p t 4 > > , 4 0 0 f 0 f / #.s.3.#.%.3.3.s.s.s.s.s.f.f.f.s.7.s.f.s.s.f.s.7.3.7.8.8.8.8.8.s.8.5.s.8.8.s.8.5.8.4.s.4.s.7.s.t.s.t.7.7.s.7.s.s.j.f.f.f.f.f.j.g.g.f.g.g.g.f.j.s.j.6.s.6.s.s.s.s.s.6.s.3.s.3.s.3.3.s.s.s.6.s.j.j.s.j.q.u.u.u.f.8.8.8.4.7.u.4.-.$.} 6.r.2...L S A y r 1 1 1 1 q e p v v 1 e v d x B v v v p v x c v v v v x d v g p p p c p p p c k v x x v v B M B v v v v v v v x v v x x v v M B n v v x x v x p p p p t p p p p p x g v x v p x x p x p p u u p x r u p d p p u e u p v b B B B v B B v v v u p M v v e < < > O O % 1 3 3 r b P ` / D T #.%.*.#.#.3.s.*.s.s.s.3.s.s.3.s.j.s.s.s.s.s.3.*.s.s.j.s.6.u.u.0.1.,.2.0.u.y.8.y.y.8.,.,.6.7.6.,.>.-.-.-.-.%.3.f.h.l.l.l.l.n.m.m.v.v.v.m.m.Z.Z.Z.Z.S.l.l.M.F.F.l.l.l.l.l.l.Z.Z.n.n.n.v.h.d.h.d.s.8.s.5.5.5.;.;.,.| W R H H L P b p y e e 3 ",
"> ; < 1 1 u x v d v n p u x n p p x d v v v x p p p p v ! ^ N v v v v p p k v v u u p x v v u e p v x p p p p u p p p p p p u u u t r u e u e e t u u u t r u u u r u r u e e u e u p p x x v x x v v v v v u e u r u u p u e e u p p p e e e u p y u 1 , > 4 7 0 r r f A T #.j.3.#.%.3.3.s.s.s.s.s.s.f.s.s.s.s.7.3.3.s.s.s.s.7.8.5.8.q.8.s.8.8.f.s.s.8.8.8.8.8.7.s.s.s.s.s.s.s.s.s.7.s.s.s.f.j.h.h.h.j.j.j.h.l.f.f.x.g.j.s.s.s.s.s.s.s.s.3.3.s.s.j.s.s.3.s.s.s.6.6.s.s.s.s.s.6.8.t.t.f.f.u.q.8.s.q.f.4.>.$.} ,.7.6...L S l y 3 < 1 1 1 q e x v v e e c x c v p v v v p x d v v v x x x p p p x p p x p p p v v v v v v B B v B B n B v v p p p x d v v M n B v n v v v v v x p p u r p p p u p p v x v v v v d p p p u t p p p u u u x p r e e e u v v M B B n B B b v n p u v v x e < < ; O O : 1 3 3 e z P ) T D ' ' %.%.*.s.s.*.s.s.3.s.s.*.s.s.s.3.s.s.3.s.s.s.s.s.6.s.s.s.0.0.7.,.,.7.u.i.u.u.0.8.2.>.,.6.,.-.-.%.%.$.$.%.%.3.s.f.g.f.g.l.h.h.h.v.n.m.m.v.Z.m.Z.A.S.S.M.l.F.l.l.F.F.l.F.l.A.Z.Z.Z.m.b.h.g.h.g.f.9.5.5.4.5.,.,.,.=.{ K z Z P ` b f d e r 3 ",
"; = < 1 q r v d x v n p e u v u p c x v v v p p p p x M B F b v v v x p p x v v x p x v v u u p p p p v x p p k x x p p d p p u p x p e u d x r r u r u u u e e u u t u u u u u u u p p d v v v v v v v v p r e u r u p p r e e p u u u e e r u p p t 4 > > 4 7 0 0 f f A D ' 3.%.+.#.3.3.s.s.s.s.s.s.s.s.s.s.7.7.s.7.s.6.s.s.7.8.8.8.9.8.8.8.8.8.8.5.5.5.8.s.8.s.7.s.s.s.t.s.s.s.s.s.s.s.j.f.s.h.h.j.h.s.s.f.j.j.j.j.j.s.s.s.s.j.j.s.s.s.s.s.6.s.3.s.s.j.s.3.s.s.6.6.j.s.6.s.s.8.8.t.8.t.8.u.t.f.f.f.6.,.%.} :.1.1.O.L S k r r ; > < 1 1 r x B v x p d v v x u x x d v v v v v v v x p p p p p p p v x p p v v d v v n v n v v B B M v v p p p x d x v v v v v v v n v v x x v d u u u p u u u x k v n M n x p u p i u p p t u p u u p p u u u e u x v v B B n B B v v n p u p v x e < < ; O O : , 3 r y l F I D T T #.%.#.*.s.3.s.s.3.3.s.s.%.s.3.s.3.3.s.3.s.s.3.s.*.s.*.*.*.4.7.2.,.,.7.0.7.8.6.3.6.,.>.>.>.>.%.$.%.$.$.@.$.%.%.s.s.s.s.d.h.h.h.v.m.m.m.n.v.Z.m.l.S.F.S.M.m.S.S.F.l.F.F.S.M.Z.Z.B.n.n.l.g.g.f.d.s.s.5.5.5.8.0.,.4.=.} K z Z L ` A f v e 7 , ",
"- O < 1 w u x x x p p u 3 u p p p x v n v v p p u p B B B M x p v v x x d p c v v p p v d t u p r u p n v x p v n v v p v c p u v v x u p M n u u u t u u u r e u r p u t t r u p x v c x x B v n v B v p u e q u u u g u t e q u u u u e e e e k p p 4 > > 1 7 f 0 f A A D T +.#.' +.%.3.%.s.s.s.4.7.7.t.7.t.s.s.s.s.3.4.s.f.s.s.8.8.8.8.8.s.s.8.8.3.3.3.5.8.s.s.7.t.t.s.s.t.s.s.s.f.f.s.s.s.s.s.f.j.s.s.s.s.s.s.s.s.s.j.s.s.s.s.s.j.s.s.s.s.j.s.s.3.s.s.3.t.s.6.s.s.6.s.s.j.6.8.8.8.8.8.8.u.f.f.q.q.3.>.>.| :.1.1.O.P S l d y ; < < , 1 e p v p x p u B B n p p p x x v v v v v v x p u p p x p p d x p p x v x v M n v x v v v v B n v p v v x v x x B B v v x v n n v v v v n p p v v d p v p x v M B B v u k p u p p p p r k p p p p u u p r p x x v M B B B B v n B x r u v d e 1 1 ; O O : 1 8 p d k m P D D ' #.%.%.#.s.3.s.*.s.s.3.s.s.s.3.3.s.3.s.s.3.s.s.s.s.*.s.*.s.>.,.,.,.,.2.7.:.>.>.*.>.,.>.%.>.:.>.%.%.$.| } +.%.%.;.s.s.d.h.h.h.l.n.m.m.m.n.n.m.m.m.S.S.m.S.l.l.S.l.l.l.l.l.l.Z.Z.n.n.v.h.f.q.8.s.s.5.5.5.s.d.0.;.0.-.| T V S S I A A v 7 7 , ",
"= ; > < 3 p p p x p p r e u c p v v v x d x x v b N v x b M p p v v p p p x x v x d p p u t p d u u p v n p u p d v v p p p p x p p v n v M n u p k p u u d p i p p p p u u u p r p x x v v v n B B B B x e e p r u u r e e u u u u u u q e e u v d r 1 , > > 7 7 h 9 j Z K L } ' +.#.%.s.*.*.*.3.s.s.3.s.3.s.3.3.s.s.s.3.3.s.3.5.4.8.4.8.8.8.t.3.3.3.3.s.3.s.7.s.3.s.3.s.7.s.s.s.s.s.s.s.s.s.f.j.f.f.h.j.s.s.s.s.s.s.s.*.s.s.s.s.3.s.s.6.s.3.t.3.s.6.s.s.3.s.6.s.s.*.s.s.6.s.s.6.6.s.3.6.s.j.s.s.s.s.4.3.4.E %.f.1...A D f f r : < < 1 e p x p u u p v v v v p u p x v x v v p p p p p u u p p p p p p p p p v v M M v v M B B v v v v b M N B v x v v B v v v v v v v v v v v x v v v c p p p x B b v x v b x x v v x x p p p p x c u p p v d p u p p v B B B B B B v x d u q n v u q 1 ; O ; 1 3 7 7 z L z I H { } W @.>.4.8.s.8.s.s.7.s.s.%.s.s.s.%.3.s.s.s.6.s.3.3.*.*.6.*.*.s.3.6.s.6.*.*.=.>.:.>.>.>.>.-.%.$.$.$.$.| | +.3.%.>.7.8.q.g.f.f.h.h.l.M.l.l.l.l.M.M.M.l.S.h.l.l.M.M.M.l.l.l.M.M.m.m.l.f.s.s.s.5.s.s.s.s.d.s.s.,.0.7.:.=.Q K H { ` k h d 5 4 4 ",
"; ; < < e u v v p p p u p x v p v v v B M v v x n v p u x v x x v p p p d x v x v v v p u u p p u r u t p u u u x c v v p u p d p u p p u d x u p p p u u x p u k u p p d p k p u p p p p v v n x x v v p u u p e u u u 1 e e u q u u u e 7 e u v v t 1 , > > e 9 j 0 0 l I R &.R +.+.$.%.%.%.s.3.3.3.s.3.%.%.%.3.3.3.3.3.s.3.3.4.4.4.4.4.4.8.8.s.3.7.3.3.3.7.3.3.s.7.s.s.3.3.s.4.s.3.s.s.7.7.s.f.s.f.f.j.*.s.s.s.*.s.s.s.*.s.s.3.s.3.3.3.j.s.t.s.3.t.3.3.s.3.s.*.s.s.6.3.s.6.s.6.s.6.s.s.6.s.3.s.s.s.;.4.3.E %.t.*...A A f d q < > < 1 3 p v p p p v x x n v d u p v c d c v x v x d p u p p k p p p x p p v v b v M v M v B ! B b M v v v M v v x x n B v v B v v M v v v v v v v v v x p p p p v M x x M M c v x p d p p u p p p x p u p p p u p p p v b B n b B n v p p u q v v e 1 1 ; = > , 3 y a G ) z I H I { ` @.>.2.7.s.8.8.s.s.7.s.3.s.;.s.s.s.s.%.s.6.3.3.6.s.*.*.s.*.*.3.6.3.3.6.6.-.-.>.>.>.>.-.-.@.| | $.$.$.+.$.3.%.>.8.8.y.g.g.h.l.l.l.l.M.l.l.l.l.h.h.l.l.l.h.l.l.l.M.l.M.M.l.n.l.g.l.g.d.d.g.9.s.5.5.5.5.5.8.,.7.4.=.| Q H z  .{ z h d 4 4 * ",
"- > < < q p v n u i u p v M v p v v v B B B x p x v p p B B n v v p v v B n n p x v v v p u u p u p u r r u p p p c x d p p p p x p p p u x v u u p p t u p p u c p u p x v c x u p d x v v v v p v x p t u r u u p p u u r r u u u p u e e q u v x u < > & ; 5 9 h 0 s l ` } &.E ' +.+.%.s.%.*.3.s.3.3.3.3.3.3.%.3.3.3.3.s.s.3.3.3.4.4.4.4.4.4.3.3.3.3.3.7.s.s.s.s.s.s.s.s.3.s.s.3.s.4.4.s.s.s.s.f.j.s.s.s.s.s.s.*.s.s.s.*.*.s.3.3.3.3.3.j.3.s.s.3.3.3.3.3.s.3.s.*.*.s.s.3.*.s.6.s.6.3.s.6.6.s.s.s.8.8.3.4.E %.e.%...A A f f 3 : : > < 1 p n x p p d p v v v x u x c x p v x x v c p u p p u u u u p k x v v v x v b v v M N B B B M v M b M v v x v v B B B B B v n v b v v v x v v v d x p p p v M v v B v v v d p t u u p p p p x p p u u u u p p p v M v v v M v p p r e e v p e 1 < ; ; > 1 3 y d H ` L ] H I R I @.:.,.7.s.8.s.8.s.s.3.3.s.s.%.s.%.%.s.#.s.*.s.*.s.#.*.*.*.*.3.6.*.3.*.3.>.>.>.:.>.>.-.$.$.@.$.$.>.=.>.>.%.+.%.4.7.0.k.b.l.l.l.l.A.Z.l.l.l.h.h.h.h.h.l.l.m.m.m.l.M.M.l.h.m.l.g.g.g.d.s.8.s.8.5.;.;.5.s.5.,.4.,.=.| Q K z ` X.L j h 7 * $ ",
"; > < 1 1 u x v u r u u x v d p v v v B B B v p u v v B ! B M n d v v B ! B B v x v p u r t u u u v v u e p v v p p x x p p u p v u p p u p d t p p p u i p d x x x p u p v v p x x v n n x p v v B n p r p p u p p p u i u u u u p p p u e e q d d e > > ; ; 4 7 s 0 C Z { $.>.E +.+.+.#.s.s.6.j.3.3.s.3.3.3.3.3.3.3.3.3.3.3.3.3.4.4.4.4.4.4.3.3.;.3.3.3.7.3.3.3.3.3.7.3.3.7.3.3.s.3.s.s.7.4.s.s.f.f.s.s.s.s.s.s.s.s.*.s.s.*.s.j.3.s.t.s.3.3.s.3.t.s.3.3.3.3.3.s.s.*.*.3.3.6.3.s.6.j.s.t.s.s.3.s.4.s.8.;.4.E +.*.#.] A A f r : < ; < < 1 p B v u p p t p v x p u k x d k x v p v v g p v p p p u u u p p p x k x v v v v M N B B B M B M v v v x d x B M B v n v v M v M v M v v v v v v x v x x v B v v n M v v x p p p p p p p p p p p p p u p x p x x n M x v M M x u u e e c p e < < ; ; , 7 7 r y n ) ..&.H K K K @.1.7.7.8.s.8.8.3.s.s.3.+.%.s.+.s.%.s.s.*.j.*.s.*.*.*.s.*.3.3.*.3.3.*.*.>.-.-.>.>.:.$.@.$.%.%.%.>.>.3.2.%.%.%.3.,.,.k.v.l.x.l.l.Z.Z.l.l.h.h.d.d.h.F.l.F.m.m.m.m.M.l.l.l.n.h.f.d.f.d.8.5.s.5.5.3.5.5.5.s.0.0.4.-.| W K H P O.I G g 9 7 $ ",
"= ; 1 1 q u p p e 1 e u p v x d v v v B B B n v r v B v B v v v c v n B ! F B v x v k p e u u u u p x u u p x p p p p p p u p r u e u p u r u e u p p u p p x c p c d p u p p p u p x n v v v v B B v p u g p t t u u p r u r u u x u u u u q 7 v v t 1 , > , 7 6 s a l A #.*.1.E ' +.%.3.4.s.s.s.3.3.s.3.3.3.%.3.3.3.3.3.3.s.3.3.3.3.4.8.4.3.;.3.3.;.3.3.3.7.3.s.4.3.3.3.;.3.3.s.3.s.3.3.s.3.s.s.s.s.s.*.j.f.f.s.s.s.s.*.s.*.s.s.s.3.s.s.s.3.3.s.3.3.3.3.3.3.%.*.*.*.%.s.%.3.s.3.t.s.3.s.s.3.s.5.5.s.s.3.3.E T &...' A b y r 1 ; ; ; < 1 u b M e u e u p p x p p p v p x x c p v v k x v v v x p p p p p u p p d x v v v n B N B M B v v v v v v x v v b M v B b v v n v v v v v x v v v p d x d v M M M b M v c d x p p p x x p p p p k p p p u p x d v v M v v n M k u r u e p p u < ; ; > 1 e 7 7 r k ) :.2.S J J R $.,.4.0.u.q.q.q.q.9.8.0.s.+.s.%.s.s.s.s.s.*.s.&.#.*.*.*.*.>.>.>.*.>.%.3.>.%.$.>.>.-.$.X.%.=.%.$.%.%.%.%.=.=.>.,.=.-.q.g.f.h.h.l.l.l.h.s.d.d.d.d.h.h.l.l.m.m.M.m.m.m.m.l.l.g.s.s.f.h.f.s.5.9.s.5.5.s.5.5.0.0.4.-.=.} P H I O.R z h 8 4 # ",
"= ; < 1 1 u p p u e e i p c v M ^ ! B B B v x x x B B v x x p n x x v n M M v v v v v u u u p p r p p p p p p p d p p p t p u p u r u p u p u e u p p p u p p p p v v p u p p u e e u v v v v B B n d u u d p p u u u p p u p i p u x p u u q q k c r 1 > > > 7 8 a a s a ] e.t.' #.+.%.3.4.*.s.3.3.3.3.3.%.%.3.3.3.3.3.3.3.3.s.3.3.3.3.4.3.;.*.%.3.>.3.3.3.3.3.;.3.s.s.3.s.s.4.3.7.3.s.s.3.s.s.s.s.s.s.s.s.j.s.j.s.s.s.s.s.s.s.j.3.s.j.j.s.3.3.s.t.3.3.3.3.3.3.*.s.%.s.#.s.3.3.j.s.3.s.t.t.s.3.s.8.s.s.$.3.E U &.' / A b r 0 : ; - ; < < u n v q e e e u p p p p v v x p x d p p p p p p d p p u p p p p p u p x x x v v v v b n v B v v M v M v v v M M v x v v v v v v v v v v v x v n v v x c v v n v M v v x v x x d p p p v p p x v c v x p d x x v M v v v n v p u u e q p v r ; ; ; < 4 1 7 7 y k P :.O.Z J P } -.4.6.0.q.q.q.q.8.8.5.8.%.s.+.s.s.%.s.s.*.6.s.*.*.*.*.*.>.>.6.3.*.3.3.6.>.%.$.=.>.%.@.$.-.>.%.$.$.$.$.| >.=.,.0.:.4.w.a.s.s.h.h.l.h.d.;.s.d.d.d.h.h.h.h.m.m.m.m.n.l.h.l.l.h.g.f.d.g.d.s.5.5.9.s.8.s.8.5.7.7.,.=.| Q K H I X.I G k 8 4 $ ",
"- > < < 1 r p v u r u p d p v N ( ^ B B v p x p n B v p d x p p p p v v x p v v u v v p t p p r p t p p v p p p x p u u r u p t g u u v p p p u p p p p p p x v p v v u p p u r u e u v M v n B B x u u u p p g u p k p p u u r u u x u u u q q g g e > > % > 4 r s y f a ' 6.j.' #.$.%.3.3.3.3.s.3.3.j.s.%.%.3.3.3.3.3.3.3.3.3.4.3.;.3.6.3.3.%.3.;.3.3.3.3.3.3.3.s.3.4.3.s.s.3.;.3.s.3.3.s.3.3.s.%.s.s.s.s.s.s.s.s.s.s.3.s.3.s.s.3.3.s.s.3.s.t.3.6.3.3.3.s.3.3.s.s.*.*.3.%.s.3.s.3.3.j.s.j.s.t.f.8.s.8.@.%.R J ' ` / f f r r < @ O ; ; < e c v q e u u u x x d v v v v p p x p u u u u u u u u u u p g p p p p p x v v x v v n v v B B b v c v v v v n b v v v v v x v v v v v v x x v v n x v v v B v n v v v v g p p u p x d v p p c v x p p p v v c v v b v p x p p u u e 1 p v u ; = ; < r 1 7 5 y d m ..) j Z P { -.>.6.8.8.t.u.u.8.8.4.7.s.s.%.s.+.s.+.+.s.s.#.#.%.#.*.#.*.>.3.*.*.*.*.3.>.%.$.:.>.$.%.>.>.,.,.*.$.%.$.| =.=.,.,.,.0.0.a.s.s.h.h.h.h.s.s.s.d.d.s.d.d.d.d.h.l.m.l.g.f.g.g.l.l.h.f.8.q.8.5.4.8.8.q.8.s.s.;.,.7.,.=.| Q P H I  .P z k 8 7 % ",
"; ; < < 1 u n B u e p p x u x B B B B v v v n B x v p u x p u e u v p p u u p p u p v p u u u e p u u p v p u p c p u u u u u p u e r p p p p u x d v v p p d v p x c p p v u e d u p v B v B B B p e u p u p v u p p u u u e e u u u u u q q q g v e , > ; > 4 2 0 a C a #.e.t.' #.%.>.s.s.3.s.3.3.3.s.3.%.%.3.3.3.3.3.3.3.3.3.4.4.3.4.4.4.3.;.%.3.3.3.4.3.3.3.3.s.s.s.4.3.s.s.;.s.3.s.3.s.s.s.s.s.s.s.j.s.s.j.j.j.s.s.j.s.s.s.j.3.3.t.s.t.3.j.s.3.3.%.3.3.3.3.*.*.*.3.3.s.s.s.t.s.3.s.3.3.j.s.f.5.8.5.E $.R J ' ) F f d r 3 : @ O ; : < e v x e e r u d v v x x n v x p p p i u x k v u u p p u p x k x c p x p d x v v v v v v B B v v c x x v x x v M v v x v v v v v x x v v d x v v v v x B v v B v v n n v v u u u p p x n v p x d p p v x c B n v v v x x p p p p u e 1 p v u ; ; ; < e 5 r 1 8 6 d I H s Z K } >.>.1.8.8.8.8.8.8.4.3.4.' %.+.%.+.%.%.s.*.*.&...*.s.s.#.%.*.*.%.%.$.%.*.>.=.-.>.>.%.%.,.>.,.6.>.%.>.%.$.,.>.,.2.;.;.;.;.;.s.h.h.h.g.s.s.s.s.s.s.s.d.d.d.s.g.l.g.d.s.s.g.q.f.f.8.5.8.8.5.3.5.5.8.4.8.5.3.4.,.,.=.| Q K H I  .H G l y 4 * ",
"; ; < 1 q r x v u u u p x v v v n x p p p x d x p v x p r e t u p x d u p x d p p p u p t e u p p p d p v v d p p p e e u p p u u r u u u u p p p k c p p v v v p p d x p u u p t u u v M B B ! p u p p p u u u p p u p r u p p u x x p u e e 1 t u p , : % 4 4 3 f f f A ' t.1.+.+.+.%.3.3.8.8.3.3.3.3.3.%.3.s.3.3.3.3.s.3.s.3.4.;.3.4.4.3.3.;.>.3.3.4.3.s.7.s.4.3.4.s.s.t.s.s.s.7.s.7.s.3.3.3.s.s.s.s.s.s.s.s.j.s.*.s.s.s.j.s.j.s.s.s.s.s.j.%.3.s.3.3.3.3.3.3.3.3.3.3.3.s.s.3.s.3.s.s.s.s.s.6.q.q.0.0.%.@.U J D P / d d 3 3 , ; O - ; < e x B e e u x v N B M B F ^ ^ B p p u p p x p p p p d p t e u p p p d v v c p v v v B n M M v n v v v v v n v M v M v n v v v v v x x p p v v v v x p v B M B n B v B v c v v y e u v v v x v d x v x n v x v v B v v v p p u e u u < u p p ; ; ; e u 7 7 1 8 7 h P L h Z P E | -.4.8.7.0.0.7.,.0.0.7.-.-.=.=.-.-.-.=.>.>.-.>.>.>.>.>.>.*.*.%.%.%.%.*.>.>.>.:.>.>.,.4.3.:.>.-.%.>.>.>.,.,.,.;.;.,.,.-.;.;.;.9.s.5.s.;.s.s.s.s.j.f.s.7.f.f.f.f.u.9.u.f.q.8.q.f.8.8.4.3.;.3.3.3.;.3.4.4.2.w.;.,.Q Q K J L L K z z t 7 % ",
"; ; < 1 1 u v B u t y p x v v x v x p p v v p p u p p p u p p p p x c p u p p p v p p p p e e r t p x x p p t u x p u r t p v p t p p p p p p p v u p v n v u p x p p c d u u p u r u p B B B v u u p p p p d g p p p u u u p t p x x p u u 3 1 u y t : > % 4 7 6 f f f C T 1.1.+.+.%.%.8.5.5.8.3.3.s.3.3.3.3.3.s.3.3.3.t.3.3.3.>.%.>.3.4.4.3.4.>.3.3.3.3.s.3.3.s.s.4.s.s.s.s.7.7.s.s.s.4.s.s.3.3.s.3.s.%.s.s.s.s.s.s.s.s.j.j.s.j.j.3.s.s.t.s.%.s.3.3.3.3.3.3.3.s.3.3.3.t.3.t.3.s.s.3.3.3.j.j.s.q.u.7.0.$.@.J J D P / f y 3 8 < - O ; < > e v B e u p d v n B v B ^ ( ^ B v p p d p p u u u u t r u e u u u p p d p p x p p x n v v v n v v v v v v v v M v b v M v c v x x x d v v v v d x x v v x M v v M v v n v x x p e p v x v v v v x p p v x v v v B v v v x d p e e e , i r p ; ; ; u t 4 7 2 5 9 g I P z Z K W X.%.6.r.y.u.0.7.,.,.-.=.@.+.$.$.=.-.-.=.:.>.>.:.-.:.=.%.*.>.>.*.*.*.*.*.>.:.>.4.>.>.>.>.-.=.>.:.>.:.>.*.,.,.2.,.,.,.-.=.-.;.;.9.s.s.s.s.s.s.s.s.s.f.f.s.f.s.f.f.s.q.q.f.q.4.8.u.8.5.4.;.3.4.;.8.5.;.4.4.0.0.,.;.Q W J V H H K j z 7 5 4 ",
"> ; 1 1 1 u n B u t p p p x p p d p u u x v x p p p x p p u p v p p p p p p p u v p p p u e e e u p x p p p u e p p p p p p p p t p p p u u u p n p u n B p u u p u p p u t u u u r u p N ^ B p r u r u p p p p u p p y p u p p x x p u u u e 1 t u p < > % 7 7 r f f f C T 6.t.+.+.%.%.3.t.8.3.s.3.3.3.3.3.3.3.3.3.3.3.3.3.3.3.%.%.%.;.3.4.4.7.;.3.3.3.3.3.4.3.s.7.s.s.f.f.s.s.s.s.s.s.s.3.s.3.*.s.s.s.s.%.%.s.*.s.s.j.s.j.s.s.j.s.j.s.6.6.t.3.*.3.3.3.3.s.3.3.3.3.3.3.s.s.j.s.6.t.3.3.3.t.s.j.g.u.7.0.$.} J J F ) / d r 3 3 , = = > < < q n B p p x x v B N B ^ ! ^ ( B x p x p p u u u u r u u t r u u u p p p p p p x d x c v x v x p v v v v x v v v M v v n v v x x x x x v v v p x x v v v B M B B B B B n v p p p u p v p x d v v p t u x v n n B v v v v c x p e e u 1 e e u ; ; ; e r 1 7 5 8 7 j I I Z H Y W @.%.4.0.7.7.,.,.:.-.%.$.@.@.@.$.-.-.-.-.>.-.=.%.%.%.%.%.$.%.*.;.,.>.3.3.>.>.>.>.>.-.-.-.-.>.>.>.>.>.>.>.>.,.0.,.,.,.=.=.3.-.4.9.s.s.s.s.s.%.s.s.3.s.s.f.f.s.s.s.f.q.q.0.q.8.q.u.4.8.8.>.3.4.8.8.8.8.8.8.,.0.9.,.=.Q H G K I ( G l 8 7 4 ",
"< < 1 1 1 u v B u p p p p p p r p p t u d c p u u p d p p u u t u p v p v v x p p p p p u e u u u p v x p p p u u p x p p p p u r u p u p p p p v x p p p p p x p u p x p u u p t p u p b ! B u u p p u u u p u u e u p p p p p x p u u r t u q p y p , > ; 4 7 0 0 f A D / t.j.+.+.+.%.3.t.8.3.t.3.%.%.3.%.%.3.3.3.%.3.3.3.3.3.;.%.%.;.3.3.3.3.3.3.3.;.%.3.s.3.7.s.s.s.f.s.f.s.t.t.s.s.s.s.3.3.%.3.%.s.s.s.s.s.s.s.*.s.s.s.s.s.j.s.6.s.s.s.s.s.3.s.3.s.3.3.3.3.3.3.s.3.3.t.s.s.j.s.j.s.s.3.t.s.u.u.7.7.@.$.P S D ) / d r 3 3 : O o ; < ; e v B v v x v M B B F ^ B ! ^ ! p r x e t u u u u p r u u p p t u p v u p p v v p x p v v x d x p p c v v v n b v n M B n v v v d v v v v v x p p v v v v b B B B B v n v p p p x x x u p p x p u r u x v v B B v v x p u u u 7 e u w e e u = ; = e e 1 7 5 7 7 h ) I Z J T } | $.,.6.-.-.=.=.=.$.%.$.$.=.=.=.=.=.@.=.=.-.%.%.$.$.%.%.$.$.%.*.>.>.>.>.-.-.$.$.=.%.$.$.-.>.>.>.>.>.>.,.,.,.0.,.,.,.;.>.9.5.0.9.s.5.s.s.s.s.s.s.s.t.s.7.s.t.7.s.f.q.w.0.u.8.8.8.4.8.8.3.3.4.8.8.8.8.8.8.0.0.,.,.| | K G { { [ G l 7 6 4 ",
"< < 1 q q u n M t p u p p p u r p t r e u u p p p p p p u u r u p p v v v v v p p p t u e e r u p k c p p p u u p x x p p p d p x x p c d x v v x v v p u d v x p p v v v p u d x v v v n M x e p d p p p p p u q e e u u p p p x x u e t p r q g p g 1 > % 4 4 r f 0 A A T *.6.%.#.+.%.3.t.t.t.t.3.3.%.3.%.3.3.3.3.3.3.3.3.3.3.3.3.%.;.3.%.;.3.>.3.;.>.3.3.s.3.7.s.s.7.s.s.j.g.s.s.s.f.s.7.3.3.s.s.3.s.s.s.s.s.s.s.s.%.s.s.%.s.s.3.s.s.3.s.s.s.s.s.3.6.s.3.3.s.s.3.s.6.s.6.j.j.s.j.j.s.s.t.s.s.u.u.7.,.| X.J S T ) / y 8 : 3 < =   = > < u v v p p d v M N B ! ^ N B _ B p e p r u t p p p t p p u u p u u p v u u p v c d p p v v d x p d x p x v v v M M n M B v x d d v v v p v p v x x x d x v v v x M v v x p p p p v v x c p x p p u u t p x n n v v v v u t u u 7 e u 1 e e u ; - = e e 4 5 1 8 9 k I I S H I W } +.%.>.;.=.:.=.=.=.=.| @.=.@.@.@.@.} | $.$.$.$.$.$.$.%.>.,.>.-.%.%.%.%.-.-.$.@.$.%.%.>.>.>.=.%.-.>.,.3.,.>.,.,.>.>.;.;.9.8.5.9.s.9.s.s.s.s.s.%.s.s.s.s.6.3.7.q.u.u.q.0.t.4.8.4.4.8.8.4.3.3.3.4.7.7.8.0.,.8.1.,.| | K L  .{ ` h g 8 7 > ",
"< > < e e x B v p t p p p p p u p u u e u u p p k c v x p u u p p v v v v v v p v d p u e e u u p p p p u p u r d v v x x x v x v v v v c x v v p B B x x v v p d p x x x p p p p d v n v v p p p p u t p p p p e e e u u p p x x p u u u u u e v k p , > # 4 7 f f f A / ' 6.6.+.+.+.3.3.s.3.t.3.3.3.3.3.3.3.3.t.s.j.s.s.s.3.3.3.;.%.;.3.%.;.3.%.%.3.%.3.3.3.3.3.s.s.s.s.s.s.j.j.f.j.s.s.s.s.4.s.s.s.%.%.s.+.s.%.%.s.s.s.%.s.#.3.3.3.%.*.3.*.j.3.3.3.3.3.3.3.3.3.3.s.6.3.s.3.s.s.s.s.j.3.s.6.3.0.y.4.>.| $.K Z F / / y 7 < 3 ; ; O - < q u v c r u p v v M B B ^ B ! ^ ! x u p p u p p p u u e i r u u p u p k r p p p p p p p v x x x p p p x x x v v M v v B M v x x x x p x p p v v v x v v v v v M v b M v x d p p v v x x v v d p p p p p r p p x v v v v p u u i q q e < u u u - ; O 1 1 7 4 , 8 h m  .L Z J T E } } $.%.:.=.-.,.=.=.| | @.@.=.| } | | | @.$.$.@.@.@.$.-.,.>.>.>.>.>.3.1.:.%.$.$.%.-.>.-.=.%.$.$.$.-.>.,.,.,.:.,.,.,.,.0.5.4.4.8.s.8.5.s.s.s.s.s.;.%.3.s.8.7.7.q.w.q.0.q.8.4.4.3.-.8.8.4.;.;.3.;.3.4.7.0.,.0.-.-.W | I K { ` L a a 7 7 > ",
"< - < e p v B v u y p p p p u u u p u u e e u k x k x x u p x v d v v v v v v x v v p u u i p u p p p u p p p u v v p p x n b v p d x x p x v b x b B v x v k p x p x x x p p x p u p M B x d v i u u u u u u p u u e p p p p p u p p u u t u e k c g < > % 4 7 f f A / ' *.t.3.#.#.%.3.3.3.3.s.3.3.3.s.3.s.s.s.s.s.s.s.s.3.s.s.s.3.%.%.%.;.3.3.;.;.3.3.3.3.3.3.3.s.s.s.s.t.s.f.f.f.s.s.3.s.3.3.s.3.s.*.s.%.s.%.s.%.%.s.s.%.%.%.3.3.%.3.%.3.3.3.s.3.3.3.3.3.3.3.3.3.3.3.t.3.3.s.t.3.t.3.s.3.j.s.0.u.4.>.| ..H l F L F y 7 > 1 % - O ; 1 3 u k p e u p v M n B B ! F ^ _ ! v p u u i u p r u u e u e e u p u u u u u p u u p p c x x x v v v x v d x v v M b B B n v v x v v v p p p v v v v v v B B M M v B B M x v v p p p x p v v p p p p p p p u u u x v c x p u d p e 3 e < u t p ; ; O 1 q 7 3 , y z L  .I Z J T } } | $.$.$.| | =.=.=.=.=.| | | | | } | $.@.$.$.@.+.+.$.*.$.*.*.>.,.4.6.8.-.=.$.$.%.:.%.$.$.$.$.$.$.-.>.,.0.,.,.0.w.0.0.0.5.5.4.9.s.5.s.5.s.s.s.+.3.*.s.3.8.4.8.8.0.4.0.q.8.4.4.;.$.3.8.3.%.%.-.3.3.3.4.5.,.0.-.,.W | K H ` I I y 9 5 5 > ",
"; O ; 3 p B F B u u u u p p p p u p c p e 7 u p u p u u e e u i p p p v x n v v p x v p p k v v p v p p p p v p v g p u x v M v u u p p v n B ! B v p x u u i x n v n n b v v M v p u n M p u p p p p p p p p k x p x e p u p x u p x p u t u r v p g > > ; 4 7 f f f D / &.3.%.' #.%.3.t.3.t.3.3.%.3.s.3.3.3.3.t.t.s.s.t.s.s.f.t.3.3.%.%.%.%.3.3.3.3.3.3.3.3.3.7.s.f.j.s.s.t.7.s.s.s.6.7.7.4.s.%.s.%.s.%.s.%.s.s.%.s.%.%.s.%.s.3.3.3.%.3.3.3.3.3.6.3.s.s.3.3.3.3.3.3.t.3.3.s.s.j.s.s.3.3.t.t.s.0.y.3.>.{ | H s S L F r 7 : , % O   ; q q u x p q u v n B B B B B ! ^ ^ B n p e r e u u u u e e e 3 e r p p t u p p p p u p p v p x d v v v v v x x x v v M B v B B M n v n n v v v v v v v v n B B b B v M v n v n v p u p d p p p p p p u u p x p r u u d p p r u x x e e e 1 u t r ; = O e 7 7 5 , d m ) O.` Z H T E } | @.@.=.| | =.=.} | | @.=.| } Q Q } +.$.$.$.@.} | $.%.*.>.>.>.,.:.>.>.$.$.@.$.%.%.$.| $.$.$.%.-.>.>.>.>.=.>.0.a.w.,.;.q.q.9.s.s.s.5.s.+.s.s.s.s.s.s.s.8.7.8.8.0.4.4.0.8.8.4.;.%.3.8.>.$.%.-.3.3.3.3.3.,.4.,.-.| Q K H { [ ` h 9 4 9 > ",
"; > < 1 p ! ! M p p p p p p p p p p p r u d p u u u p u u u p p p v n v M M v x v p r u u p p p d x u p b B n e x p v x v d p u p v n v v v v v B M v x p p p p d v v v v b B B v d v n v u p k u p p p p x p i p p p p p d p d i i n p i i 4 t g v g 9 > % 4 d d s j S { 1.1.&.{ { %.8.y.6.4.4.3.3.4.5.4.5.8.q.f.s.s.s.s.3.s.j.a.4.%.%.-.-.-.>.,.1.>.>.6.6.7.6.7.s.t.s.j.f.s.t.t.j.j.f.f.8.t.s.s.%.s.s.6.s.3.3.3.%.3.3.3.3.3.3.3.3.3.%.%.3.s.s.3.3.s.t.3.3.s.3.3.%.%.%.4.s.7.s.t.s.s.6.3.s.s.t.s.6.3.*.' T A f J H H r 7 , O : O O ; < 1 u r u e q u x B ! ^ ^ ( _ _ ^ n x x p u u p d u u r u x p i u p p x p p p p p p v v d x x v n n p v B v b n v B ! B B M M b x x v v x v v b M B B B B v b v v n B n v M x u p p t x v v v p p r p u t p p u y p p u u u u t u u e e 1 u u e ; O ; < e r 4 5 y m ) ` H J J K W | | @.@.=.=.=.| } #.#.#.#.} #.#.#.#. .+.#.$.#.#.} } +.%.$.%.>.>.,.7.,.:.>.=.%.%.$.@.@.@.$.$.$.$.=.-.-.3.%.%.3.s.s.s.*.s.s.s.s.s.s.s.s.s.q.w.y.u.y.0.0.0.2.8.0.8.0.0.q.y.t.8.>.%.>.6.4.%.$.%.>.>.>.,.,.>.,.3.3.%.E } J J ' ` P m d y 7 $ ",
"; < > 1 p B B n p p p p p v p p x v x p u u p u t p p u r p v p x v B b B B B x v p u u u p p u p v v u u v n p v v v v v v x p u p v v v n v v v v p p p p p k p p x x v n v v c v v v x p p u x k p t p d p u u u p p p p p u u t i e t w 4 4 g g g t > % 4 9 d s l J X.6.8.1.} } $.7.0.4.>.4.5.3.4.5.5.8.8.q.f.s.s.f.s.s.s.x.u.6.%.=.>.-.-.:.-.=.%.%.,.,.,.4.7.7.6.s.f.j.f.s.s.s.s.s.j.4.4.8.3.s.*.s.6.6.3.s.s.3.3.s.3.3.3.3.3.s.3.3.3.3.3.3.3.3.3.6.s.t.s.3.s.3.3.3.3.s.s.s.*.s.s.t.6.s.s.s.6.6.*.*.T E A C G H m y 7 5 + ; O ; ; < e p x u e e r x v B ! ^ ! ^ ^ ( B x p d c x p u u e u p u u e r p x v p p p x p p v v p x p v v x p p x v M M v B B B B B B v v d v v x x v v M v B v B M M v v v v x x n p u p p p p v u p p u p p p u u u p p p p p u u r p t r u 1 1 u u w > = ; 1 4 r 7 4 y H ` ] I J H J W | @.@.@.@.=.=.Q } #.$.#.$.#.#.#.$.#.#.+.' } +.} } ' +.$.$.%.-.3.0.0.,.,.-.$.@.$.$.@.@.@.$.%.$.-.%.$.$.=.s.%.%.s.s.s.3.3.s.s.*.*.%.s.*.s.y.u.y.u.0.7.4.4.7.8.0.0.8.0.0.0.8.4.>.$.%.>.>.%.>.>.1.>.:.-.%.%.3.>.>.%.} @.J J ' T L k 8 r r 2 ",
"; < < q p B B n p p p x x c x p x x p p u p u u u p k p p p p g v M B B B ! B v v v p d x v v v x v p u u x M n M x x x x v x x u p x p d v v v c p k p u u u u p x v v v M v x v x v p p x p i x p u u u u p u p p p i u u u t g w i w 4 i 4 w g k g 4 % # 4 8 a j l D ..e.r.1.W W X.,.7.,.,.4.5.4.;.5.q.q.q.q.h.j.h.j.j.f.f.h.a.4.:.-.-.=.%.1.$.%.=.>.>.>.>.4.3.7.7.s.s.f.s.t.t.s.s.j.8.4.4.7.s.3.3.*.3.s.6.s.s.3.t.3.s.3.3.3.3.s.s.3.3.3.3.3.3.3.3.s.t.s.3.t.4.3.3.4.3.7.7.3.6.s.7.s.6.s.6.s.6.s.*.*.T T A C H H H d r 1 O % % ; ; < e p v v u u p p x v B F ^ B ^ _ ^ c p v d x p p u 8 u p u t u u p c v p p v v g p v p u v p p x p u p d v v M n B B B M B B B v v v v v p v v v v v v v v v x v v v v d c p u p p p p x u p p p p p p p p p p p p p p u p p p u u e e < e u e > = ; 1 e e 7 7 d G ] { ) H H K W | @.@.=.$.$.@.| } $.$.$.$.$.$.$.$.$.#.#.' +.+.' ' ' $.$.$.$.-.4.q.u.0.-.-.$.$.%.$.$.@.$.%.%.%.$.$.@.$.@.%.+.%.s.3.3.*.s.s.*.%.s.s.s.s.s.q.0.q.0.7.7.0.0.7.7.0.y.0.7.7.7.6.>.*.$.$.@.$.%.$.%.>.>.>.>.-.%.3.3.%.%.} $.J D ' P F k 8 6 8 : ",
"< < < 3 p B B v u i p k v d x p p p p p p x k p p p x c v v v v B B B B B B B v M v v v n v v v n x p p B ! B p b v v v M n n v u p p p p u p p p p p p u u u t p v v n M M v x p v p u u v v u p u p u u p x d p x p p i u u u c i w w w w 4 w h g h 4 > % 4 9 s l l S ' 1.6.1.W { $.,.,.,.-.,.3.-.4.9.g.g.g.g.f.f.h.j.f.f.j.h.u.7.>.%.>.%.*.>.%.-.>.>.>.>.>.>.s.7.7.6.s.t.s.7.8.8.s.j.s.4.4.4.s.3.3.s.6.6.6.s.j.3.s.3.t.3.3.s.3.3.t.3.t.3.s.s.3.s.s.6.3.3.3.3.4.4.4.3.3.s.s.3.6.6.s.t.s.s.6.6.<.*.*.*.T T A C m H S d r 7 o $ % ; > < u v M v p p v v v v B ^ ^ ! ^ _ ! v p x u i c n p u u u p u r u p x d p p c d p p p x p p p p p p x c v x v v n v B B v v M v v v M B v p x v v v v v n x v v v v v M v v x d v d x p p p v p p u p u u u r u p p p p p u r u u i e e 1 e e e < O ; < 7 7 7 8 d J  .X.{ J J Y | @.@.@.=.@.$.+.| ..#.#.#.#.#.#.&.$.$.#.#.' ..} } #.+.#.$.$.$.:.7.q.0.,.-.:.=.$.=.-.%.%.%.-.$.$...$.$.$.$.%.%.#.%.s.s.s.s.s.s.s.s.*.s.s.%.0.4.,.,.,.4.,.4.,.,.8.y.0.0.4.4.6.>.*.>.$.} | $.$.$.*.>.>.4.,.,.3.3.;.-.+.$.T D  .` ) m a 8 7 % ",
"> < 1 1 x B B v u u p p x v c p p u p p v p x v u p p v v v v n B B n B B B B M x x x x v v v x B x u d B ^ B u n M B B ! F B B u p p p u u u p u t p p p p p p u x v n v b v x p x p u u v k u u p p p p v v p p x x x p r u u c w i w i g 4 w y h i 4 > > , y y j l C R <.6.*.{ | =.,.>.:.;.,.4.3.4.8.g.g.g.g.f.f.s.s.s.f.f.j.0.6.>.-.-.%.=.>.%.>.>.>.>.>.>.1.3.3.7.s.7.s.6.6.6.s.t.s.s.7.8.8.j.3.3.3.s.6.s.s.s.t.3.s.j.3.3.t.s.3.t.3.s.3.3.3.3.3.3.3.s.3.3.3.7.3.3.3.4.7.7.s.s.3.6.s.6.s.s.6.,.,.$.%.E E S j H L m y 7 , o @ ; ; ; < u v n n p d n M v v B ! B ! ^ B B n v x u u v n v p u u i p u u p p p x x x p u u p v v p p p p p v v v d d M M b B N B v M v v v n B v v v v v v x v M v v v n M v n v x p p p x c p p p x c p p p u u u u t p p p u r u u u p u e 1 1 7 e q < = = < e 9 7 7 d H  .O.] J J Y Q @.=.@.=.-.$.$...+.} } #.#.#.#.#.#.#.#.#.+.+.} #.} +.+.+.@.=.,.0.7.4.,.-.>.%.%.-.>.>.>.>.,.%.%.$.$.%.%.$.%.+.%.s.s.j.s.s.*.%.s.s.s.s.s.s.0.,.=.=.-.-.$.+.:.,.0.0.0.8.6.,.6.>.>.>.$.} } $.$.%.>.>.>.>.>.,.-.3.3.3.} @.J T X...] L d y 3 , ",
"< < 1 1 p B B x r p u p p p p p v g p p d c p v u u x v v v v M B v x v n M M b v v v v v x d v v v p p v n b v M B B B B B B n d p p v p u t u u u r p p p p p p v v v n M M x p p p u p p p p u u p p p p k p p d x k x t u e c w c w t w < 4 i p t 4 % % , 8 8 a j l P 1.r.1.} $.-.:.>.-.-.,.8.8.8.8.q.q.q.q.j.s.3.s.s.j.s.s.6.,.>.-.-.=.%.%.%.:.>.:.>.*.>.>.3.3.6.3.3.s.7.s.3.4.8.4.4.8.t.8.3.s.3.j.j.3.6.3.s.s.s.t.s.3.s.3.3.j.6.s.6.s.t.3.3.3.t.s.3.s.t.s.7.3.3.3.3.3.t.s.6.s.s.6.6.s.s.s.6.,.%.%.E ' D j I ) P k r 3 @ % O ; > < u v b M u p v M n v B B F _ ^ ! B ! ^ B v v v n v u r p u r p u p x x v p k p u u p x v p v v p p p x p x v M B N B B B v B B v c v v x v v v v v v v n v v v v x x x x p p p p p d p u u k p p p p d p u t r u p u u t u p r t u r e 1 e e e 1 = O > e 4 4 9 h H { X.{ J J W Q @.Q @.@.-.$.$.$.$.#.} } #.+.#.+.#.#.#. .#...} ' ' ' } } @.-.4.0.4.,.:.-.>.-.=.>.>.>.>.:.6.,.>.%.%.>.-.$.s.+.%.%.6.s.3.3.s.s.*.s.%.s.+.s.7.,.-.:.>.>.-.=.-.-.,.4.0.7.6.,.,.,.>.>.@.} +.%.$.$.%.>.3.,.6.3.;.3.4.3.} @.P T ..` ) S d r 3 2 ",
"> < < e p B B x u u t p p p p p v d x x c p x v k x d v v v v B M x x v B v v v n n v v v v v v v x x p p p v B v v v n M v v p p p p x p r u u p p p p p p p u v B B v n v n x v p p k p u u p u t p p p p p i u p x v c p i i g i g w w w > 4 t t r 4 ; % 1 8 8 s s l P 1.r.1.{ $.=.=.-.-.:.,.q.8.8.8.8.8.8.0.j.s.s.t.3.s.j.3.>.>.>.=.-.-.%.$.-.$.=.-.>.>.3.>.3.3.3.7.7.7.7.s.3.7.8.7.4.8.t.8.s.3.6.s.s.s.s.3.3.3.t.3.s.3.t.s.s.3.j.s.j.s.3.s.s.3.3.3.3.s.3.s.4.4.3.3.3.7.7.s.j.s.s.s.s.3.*.*.6.6.>.>.E ' J z ] ` ` b y 7 @ $ - ; > 1 u v M n u u p v v v M ! ^ ( _ ^ ^ _ _ ^ ! B n v x x x d u u p x x k v v p v v u u r p d p p v p p p p p p c B M B B B M v N b v v M v x x v v v v v v v v M v v x p p d x x d u p x x p u p v p p v p r p u u p u p t u p u p u u u e 1 e e e 1 = O ; 7 t 7 8 g G ` [ W J J W | | @.=.=.-.%.$.*.%.$.+.+.$.+.+.$.+.$.#.+.#.+.} ' } +.+.+.$.-.>.4.7.,.,.,.>.=.-.>.>.>.-.>.>.*.%.>.>.>.%.$.;.%.;.s.s.s.s.*.s.3.s.%.+.s.s.%.-.-.,.>.>.,.,.>.-.>.>.4.7.6.>.*.%.>.,.%.$.$.$.-.| $.%.>.,.1.3.7.4.4.3.%.+.$.U T ` P P F a r 6 2 ",
"> < 1 q d B B v u u r u u p p p v x x v v p p v v x x v v x v B v d x v B B v x v v v v p x v v v k p x x x v v B B n v v p p u p t u p u e e u u r u u p p v x v n v x x p p p v x x v u r u p p v v v p p x x p x v M n v x i i w c w 4 4 > 4 t y r 7 : > 4 8 8 s j l L &.2.>.{ | =.=.-.-.3.4.8.4.4.8.7.4.8.8.3.t.s.s.3.3.3.3.%.*.=.>.>.-.$.$.-.%.$.$.>.3.6.6.3.3.s.7.4.4.3.7.7.t.s.7.4.7.s.t.s.3.3.3.3.6.3.3.3.3.3.t.s.s.6.s.s.t.s.s.j.3.s.3.s.s.t.s.6.3.3.3.3.4.4.4.4.4.3.3.3.3.6.s.j.s.s.3.4.6.>.>.` E P S ` ` ) l y 3 o O ; ; < q u v v v d p p x x x n F ( ^ ^ ^ ^ ! F ! ^ B v B B n x x v v v n v v v v u v v x u u p p p v p p v n v p u x v v v v B v v B B M M B B v v d c x p v v v v v v v p p x v n M v p p v n v v v v p p p u e p u p u p p r u p p u p u u e 1 e e e 1 = o ; e 8 7 9 a H `  .I H J W | @.@.=.-.-.%.=.,.>.$.$.$.$.$.$.$.%.$.$.+.#.#.#.} #.#.@.$.=.-.>.3.0.7.,.,.>.%.-.-.:.-.-.>.| | $.=.>.>.$.| %.%.%.+.*.s.3.s.3.s.3.%.s.%.' ' @.=.>.-.$.+.$.=.-.-.:.,.6.,.>.%.$.,.>.%.$.>.,.>.$.%.>.>.>.>.>.*.8.4.3.%.Q $.T J ` I ` T M y 8 2 ",
"; 1 q q u B B n u u u d x v p p u p p p x v v v n v v x v v v v v x v n v v v v x v v n n v v x x c x v v v x x n n v p u p r e 1 e e u u u u t p u r u u p x v M v v v n v v p p u p u t r u u p d p p p p d x x v v x v x u p c c i i t w 4 4 7 t t 4 % > 4 5 6 8 j 0 Z X.&.&.{ | $.=.>.;.,.=.8.4.4.4.*.s.s.*.s.s.s.*.3.3.t.3.%.%.-.>.>.>.-.=.$.*.3.>.;.*.3.6.3.s.3.;.3.3.3.s.s.t.8.4.7.t.s.8.3.6.s.3.3.3.3.3.3.%.3.s.6.s.t.3.3.6.s.s.j.3.6.s.6.s.3.s.3.3.s.3.7.7.4.4.4.7.7.s.t.8.8.4.7.8.8.8.>.>.-.@.W Y H z I  .) m r , % o # ; < < e p v x u p p x v M B x B B B B B B F ! B B ^ B B B n p d v v x x v v B x p p p p p u t p p u p p x x d p d v v b M n v v M v v v v b M x B B v v n n v v B B v p x c x n x p p p p p p v p p p p u u u p v v p u u p p r p p p u p t u u p e < > O = 1 t 5 y k I ` P ..G K W W @.Q =.-.*.>.,.,.4.>.-.-.$.%.,.,.,.%.$.#...' ' $.%.$.+.+.+.=.=.,.,.,.,.,.,.>.>.>.>.>.-.$.%.>.:.4.,.%.$.| %.%.%.%.s.s.s.3.%.s.%.s.+.+.+.s.$.=.$.$.$.%.%.$.$.$.*.,.>.$.+.+.%.%.*.>.>.%.$.$.$.>.>.%.>.>.,.>.3.4.4.+.} ' ` T ` ' ) L b d 7 , ",
"< < 1 q x ! ! B p p x p p x p p p p p p p x v v n v v x d v v M v v v v v v v v v x v v v v x c v x k x v v v x v v x p p t u u e e e e e e q 3 p x p p p x v v v x x x v v v x p p u u u p p x t p p x p v c v p n v v v p r p g i i i w w 4 < 7 t 7 4 % > , 5 2 6 s 9 A $.:.*.{ | $.>.,.,.,.,.4.%.3.3.*.*.s.*.*.s.s.s.3.t.3.%.>.:.>.-.>.-.-.>.%.*.*.>.>.*.>.3.>.3.3.%.3.s.3.3.7.8.8.8.8.8.8.8.3.3.3.s.s.3.s.3.s.3.3.6.s.6.t.s.s.s.s.j.s.s.j.s.s.t.j.3.3.3.3.3.7.4.3.3.3.7.7.7.8.8.8.4.8.8.4.4.:.>.-.@.{ R J Z P ) ) z r , % o O ; ; 1 u v N b u u p k x n v v B B N ! ! ^ ! N v B ! B ^ B B B n x p x x v n n p u u p u p p u p p p x p p p p p x x n M M M B B B v v v v v v d v v v c v v v x b M v x d x d x v v v p p p p p u p p p p u p r p u p p p t u u x x p p p u 3 u u 7 < ; O @ < 7 4 y k P ` L ..H K R Q | @.=.;.>.>.,.,.,.3.:.:.*.>.4.6.,.>.%.$.$.' ' +.#.#.} +.Q } =.;.:.,.,.,.,.>.>.>.>.>.$.@.-.-.>.-.>.%.$.$.%.%.%.%.%.s.s.3.s.%.%.%.%.%.+.s.$.-.%.$.$.%.-.$.$.$.%.>.>.$.+.#.%.%.%.%.$.$.$.| $.%.>.>.,.7.6.,.%.3.4.%.$.$.R D ` ` ) L b d 7 2 ",
"1 < < 3 x F ! B p p v x d p p p x x p i u p v x x v d x c v n v n v v v v x v n x v v v v v p d v v x c d v x v v v x p p p u r r u e e e u u e p p p p x v k x p p d x v v v x p r u u p d x v p p p x x p p x p B B n v p i p i t w w w 4 4 < 7 7 t 4 & % > 5 6 6 0 9 H &.1.>.R W @.>.>.,.,.,.4.>.3.4.6.s.s.6.s.6.*.s.3.3.3.%.:.>.-.$.$.$.%.%.%.%.%.%.*.*.*.*.%.3.3.3.7.6.3.s.4.8.8.t.s.t.8.4.3.s.t.3.6.t.s.6.j.3.t.3.3.s.s.s.j.s.s.3.3.j.j.s.t.t.3.s.3.s.s.3.3.3.3.3.3.7.s.7.8.8.8.8.4.8.4.3.-.-.-.$.{ R H S L { ) b r 2 % o O ; < q u n B B u p x x x v n B M M B F ^ ^ ! B v B ! ~ ^ ( ^ ^ B n p u v n v x y t p u p r u p i u p p x p p p x x v v v B B n n v B v v v v v x x v v v v x x p v x x p p p v p v v v p p p v p p u p p u p p u t u x v p u p u x v c p p e < u u u 1 ; O O < 4 7 g a H W W { G H R Q } @.=.,.6.7.4.,.4.,.2.,.3.6.7.4.,.>.$.$.$.#.' } ..} } } } @.-.-.;.,.,.4.,.>.*.*.>.-.$.} -.-.$.$.$.$.%.%.+.%.+.%.3.3.3.3.%.%.3.%.%.%.%.%.%.*.$.....%.%.*.&.$.*.>.*.*.$.&.=.%.$.%.$.| | | $.>.,.,.1.6.,.>.;.3.3.;.%.$.R Z ' { ] L l y 6 5 ",
"< < < 1 u B B B u p x d x p p c d x k u p p d p x x x c c v v n v v v v v v v v v v v v v v v v v v x x v v v v v v v p u p u u p e e q u d u e e u p p p p p p u p v v v v v v t p p p x x v v d x x p p p p x x B B B B n p p i i t t 4 4 > 4 7 t 7 4 > ; : , 8 6 0 s H 1.1.>.K W | =.=.=.;.,.7.6.4.4.3.3.6.s.*.s.s.*.3.3.%.%.-.$.$.$.@.X.$.$.%.%.$.#.%.*.*.;.>.3.3.3.s.s.7.s.7.t.f.f.f.t.8.8.s.3.t.s.s.3.3.3.s.3.3.s.s.6.s.s.s.t.j.s.3.s.3.j.s.t.s.3.6.3.3.3.3.3.3.3.3.7.3.s.8.8.4.8.7.4.3.;.>.>.-.$.} R J Z I ) I m y 3 : % % ; > 1 u v M v e p d x x v n v M B B ^ ( ( ! B B B ! F ^ B ^ ! ! n p u p x d p u u p p u t u p u u p x d p p u x x v v M M B v B B v v v v v v x x v v B v v p p p p p p p x x p p v x p p p v k p p x p u r t u u u v b x u p p d x p u r e 1 r t u 1 < O O > 4 7 h y G  .[  .H K W Q } =.-.0.0.7.4.,.,.4.0.0.7.7.0.7.>.-.=.@.*.#.} #.#.+.+.+.} $.-.,.-.-.,.4.,.:.%.%.>.-.$.} $.$.$.$.$.%.$.%.+.%.%.%.3.3.3.%.s.%.#.#.%.%.%.+.%.$...| | ..%.*.$.&.*.*.>.*.*.>.>.>.:.$.$.$.$.$.*.>.>.>.>.,.>.*.4.3.;.$.$.+.R S .... .L f r 7 3 ",
"< < < 1 e p v v u u t p k v p p p x x p p p p u x d x d v v v v v c v v v x x d v v v v v v v v n v x v v v x x d v v p i u t u p u u u u p u u 3 e p p p p x p p x v v v v v n p u p p x c v v v v x p u u x v v B B B ! B v c c i i w w 4 < < 7 t e 4 > % : 2 8 6 0 a H :.1.1.P W | $.=.=.=.,.4.3.3.7.>.3.3.*.s.*.s.6.3.%.%.%.@.$.$.$.$.$.$.$.$.%.%.%.#.#.%.3.%.3.*.s.s.s.6.j.f.s.s.f.t.8.8.8.6.s.s.6.t.3.3.3.3.3.3.3.s.s.j.j.t.6.j.j.j.3.s.s.s.s.3.s.3.3.3.3.4.4.6.;.3.3.4.8.7.8.8.7.7.3.3.-.>.>.-.$.} T H Z )  .) m g 5 : % - ; < 1 u p v v u p p p v B B v B B F ^ ( ^ ! M ! B ^ ^ ^ B B B B n p u r p p u u p p p u e u u p r u u u p p p v v v v v M M v M B n v v v v v x v v b b v x p p u p p p p p p x d x d x x p p v v p v v u u p u e e k M p r u p p d p u r u w i p u 1 < O o , 4 5 h h G X.X.O.J K | | | =.,.4.8.7.2.,.,.0.0.u.0.y.0.4.3.>.-.@.#.+.} $.@.+.+.@.} +.=.=.=.=.=.;.>.*.$.%.>.:.-.$.| @.$.%.%.%.$.@.+.%.%.%.%.3.3.3.3.%.%.%.%.>.%.%.&.#.#.#.+.#.$.*.*.>.&.*.>.1.,.,.>.>.=.%.$.%.=.%.>.,.>.>.>.>.,.>.8.4.;.$.+.| R J .... .H d 7 3 3 ",
"< , < 1 r p v v u u u p x x x p p p p p x d u u p p x x v v v v p p p v v v x x n v v v v v v v v v v v v v v x x x d u u u u u p p u p v B n p e u p v v v v n p p v v n v v x p u p p x k v p v x p i p p d n v v v B ^ B v x c g i w 4 4 4 ; e 7 e 7 , % ; 3 6 6 0 0 H X.:.2.W } | =.=.;.,.,.3.>.3.4.>.3.3.3.1.s.6.3.t.%.%.%.$.$.$.-.-.-.$.$.+.%.%.%.%.#.%.3.%.3.3.3.6.s.6.7.t.f.t.s.8.4.3.4.3.3.3.s.3.s.s.s.3.3.3.3.t.3.3.j.s.s.s.s.s.s.t.3.t.j.3.3.s.3.3.t.4.3.3.3.3.6.4.4.7.4.7.7.7.4.>.-.>.:.>.@.{ R P H  .` K Z p 8 , % O > < 1 u v b n u u p d M B B M ! B ! ^ ^ ^ F M B ^ B ^ F B ! ^ B x p u u u p v p u p r u u r t t p u u u r p p v v v v v v v v v M v M v p v v v x v v B v x p d p p p p u p p c x p p v v v p p p p x v p p k u e e p v p p u p p p u u u u e p p u e < O O ; 4 8 k h L O.O.:.K W | | =.>.,.0.0.7.7.4.,.0.u.u.4.0.q.0.,.,.-.=.} ' } #.@.+.} @.@.$.$.=.=.=.-.;.>.%.%.-.>.>.-.$.| $.$.-.%.$.#.| +.+.+.%.%.%.%.%.3.3.%.%.;.3.%.$.%.$.$.$.$.$.$.*.:.>.>.>.=.1.,.:.%.$.$.$.$.%.%.=.>.,.,.,.>.8.8.8.4.4.%.%.@.} R D { { ) A d r 8 7 ",
"1 < < 1 u x v n t u u u p d p p u p p p u p p e u p x v v v x x x x x x v x v v v v x d v p v v v v v v v v x d p v p p u p p u u d d p n B F B u p v n M n M B v p x v v x p u u i r u p v v p x p v x p p v v d M v v B B x x i i i w 4 4 4 > 7 t 7 4 : % % 5 8 6 0 0 Z $.,.2.W } =.=.=.=.;.;.3.3.3.6.3.3.s.3.1.3.6.j.3.3.3.3.%.%.%.$.-.=.$.-.#.%.%.%.%.#.%.*.*.s.3.3.3.s.3.s.8.8.t.f.8.4.4.8.3.3.s.3.3.3.s.3.s.3.%.3.3.s.3.s.t.s.3.3.j.s.t.s.s.3.3.3.3.s.3.s.3.3.3.>.;.3.4.4.8.7.7.7.7.4.3.-.-.>.-.| Q R K H  .] I G k 7 , ; O ; < 3 u n B B w u x x M F B B B ! ! ^ ! ! ! ! B B B ! ! B B ^ b v p u u u p d u u u u u p r u u r u p t p u u x v x v v v b v v b n n v p x v v x x v n x p u x p u p k p p p v v v v v v x p k x p v v p p x u u p p c v v p u p p u r u u 1 k v u e 1 O O < 4 8 h v I O.O.1.K W | | =.,.,.0.y.0.0.,.7.0.0.0.4.0.0.-.=.-.;.=.+.} } +.+.} | @.$.$.=.=.,.4.7.4.$.%.%.=.-.%.$.$.$.$.%.$.$.$.@.+.+.+.+.%.%.%.3.%.%.%.%.%.%.%.%.$.*.$.&.*.*.%.$.*.*.*.*.*.%.:.:.=.$.$.$.$.%.$.=.%.>.>.6.3.6.0.p.y.4.;.;.%.@.Q T J { ' / B d y 8 3 ",
"1 > ; 1 p n n v u r p p u u p p p p p u u p x p p p x v v c c d d x x d x v v n v x x p p p p v v v v n B v x p p x x p k v v x p v x u x N B M u p v v v v M b v p x d x x r e u e e i p v v p v v v d p p u p x v M n B v p d t w w w > 4 > 4 e 7 e 4 , % % , 8 8 a d S &.r.i.R | =.:.;.=.;.;.3.%.3.3.3.3.6.6.*.3.*.6.j.3.3.%.-.-.%.$.$.$.$.$.$.#.#.%.%.%.%.%.%.*.*.*.s.6.*.s.8.8.f.g.t.4.4.8.j.3.3.3.3.t.3.3.3.3.3.3.3.3.3.s.3.3.3.3.3.3.s.s.t.3.3.%.3.3.3.%.;.3.>.;.3.4.4.8.7.8.7.7.5.5.3.:.-.-.%.} { W R I { ` P G d 5 , ; % ; < 1 u v M M q r v M M B ! ! N F ! ! B N F ! ^ B B B B N B ^ ! B x p u p t u r e e e u u u u e u u y p p u u p d x x v v v B x x B v v v v v v p p v n v p p x p u p c p x v x v M n v p v v c x p v g p u u e u r t u x v g p p p u i u u 1 v v p u < = O < 4 8 k l I O. .<.K R | =.=.,.0.0.0.0.0.7.4.4.2.4.,.7.;.@.| =.-.=.$.+.} +.} } @.-.@.@.@.=.,.2.0.5.$.%.:.-.$.$.$.$.-.%.$.@.| | @.$.+.+.%.%.%.%.%.3.%.%.%.%.$.%.#.#.$.$.$.>.*.&.$.&.$.*.*.$.$.%.=.$.$.$.%.$.%.$.%.%.>.,.6.6.6.t.8.7.4.4.%.+.} E T P ....` F l s 8 7 ",
"> < ; e e u n v u u p r u u v v v p p p p u p p p p p v v c v v x v v v p p v v v p u d v p p p v v v c p x v p x x p p d v v p p p p x p p p p p p p p p p n M v u p v p t r i u t u p u p p p c x p p p p u v v n B M v x u u t w w w 1 1 < ; q e e 1 ; O > < 3 y 8 a S ' 1.2.` } %.:.=.=.;.;.,.;.,.,.,.,.,.4.-.=.:.,.,.0.;.,.$.$.$.$.@.@.$.$.$.$.$.@.$.%.-.-.%.;.3.3.4.8.8.8.8.8.g.f.5.8.g.t.6.y.u.y.6.>.3.6.8.,.$.$.>.1.,.>.3.s.s.3.0.4.5.4.4.,.-.-.;.;.,.;.>.,.,.>.%.-.:.3.>.,.,.,.4.6.4.,.=.=.=.| } { I K &.] / F f r : @ O ; < < q p n p u u v b B B B B ! F ! B B B B B v B ! F B B B B ! B v v d p u u i r e e e u e r i u u u t u y u v d d p p d v v b M B B v n v d n x x v v v d x p x v x u u p p n v v p x v v v n x p p p p p r u u e r p v p v g p p u u p e 1 p x p u < - ; , 7 6 0 l z J ` ..K R @.=.>.3.8.u.y.8.4.4.7.7.0.7.,.:.=.-.-.,.-.=.$.@.Q Q =.@.@.Q | Q =.;.,.-.-.;.$.:.1.=.$.$.$.X.| X.| X.X.$.X.| +.+.+.#.+.+.%.%.%.+.+.+.%.+.%.%.@.| =.=.=.| | =.| } | | =.=.=.$.=.=.$.$.=.=.=.=.=.,.7.,.,.0.y.7.s.4.4.$.Q Q K J 1.#.` F b r q 3 ",
"< < > 1 e p B v u p p t p v v v k p p x p p p x p p p v v d x v x c x p x d c v v p p c v v g x x v v d v v v p x d p p c v v x v v c v v p x p v v v p p p p x v p u v x r u u u u p p p u p v v d x x d p p v B B B M n k p u w i w w q 1 < > q e e 1 < ; < 1 3 8 3 s f P <.$.} X.-.:.=.=.=.=.=.=.=.:.,.,.;.-.,.4.4.0.,.,.,.;.>.-.$.$.$.%.-.-.-.-.%.%.-.%.%.%.;.3.4.8.8.8.t.s.8.t.f.8.3.4.8.8.0.8.8.6.6.,.,.,.6.>.$.$.%.>.>.>.%.3.*.%.-.-.-.-.,.=.=.=.=.=.=.=.%.>.>.*.%.>.,.>.4.,.>.>.,.3.>.%.=.=.=.=.} { I J 1.&.) D v r 2 : ; > < 1 7 p M x p p p p v M B ! B ! B B B M B B ! ^ ^ ^ ! ^ ^ B B n v p p u u e x u i u u i u u e e r t u t u u p p p p x c x c v B M M M v v x x p p x v x c x v v p p p p p x n v p x p v p v v p p p p p r u u u e u u p p p p p p u t u u 3 p p p u 1 - = % 7 8 s j l P } R K E @.-.>.3.7.8.0.0.7.4.4.7.,.,.,.-.$.=.-.-.=.@.=.+.} @.@.@.@.Q =.=.=.-.,.,.-.:.X.$.=.=.&.$.$.$.} } } } } } } } +.+.+.+.%.#.+.%.+.+.' +.+.+.+.+.=.=.@.=.,.=.=.,.$.| | | =.=.| | =.$.+.@.=.;.-.;.-.-.,.,.>.,.4.0.7.4.4.$.} Q J J 1...` D A a r r ",
"< < < < 3 p B u p p u u p v v p p u i p d x p p p p p v v p p v p d v x x p v v d u u p p p p u x v v p p v v p c p x v v v v v M M v v v v v x v v c x p p d x x u u p p u u p u u u p p p p x x v p v c p p v B n v v n x u 7 i e w w 1 1 1 < e e e q < ; < , 3 3 8 d a F *.' ..$.-.;.=.@.=.@.=.=.=.;.4.,.-.=.;.,.4.-.=.-.-.=.3.%.@.Q } } } } $.$.@.$.$.| | | %.%.-.-.*.3.4.8.s.t.f.t.3.>.4.3.y.7.>.>.3.7.,.>.,.>.%.$.$.%.%.%.+.s.#.#.$.=.=.%.=.=.@.@.@.=.@.@.@.$.-.$.%.%.>.1.3.>.>.>.>.:.$.@.@.=.$.@.| Q R P t.&.` F f r 2 2 ; ; < < < u v p p u u u u x B B B B B B n M B B B B ! B B B B B ^ B v p p x p p u u u 7 7 q e e e e e u e u u u u u u p p x x x n v n v v v x x p p v v v v v v v p d x c v k x v v p p d x p p v d u p p p p t u r u u p p p p u p d u p u e e v p u u 1 > ; % 2 s l s j ` { J K W +.$.-.,.4.8.8.7.2.4.4.4.4.4.,.-.-.-.-.=.$.} =.=.=.@.@.@.$.@.=.$.@.=.-.-.=.=.=.=.:.=.:.:.*.$.X.X.X.| } W } ' +.' +.+.#.#.#.#.+.+.' ' ' ' #.+.} } } $.$.X.=.=.| | | =.| | | $.=.@.} | $.-.3.3.>.-.>.7.7.:.,.u.3.;.4.%.| } Y T *...P D A f 8 6 ",
"< < > < 1 x B u u u u u p k v u p u u x p p p p u p p v p p p x v p p c p x p p v v p x v v c x p p v p p x v p x d p x x v v n v v c d p v p x p d x p p x v v p r u u u u r u u u r t p p p p v v v v v v v v B x v v v p u e e t w w q 1 1 1 3 e e 1 < ; > , 3 3 y d y J 1.P W } X.=.=.=.=.=.=.$.=.;.,.,.-.=.,.0.0.,.=.;.-.=.>.$.} Q Q Q } E +.} +.@.$.%.%.$.%.-.-.>.3.3.4.8.t.8.s.8.3.3.4.>.6.>.%.>.,.3.>.:.%.>.%.$.$.| | $.%.#.#.#.$.%.%.@.@.=.@.=.=.@.| | } @.$.$.$.$.%.%.*.$.#.$.%.%.@.} Q Q } } } W R T r.&.] F f r 2 : % - ; , > u u u u r t p d v n B B B B v v M B B ^ ! B B ^ ^ ^ B B B v c p p x p p p u e e e u u u r u u u e u r u i p p x c d x v v x v x x d x p p v v v v v v v p p p p p x v v v v v v c v p x p p p p p p u u t u u p p p p u x v p r u e 1 x d p t 1 ; ; % 2 a l s j ` } H K E | @.=.,.6.7.2.,.,.,.,.,.:.:.-.=.-.-.-.=.=.+.@.@.@.@.Q @.@.=.$.@.@.-.2.7.>.=.:.=.$.X.%.=.%.#.| @.$.} W R R E ' ' ' ' +.#.+.' +.' +.+.' E +.+.@.=.=.=.=.=.@.=.$.=.| | $.| $.$.-.$.@.| $.=.:.-.-.=.:.,.4.4.7.u.4.=.>.@.+.+.Y P 1.../ F A f r 2 ",
"< , ; < 1 p n q t u u e p x p t p p p v v p p p u u u d p p p v p d p p p p p p p p u p p p p p p p d p p d x p p p p x v p v v v p p x d c k c p p p p p v v v t r u e u e u u e e e u r p p p d v v v v v x v x x x v p u u u t e e 1 1 1 1 < e q q 1 > ; < < 7 7 y d 9 H X.H L W } | $.=.=.=.@.| } | $.=.| X.,.,.=.X.=.=.| W } R J U Y Q Q W T E } { } ..$.| $.$.$.$.%.%.>.3.4.>.6.6.>.>.>.*.>.:.=.:.>.*.*.$.X.$.$.$.$.} { } ' ' ' ' ' +.} Q Q Q Q W Q Q | Q Q | @.| } | @.X.} { } } } } } R Q W Q W R P P P &.o.] F d r : , ; O < 1 1 e u e q e t u x v v v M B n n v v M B B n n v B B B M B v p p u t p p p p u r e q e u u u r e e e e u e u u p d c x p v x c v x p p p u d v v k x d c u p p p u u p c v v v v v v v v p p p p u p t u i r u u p x p p p d x u u 1 e 1 p p p u 1 ; ; < 8 9 s s j K { J P R } | $.>.7.6.:.>.:.,.-.=.=.=.@.$.X.=.=.=.} } Q } } Q E W } | Q Q } =.-.,.=.$.$.$.X...{ #.{ ` { } { ` J J J U T T T E +.' ' ' } } } } E E ' +.X.| $.X.X.| | } } } | } X.| $.$.@.@.} @.@.=.=.=.| -.,.:.:.,.7.,.4.=.-.$.$.| T J *.#.` F A f r : ",
"< < - , 1 e p q r u u u p p p u k p p v x p u p r u u p p p u p p p p p p u u u u u u u u t e r u p p u t t p u u p u p u u u p p p p p p x v p p p u t p p p u u u e e e 7 e u 7 e e e u u p r x x v x p v p p d x p p u e r i i u e 7 < < ; < 1 q 1 < ; ; ; < 5 2 8 d 8 k L j P P W } | } Q Q Q Q W W Q { } | } } { Q } } R H K H Z H J Y J K J J J I R R R R E E E E ` ' | #.$.+.$.%.$.#.$.$.$.$.$.$.#.} { } } } }  .' E E E ' ' E T ' D E T W K W Y W Y Y K Y W { R R R { W ` } ` Q E R I K Q W R K J D S S &.] ] D b r 3 < @ O ; < < 1 r 1 q 7 e u u p v v n v x x x x v n x v v p p p d u x p p u u u r p u u e e 1 1 1 e e u e e e e e e e u p d x x v x x d p p p p p r u u u u p u p p u t p u e e u k p p x x x d p p u u u u p u u u u u e u u k p p t p p u e e e q u p p e < O ; , 8 6 9 s j H I J P E { } $.>.>.%.=.=.=.$.$.=.X.=.| | | X.@.@.| } W W Q Q R R W } W W Q Q } =.} { $.X.} ` R ` ` T T T T J J D D J T T T T ' E T T T U P U D D D E K R R R E { R R W W Q { } } } } Q Q Q } | @.| X.@.:.,.-.%.,.,.:.4.=.=.$.$.X.P J &.&.] / F A r r ",
"< > - 1 1 < u 1 q r r u r p u r u u i u p r u t u e u p u u u p p p u u u u r u u p k p p p p p t p u u u u u e u u u u e e u r u r i u u u u u r u u e u u u u u e e e 1 e e w e e q e u t r u u p p p u p u u p u u r u e e u e u e 1 < ; ; ; 1 < > ; O ; < , 2 2 4 y 9 y z y H H K K I K K K K K K K K K I W W W { =.=.} K J J J J H J J J J I K K K I E ` R R T R R R E { +.' T ' | ` E ` R ' { { { ` R R R R T K P P U T T T T T E D D T U J H H V H H H H Z H J H S Z H H J J K P P J J J H H P J D S A A ] ` / F b e 2 : @ O = > ; < 1 < 3 q 1 1 1 u u u p d p p p p p x v B B v x v d u u u p r e e r u u u i u r w e u 1 7 e u u e e e e e u p p p p p p p p p u u u e u e e u u p u t u u t r e e r u u p p p p u u u u e u u r e e e u e e e u p p p p p u e 1 e q < p i u e < ; ; , 6 9 s h h z S z J T ` ` ' #.$.+.} } } } W { } } } } } } } W Q W R W W Y R R E E Q } } } } | | } { ..' I J J J J J J H S S Z A S V A D T D T T T S Z S D D D D T J K I R R { W I P I R R { { W R K W W W { Q  .} | X.$.@.X.$.*.>.:.@.=.X.} { P P <.&...] A f r r ",
"< ; = 1 1 > w 1 1 e u u u u u e e e e e u e e u t u t p u e r u p u u r t u u e u u u e r u u u t u u u e u u e r r u t e e e u u e u e r u u e e e 1 e e e e 7 e e e e 1 e e e e 1 q e u u u u r u u u u r t u p q 1 q e 4 < e 1 1 < < > > < 1 1 < > - O % ; < , 5 4 y d 9 h j j z z H H H H G G H J H Z H H K z z K { Q K G H j j h h h h j z z z l z Z S S F J D D D S J L R ` P T ' T P J J R R K T P T R R P J Z Z Z D J J D D D D D D D V V G H z V z z j h j j h h j z z s h z z l l z Z z z H H D S A f ` / / F d 8 , : > = = ; ; < q 1 < < < 1 1 1 1 e u u u u u r i r u p p p u u u e u e e e e w q e e e e 3 1 < 1 q u u u u u e w 1 e e t u u p p p u p p p p p u e e e e e p p p u u u e e u u u u u p x d t u u e e 3 e e e e e w e 1 3 e u u p i v p u e 1 1 1 < d p e 1 < > ; < 5 9 l l h l z 0 S P R T ` ' ` D Y R R K K K R W K W K K K K J K K J J J J J J J U Y R K K W W I I I P S l z z z z z j j j l l l f C A D D D A T z l l C A D D D z H J J H J J H I K I { { { I P I K R K K K R R W K K W R E { *.$.} =.| { K H I <.&.O.] A C r 3 ",
"< > ; ; < ; < 1 < 1 u u e e u u u u r e e q q 1 u e e e e e r u e e q u r e e q r u e e 1 e u u r u r p u u u u u p p v v d x p p v n v d u p x p u e q e u 7 q q e q e 3 w r w 3 e 1 e e e e e e e u u e q e e e e 1 < 1 e 3 q < < 1 < > ; ; < > ; < ; O   = < , 2 8 y k y a h y z m l Z L S l z h k k z h l G 8 h G J J G z j a y 9 9 a h h k h l b n j z z H H F S F J P P I ` &.e.<.&.<.*.&.&.' #.e.j./ 6.*.#. ./ D / D D C j G G G G G j G j j G h a h h 0 y a h h 9 9 h j h k k y s b m l h z z s j z l k ` / / F b r : % O O = ; > ; ; 1 < 1 1 1 1 7 q e 7 e e u u e e e u u t u e e q 3 3 e u e 1 7 e u u u e w 1 < 1 7 q u i p u e e e e p M B n v B B B B B ! B p u n p u x v n p p p e u u u u u e e u u u r u u u u e u e q q q e 1 e 1 1 q e e e u p u 1 < 1 e q 1 i e e w < ; < 7 4 8 h z k h k z D A C A D ' / D P P P P P P D S J K J S J J D J D D D D D D S J T J S J T P P T P L F F D S A z S A S L T ) S l H ) )  . .`  .) H I ) L H L H z z Z S S S S H P P H H P P J P K J H L P T P R ' P T R T T ` ' ` ..| } R P K K K ..] ` P F f 3 3 ",
"- O O ; > < < 1 1 e u d p x v v B N N v v v v v p u p u u u t u p p u p x x d t i u u u u u p x v n v B M v v d x v v v v n v v p v v v x p u p u u e e e q q 1 1 w e u u u u u p p u p p p p p p p x p u t t u u p u e e u u u 1 1 < < ; = O O ; ; ; ; = O ; , ; & 2 8 r 8 5 9 h m P P P ` ' ' z K { { ` P K K  .L z z H K J G H m z m H L L P L P P L H H L I ` ' ' { ` R P I ) ..*.&.&.&.1.&.&.O.&.*.p._ 1.*.....' D D D S S G J W R K R K I K K I H G V V G m m z z z z z m z H P L P ` ` P z H S l s k h y P L F M d 3 : @ O O O = = = = ; 1 e q e u u u u p p p p p p x v x d v p u p u p u i u p u u u p u p u r w e u u p x v n d p p p p p v B B N B ! p p v B B x x n v v v M n v x p r t p x v d x v M v v v v v v d p p u p u r u u u u p d x v v p x p u e 1 1 1 < w 1 1 1 > O ; < 5 9 k z k h z z ` / / ' ..$.&.O.#.$.*.*.$.#.' ' P { R P R R T ' ' ' { } ....X.&.{ #.#.....$.*.&.#...` ` T ) T ` .. .' ]  .' ` ) I  .` X...I  .` ` ` { ) ) P L H m H I { ..| { ` $.O.X.X... .`  .:.*.&.>.>.*.1.6.*.1.1.1.6.t.e.*.R ` ` { P J H z ` / / F F A y r ",
"> ; = O ; ; ; ; < q u p v n n B F B B B B n B v v v c v k p u p n p p p v v v u p p p p p k x n B v v v v n v x k c x p x x v n x x p p p u e q u e 1 1 1 q < < 1 7 q e u u u u p u u u p p p p c v v v p p p p u p u e e u e 3 e 4 1 < < = = o ; = O = O = O - > > 1 r r r 8 9 h b P ` ) )  .#.W ..O.) H J I L  .{ ) I J P I ( L H L H H L P P ) ) P P L L L H L I ] ` ) ) `  ./ ` .. .O.&.&.&.&.....#.*./ &.O.` ' ' D A C f A V W |  .R R I I H I I L J V H G H S S m z z z k m H L P I ) / F H P L m b k d 8 F M b d e , @ o O o O O = O = ; > 1 1 e e u u u p u p u p p v v p v p p p u t p u u u u u i p p p k p p u u p p p p x d p u u p u p d n B B B B x n N B b v v v d x p d p u u u p p p k x k v n v v x x v n v v d x d p p u u u p p v n M n x p p p u q e < > - < > < < ; O O ; 5 9 h k k h j z ) ] ..#.#.&.&.*.'  .X.X...' '  .{ X.X.{ ' ` ' O.......X.$.&.*.:.' &.<.O...X.&.&.&...) L L P ] ] .. . .] ] .. ... . ._ &.O.) ` ] S S L H H b k z m H I { X.O. . . . ...O.O.X.X.&.X.X.&.&.<.1.2.r.e.2.2.6.y.y.2.$.6.r.2.<...I H j ] / D / L l 7 2 ",
"< ; = = = - = ; ; > e u p p x v x x p p p p x c v k p v x p u p u u e e u t u e u u e e e u u p e e e u u u u e u u u e e e u u u r u e e w 1 ; < , > < < > > ; < < < 1 1 1 7 1 q 1 < 1 e u u e u u t r r u e 3 e q 1 1 , < < ; 1 < < > < ; = O ; = O o o   o O > : , r y r p y h k F P F m F ) X.X.[ H k z G L L )  .{ P L I I ) I L H B H F L ] ) ) P L L L L C M S S m S / ` F P F / / ] ] ] O.&...] O.D ..] A A D C C a s f G J K G j G h G h k k k G G G V L F S B m m b l b S L H B L A f z Z S z k f y 8 v d y y 1 : @ O =     O O   O - ; < 1 e e w e r e e e e u r u t r u u u e r e u 1 e u r e w e r u u u q 1 1 e e q e e e 1 e 1 e 7 q e u u p p p p n B v x x p e e q e q q q 1 q u u u u u u u u e e e e u v p p u p p t u u e q u t p p p u e 3 e e 1 1 < > > - ; ; ; ; = O # ; , 7 y z k k k k A F / ] ] ) ] O.` ) ) T `  .&.&.&.&.X. .` R P ` { ..{ ' { ........&.>.&.....#...] ) S k k z F P L H L S S F P / P P L ) ) m F S k d k b b k k z z z l Z S H L H z z H )  ...O.&.` { ..X.$.&.1.<.1.&.&.&.<.&.X.) P P H J H H G z ' ] F A m a 2 & ",
"= = O O O ; ; ; ; < 1 e u u u u u u u r r i p p u e e u u e 1 e q q 1 1 1 < < < > < < > > 1 1 1 1 1 1 1 1 e 1 1 < 1 1 1 1 < 1 < q 1 < < < > ; O = O O = - = = O ; O O O O ; ; > < ; ; ; 1 q q q q q q 1 q 1 1 < < < > > > ; ; ; O O o O O = O O = = O O     = 1 % % : 5 7 e 8 8 k k b H F v l F  .) ) ) ) H G G H n d h n m b k k z k p y y g d d y p r p y h y b l d d d f l b M b l d A A A b C A A f A r f 0 0 a s a h 0 9 a 0 h a y y g h a y y y a 0 G h 0 k k k k k d k y k k k k f f p r r r r r y r 3 3 8 3 3 , & % O o       = o   O = < < 1 q 1 1 q 1 q q q e w q 1 1 < 1 1 1 < < 1 < 1 1 1 1 < 1 < < 1 1 < > ; > > < < < < < < < < < ; < < 1 1 1 q e 1 u u r q e q < < 1 1 1 1 1 1 1 1 e e 1 1 1 1 1 1 1 < 1 e u e e e e q e q 1 1 1 1 q e q 1 < < < > ; ; = ; O = = ; O = O =   = = & 5 9 k k h a h v A F F D F /  .T D F D T  .#..... .T D P D A F J D D D S D D D z A A F C z l C S b f s d s k k f l f s a y a d p k p y y r y 2 8 8 r d k y k k d a 9 9 9 9 y a z k k m P P ) ) T T ) R ) ) ) ` R T P L L J D Z S A A A H J K P I L j a h 9 * & ",
"= ; ; = O O = O = = < < 1 1 e 1 w q q q 1 < 1 1 < < > < < > > < ; ; < ; ; O ; ; O O O = ; ; ; ; 1 < < < < 1 < < ; ; > < < < > ; > ; = ; ; O O O O O O ; ; ; ; ; ; = O O o = = ; ; ; = @ = ; > ; ; ; > ; ; ; ; - ; = = = = = = ; O O O O O O     o O   O   O ; 1 % % % : , : : , r r y k l k b A L z G L G k h 9 9 5 4 * , 5 7 6 1 , 2 , , , , 5 5 7 7 r r p p k a a a y d y y 8 f f d y r f y y f A A C f f f a y a 0 y a 9 9 8 a a y y y g 9 5 9 t 9 5 5 9 9 5 3 5 7 7 3 7 3 3 4 3 3 1 3 3 3 3 : 3 3 2 3 3 3 : : : < : % % o         O O     = = - > ; > ; ; < ; < < < < < > ; ; ; ; ; = ; ; ; = O ; = % O O O ; = = O = ; ; ; ; @ ; ; @ ; ; ; ; < < < < < 1 3 < 1 1 < < 1 1 ; > < < < < 1 1 1 > < < < < > < 1 < < > > < 1 < > > < > ; > ; ; ; ; ; ; - ; - ; ; O O O O o O O O O O O       O O $ * 5 0 h y 9 y f f F A A F D D S A z A D D A z C Z j 0 b z l l 0 s a a a 0 s s l f l Z S V C A k s a a y y y 9 8 a a y 8 8 6 y , y 7 5 1 7 t : , , , 4 7 4 7 r y 9 y 9 9 9 9 9 b k h k l l k k f l l l l l C f j s s s s 0 s s C z z z V j k j G z a 5 7 5 & $ ",
"> e p e < = o   O O O = % ; ; - ; ; ; ; ; = = = > ; ; ; ; = = ;   = O = O O O = O O O = = ; = = ; ; = = ; ; ; ; ; ; ; ; ; ; ; ; ; O O O = ; = - ; = > < < < < < < < ; = = = = = O O O O O O O = O O ; - O = = ; ; - = = ; = = ; ; ; ; ; = O = =         o O ; < % % % : : : : & , 2 7 7 8 8 9 9 y t 7 7 4 5 , 4 * 4 7 5 * & > 4 1 4 8 7 7 7 7 e , 1 , , , , 4 5 2 3 3 8 7 3 7 3 r r r r r 3 6 r r r s 0 8 0 3 r a 0 0 0 9 9 9 9 t a a t 9 5 5 * 4 4 4 5 > > * * , 4 7 5 1 1 4 5 , , : , 2 2 2 3 : 2 2 2 3 3 : 2 , : > > : : ; % ; ; ; ; ; = ; > O = ; ; ; ; ; ; ; > ; ; ; ; ; = ; ; ; ; > ; ; ; O O ; ; ; O ; O o O o O = O = = = ; ; ; ; ; ; @ > ; ; ; ; < < < 1 1 1 < 1 < < > ; < < > ; < < ; ; > < < > < < > ; ; ; O ; O = = O = = = = = ; ; O = = O O o O ; ; ; ; > ; = = O O = O O O O # # # & 2 5 9 5 7 8 0 d d f d d f f l s f f C s 0 0 0 a 6 0 s s 0 0 0 0 0 0 0 0 0 s 0 0 a 0 0 s a a y y 8 3 3 8 6 7 2 2 3 3 7 6 6 8 , e 1 5 5 7 r 1 4 7 8 r r r t y 8 8 6 9 a y 9 9 y 9 9 y a 8 8 a a s j s s j l s s a a a a 0 a j 0 0 s l G G m z h j 9 2 * * $ o ",
"< u b v i 1 < = O O o o O O = O O O O - = ; ; ; > - O ; = O = - o O O ; ; , ; ; < ; ; - = = O   O o O o O - @ O = - O = O O O O = ; O = O = > < > < 1 1 1 q 1 7 1 q 1 1 > ; O O   O = O O o O ; O ; < < ; > < < 1 ; ; ; > ; > < < < 1 < ; ; ; < ; = O = ; = ; ; % % % % : : & , : , , : $ & * 4 * 4 7 * * * 5 4 7 4 > * 4 7 5 5 4 7 7 e e 7 7 r y y p r 5 , , 1 2 2 7 3 : 2 3 6 , 2 2 3 2 2 3 2 2 2 6 6 2 2 2 6 8 8 0 8 8 9 9 9 8 9 5 4 4 * 4 > * * 4 * * % * * % : , , : ; : , : % % % - - : - & & : 2 : , : 3 : 1 1 7 7 7 e 3 q q q e q 1 > < < < 1 1 1 1 1 q q 1 1 1 1 1 q q 1 1 q 1 < < < < 1 1 1 1 e e e e u u u u u u e e e e e 3 q q 1 < < ; O = ; < > > ; O - ; ; ; ; ; - > < ; ; > < = - ; < ; ; - ; = ; ; ; ; = ; - = > ; ; ; ; > < < ; ; > ; = O ; ; < < q 1 q 1 < ; ; ; ; < ; < > # & $ * , 5 , 4 7 3 3 3 r r r 3 2 0 8 8 8 6 6 0 6 8 8 0 2 9 6 2 9 6 6 2 6 8 6 6 8 2 0 s 9 2 0 0 2 r 8 3 2 3 2 2 2 2 2 2 & , , , * , , % , 4 , 5 1 4 r t 7 e y p r 8 6 2 2 7 9 7 5 6 8 9 y 8 7 6 y a l l s s s s a s 0 0 0 0 2 6 9 h s 0 0 a h a 9 8 y 8 , * & $ $ "
};
