/* XPM */
static char *_764591067197[] = {
/* columns rows colors chars-per-pixel */
"700 700 215 2 ",
"   c #080807",
".  c gray3",
"X  c #0B0B0B",
"o  c #0C0C0C",
"O  c #0D0D0C",
"+  c gray5",
"@  c #0E0E0D",
"#  c #0E0E0E",
"$  c #0F0F0E",
"%  c gray6",
"&  c #100F0F",
"*  c #10100F",
"=  c #101010",
"-  c #111110",
";  c #111111",
":  c #121211",
">  c #121112",
",  c gray7",
"<  c #131212",
"1  c #131312",
"2  c #131313",
"3  c #141413",
"4  c gray8",
"5  c #151514",
"6  c #151415",
"7  c #151515",
"8  c #161615",
"9  c #151516",
"0  c #161616",
"q  c #171716",
"w  c gray9",
"e  c #181817",
"r  c #181818",
"t  c #191818",
"y  c #191918",
"u  c #181819",
"i  c #191919",
"p  c #1A1919",
"a  c #1A1A19",
"s  c gray10",
"d  c #1B1A1A",
"f  c #1B1B1A",
"g  c #1A1A1B",
"h  c #1B1B1B",
"j  c #1C1B1B",
"k  c #1C1C1B",
"l  c #1C1B1C",
"z  c gray11",
"x  c #1C1D1C",
"c  c #1D1D1C",
"v  c #1D1D1D",
"b  c #1E1D1D",
"n  c #1E1E1D",
"m  c #1E1D1E",
"M  c #1D1E1E",
"N  c #1E1E1E",
"B  c #1F1E1E",
"V  c #1E1F1E",
"C  c #1F1F1E",
"Z  c #1E1E1F",
"A  c #1F1E1F",
"S  c #1E1F1F",
"D  c gray12",
"F  c #201F1F",
"G  c #1F201F",
"H  c #20201E",
"J  c #20201F",
"K  c #21201F",
"L  c #20211F",
"P  c #1F1F20",
"I  c #201F20",
"U  c #202020",
"Y  c #212020",
"T  c #202120",
"R  c #212120",
"E  c #202021",
"W  c #212021",
"Q  c #202121",
"!  c gray13",
"~  c #222121",
"^  c #212221",
"/  c #222220",
"(  c #222221",
")  c #232221",
"_  c #222321",
"`  c #232321",
"'  c #212122",
"]  c #222122",
"[  c #232122",
"{  c #212222",
"}  c #222222",
"|  c #232222",
" . c #222322",
".. c #232322",
"X. c #222223",
"o. c #232223",
"O. c #222323",
"+. c #232323",
"@. c #242322",
"#. c #242323",
"$. c #232422",
"%. c #232423",
"&. c #242422",
"*. c #242423",
"=. c #252423",
"-. c #242523",
";. c #232324",
":. c #242224",
">. c #242324",
",. c #232424",
"<. c gray14",
"1. c #252424",
"2. c #242524",
"3. c #252524",
"4. c #242425",
"5. c #252425",
"6. c #242525",
"7. c #252525",
"8. c #262524",
"9. c #262425",
"0. c #262525",
"q. c #252624",
"w. c #252625",
"e. c #262624",
"r. c #262625",
"t. c #272625",
"y. c #262725",
"u. c #252526",
"i. c #262526",
"p. c gray15",
"a. c #272626",
"s. c #262726",
"d. c #272726",
"f. c #262627",
"g. c #272627",
"h. c #262727",
"j. c #272727",
"k. c #282627",
"l. c #282727",
"z. c #272827",
"x. c #282826",
"c. c #282827",
"v. c #292827",
"b. c #282927",
"n. c #292927",
"m. c #292A27",
"M. c #272728",
"N. c #282728",
"B. c #272828",
"V. c #282828",
"C. c #292828",
"Z. c #282928",
"A. c #292928",
"S. c #282829",
"D. c #292829",
"F. c #282929",
"G. c gray16",
"H. c #2A2828",
"J. c #2A2928",
"K. c #2A2829",
"L. c #2A2929",
"P. c #292A28",
"I. c #292A29",
"U. c #2A2A28",
"Y. c #2A2A29",
"T. c #2B2A29",
"R. c #2A2B29",
"E. c #29292A",
"W. c #2A292A",
"Q. c #292A2A",
"!. c #2A2A2A",
"~. c #2B2A2A",
"^. c #2A2B2A",
"/. c #2B2B2A",
"(. c #2A2A2B",
"). c #2B2A2B",
"_. c #2A2B2B",
"`. c gray17",
"'. c #2C2B2A",
"]. c #2C2A2B",
"[. c #2C2B2B",
"{. c #2B2C2A",
"}. c #2A2C2B",
"|. c #2B2C2B",
" X c #2C2C2A",
".X c #2C2C2B",
"XX c #2D2C2B",
"oX c #2C2D2B",
"OX c #2B2B2C",
"+X c #2C2B2C",
"@X c #2C2B2D",
"#X c #2C2C2C",
"$X c #2D2C2C",
"%X c #2C2D2C",
"&X c #2D2D2C",
"*X c #2C2C2D",
"=X c #2D2C2D",
"-X c #2C2D2D",
";X c #2D2D2D",
":X c #2E2D2D",
">X c #2D2E2D",
",X c #2E2E2D",
"<X c #2F2E2D",
"1X c #2F2F2D",
"2X c #2D2D2E",
"3X c #2E2D2E",
"4X c #2D2E2E",
"5X c gray18",
"6X c #2F2E2E",
"7X c #2F2F2E",
"8X c #2F2E2F",
"9X c #2F2F2F",
"0X c #302F2F",
"qX c #30302F",
"wX c gray19",
/* pixels */
"A.c.c.A.!.!.G.c..X,X,XV.c.!.d.*.<.<.j.p.7.7.3.d.p.j.j.p.j.V.V.j.j.d.A.A.r.A.;X/.A.V.j.j.j.p.r.j.A.!.!.G.A.G.V.!.`.&X7X`.A.j.<.j.!./.#X;X&X!.c.V.j.Y..X&X!.j.V.A.! } V.G.r.r.j.!.j.<.c././.G.d.V.c.3.*.j.c.!.j.7.<.3.G.p.( <.j./.A.<.j.V.j.j.!.#X;X,X;X.XV.!.!.c.j.G.G.G.!.#X#X#X#X`.!.`.`.`.#X;X`.`.#X`.#X;X#X;X;X5X;X#X#X`.;X;X#X`.`.`.#X`.!.!.!.!.!.`.;X;X`.`.`.`.#X;X#X!.V.G.j.p.7.7.j.j.7.j.V.V.G.V.j.j.j.#X!.!.A.j.j.A.!.!.c.j.j.c.`.Y.c.!.G.j.j.j.r.j.V.j.A.Y.!.c.j.j.p.3.d.r.*.<.G.A.r.p.!.j.j.c.<.j.r.+.} <.p.j.!.!.=X.XY.Y.`.!.!.&X;X.X;X&X;X#X.X&X&X;XA.j.V.V.Y./.Y.j.7.} ! <.r.p.3.Y.p.( } p.} r.A.<.( !.;XA.j.7.! *.Y.!.Y.j./..X#X/.!.!.`.`.G.j.j.j.j.!.#XV.j.!.`.#X`.`.#X#X!.!.#X;X!.V.<.<.G.G.7.V./.!..X/.Y.!..X;X! r <.A.<.<.d.<.( j.!.G.!.G.G.!.G.;X!.`.;XV.p.} <.j.j.j.+.../.A.7.<.p.c.j.j.<.V.;X,XA.;X.XV.A.c.c...3.j.j.p.j.*.! N U R 3.!.V.`..X.X#XG.Y./.#XY.<.Y.!.!./.G.!.;X#X!.!.!.!.j.<.<.<.<.j.V.p.G.`.!..X.XY..X.X;X;X;X#X#X#X!.V.<.G.} v !.;X`.#X;X`.!.;X.X&X;X.XqX!.! D r 5 a r 0 r w ( ;X,X;XG.c.Y.j.c.3.7.p.Y.!.j.Y..X;X;X.Xd.j.A./.G.V.V.j.`.#X;XV.7.V.!.j.!.j.j.!.!..X!.V.<.( ! C N ( *.! *.j.r.<.+.j.j.<.....<.c.j.j.j.d.7.p.j.<.7.r.U ..<.<.7.7.!.c.<.R ( p.7...! j.V.j.<.*...<.d.<.j.V.3.r.<.p.A.G.G.G.V.c.!.!.G.!.!.G.G.G.!.`.!.j.<.} +.p.!.V.7.<.<.G.`.,X&X.X!.Y.c.A.`..X!././.A.c.j.c.j.7.p.Y.d.! <.j.<.V.;Xs U `.V.+.*.7.r.7.7.V.Y.A..X;XY.j.!.`.!.V.V.!.`.#X!.r.D ..p.r.<.<.j.j.p.c.c.!.Y.p.Y./.V.d.d.<.<.( V.j.d.",
"`.!.c.j.G.Y.c.d.!.&X7X.X`.#Xj.7.! ..p.d.r.7.<.7.7.j.A.j.r.d.j.j.j.d.A.Y.j.Y.#X!.j.j.<.r.G.V.d.j.j.G.`.`..X#X/..X`.;X5X/.!.!.A.!.;X;X;X`.!.Y.A.G.V.A.!.&X!.d.j.c.j.j.!.V.d.j.G.Y.c.d.A./.!.A.p.p.*.p.d.c.j.p.p.!.V.*.<.r.7.j.A..X!.<.d.j.!.`.`.;X;X;X`..X!.!.!.Y.G.G.G.G.#X5X;X;X;X#X`.#X#X#X#X#X`.;X;X;X#X`.!.;X;X;X#X#X;X#X;X;X;X#X#X;X;X#X`.`.;X;X#X#X;X#X!.G.!.`.`.#X!.G.!.#X+.<.7.j.!.!.j.j.j.G.!.!.j.p.p.!.!.Y.V.V.G.!.!.!.G.j.j.A.;X`.G.Y.G.j.G.A.<.<.j.j.Y.!.!.V.j.V.p.<.!.j.<.+.7.7.r.Y.!.Y.V.j.d.c.<.( +.r.j.c.`.`.;X;X,X;X;X#X.X.X`.#X;X;X;X#X`.`.&X;Xj.j.V.c.A.Y.c.j.<.! ! j.V.p.+.d.<.C ( ..z ( j.c.Y..X`.c.!.!.<.( <.r.j.c./.`..X/.!.!.`.!.V.j.j.j.j.G.`.!.V.!.!.`.`.!.!.!.!.!.`.`.!.G.j.j.!.!.p.j.Y.G././.!./.!.!.j.} ..r.<.*.j.3.} 7.c.7.A.!.c.A.!.`.G.`.;Xp.<.<.p.j.j.j...*.;X#Xr.*.<.d.V.V.} } j.j.*.j.V.d.p.j.} J <.7.<.<.j.3.} ! R J 3.c.d..XG..Xj...A./.G.j.3.d...R *.j.!.&X!.!.!.!.!.j.7.j.j.j.V.V.j.!.;X!.V.;XG.j./.;X!.!.#X#X!.p.z 0 ! U 7 G.9X;X;X;X`.#X&X;X.X`.,X7X3.n k D p.3.N J i * V ;X;X.X`.`.!.!.!.j.j.d.j.j.<.j.`.#X&X/.p.j.G.G.G.V.V.V.`.`.`.p.j.G.G.+.j.j.<.} 3.j.j.r.3.<.+.! D +...<.c.j.<.<.! } p.3.! *.j.V.<.j.j.p.p.3.<.<.c.j.! <.p.7.d.j.d.3.7.<.*...( *.c.A.!.G.r.r.<.r.<.3.G.!.j.Y.c.V.j.V.A.!./.Y.G.V.j.!.#X`.!.G.V.G.j.7.+.+.} 7.V.7.U +.p.!.A.A.j.d.c.V.j.V./.Y.A.#XY.j.j.j.d.p.j.G.p.p.*.3.p.<.j.&XC ( !.j.3.p.3.3.3.j./.!.r.j.`.!.!..X!.p.<.j.!./.!.G.+.n <.j.7.7.7.3.d.j.A.c.!.!.j.G.!.c.c.G.V.A.r.j.<.3.",
"!.Y.c.j.G.Y.V.j.G./.;X#X#X#XV.d.<.<.7.d.d.7.*.*.r.V.!.V.p.p.c.A.j.d.c.Y.A.G.Y.A.G.j.<.<.V.V.p.j.A.!.`./.`./.G.Y.!..X#XA.V./.!.`.,X7X&XG.j.j.j.j.c.j.c..X!.r.3.p.3.j.c.j.r.p.c.V.G.Y.!.`.!.c.j.3.} p.<.7.p.3.7.;XV.*.d.`.&X/.j.j.A.<.j.d.!.;X&XqX;X;X!.!.!.Y.G.!.G.G.j.V.;X9X5X;X;X#X#X#X;X#X#X#X#X;X5X;X#X#X#X;X#X;X`.#X;X;X;X;X#X#X#X;X;X;X#X`.;X;X;X;X;X#X!.G.!.`.#X`.!.V.G.#X!.V.j.p.V.!.V.V.j.V.!.G.j.j.p.G.V.V.!..X`.!.!.!.V.j.G.!.`.Y.c.j.c.d.G.!.r.3.j.j.G.Y.!.A.G.!.j.<.j.j.p.j.G.j.7.c.!..X!.j.r.V.r.<.p.G.V.j.!.!.`.&X,X;X;X;X,X#XY.`.#X;X&X.X/.!./..Xj.j.j.r.p.p.3.j.<.! ( j.j.<.( j.j.! ( N v d.j.c.Y.Y.j.p.&X,X<.k y k ..j./.!.!.Y.V.G.!.!.G.V.V.V.G.G.!.!.G.G.!.`.`.`.`.`.!.!.`.!.!.G.j.<.p.V.V.!.Y.A.!.`.`..X!.A./.Y.p.p.<.<.7.<...+.p.<.A.!.j.G.!.!.j.!.#X<.+.<.7.3.7.j.! } /.!.<.! ( <.c.A.( N R } ! @.d.c.} ! +.! +.<.+.<.d.+.<.<.! ! 3.p.r.Y.<.Y.3.R Y.;X/.!.7.*.R ( 3.j.!.;XG.G.G.G.G.j.p.j.!.V.V.j.j.!.!.p.d.;X!.c..X;X!.`.#X#X#Xj.! N <.+.% j.5X;X;X#X!.;X&X&X#X;XG.! z ( j.!.wX,XG.`.U = c !.7X`.!.`..X/..X/.!.j.j.V.G.;X;X#X/.G.p.Y.!.j.j.V.G.!.!.!.`.j.!.!.`.j.!.!.p.+...7.<.<.7.3.<.} ! 7.*.r.Y.r.<.p.r.+.d.j.+.d.!.c.j.c.7.3.j.p.7.<.j.d.} d.j.7.7.p.p.<.7.j.3.R N R .X`.,X;Xc.3.*.3.3.3.c.!.j.j.r.c.c.V.j.G.`./.!.G.p.!.`.!.!.G.!.!.V.<.<.p.<.<.j.<.D *.p.V.r.<.<.<.p.V.j.c.Y.p.<.j.Y.p.j.c.r.3.3.7.d.c.j.j.c.d.d.!.j.r.c.! ..d.7.r.*.j.`.Y.+.+.c.Y.!./.G.r.3.j.!.`.!.!.3.} !.!.*.*.j.<.p.V.G.G.`.Y.c.A.Y.G.!.!.j.d.7.<.! ..",
"p.j.V.V.Y.!.!./.G.Y.!.G.!.`.Y.c.V.p.7.p.j.p.3.3.r.j.G.G.c.c.A.A.c.d.d.c.A.j.j.j.G.j.<.<.j.j.j.A.A.A.G.V.A.G.c.A./.&X;XG.A..X.X.X;X;X/.c.r.7.7.3.j.p.j.!.!.7.<.<.*.r.d.V.j.7.p.j.G.!.A.!.G.j.c.p.A.J.<.3.c.j.7./.7.3.A./.!.c.p.p.p.3.c.<.j.`.&X;X`.,XG.j.V.j.A.#X!.G.j.G.;X5X;X;X;X`.`.#X;X;X;X;X#X#X#X`.;X;X#X#X`.#X`.#X;X;X;X;X;X#X#X;X;X;X#X#X#X;X;X;X;X#X!.!.!.;X#X`.`.G.V.`.5X;X`.V.V.G.V.G.G.!.!.G.V.V.j.j.d.d.c.!.!.!.!.!.d.r.G.G.Y.V.c.j.j.p.j.c.j.j.V.j.j.j.G.A.Y./.A.r...3.d.A.Y.j.j.V.!.`.`.c.+.7.<.+.j.!.G.A.!.!.!..X;X;X;X&X,X;X!./.!.!..X!.!.!.c.A.*.<.<.+.3.5.<.j.r.<.<.d.r.+.*.G.G.<.D z ! V.<.p.`.!.<.J 7.`.p.N 0 r J r.G.A.Y.c.j.V.!.!.G.G.!.!.!.!.!.!.G.G.!.`.!.`.;X#X!.!.!.!.!.!.!.j.j.G.G.!.Y.A.!././.#X`.!.A.j.Y.p.! j.7.r.3.*.j.V./.!.V.!.#X!.j.V.!.<.7.V.d.r.p.j.<...j.r...} +.<.p.c.*.U R *.r.<.j.`.*.N r.+...*.*.<.7...<.*.! ( *.<.j.j.*.V.c.3.Y.#X#X/.A.j.d.Y.G.d.j.G.V.j.j.V.!.!.V.j.!.V.G.V.j.G.V.<.j.G.Y.!.#X;X#X.X;X;X;Xj.`.9Xj.<.X } #X;X`.j.7.V.G.!.,XG.8 $ a `.;X!.A.;X&X#XA...*.3.;X5XA.!.&X/./.G.j.7.j.Y.!.&X;X!.j.3.7.!.!.7.j.G.`.!.G.G.!.G.!.#X#X7.G.!.7.+.+.p.3.7.j.p.<.<.<.j.7.<.d.r.<.j.p.3.p.r.<.d.j.j.j.j.d.j.7.3.d.p.j.j.3.G.!.c.j.d.j.r.j.c.j.<.} <.V.!.`.#X!.d.p.c.j.d.p.d.*.*.*.p.A.V.<...d.c.j.j.j.G.!.V.V.!.`.;X!.p.j.!.p.<.p.<.( <.<.j.j.<.p.7.p.V.j.p.j.j.j.!.Y.j.V.c.d.d.r.3.j.d.p.p.j.V.d.7.c.j.!.<.<.c.<.! ( 3.!.!.7...3.d.!.V.j.d.d.j.A.!.A.!.d.p.;X`.} ( j.d.j.j.d.V./.!.c.A.!./.`.G.<.( ! <.*.<.",
"7.d.V.Y.!.!.`.#Xj.V.A.j.j.!.!.Y./.A.j.d.r.3.7.d.<.3.c.!.G.G.!.Y.G.d.<.p.c.j.j.Y.V.r.r.d.j.j.j.j.c.j.j.j.c.V.j.A.!.&X;X!.!.&X;X.X#X`.!.A.j.d.d.d.A.c.j.V.c.3.<.<.7.r.3.j.A.j.c.j.j.j.j.V.j.d.A.A.!.A.7.j.A.c.7.c.<.r.c.j.<.<.p.A.j.c.A.<.3.!.&Xd.! `.#XY.A.p.j.!.`.G.V.!.;X;X;X5X#X`.!.`.#X#X#X;X#X#X#X#X;X;X!.j.`.;X#X;X;X;X;X5X;X;X;X;X;X;X;X;X#X#X#X#X;X#X`.`.#X;X!.!.#X`.!.#X`.#X;X;X`.!.!.!.!.!.`.!.G.G.j.7.j.3.*.<.j.`.&X!.r.<.j.j.G.!.!.c.j.j.p.r.c.!.Y.G.p.j.G.G.G.!.G.d.<.j.j.j.j.d.G.!.!.!.`.Y.3.7.<.*.<.j.A..X&X&X;X&X,X7X,X`.&X,X#X.XV.j./.G.!./.r.c.7.p.<.*.p.r...<.<.3.j.j.j.j.j.!.!.j.U C +.*.R p.j.j.*.n U d.j.r.R C ! <.p.j.A.c.j.j.G.G.V.G.!.!.V.!.`.!.!.G.!.!.!.#X;X;X!.!.!.!.V.G.`.!.!.G.j.j.Y.A././.!..X#X`.<.*.G.7.! Y.j.c.j.7.Y.`.#X!./.`.!.!.<.} 7.<.j.G.A.A.j.c.d.<.<.<.} ..+.( +.3.<.( ! <.j.7.<./.p.! r.<.*.3.<.*.+...j.c.<.3.d.p.p.*.3.A./.V.A.V.G.A.<.r.d.j.j.j.Y.Y.j.j.p.j.!.#X!.G.!.!.!.`.!.G.V.j.V.d.j.!.&X;X&X!.`.#X5Xj.#XwXj.! % D G.`.V.! +.V.!.c.G.! - 7 7.7X.Xj.<..X,X.X.XwXc.h ..;XG.V.`.!.Y.A.d.j.!..X!.c.A.Y.j.<.r.A.Y.j.j.G.!.G.p.p.G.V.j.;XG.z U j.7.} +.r.3.d.Y.j.p.j.j.p.d.<.r.V.d.d.d.c.G.j.3.<.7.A.c.c.j.A.j.p.j.j.j.V.7.j.c.c.c.c.j.d.V.A.j.7.d.!.!.A.v U .X;X#Xj.j.!.j.+.! 3.j.d.c.V.+.R <.j.j.p.G.!.G.j.G.`.`.#X!.j.!.#XG.<.<.p.c.j.r.A.Y.7.<...<.<.<.<.j.A.G.Y.!.!.Y.j.p.j.V.Y.d.3.7.7.7.j.j.r.p.p..Xp.7.!.G.r.*.3.!.&XA.<.<.3.V.p.<.*.<.7.j.A.A.j.<.r.!.!.<.7.j.A.!.!.A.!.#X#XA.Y././.!.j...! U <.<...",
"d.7.j.!.!.`.&X&Xp.c.G.c.j.j.V.j.Y.Y.c.j.<.} <.p.<.3.V./.!.!..X&X`.c.<.7.j.d.c./.!.r.7.p.j.c.r.r.j.j.c.j.V.c.d.j.A.!./.!./.&X;X`.;X.X`./.!.!.!.!.!.!.c.j.p.<.3.7.j.j.p.7.p.c.!.Y.j.d.j.b.j.V.!.#XY.d.3.j.j.j.j.j.7.r.d.d.<.<.7.c.A.!.!.7.7./.;X3.h A.,X&X!.3.j.A.!.G.V.!.`.`.#X5X#X`.`.`.#X`.#X;X;X;X;X;X5X;X!.V.`.;X#X;X;X;X;X5X;X;X;X;X;X;X#X;X#X#X`.`.#X#X#X;X;X;X!.!.;X;X`.`.!.G.#X;X`.!.!.`.!.#X;X!.j.j.p.7.j.p.<.<.p.&X7X.Xj.j.G.j.j.j.V.j.j.V.j.c.!.!.Y.A.j.j.!.!.!./.!.G.j.d.d.j.V.!.#X!..X&X!.c.j.j.#.3.3.r.j..X#X#X&X#X;X;X;X.X#X5X;X!.j.r.!.j.A.`.j./.#X/.j.<.7.7.} ..<.<.<.( p.!..X`./.Y.( U } 7.3.3...<.3.} ! ! ( +.d.<.+.( <.p.A.V.j.j.V.V.j.G.!.G.j.!.!.G.j.V.!.G.`.`.;X#X`.`.`.`.G.!.#X#X#X`.G.!.!.!.;X&X!.`..X/.p.j.j.<.*.j.7.7.7.3.c.G.!..X;X!.!.!.j.<.V.V.!.!.G.Y.V.j.j.<.} } } ( } ! *.7.r.<.! U ( ....V.d...7.<.<.d.d.3.} ( j.#Xd.<.E.A.p.3.j.!./.V.V.r.r.j.Y.!.G.!.!.!./.!.V.G.j.j.!.`.!.!.!.G.!.`.!.V.j.G.<.r.j.c.`.&X.X`.`.#X;X`.!.;X`.p.z } V.!.G.<.p.`.Y.J N ( } A.&X.X`.r...} 7.j...G.Y.n ..!.A.A.!.B.r.V.c.c.G.!.!.j.3.G.!.j.d.j.j.V.p.p.p.j.<.7.j.p.7.G.<.s N 7.p.<.<.7.+.<.j.j.V.`.j.*.j.j.V./.j.p.j.d.V.j.<.*.<.j.Y.Y.r.d.A.d.7.j.V.A.d.j.j.n.Y.Y.7.3.j.Y.c.r.j.`.#X!.a k `.,X;X<.7.!.j.<.+.r.j.j.A.!.j.3.j.!.!.j.!.!.V.j.!.#X#X`.G.G.`.;X`.j.7.V.Y.V.j.A.Y.7.<.<.c.p.p.V.!.Y.V.j.!.A.j.<.r.j.j.j.j.j.c.j.<.<.j.Y.Y.c.!...J 3.c.d.j.j.Y.!.j.<.<.j.G.V.r.} } 3.j.j.7.} ! <.j.Y.c.A.d.p.c.`.#X;X/.!.A.!./.Y.j.<.! ! } j.r.( ",
"p.<.j..X`..X;X;XV.A.Y.Y.j.d.r.<.3.d.d.r.<.} <.p.3.3.V./.!.!.&X7X;XG.7.3.7.7.j.`.!.j.7.7.A.Y.r.d.d.d.j.j.V.V.j.G.!.G.Y.`.;X;X;X#X&X#X#X.X.X;X&X/.Y.!.j.d.7.<.7.j.j.j.A.j.p.j.G.G.d.p.!.V.j.!.!.;X`.j.d.A.j.j.j.d.j.j.p.3.<.*.7.j.G.Y./.r.7.!.&X!.+.Y.`.!.c.+.j.!.!.!.G.G.!.!.#X;X;X#X#X#X`.`.#X;X5X;X;X#X;X5X#X!.`.#X`.#X;X;X;X;X;X;X;X;X#X#X#X;X#X#X!.!.#X;X;X;X;X;X#X#X;X#X`.!.`.j.G.!.!.!.!.!.#X#X#Xj.<.7.p.7.d.c.A.j.p.!.;X`.A.!.#XV.d.p.j.j.V.j.A.`.#X`.!.A.G.j.Y.!.!.!.!.!.p.7...3.c.!.;X`.&X#Xj.<.<.<.R } j.d.3.G.!.!.!.#X/.c.`.;X&X;X&XY.r.j.G.j.c.Y.V.;X&X/.j.+.<.d.<.<.3.<.( N <.!.&X!..X`...N ! 3.} z <.*.+.+.! J ! <.7.7.<...r.c.!.A.j.j.V.j.j.G.!.V.V.!.G.j.j.j.!.!.!.!.!.!.!.G.!.!.V.G.!.!.`.`.G.G.!.!.;X&XY.!.`.!./.!.p.( *.<.<.<.3.r.V.j.!.;X#X!.!.`.G.j.!.V.V.V.!.!.G.j.d.<.+.<.<...<.3.V.Y.G.r...U D ( } 7.7.+.<.3.<.j.c.j.*.+.7./.<.U j.G.V.Y.!.#X.XV.j.<.<.p.j.j.p.G.#X#X.X!.G.`.!.G.!.!.`.!.V.G.!.`.G.j.p.j.! <.d.r.!./.!.`.`.!.`.#X!.`.5X`.j.j.!.#X;XG.j.j.<.z N A..X`.G.!.j.3.<...<.p.C } ;X!.;X`.!.#X#Xc.3.Y.Y.G.V.A.!.j.<.j.G.j.j.d.j.d.<.<.<.p.<.p.j.7.j.V.7.<.7.p.p.j.<.3.} } 7.j.V.!.<...c.!.G.!.j.r.d.<.p.j.j.j.c.G.V.A.7.<.3.( } j.j.j.7.j.d.j.j.j.r.3.c././.V.j.A.!.5Xj.j.&X/..X*.N 3.7.p.<.<.r.d.!.`.A.j.j.V.G.j.!.V.j.j.!.#X#X`.!.!.#X`.`.!.G.!.`.!.G.d.p.<.7.d.!.A.c.G.!.Y.V.c.c.<.<.3.j.A.p.<.d.c.c.c.<.! <.A.!.G.`.j.r.d.j.r.j.V.G.A.j.r.j.G..X.XY.r.<.d.j.r...D U <.p.G.V.A.c.d.j.Y.G.#X`.!.G.!.!.j.<.! C D +.A.G.p.",
"7.*.A.,X#X`.,X;X#X!.G.!.!.c.p.<.*.3.<.<.*...<.3.7.<.d.G.V.A.#X,X;XA.3.<.<.3.c..X!.Y.j.j.`.!.*.7.A.c.c.j.c.A.G.`..XG.A.`.-X,X;X.X`..X.X/./.;X#XA.j.j.d.d.7.*.3.j.7.*.j.G.A.G.c.j.3.7.`.j.p.!.G.`.Y.j.j.!.j.j.j.r.Y.Y.j.7.*.<.j.!./.A.!.<.7.Y.!.;X#X`.V.A.c.+.j.A.!.!.!.G.!.#X;X;X;X;X#X#X#X`.;X;X;X;X;X`.;X9X#X!.`.`.!.`.;X;X;X;X;X;X;X;X;X#X;X;X;X;X!.!.`.;X;X;X;X;X;X#X`.`.#X;X;Xj.p.V.!.`.!.!.j.V.V.p.<.j.V.V.j.V.G.j.3.c.!.G.Y./.&XA.V.G.!.!.!.p.j.#X#X.X.X!.!.j.c.A.c.V.j.j.j.j.3.p.p.j.`./.A.V.p.<.} <.! ( j.d.*.c././.!.,X#Xp.!.7X&X.X.XY.d.Y.!.c.j.p.j./.A.V.r.+.3.j.3.*.j.d.<.R 3.!.!.r.p.j.! N ! ( v k <.( ! } ( ! ..<.r.j.j.3.V.!.`.!.G.V.V.j.V.!.!.G.V.!.G.V.j.V.!.!.V.G.!.!.V.j.!.`.!.!.!.j.G.!.V.G.j.j.!.!.j.Y./.!.!.j.p.} <.<.<.<.c.A..XV.#X;X!.`.;X;XG.j.V.j.j.!..X!.A.3...@.<.p.3.+.<.j./.!.A.<.+.<.! ( J R +.+.3.c.j.j.r.<.( } 7.`.j.+.j.Y.c.j.!./..XA.d.<.3.7.7.j.7.3.G.&X.XV.j.!.!.G.!.!.!.!.V.`.;X#X!.j.p.p.r.<.7.r./.;X`.!.p.p.!.`.#X;X!.V.G.V.!.G.`.!.j.p.j.j.Y.`.A.!.!.!.A.r.( <.V.Y.j.A./.`.;X!.`.;X;XA.<.j.d.c.!.`./.3.r.<.d.j.!.!.Y.d.<.<.7.j.7.j.j.7.<.7.p.G.j.<.7.+.} <...+.p.c.j.r.( <.Y.!.j.j.j.p.<.<.<.<.j.j.p.G.!.c.7.p.7...+.<.c.j.r.c.j.j.j.A.j.c.!.&X`.c.<.+.<.j.3.p.c.<.R 2 1 C } <.<.3.d.d.G.A.p.3.<.d.G.G.j.j.p.j.!.#X!.G.!.`.`.G.!.;X#X#X.X.X!.<.<.<.j.G.!.#X`./.&X#X!.!.G.<.p.A.Y.G.j.3.7.j.r.j.j.! } j.V.V.!.!.`.A.j.<.<.j.!.!.!.!.Y.A.!.!.Y.j.j.A.!.!.Y.<...3.3.j.j.j.d.r.r.! h ( V.!.!./.Y.7.( R C U R p.j.+.",
"j.j.`.;X#X;X;X#X&X!.!./.!.!.A.3.7.<.! <.d.+.*.7.d.j.j.j.d.!.!.#X#X!.j.j.p.r.!.;X;X#X!.!.;X!.7.V.!.V.V.G.j.G.`.#X!.G.!.!.;X;X#X#X;X.X/.`.#X;X.XA.d.j.p.3.7.<.<.j.d.! p.A.G.A.V.r.<.j..XV.r.G.Y.G.V.c.j.G.#Xc.d.j.!.!.A.j.j.A.!././.`.p.<.c.G.G.Y.A.V.c.`.j.3.p.!.`.G.`.#X#X5X;X;X;X;X#X#X#X!.`.#X;X#X#X;X;X;X#X!.#X`.!.!.;X;X;X;X;X5X;X;X;X#X`.;X#X`.#X!.`.`.#X#X;X#X#X`.!.!.`.;X`.G.V.G.`.`.V.j.<.7.<.7.j.;X;X!.c.j.j.G.G.Y.A.d.Y.!..X!.V.!./.`.Y.j.d.G.Y.Y.`.!..XG.A.!.j.r.c.j.d.d.c.j.+.<.G.j.j.r.p.7.3.p.r.r.c.....p.!.,X!.&X5XY.#XY.*.A.;XA.!.G.j.A.G.j.A.&XV.*.} 3.3.r.*.<.j.j.<...c.Y.G.d.3.<.<.%.} ! ! ! <.} ! ! *.<.<.c.p.7.*.j.!.`..XY.G.j.j.G.V.!.!.j.j.G.!.V.j.V.G.G.G.G.`.`.!.V.V.G.G.`.#XV.V.!.V.j.3.3.V.!.V./.Y.j.r.<.*.<.+.! ..<.r.d.!.A.;XwX<.!.#X;X!.j.p.7.j.#X#X.X!.<.! } +.<.<...p.s.j.r.V.p.<...r.3.} ! <.<.j.V././.j.7.! } <.A.V.!.r.j.j.d.d.V.!./.p.<.<.j.j.G.<.p.A.`.!.j.j.!.!.!.`.`.!.!.!.!.`.!.V.p.p.p.r.<.p.j.c.!.V.} N D <.7.V.V.U +.j.j.p.G.!.V.G.`..X!.!.!.Y.`..XG.!.j.*.} <.d.j.A.Y.A.!.&X.X#X&X.XV.j.d.V.!.;X`...*.<.} <.j.!.Y./.j.<.<.7.3.d.d.<.d.! ..G.j.3.r.+.} *.<.} 7.Y.V.j.<.3..Xj.j.j.j.j.r.<.<.d.G.p.j.A.c.p.d.j.j.d.r.j.j.j.A.Y.j.3.r.V.!.Y.G.#X/.j.3.+.3.3.<.*.7.! h 5 n R ( +.<.*.<.j.;Xd.3.<.*.G.Y.V.j.V.j.!.!.G.#XV.!.;X`.G.#X;X#X;X`.;X!.7.<.V.`.;X#X`.`..X.X#X.XY.j.V.Y.V.c.G.j.+.3.!.V.j.j.7.+.c.A.j.&XY.Y.Y.7.p.p.c.p.G.!.d.A.#XY.V.A.!.!.!.`..X/.Y.j.r.j.G.c...*.} } ( r v `.!.&X!.c.A.<.<.U ..} <.d.! ",
"A.!.5X,X,X5X.X;X;X/.!.!.!./.!.j.A.c.+.<.7.+.<.j.!.A.p.3.p..X/.!.!./.A.A.A.A.;X;X`.`.`.#X9X#Xj.G.G.j.V.!.V.j.!.#X!.G.`.`.;X#X`.`.&X#X&X&X#X#X.X!.V.V.d.j.d.<.3.d.7.! c.A.V.c.j.V.d.V.`.G.j.V.j.j.j.Y.!.G.F.7.d.c.Y.A.j.j.Y./.!.A.!.c.<.p.!.!.V.V.j.A.A.`.!.G.G./.!.G.`.`.;XwX;X!.!.;X;X#X!.!.!.#X;X;X#X#X;X;X`.!.#X#X`.`.;X#X!.!.;X;X;X#X#X!.!.`.`.G.G.V.!.!.!.!.`.`.`.!.!.!.!.`.;X#X#X!.!.#XG.j.<.7.<.7.j.;X5X#XV.j.p.j.!.!.c.d.r.j.!.!.V.!./.#X!.G.c.c.d.d.A.j.Y.Y.!.!.Y.A.!.V.V.V.j.j.j.j.A.d.p.<.j.j.j.j.j.d.<.+.*.+.r.&X`.&X;X&X!.r.j.!.!././.Y.j.A./.V.j.G.d.( ! <.<.7.*.<.c.p.} ! j.`./.A.j.3.....<.<.+.+.*.+.( ( 7.7.<.j.<.( J p./.!.!.G.j.p.p.G.V.!.G.j.j.!.#X#X!.!.!.!.!.!.;X#X!.G.!.!.`.#X`.V.V.G.j.7.j.d.Y..X!.#XY.r.r.<.+.V.j.! +.j.3.p..XY.!..X! <.!.#X!.j.j.V.!.;X!.#XY.*.! *.3.<.*.+.7.j.A.<.r.7.p.p.!.j.<.<.r.r.d.j./.;X!.A.<.*.3.d.A.`.d.A.A.p.<.7.j.A.r.7.p.j.p.j.<.j.A.G.V.j.G.`.#X`.`.!.!.!.!.!.!.!.!.V.j.p.d.p.d.r.p.j.3.C ! <.<.+.! ! D ! <.<.p.j.G.`.!.#XA.c.V.V.V.!.`.A.c.j.7.*.r.A.!./.G.j.G..X.X#X#X!.V.G.A.!.&X;X!.<.*.<.p.j.j.Y.Y.#XG.<.*.*.*.p.7.( 7.! ( p.7.3.j.<.} *.<.<.d.G.j.d.3.j..X..+.j.j.j.*.*.<.7.j.j.G.A.!.A.G.c.c.c.d.p.*.r.j.c.j.j.j.j.A.V.j.A.Y.d.j.G.Y.G.j.*.d.j.<.N <.....<.<.+.r.!.;Xc.p.7.<.c.V.G.V.V.j.G.p.<.!.!.!.!.`.#X#X#X#X;X#X#XG.p.j.!.#X;X#X#X;X;X&X#X/.A.d.<.r.c.j.j.j.<.j.!.j.p.7.7.<.V.!.`.#X!./.c.r.d.j.j.d.Y.!.p.A.,X`.<.c.!.V.!././.!.!.c.3.j..X!.+.<.<.<.p.! 7.;X!./.G.d.A.A.A.<.<.r.<.d.3.",
"!..X,X#X;X/.r.!.5X&X!.!.!.!.G.j./.!.7.7.r.<.r.j.j.j.r.7.V.qX5X/.!.#X!.!.!./.;X#XG.`.#X;X;X`.j.G.p.p.!.;XG.p.V.`.V.j.`.#X;X`.#X#X&X&X;X;X&X#X.X!.V.j.r.V.j.<.d.d.p.*.!.!.!.!.j.Y.r.d.G.V.V.V.d.j.c./.`.x.r.( <.d.G.V.j.j.c.!.!.A.!.j.<.c.`.!.V.j.j.!.G.!./.`.!.!.G.G.!.!.`.5X;XG.!.;X;X;X`.!.#X;X5X;X`.`.#X#X`.!.`.#X#X#X#X`.G.V.`.#X#X#X#X!.G.!.#XG.V.j.`.`.!.V.!.`.`.`.`.`.(.`.!.(.;X!.!.;XG.p.j.<.<.V.G.#X#X`.#X!.d.p.G.G.j.j.7.p.c.c.j.j.c.V.!.Y.V.c.d.p.j.d.j.Y.!.Y.!.!./.Y.A.Y.j.j.!./.!.V.3.+.j.V.<.<.7.*.*.7.p.} +.!././.!..X#X`.&X;X!.G.!.!.c.V.!.j.3.j.j.+.! <.3.d.7.d.G.r.+.U d.#X.XY.!.j.*.*.3.<.+.*.<.<.} ( <.*.! *.+.D c 3.!.j.U.Y.j.p.p.V.j.V.G.G.j.!.;X;X#X!.!.!.!.!.`.`.V.j.G.!.#X#X`.!.!.!.p.+.7.c.#X;X!.`.Y.j.Y.V.7.`.`.! } j...} !.Y.Y.&Xd.V.;X;X`.G.G.!.`.;X;X.Xj.<.*.3.j.j.p.7.<.<.p.! *.+.3.d.`.g.3.3.r.j.j.p.G.;X`.!.j.r.r.<.d.Y.j.Y.Y.V.j.p.7.j.3.j.d.3.<.3.*.j.c.j.j.A.V.!.`.!.V.V.V.G.!.!.!.G.!.!.V.p.j.A.A.j.j.c.7.! j.G.j.j.<.7.G.j.<.p.V.p.V.;X!.G.A.c.j.j.j.Y.!.A.c.Y.j.j.!.#X&X;XY.j.V.!.`./.!.V.V.!.!.!.;X!.d.*.*.<.Y.`.V.Y.V.!.Y.r.<...} 3.3...} +.r.j.<.3.j.p.*.<.7.p.c.c.7.7.} d.!...<.j.j.j.<.3.d.d.p.j.!.!.G.Y.Y.c.c.A.p.<.3.j.c.p.p.c.j.7.r.j.<.7.p.( ! r.d.j.j.7.A.Y.j.( p...+.r.7.<.d.!.c.7.3.r.<.p.r.A.!.G.!.`.j.j.!.!.V.V.`.;X!.!.`.`.!.`.!.G.!.#X;X#X/.`.#X#X.X#X&X.Xr...7.j.<.+.7.<.r.d.<.*.<.c.A.!.;X.X!.&X#Xj.j.r.`.Y.A./.&X!.!.;X3.R `.`.<.I./.!.A.V.p.<.j.`.A.} d.<.R <.<.V.!.<.j.A.d.V.V.j.+.+.r.<.j.j.",
"5X;X5X&X;XY.+.Y.&X#X!.!./.!.!.!.!.c.r.j.d.7.7.+.*.7.<.<.p.;X;X/.!.#X`.!.!.`.#X!.V.G.!.!.!.j.<.j.p.G.#X;XG.<.p.!.G.j.G.!.;X;X;X#X;X&X;X;X;X;X#X!.G.c.d.j.d.3.j.j.V.3.A.A.!.&XG.j.r.j.A.A.G.A.j.V./.#X.XA.p...<.7.c.c.j.j.j.G././.!.!.A.Y.!.!.Y.j.j.!.V.j.I.!.Y.A.G.G.G.V.G.;X;X`.`.;X;X#X#X#X;X;X;X#X`.#X;X;X#X!.!.!.!.`.#X`.!.!.#X#X`.#X#X!.!.`.`.j.j.j.!.!.G.j.j.G.V.G.`.!.!.`.j.j.!.!.`.#XV.j.!.p.j.#X`.#X;X;X;X;X!.Y.!.c.d.j.p.7.3.p.d.j.V.j.Y.c.j.!.!.c.V.V.j.!.!.!.`.#X`.!.!.!.c.c.!.!.!.!.j.r.!.!.*.( <.} +.7.j.+.<.`..X/.j.j.A.!.G.!.!.!.A.!.d.7.j.<.} <.V.<.! +.<.p.7.j.j.r.r.U *.!.Y.j.p.3.#...+.( ! ..7.3.*.*.3.+.! } 3.} N <.j.3.c.V.V.V.j.V.j.j.j.G.V.!.#X;X`.!.!.!.`.`.`.!.V.j.!.!.`.`.!.j.V.V.p.<.7.j.!.;X`.#XG.r.j.c.<.j.j.R J <.( R j.A.!.&XG./.5X#X`.`.!.!.!.;X`.} U } +.*.<.j.A.j.<.! ( R ..D ! +.G.p.r.p.3.j.A.r.j./.!.A.G.j.<.+.} <.d.A.d.A.A.j.p.r.*.p.j.3.3.<.<.G.A.c.c.A.V.!.!.!.V.V.G.V.!.!.!.j.j.G.V.j.j.Y.!.!.!.V.j.d.!.#X!.`.!.`.9X`.j.j.V.p.j.!.p.} j.3.<.3.7.j.G.Y.A.Y.j.c..X.X/.&X!.j.V.!.!.!.G.j.c.!.Y.`.,X.Xc.3...! j./.c.!.G.G.j.p.p.<.<.p.7.+.7.p.d.j.j.j.c.3.<.*.3.j.V.j.<.r.<.3.c.r.j.p.d.Y.+.+.r.j.d.d.!.!.!.`..XY.A.V.3.+.<.r.7.<.3.j.p.<.7.d.r.d.d.} R <.d.j.j.j.Y.c.p.<.r.+.<.d.7.<.p.j.j.j.j.V.d.7.<.j.`.!.`.`.!.!.G.j.V.V.`.#X!.!.`.`.G.!.`.`.#X#X`.`.!./.`./.!./..X.Xr.d./.#Xp.*.7.p.3.7.....3.Y.!..X5Xc.p.#X!.j.!.j.p.j././.!.G.G.#X! a ( V.A.!.Y./.`.Y.j.p.j.j.<.} c.*.D +.r.V.3.c } j.3.7.r.<.+.<.<.*.<.( ",
";X#X;X;X7X5X!.,X&X;X&X`.[./.!..XV.3.3.c.G.!.V.*.( <.3.p.j..X;X#X/.`./.`.`./.`.!.!.G.!.!.!.j.p.G.!.;X#X!.G.p.p.!.G.j.7.p.;X5X#X#X;X;X;X;X;X;X&X`.Y.A.V.p.d.c.j.Y.j.3.r.j.Y.&XY.+.p.A.!.Y.!.!.!./.!.!.!.G.j.*.3.3.7.r.j.V.Y.`.;X#X`..X.X!.G.!.!.V.d.A.d.7.j.j.V.V.!.!.!.G.!.;X5X;X;X;X#X`.!.#X;X#X#X#X#X;X;X;X`.!.!.!.!.#X;X!.!.#X;X;X#X`.`.!.!.`.#XG.G.G.`.!.G.V.j.j.7.j.!.V.V.;X`.V.G.!.!.!.V.!.`.!.!.`.G.`.;X`.;X.X/.Y.d.3.r.d.<.*.+.7.j.j.c.p.j.j.j.Y.!.A.A.G.p.V.Y.!.`.`.G.A.G.G.V.A.Y.!..X!.!.A..X`.3.<.r.+.+.3.p.+.r.`.`.G.V.A.j.V.`.!.A.!.A.G.3.<.j.r.+.*.d.<.! } <.d.r.j.<.<.p.J ! c.A.j.! } *.<.*.+.+.*.3.<.<.3.<.+.} ! <.r.*.7.p.7.G.A.V.j.7.j.V.!.V.V.!.`.;X;X#X!.!.`.#X`.!.!.!.!.#X#X`.`.!.7.p.V.V.j.p.G.!.#X`..XV.<.3.r.<.! ! N N ( ..+.c.V.!..Xj.p.!.V.!.`.!.G.G.#Xj.N R ..( +...3.<.<...! ! } r.R ! ( V.c.!.A.p.c.Y.j.c.!.G.c.!.G.r.<.+.<.j.G.r.j.j.c.c.d.( <.r.3.d.p.d.!.!.!.A.j.V.V.!.!.!.!.!.G.!.!.!.j.j.V.G.j.j.c.j.G.Y.d.p.j.G.!.!.`.`.`.#X!.j.j.V.!.j.V.7.} 7.+.*.p.j.d.j.A.V.j.<.j.!.j.d.!.!.c.A.!.Y.Y.Y.c.<.7.j.!.`.`.!.d.7.! 7.j.<.V.j.d.7.p.j.j.j.j.3.+.d.p.3.<.<.<.p.<.<.+.<.j.V.j.r.c.3.*.<.j.!.c.Y.!.r.3.j.!.G.!./.!.!.`..XY.G.V.7.3.p.r.p.j.A.c.d.r.r.3.p.c.j.<.*.7.d.d.p.<.p.3.7.r.<...*.*.} 3.j.p.j.N.G.!.V.p.<.c.!.#X`.j.j.j.7.j.p.V.!.!.!.!.`.`.!.`.`.`.`.`.!.!.G./..X`././.!.!.j.A.&X;XA.*...+.( <.! ! *.j.V./.7Xc.d.j.*.<.A.V.! <.Y.G.d.p.j./.;X+.k N d.!.!.;X&X!.A.A.V.r.<.c.V.p.<.<.<.c.7.c ..p.<...r.p.j.d.3.<.+.( ",
"#X#X;X.X&XqX,X&X;X,X;X.X/.!.!..XV.3.<.j.!.#X!.p.D } <.j.V..X#X`..X.X%X;X&X`.!.!.`.!.`.;X;X`.!.#X`.;X`.G.!.!.j.j.j.7.} } !.;X;X;X&X&X;X,X&X.X&X&X!.Y.!.r.r.V.j.G.p.p.r.V.Y..X!.7.d.A.!.Y.!.`..X.XA.c.G.G.j.+.<.<...*.j.G.G.!..X#X#X/.`.!.!./.Y.A.<.p.7.3.j.j.V.A.G.G.G.`.;X;X;X;X;X;X#X`.!.#X5X;X;X;X;X;X;X`.!.G.!.!.!.;X;X!.G.!.;X;X`.!.!.!.`.`.!.!.`.^.#X#X`.!.!.V.p.j.G.j.!.wX5X#X!.!.!.G.V.G.!.!.!.`.V.G.!.`.:X!.G.j.} ..7.3.! +.*.p.d.7.p.+.*.j.j.j.j.j.A.Y.d.j.j.j.V.V.j.j.j.j.c.!.Y.!.#X!.!.!././.j.d.j.+...<.3...r.!.Y.p.Y.j.3.j.!.j.<.<.j.V.e.p.A.j.<.<.p.d...+.<.7.<.<.*.} r.R ! A./.G.<.<.r.j.d.r.3...7.+.+.<...( *.+.! r.p.d.j.A.!.A.G.V.p.p.p.j.j.G.`.#X;X;X#X!.!.!.!.G.j.!.!.!.;X#X;X;X!.V.!.#Xj.! d.!..X#X!./.G.j.r.r.r.! C N N +.<.d.Y.j.!.;XY.3.j.j.G.j.7.p.j.!.3.<.V.<.! <.<.<...! +.<...*.j.<.d.3.G.!.#X/.A.Y./.!.!.!.A.j..X!.Y.p.<.<.p.V.j.d.j.V.j.j.<.d.r.<.j.p.p.j.p.A.Y.c.j.p.V.!.!.!.!.j.j.!.!.G.G.!.!.V.G.j.<.j.Y.p.p.c.j.p.G.!.;X;XG.V.7.V.!.9X!.V.G.j.3.*.7.Y.!.c.j.j.A.V.p.V.G.3.d./.!.Y.Y.G.C.G.!.A.j.j.!.`.!.!./.j.<.! 1.p.*.j.r.3.<.j.A.j.3.3.<.p.3.3.<.<.( ( 3.r.3.<.p.j.c.j.d.!.<.*...r.!..X;X!.!.c.j.j.j.!.!.c.!.!.!.A.G.A.j.c.c.d.d.A.A.d.3.r.3.<.j.Y.c.j.p.3.<.7.7...<.7.c.A.A.A.c.3...7.j.3.} r.j.!.G.j.7.j.!.#X!.<.<.7.<.p.<.j.G.G.!.`.`.!.;X;X`.!.`.`.!.!.!..X.X/./.!.!.!.&XG.A./.!.r.*.*.p.d.} ! +.7.<.7.V.j.<.n a N ! 3.j.p.G.Y.p.<.3.G.wX5X! c 3./.`.Y..X<.r.#X;X<.U V.!.!.Y.<.J p.c.} <.j.r.} p.j.A.j.j.3.<.c.",
"!..X&X.X.X7X9X.X&X;X;X#X/.!.!.!.Y.c.r.p.G.G.p.3.*.r.<.j.V.#X;X.X#X#X&X;X;X.X!.!.`.!.#X#X;X;X#X`.`.;X`.!.`.!.V.p.j.7.+.! j.`.;X;X&X#X;X;X#X.X&X;X`.!.!.j.r.d.p.j.p.c.j.c.A.Y.V./.c.A.Y.Y.Y.!./.Y.V.A.!.!.j.<.p.3.} ..p.A.j.j.!.`.#X!.!.!.`..X!.Y.7.y.r.7.j.p.j.j.j.G.!.#X;X;X;X`.;X;X;X#X`.#X;X;X;X#X#X`.!.!.G.V.!.!.`.#X;X`.!.!.`.#X`.!.!.`.#X!.j.j.!.!.#X;X;X;X`.G.j.G.G.j.G.5X;X;X`.`.!.V.V.V.#X#X;X5XG.p.j.!.#X!./.G.<.3.j.3.! <.*.d.j.j.A.7...j.c.r.7.p.j.G.V.c.c.j.j.A.c.V.G.Y.!./.G.V.Y.j.G.`..X!.V.j.j.<.} } <.3.j.j.j.7.Y.....d.*.+.j.r.7.j.d.j.V.r.<.<.} 7.} } <.d.r.7.7.+.d.*.+.V..X!.j.*.3.V.j.r.<.R <.+.+.<.<.*.p.d.! 7.j.j.A.!.V.<.G.`.G.p.<.<.<.V.!.#X;X#X!.!.!.!.!.G.j.!.`.`.;X;X;X;X#X`.;X`.! r V.#X/.`.!..X!.c.<.+.<.+.U D ! <.p.j.A.j.!..X!.p.7.p.!.p.! <.p.j.! !..X3.! <.r.j.c.<.7.j.3.<.<.<.Y.j.!.!.&X#X/.!.!..X!.G.j.3.G.j.c.r.! ! *.d.j.p.j.j.7.a.j.Y.j.7.j.j.j.p...d.G.G.V.p.V.`.!.G.V.j.j.V.!.!.`.#X!.V.A.p.<.G./.j.V.G.j.<.j.j.#X;Xj.<.<.j.G.;Xj.p.G.G.<.+.3.G./.!.A.G.!.`.G.A.c.d.!.&X#X/.!.V.j.Y.!.G.!./..X/.A.Y.Y.<.+.<.d.j.2.d.<.+.<.d.c.p.<.<.<.j.d.<.*.3.3.p.j.7.d.c.!.!.c.r.j./.c.j.r.7.G.#X`.`.#X!.G.A.V./.Y.G./.`.!.G.!.!.j.j.c.j.j.A.A.j.j.c.<.<.!.&X/.!.A.j.*.*.} U ( *.p.j.d.j.j.3.+.<.3.<...p.j.A.c.j.r.r.V.!.j.<.p.p.<.+.<.j.G.!.!.!.G.G.`.;X#X!.!.`.`.`.&X;X#X!.!.G.c.j.Y.<.*.r.7.<.<.*.<...R ! ..<.+.} d.d.<.N v *.( <.j.d.Y.!.3.! } p.#X!.( U 3.Y..X!.*.C <.;X,X+.N V./.`..Xj.! <.d.3.( 3.j.} 7.j.A.j.j.3.<.j.",
"!.!.`.&X#X;X,X#X,X,X,X;X#X/.Y.A.Y./.V.j./.A.<.d.<.j.r.j.c..X&X!./.`.#X#X%X#X#X#X;X;X;X#X;X9X;X!.#X;X#X!.G.G.G.j.V.j.p.} 7.G.#X;X;X.X.X&X&X&X&X&X!.A.Y.!.j.j.Y.A.( r.c.G.!.j...Y.c.j.V.!.!.`..X!.j.c.!.G.d.3.j.r.*.( 7.Y.Y.G.!.!..X.X`.!.`.&X!.!.c.j.d.3.r.3.d.3.j.!.`.#X#X#X;X;X;X;X#X;X`.!.`.!.!.`.#X#X!.G.j.p.G.!.`.`.#X`.!.!.!.#X;X`.!.#X`.!.j.V.`.!.#X;X;X;X!.!.!.!.G.j.j.`.#X;X`.;X`.G.!.`.;X5X5X;Xj.<.j.!.!.Y.!.A.3.p.V.j.<.3.} 3.j.c./.j.3.A.c.d.d.r.d.c.j.j.G.c.V.!.c.j.Y./..X.XA.j.j.j.j..X`.A.j.p.j.p.<.+.d.G.!.3.+.<.<.! 7.Y.+.! j.j.c.A.j.A.!.j.<.+.<.V.<.*.7.c.j.j.j.<.c.p.*.r.G.A.j.! +.V.j.r.<.! ( +.<.r.7.*.<.<.( <.j.c.!.!.p.! <.!.!.j.7.p.p.G.!.#X;X#X!.!.!.`.!.!.V.!.`.`.;X#X`.#X;X`.`.G.! v A.,X;X.XG.G.Y.Y.+.( } <.} ! <...V.j.A.A.!.!.!.j.! <.!.j.} <.p.j...7X7XY.j.r.j.!.!.3.r.j.c.j.<.<.V.c.`.&X5X;X#XG.j./.!.V.d...3.! <.r.R D 3.j.c.j.j.V.p.r.p.j.r.r.A.Y.!.G.+.7.c.A.G.p.G.#X!.j.j.p.j.j.V.!.#X;X!.j.d.r.7.!.`.j.V.A.j.<.V.j.G.!.p.<.7.j.j.V.} <.j.j.j.p.d.V.!.`././.!.&XG.j.p.j.`.`.&X/.Y.j.j.!.#X!./.&X#X!.!.#X/.<.( <.p.j.d.j.r.<.<.<.7.p.c.j.3.3.3.} ! *.<.7.j.<.d.Y.;X`.c.p.j.&XV.c.!.G..X#Xj.&X`./..X;X!.V.3.j.G.!.Y.V.!.!.d.<.<.d.c.V.c.j.j.j.<.<.!./.G.V.d.3.p.<.<.*.3.*.+.*.<.3.r.p.3.<.7.d.7.j.p.7.<.p.r.r.j.V.p.7.p.<.! D +.<.j.j.p.<.<.<.G.#X;X`.!.!.`.#X!..X/.!.!.G.j.p.d.*.3.r.....+.J ( ..3.j.7.p.d.d.Y.p.<...<.Y.+.U *...7.c.r.*.+.( A.!.V.3.+.V.#Xd.c ! !.;XY.( J Y.!.c.A.j.( } } <.! <.j.} 3.j.j.<.<.3.<.d.",
"V.G.#X#X`.;X;X`.;X;X5X;X`.G.G.!./.!.j.<.c.d.3.3.<.j.j.j.!.!.#X!.!.[.`.$X;X+X#X;X;X;X;X#X#X5X9X;X#X;X#X`.`.`.`.G.G.j.j.p.p.V.!.!.#X#X#X!.!.`.#X#Xj.c.A.p.j.A.j.j.} <.j.d.!.d.N 3.d.j.G.c.Y.!.`.!.j.c.j.j.c.d.3.7...( 3.A.L.!./.!.#X;X;X;X+X!.!.`.G.j.j.j.r.d.j.j.G.#X!.!.;X;X#X;X;X;X`.!.!.`.!.(.!.V.!.#X;XG.<.7.j.G.`.`.!.!.!.!.!.;X`.`.!.;X5X!.V.#X`.G.`.;X;X;X`.#X!.G.G.!.!.`.;X#X#X#X#X`.`.#X5X5X;X;XV.7.j.j.j.!..X!.V.c.c.<.( <.p.d.V.j.V.A.d.j.G.j.j.d.7.p.7.j.!.c.c.!.p.r.V.!.#XV.<.7.7.r...j.!.Y.d.j.G.r...p.G././.<.*.<.r.r.G.!.<.! d.V.j.c.j.c.Y.G.d.3.r.j.<.} <.<.d.<.U ! 7.A.7.} 7.c.j.<.+.r.j.d.p.+.! 7.<.( 3.7.<.r.+.<.<.D +.!.c.+.p.G.G.j.p.j.j.G.!.!.#X`.G.G.!.!.`.!.!.!.#X`.!.#X`.;X;X;X!.!.V.N V.;X!.;X&XA.j.A.! J ! +.} <.7.2.d.j.V.G.G.A.!..X( 7.V.<.3.r.p.V.d.A.Y.!.V.!.7.c.j.<.<.j.j.p.<...<.<..XA.<.c.!.j.+...<.7.j.3.<.<.j.d.<.+.*.<.7.7.7.r.c.j.p.p.p.j./.!.!.!.!.d.j.G.c.Y.!..X!.V.A.j.7.d.A.!.!.!.!.G.j.d.c.!.j.7.Y..XV.d.`..XG.p.7.<...p.V.j.! r.} ..<.3.<.j.!.`..X.X/.!.j.j.V.c.G.!.&X.X!.j.j.!./.`..X;X`.d.j.#X!.r.<.*.<.*.<.d.j.7.*.p.j.!.`.V.<.*.<.<.! <.<.r.j.7.<.j.c.!.V.d.p.!.!.j.j.j..X!.c.`.Y.Y.!.G.j...R <.j.j.A.!.`.Y.p.<.<.j.j.c.d.<.p.G.r.r.!.`.!.c.7.7.d.c.d.d.j.p.d.r.<.7.d.A.V.p.j.V.c.7.+.3.p.d.V.j.j.!.7.<.p.<.*.<.r.r.3.<.7.( +.! 7.!.#X#X!.!.`.#X;X`.`.G.V.!.!.j.c.r.c.c.j.+.! <.7.<.! <.7.! <.!..XA.r.( <.d.d.( ! <.r.j.p.} *.+.3.p.<.*.3.! 7.c.<.R ( A.*.c } <.7.p.r.3.! ..<.<.} +.d.3.<.j.p.7...<.j.j.",
"j.V.#X#X#X;X#X`.;X;X5X;X`.G.V.G..X.XA.<.r.<.<.3.+.7.V.j.G.!.`.!.`.#X`.$X;X#X=X;X;X;X;X`.!.;X5X;X`.;X#X#X#X#X`.G.j.j.V.G.V.j.G.!.;X;X`.!.G.!.!.`.!.A.j.r.c.!.j.d.<.<.<.<.j.p.( j.p.j.Y.V.Y.!..X.X!.G.c.j.j.r.<.*.! ( p.G.Y./..X/.`.#X#X#X`.!.G.!.!.j.d.r.3.j.!.!.`.#X!.!.;X;X;X;X;X;X`.!.!.`.`.`.j.p.j.G.!.G.7.<.<.j.!.#X!.!.!.!.!.;X`.!.!.#X`.G.!.#X`.!.!.#X`.!.!.#X`.!.!.;X;X;X;X;X`.!.`.;X;X`.#X#X`.!.G.j.j.j.G.!.`.,X,X`.j.( J <.p.j./.7.3.!.r.j.G.V.j.j.7.<.j.G.!.7.d.!.j.d.r.A..XY.r.p.c.G.3.G.!.Y.G.V.j.<.( <.*.} <.+.*.+.r...+.3...} p.p.<.<.d.!.!.Y.j.7.+.( ! *.7.+.V..X<...<.d.3.<.<.*.<.<.p.j.d.r.<.( ! <.! N ! <.<.3.<...! C +.G.V.j.V.!.!.j.p.j.j.V.!.!.`.`.!.G.G.!.!.!.!.!.`.`.!.!.!.`.`.#X!.!.!.} j.#XA.!./.c.j.j.<.R J <.3.+.+.<.c.c.c.c.Y.!.!.V.<.3.j.p.!.!.Y.!.Y.+...!.A.G.j.j.d.3.7.p.d.j.j.<.<.( p.*.( 7.V.j.....<.*.<.+.<.<.7.p.d.p.<.} <.j.<...<.3.r.c.c.j.A.A.!.Y.!.V.A.Y.V.G.Y.!.!.A.G.j.3.p.j.j.d.j.V.V.V.j.A.!.p.<.G.&Xc.r.!..X!.d.7.<.<.!.j.`.j.<.R ! 2.r.7.c./.#X#X`.!.G.p.j.G.Y.Y.Y.`.`./.j.j.!.!./..X!.c.<.3.V.V.j.d.+.7.z.*.+.d.j.3.V.`.;X2XG.3.3.j.d.*.<.} 3.j.r.d.r.<.d.j.j.r.j.A.A.d.! <.<.7.Y.p.A.j.*.<.3...<.j.A.!.!.!.Y.j.r.3.d.j.c.j.<.3.j.j.j./.&X`.Y.j.p.j.7.r.<.<.<.! 4.3.r.j.A.Y.V.G.Y.c.<.( <.d.d.d.3.r.j.r.Z.!.c.p.7.<.<.G.!.c.r.+.! <.G.`.#X`.!.#X;X;X`.!.j.7.V.G.j.c.j.V.j.d.! U <.j.r.! <.d.} <.!.`.V.r...*.<.7.*...A./.r.<.j.r.! ! ! D J +.<.j.r.d.*.<.j.} N ( <.} +.*.<.*.r.<.} J <.p.<.3.7.+.d.7.j.G.j.",
"j.G.#X;X#X#X`.!.#X;X5X5X#XG.V.V..X,X&Xj.j.3.r.c.<.7.G.G.G.G.`.!.#X;X+X$X;X$X=X;X;X;X;X#X`.#X;X;X!.#X#X#X#X#X`.!.j.j.G.!.G.j.G.!.#X`.!.!.G.!.`.;X.XY.c.c.!..Xj.j.<.<.+.} <.<.<.j.p.j.j.7.r.d.!.`./.G.c.j.j.r.3.<.R ..p.A.Y..X;X`.`.`.`.#X`.!.!.`.Y.c.V.j.d.A.!.j.!.!.j.V.`.;X;X;X;X;X;X!.!.#X`.!.p.7.<.7.G.`.V.p.7.j.#X5X#X`.`.!.!.;X;X#X`.#X!.;X;X;X#X`.`.`.!.G.!.`.`.!.!.;X5X;X;X#XG.p.j.;X5X#X!.!.!.`.`.G.V.G./.!.!.,X7X!.7.} ! 7.p.c.!.} ! G.*.<.j.j.d.j.r.<.j.G.j.( <.Y.V.j.r.A.!.!.j.r.j.V.c.!.j.j.G.j.7.3.*.<.} R *.*.<.( p.*.*.<...} 3.<.! *.A.`.Y.j.p.+.<.} +.j.j.! j.7Xc.<.<.+.+.3.*.} ! *.j.j.p.r...( ! *.! n N ! ..+.! R ..3.A.!.j.j.G.V.V.V.j.j.j.V.!.!.#X#X`.!.!.`.#X#X#X`.`.#X`.G.G.!.!.!.!.!.#XG.Y.;X/.G.!.d.r.<.d.<.! r.G.j.j.A./.!.A.d.c.!.d.+.R } r.d.c.c.V.!.A...! `..X!.!.V.c.d.j.d.<.p.j.<.<.} p.j.r.<.7.V.c.p.V.j.*.<.r.p.+.r.V.j.<.*.3.j.*.R ! } <.G./.!.V.V.Y.V.Y.V.V.V.j.j.c.G.A.j.c.j.7.d.c.j.3.7.j.A.!.!.!.!.j.7.Y.;X!.d.j.!.A.r.d.r.j.G.v j.j.*.+.<.p.j.p.j.!.`.`.!.Y.c.r.c./.`./.G./..X`.V.c.!./.`./.!.!.c.c.A.j.d.7.+.c.#Xc.<.3.7.p.c.!.#X;XY.3.<.j.c.3.<.! 7.A.j.p.<.( <.3.d.p.j.j.!.d.J +.7.<.<.3.j.7.( 3.j.<...j.!.!.Y.G.V.j.j.d.j.c.!.!.7.<.p.j.V..X;X.X!.c.j.j.d.j.r.d.3.( <.r.d.p.j.j.j.V.c.A.7.<.<.3.p.<.( U } <.V.!.d.<.+...<.h.j.d.c.r.*.+.j.!.`.`.!.`.`.#X#X#XV.7.j.G.j.r.r.j.7.+.N N ! r.3.! <.d.} -.G.!.A.j.<.+...3.3.r..X&XN a +.7.<.7.+.} } r.j.j.<.3.j.Y.G.3.( ! ! ( ! ! <.r.c.7.} } j.A.j.A.d.+.j.Y.j.j.7.",
"V.G.#X;X#X#X`.`.!.#X;X5X;X!.V.j.G.&X#Xj.c.j.G..Xj.p.!.!.!.!.`.!.#X;X#X#X;X$X=X$X;X;X;X;X;X#X#X#X!.`.#X`.!.!.!.G.j.j.V.V.j.G.`.!.#X`.`.`.!.!.!.!.!.Y.!./.;X.Xr.d.*.3.<.....+.<.d.j.d.3.+.<.<.c.A.!.G.A.c.d.d.j.j.7.3.7.j.V.!.;X`.!.!.`.;X#X!.!.#X!.j.c.V.j.Y./.G.G.!.!.!.#X;X;X#X#X;X;X`.!.#X!.j.j.p.<.+.V.;X`.j.j.j.#X9X;X#X;X`.!.#X;X;X5X;XV.5X#X#X;X;X#X`.!.G.!.`.`.!.!.;X5X`.!.!.V.7.<.V.#X;X!.#X;X;X;X!.G.!./.!.V./.#XV.p.d.d.r.7.j.c.<.r.!.<.*.d.j.p.j.j.r.j.A.d.<.V.`.Y.V.A.!.G.G.j.r.d.r.A.!.j.V.!.c.3.r.j.j.r.3.j.<.+.! ..<.7.r.*.+.3.+.! c.,X&Xc.d.7.( <.+.+.<.3.! 3.#Xj.<.<.+.*.7.*.<.<.<.j.V.c.d.7.3.R ! ! U C D R ! } } 3.V.!.G.d.c.!.p.7.V.V.j.p.j.!.!.`.`.!.G.!.#X#X#X;X#X`.;X;X!.!.!.!.`.`.`.#X#X!.;X!.p.j.3.d.r.j.j.<.r.j.d.c.j.G.G.A.<.p.!.j.<.r.p.d.r.j.A.j.<.j.V.! d.!.!./.G.V.3.p.c.7.p.V.j.p.<.d.A.j.R ( Y.V.<.j.c.*.<.7.*.3.j.A.j.d.V.c.r.*.! ..*.*.c..X#XG.Y.!.!.!.j.j.j.j.j.j.c.p.<.7.r.d.c.!.Y.j.j.A.!.!.G.!.`.A.j.G.`.Y.j.j.G.c.p.j.p.c.V.C G.j.<.r.j.!.G.7.<.r.V.!.!.!.A.V.!.#X.X/.A.!.#X`.A.c.Y.!./.!.!.!.V.V.A.c.c.d.r.j././.c.p.r.V.!.`.&X;X`.j.7.d.V.p.<.} d.Y.j.c.c.j.V.d.j.j.V.<.A.c.( <.r.+.N ( <.d.d.<.<.<.+.j.Y.Y.G.A.V.Y.!.A.A.!.;X.Xd.7.d.p.A.#X;X!.V.j.j.r.V.V.!.#Xj.7.3.c.V.j.p.r.7.p.7.3.p.j.3.<.j.3.! *.p.c.!.A.<.+...*.A.! D ! d.V.r.+.j.G.!.`.!.`.!.#X#X;X!.j.V.!.V.3.} r.p.( N ! R <.d.+.*.r.*.<.j.p.V.G.<.+.+.3.<.<.!.!.a # 4 k *.<.} ( } p.p.<.+.j..X#X#X!.r.<.<.r.<.*.d.j.c.d.7.<.3.j.V.A.c.d.A..X<.*.3.",
"j.V.#X;X;X#X`.`.!.`.#X;X#X`.G.j.j.!.!.r.j.A.`.;XV.j.!.!.!.`.`.!.).;X+X[.$X=X;X;X;X;X;X;X;X;X#X#X#X`.#X`.G.!.!.G.j.j.j.V.!.`.;X!.#X#X#X;X`.!.G.V.A.A.A./.;X#X<.<.+.p.<.*.<.<.7.p.V.j.3.7.c.j.V.d.Y.!./.Y.j.j.j.d.G.j.7.j.j.V.`./.!.!.#X;X#X!.!.#X#XV.c.Y.!.!..X`.!.;X;X;X;X#X`.!.`.#X`.!.!.#X`.G.V.j.+.! j.;X;X!.!.!.;X5X;X#X`.!.!.#X;X`.#X#X<.V.!.!.;X5X#X!.!.G.G.!.!.G.G.#X;X#X!.!.!.G.p.7.V.!.`.;X;X;X5X#XG.!./.!.j.V.Y.c.j.A.Y.<.! <.r.7.j.G.j.p.V.A.c.Y.Y.c.c.j.j.c.`.`.V.c.!.!.c.A.A.j.j.j.G.G.c.Y.Y.d.7.p.p.p.<.<.j.<.*.( ..<.7.3.<.3.7.! J !.7X/.j.p.<.( <.r.<.J ( } <.c.<.*.p.p.d.r...<.<.3.<.j.j.*.<.3.J N N U D N N J ..+.<.3.r.7.<.p.V.7.<.j.G.j.j.j.V.!.`.`.!.G.G.!.#X`.;X#X`.;X9X`.`.;X#X#X#X`.`.!././.G.<.<.<.j.G.G./.Y.!.G.d.A.G.G.Y.G.<.p.!.G.A.!.A.3.( 7.!.j.! c.!.U .././.!.c.c.*.7.G.V.V.G.j.j.r.j.V.j.! +.G.c.G.!.!.7.7.3.3.j.j.c.j.j.!.c.<.<...7.3.+.p.G.G.c.j.!.!.Y.r.r.d.r.7.7.j.7.<.r.d.c.V.!.!.A.V.G.!.p.d.A.!.j.p.j.G.j.j.j.A.j.j.V.d.<.j.r./.j.p.<.p.`.!.7.+.<.j.!.G.!.!.!..X!.Y.!.G./.#X!.V.c.V.Y.!.!.Y.G.c.V.V.V./.Y.j.j.G./.!.V.j.A./.;X.X/.!.c.j.c.G.j.r.+.j.A.d.<.p.j.Y.j.V.V.c.<.G..Xp.+...+.N } ..V.G.+.<.c.7.3.j.j.V.A.j.A.!.Y.G.!.&X!.p.r.j.j.G..X.XY.j.j.3.j.G.!.Y.#XA.c.d.c.A.j.d.3.<.<.*...p.G.d.7.d.*.! p.V.G.c.r.*.<.3.7./.*.! } r.r.} +.p.V.!.`.`.#X#X#X#X;X!.j.V.!.`.j.! ! +.} ! <.} <.!.j.*.<.+.<.3.! 7.j.<.<.+.<.} *.G.;X+.7 : r U ....! R <.<.! ( #X;Xc.!.;XG.A.j.j.j.d.d.<.7.r.r.d.<.3.7.7.j.V.!.!.( ! +.",
"7.j.#X;X;X;X#X`.;X;X#X#X#X#X!.!.3.V.V.7.j.c.Y.`.V.j.!.!.`.`.`.!.!.#X[.`.#X;X;X;X;X;X;X;X;X;X#X;X;X`.#X`.G.G.G.G.V.j.p.!.;X#X#X!.`.`.#X#X#X`.!.!.!.V.j.!.&X7Xj.<.<.p.<.<.d.c.c.j.Y.j.4.d.!.Y.!.j.c..X;X!.G.V.j.7.p.7.7.c.c.c./.!.`.`.`.#X!.!.!.!.#XY.G..X#X!.V.c.`.;X;X;X;X#X`.!.!.!.!.!.!.#X`.G.G.V.<.<.V.;X5X#X;X;X;X;X;X#X!.j.!.#X`.j.j.#X7.<.j.V.#X;X#X!.!.!.G.`.`.!.!.!.`.#X`.!.!.!.j.p.V.`.`.;X;X;X9X5X`.!.!.!.c.j.d.p.V.!.#Xp.R <.j.j.j.V.B.j.G.!.!.!.!.Y.Y.j.d.j.c.c.p.j.V.A.c.j.c.j.c.V.!.V.j.j.d.<.3.r.c.!.j.<.j.A.c.<.<.r.3.*...<.3...! !.#X!.Y.d.} *.3.c.G.} ! ! ..3.7.<.d.j.j.7.! +.j.c.7.V.j.} 3.p.( N c N C N N N ! } +.<.7.<...} <.<.<.7.G.!.!.G.j.V.G.V.j.j.!.#X;X`.`.`.!.#X;X!.!.`.`.`.`.!.!.!.!.!.!.r.<.<.7.j.c.c.A.&X!.3.j.`..X`.!.j.c.!.Y.!.Y.!.j.} 3..XV.<.G.j.U 3./.!./.!.j.<.3.c.A.Y.j.} } 7.c.j.7.! <.r./.#Xp.A.A.V.3.7.j.r.c.V.j.c.j.j.3.*.<.*.} 7.j.j.V.j.c.c.j.<.d.c.p.<.<.d.d.7.j.c.A.V.A.A.j.j.V.A.j.j.G.A.p.<.<.j.c.V.c.V.d.j.j.r.3.3.7.7.j.A...3.c.c.j.j.c.A.G.j.c.c.Y.!.A.c.!.!.#X&X!.G.Y.V.G.!.!.V.A.!./.V.j.!./.j.c.`.!.Y.G.j.d.V.`.!.!.`.V.j.G.Y.V.j.<.j.A.j.c.j.d.j.p.Y.!.A.p.Y.;XG.<.*.r...*.3.!.V.! 3./.d.<.j.j.G.Y.j.j.l.r.d.c.!.A.r.d.j.j.Y.!.!.Y.G.A.7.c.G./.J ! A.c.d.r.j.j.j.r.3.3.<...<.7.7.d.p.<.7.j.c.p.<.<.7.j.V.j.j.G.j.<.r.} U <.j.G.!.#X#X#X;X;X`.;X!.V.!.#X;XY.} N N ! ! ..+.d.`.c.<...} <.<.J ..r.3.3.+.+.} ..<.c.A.<.U ! ! <.A.j.! } ! ! ( !.c.N ..!.V.!.G.j.!.Y.j...<.3.<.A.j.<.} <.p.V.`.G.<...! ",
"<.j.`.;X#X;X;X#X;X;X;X#X#X#X`.!.*.j.j.*.<.<.p.V.V.!.`.!.`.`.#X!.!.;X=X+X#X=X;X;X;X5X;X#X`.`.`.#X#X!.#X!.V.G.G.!.!.V.j.`.;X!.#X!.`.#X#X#X`.`.`.`.`.!.Y.!./.9X!.j.j.7.<.<.r.G.G.j.V.d.<.p.!.A.!.V.p..X&X!.!.!.j.r.<.<.<.d.j.c.`.!.#X!.!.!.!.!.`.!.!.Y.A.!.&X!.j.j.!.;X#X#X5X;X#X`.V.j.V.!.#X;X`.G.!.!.j.V.`.;X5X;X;X;X`.!.;X5X#X!.j.G.!.p.p.;X!.j.j.V.!.#X`.!.!.!.`.;X;X#X#X!.G.#X;X!.!.G.j.j.!.#X`.;X5X;X5X9X#X`.;X&X/.A.r.<.j.V.A.r.! <.j.c.j.c.j.d.c.G.G.A.c.G.G.j.G.j.p.c.j.c.j.V.V.j.d.j.d.c.!.A.d.j.j.3.<.<.n.;X!.+.<.j.j.! ..<.<...( ( <.3.<.!.!.Y.!.d.+.j.p.<.A.r.! ! <.p.j.j.p.d.j.<.! } p.j.7.j.p.} <.p.} ! N N N U U N 3.*...7.c.d.*.} ! +.} <.V.`.!.`.V.j.j.<.} p.#X5X;X`.`.!.!.!.!.G.V.G.!.!.!.!.!.!.A.Y.A.7...<.*.*.V.c.c.!.Y.<.<.!.Y.!.G.V.Y.G.A.!.!.!.V.<.j.`.*.! !.3.! 3.r.d.!./.<.<.7.j.c.Y.c.+.3.V.!.A.3...c.j.,X<.s p./.!.j.3.d.<.V.!.G.A.V.Y.j.r.<.+.+.p.j.d.V.r.r.7.p.r.A.!.V.d.r.j.j.7.j.j.!.V.V.V.j.j.A.Y.!.Y.!.G.j.p.3.j.G.V.c.A.j.c.r.<.j.r.j.3.j.A.p.j.7.d.j.!.!.^.G.d.r.7.j.!.c.c./.!.#X.XG.Y.!.A.A.!.A.j.j.G.!.j.r.Y..Xc.V.!.A.j.c.c.p.j./.&X;X;XG.j.A.G.G.V.7.j.A.A.V.p.<.<.<.G.#X!.j.A.!.j.r.3.j.<.<.G.;X`.3.3.Y.V.7.!.!.!.!.A.G.c.3.r.d.c.j.r.j.j.A./.`.!.G.Y.!.c.j.r.G.z n d.p.3.r.j.d.j.j.j.c.j.j.c.3.7.c.7.<.V.!.V.<...<.<.<.p.c.7.Y.d.<.7.+.+.+.j.G.`.#X`.#X#X#X!.;X;X`.#X#X#X!.<.! ! } J } 3.j.G.j.r.<.( <.r.D } 3.<.3.*.*.+.<.! ( 3.d.p.*.D ..j.r.! ! D ! ( p.<.h N <.<.V.!.!..X.X!.d.j.d.r.j.j.*.( p.A.V.Y.j.<.<.<.",
"7.j.`.`.!.#X#X#X#X;X;X#X!.!.!.!.7.c.j.! ! ! r.!.G.#X;X`.#X`.#X!.!.;X;X#X+X#X=X+X#X;X;X#X!.!.!.#X`.!.`.!.j.V.G.!.!.!.j.!.!.G.`.`.`.#X#X`.`.`.`.`.`.&X;X#XV.&XY.j.c.<.3.<.<.j.A.p.d.7.<.j.!.j.Y.j.p..X`.c.!./.V.d.j.3.! ( +.j.#X/.;X!.G.V.G.#X#X!.Y.!.A.!.;X/.j.j.V.#X!.!.;X#X!.!.j.7.j.!.;X;X;X`.!.`.!.`.;X#X;X;X;X#XV.j.!.5X;X!.<.V.;X!.j.#XG.j.V.!.!.`.`.`.`.`.`.5X;X;X#XV.j.`.#X`.`.V.7.j.!.!.#X;XwX;X;X;X`.!./.Y.G.!.!.!.`.!.d.d.<.7.p.Y.!.V.c.d.j.c.c.d.r.c.r.j.&X!.c./.A.j.A.G.Y.j.j.j.p.j.!.c.<.*.3.<.<.*.j.;X/...*.j.A.<.7.r.<.3.<.} +.<.<.V.c.j.c.<.+.V.#X! <.p.<.<.c.Y.j.c.d.d.j.*.! ! <.3.<.3.7.*.<.p.D ! ! N N ! ! N j.} D *.j.7...( } } ! +.V.G.G.#Xj.V.!.!.j.G.;X`.;X!.(.!.!.!.!.!.!.G.!.!.`.!.!.!..X`.A.<.! r.<.<.V.!.j.r.j.3.*.V.r.j.c.G.G.j.j.!.A.G.!.c.!.!.C C !.p.7.3.+.3.c.r.<.7.j.j.j.A.G.j.Y.!.!.Y.r.<.G.j.!.f 4 j.7.! <.r.+.! r.V.A.!.A.G.!.A.j.r.p.j.r.*.+.! } ..<.r.V.c.j.s.p.c.j.3.j.Y.!.G.G.G.V.A.!.`..XG.A.G.!.Y.j.c./.j.d.j.d.V.d.j.j.} <.<.7.d.G.j.j.d.d.V.V.A.!.G.r.3.j.!.G.V.!.j.!.!.j.A.!.j.j.A.r.7.p.c.!.G.j.G.!.Y.V.V.A.j.d.V.j.d.G.G.A.A.j.A.V.G.!.!.d.j.V.Y.A.c.c.j.3.!.;X#XY.G.j.7.3.3.j.7.! <.p.G.G.<.( ( +.G.!.G.A.A./.Y.Y.V.d.7.<.3.j.j.!.;X;X/.j.j.!.G.j...c.p.j.p.7.d.p.r.<.7.d.j.A.A.V.`.j.j.!.j.r.Y.&X!.p.<.p.<.} 3.<.r.V.d.c.p.3...! <.j.!.#X`.`.#X`.G.`.#X`.`.`.!.j.<.<.p.+.N *.j.p.7.<.r.<.J ! <.N } <.( ..+.<.+.7...<.<.<.7.*.! ..<.! R *.( *.! ..r.} } 4.+.d.!.`.!.!..XY.A.j.j.p.d.<.3.!..XA.<.! N ( 7.",
"j.V.!.`.`.#X`.#X;X`.!.`.!.G.V.V.p.j.p.D ! p.!.`.[.~.=X;X[.`.`.!.!.=X[.;X3X#X;X#X`.;X;X;X`.G.V.j.V.V.!.!.V.!.#X!.`.`.G.V.j.j.!.#X!.Y.;X;X!./.`./.`.!.#X!.!..X!.j.j.3.7.d.p.j.j.7.r.3.p.!.!.r.V.V.p.!.!.c.&X`.V.c.G.c.r.! ( <.G.V.G.`.!.G.`.#X!.!.A.V.!.#X&X!.c.j.<.j.V.G./.#X/.G.V.7.p.!.;X;X;X!.!.`.#X;X;X;X;X;X9X;X`.!.`.;X;X`.} p.5X5X`.!.V.!.;X!.G.`.;X;X;X;X#X`.5X;XG.j.j.V.V.!.!.j.V.G.j.!.;X!.!.;X;X!.V.!.`.j.V.#X#X;X,X`.3.r./.G.j..X;X;X7Xj.3.`.`.<.<.d.j.Y.,X#Xc.c.j.j.j.j.p.j.Y.c.<...<.j.<.*.7.d.p.! <.;X;X+...j.j.V.A.7.3.<.<...<.<.3.!.c.p.3.p.j.d.#Xr.p.3.<.r.!.!.j.j.j.j.j.*.U J +.<.r.<.<.<.} <.! ( +.R N ! ! ! +.U ! <.+.+.+.+.<.! N ! j.j.V.#Xj.7.!.5X#X!.#X;X;X;X`.!.!.!.!.!.G.V.G.!.;XG.G.!.`..X!.3.3.j.Y.A.G.c.j.d.*.+.j.Y.r.Y.!.G.!.A.j.c.!.!.!.A.!./.r N !.r.d.c.!.r.j.p.3.+.j.Y.A.c.`.#XG.j.A.V.r.<.<.p.c.<.A.;X! h ( d.<.<.3.r.Y.!.r.p..Xj.j.7.+.<.<.! J ( ! ! ( <.c.j.c.j.r.G.j.r.j.Y.!.!./.!.Y.Y.A.!.G.Y.G.!.j.!.;XY.Y.V.j.j.j.j.A.A.<...} <.7.p.j.j.j.3.+.7.3.<.j.c.j.j.A.`./.#XA.p.d.V.c.G.Y.j.j.A.c.p.d.j.G.G.j.j.V.A.c.j.c.A.V.j.3.c.G.A.!.A.j..X!.G.c.G.Y.V.j.j.d.A.!.c.3.j.!.!.V.j.c.p.<.3.d.A.r.3.<.Y..Xr...( <.G./.!.c.A./.!./.!.!.A.c.<.<.Y..Xj..X/.7.j.Y.A.j.j.`.;X;Xj.j.p.j.j.<.p.A.Y.!.c.!..X!.c.G.V.d.!.;X;Xj.} } ! <.<.7.G.!.p.j.<.+.! ! <.j.!.!.#X;X`.!.G.!.;X!.!.`.V.<...<.3.d.*.d.G.7.*.<.<.N U <.+.*.7.U <.7.+.*.! r.3.<.<.+.*.<.*.<.<.! <.} ! <.*.( *...p.!.j.r.!..XV.j.!..XG.d.r.d.V.j.<./.V.( 7.+.! U +.",
"!.!.#X#X#X#X`.#X`.`.!.!.G.V.V.j.7.7.<.! <.V.`.#X).[.;X;X#X;X;X~.!.#X#X;X+X!.$X=X`.;X;X;X`.G.j.j.j.V.!.!.V.!.;X;X;X;X!.j.j.p.j.G.!.j.!.&X`.!./.`.;X&X;X#X.X;X`.j.p.<.3.j.V.c.j.3.<.3.d.c.V.3.j.j.V..X#X!.;X/.V.A.!.c.p.<.*...j.A.G.!.!.!.!.!.G.G.c.G.`.;X#XG.j.p...p.j.d.j.G./.#XG.G.!.;X5X;X;X`.`.#X#X#X#X#X;X;X;X5X;X;X#X#X;X;X+.7.;X;X!.#X`.`.;X`.!.#X;X;X9X9X9X;XwX5X!.V.V.V.G.!.!.j.j.V.j.!.`.G.V.!.!.!.!.`..X!.!.&X,X,X;X/.c.V..X!.c..X;X;X7X!.V.;X/.<.7.j.`.!.;X#Xj.7.d.j.p.p.j.c.G.G.p.( *.<.<.d.j.p.j.#.j.,X;Xr.p.j.<.<.<.+.<.<.*.+.j.V.d.`.!.Y.j.d.j.r.!.j.c.<.! +.j.j.c.A.c.7.<.! C V ! 3.j.<.7.c.j.j.3.<.<.! R } <.<.<.} +.<.+.<.V.!.j.<.+.<.} ! 7.G.j.!.#X5X5X#X`.5X;X;X#X`.`.!.G.G.G.j.j.V.#XG.V.G.j.A.!.c.A.A.!.!.j.j.j.p.<.<.j.V.j.c.V.Y./..X`.`././.!.!./.j.q h V.3.j.G./.V.G.V.<.! <.Y.A.A.;X7.a ( G.!.A.j.3.p.Y.!.`.`.7.<.7.p.3.+.+.3.!.&X!.j.j.<.3.<.*.3.<.! *.3.*...*.3.j.j.!.!.c.!.A.c.c.G.!.`.;X&X/.!.A.j.c.V.G.!.U ! `.Y.c.c.A.G.A.A.A.c.r.7.<.<.7.p.j.j.j.r.<.7.7.<.7.c.`./.`.&X`.&X/.!.j.c.j.j.V.c.c.j.A.j.j.j.V.G.d.p.V.G.G.c.j.c.j.d.<.j.Y.Y.V.p.p..X`.A.j.V.G.V.j.j.c.A.G.c.j.j.j.r.j.d.d.<...<.7.d.3.<.d./.Y.7.7.<.7.c.V.c.V.!.;X#X#X#X.X#X#X!.p.j.A.! 7.A.d.j.A.Y.j.!.#X#X;X`.j.+.j.V.3.j.&X&X&X;X&X!.j.j.Y.c.7.G.;X;X`.G.G.<.+.p.V.j.j.7.7.<.<.+.<.p.G.`.`.`.;X;X;X!.!.;X!.!.!.7...} *.p.j.*.+.r.<.*.<.j.*.} ! R ( *.U 3.7.( ..! ! ! ! ! ! } *.3.p.<.! 3.! N U <.r.7.<.7.c.d.3.G.V.d.j.!..X.X!.j.c.p.<.r.!.d.<.A.c.<.C N ",
"`.`.;X;X;X;X`.`.`.#X#X!.G.!.!.G.p.<.7.<.j.G.`.#X=X=X=X$X;X:X;X`.~.!.#X#X!.G.~.#X`.#X;X;X!.G.j.p.p.G.!.V.j.V.!.`.#X#X!.V.V.j.V.G.Y.3.j././.!./.;X&X&X;X#X`.&X!.r.d.*.<.A.Y.j.7.+...<.r.<.3.<.d.j.j.!.&X&X,X/.c.c.!.p.3.r.<.! 3.V.V.G.!.!.!.G.G.!.G.G.!.`..X!.G.Y.<.p.r.+.+.r.A.!.!.#X;X9X5X;X;X`.#X`.`.!.!.`.;X5X#X#X!.G.!.`.5X;XV.j.;X#X!.;X;X#X#X#X;X;X;X5X5X;X;X`.;X;X!.G.G.V.j.V.!.j.7.j.j.!.`.!.V.j.j.G.!.!.`..X`.#X;X&X!.!.Y.G.Y.V.d.G.`.Y.!.!./.;XA.*.r.c.`.G.!.`.j.r.G.G.j.7.r.r.<.d.c.e.r.<.r.G.j.3.j.p.A.;X`.r.r.p.7.c.p.+...( +.<.j.j.j.!.;X;XA.j.*.! r.V..Xc.3.*.7.d.c.!.V.3.<.<.( N J 7.j...+.r.p.d.<.} } ! R ! ..3.G.j.j.V.j.G.#X;X!.V.!.`.7.<.!.#X!.`.#X;X#XG.G.;X;X;X#X#X#X`.!.G.G.j.j.V.!.G.c.V.j.d.c.j.j.r.p.p.<.3.r.3.3.j.V.c.j.r.j.Y.!././.!.A.A.!..X!.<.y *.c.<.j.j.!.!.!.!.V.r.<.Y.A.!.,Xc   s d.j.V.V.r.j.!.#X/.`.A.j.7.<.*.! ! <.j./..Xj.<.} 3.r.+.( ..+.p.j.<.*.<.<.3.7.V.j.j.A.G.!.A.G./.!.#X.X!.!.!.Y.A.V.j.!.n h j.p.j.j.A.G.V.V.V.j.j.V.j.7.<.r.p.r.c.G.A.j.V.p.<.A./..X`.#X.X;X;X#XA.V.V.j.j.!.!.A.Y.A.j.p.j.G.j.c.A.Y.V.p.7.j.V.c...<.c.G.j.3.p..X!.c.p.d.j.j.j.j.!.Y.G.Y.A.j.r.<.r.p.j.3.<.7.r.r.r.<.3.7.+.! ! U p.d.7.j.!.#X;X#X#X/.!.!.V.!.G.Y.c.J ..V.c.j.c.!.j.V.G.V.!.V.7.<.d.j.<.d.!.!.Y.!.`.A.r.r.G.c.p.!.#X;X;X;X;Xp.! +.<.v N } <.<.+.! 7.G.#X`.!.`.#X;X#XG.!.;X`.G.j.} } *.3.j.j.7.( ( <.<.( <.<.} N D ( <.( d.d.+.*.} ! J v N ! } } <.j.<.<.d.! v N 7.7.<.<.3.j.V.j.`.p.r.j.V.!./.!.j.*.*.7.j.Y.p.j.j.<.! n h ",
"`.#X;X;X;X#X!.!.`.;X;X!.!.#X;X`.V.p.V.V.V.G.;X5X5X=X`.=X:X;X#X#X!.V.!.).G.L.!.!.!.`.;X`.G.j.p.p.7.G.G.j.p.V.!.#X`.#X!.!.!.G.G.G.j.<.3.c.V.D..X;X;X#X;X#X`.!.V.d.j.*.<.c.V.r.<.+.} <.<.! <.p.j.j.r.!..X#X,X#XA.V.Y.r.<.r.7.+.7.j.j.V.G.G.j.V.!.#X`.Y.c.Y.#X&X#X&Xj.d.<.} <.G.!.`.#X;X#X;X5X#X#X`.;X#X!.!.!.!.`.;X#X!.p.7.G.;XwX;X#X!.`.G.V.#X#X`.`.;X;X;X;X#X;X;X#X!.;X5X!.V.V.V.j.!.`.V.p.V.V.G.!.`.!.V.j.V.!.!.G./..X`.#X`.!.`.&X`.Y.G.c.Y.`.A.r.G./..Xj.<.j.V.G.G.Y.!.A.c.!.Y.j.d.c.V.p.c.`.`.G.j.j.A.p.3.V.A..X;X~.r.3.<.<.Y.p...! ! <.d.G.A...r./.;X`.!.r.R <.c.&X!.V.*.} 1.<.p.r.<.r.b.3.J n +.3.O.+.<.*.<.3.+.<.j.j.r.p.Y.`.`.#X;X;X;X5X;X#X`.5X;Xj.j.#X#X!.V.V.p.! N ! !.!.`.`.`.!.V.j.V.j.7.7.<.7.7.j.!.j.p.j.p.j.<.3.7.<.7.r.+.} *.7.c.j.r.j.!.!.!.!.!.c.p.G.#X`.<.k !.!.3.j.7.j.!.!.!.A.A.<.r.j.#X5Xh . N A.p.j.j.*.r.Y.!.!.&XY.j.p.3.....} <.<.j.;XY.3...7.V.7.! +.j.j.c.r.3.j.d.p.j.A.h.j.j.j.!.V.Y.!.j.!.;X.X!.I.Y.!.G.d.!.p.<..X!.j.V.!.!.G.G.G.V.c.A.A.j.p.d.j.d.!.&X/.c.Y.j.<.Y.!..X!./.!.!..X`.V.j.A.j.d.G.!.!.Y.A.j.j.A.A.c.A.j.G.c.r.j./.#X!.j.r.V.!.c.7.r.Y.`.Y.j.d.d.j.A.Y.`.G.A.c.3.3.j.j.j.j.G.c.r.r.j.V.c.A.r.+.*.( R ~ <.7.7.c..X&X#X!.V.j.A.G.} j.c.c.j.+.r.Y.G.A.V.G.j.j.V.G.!.<.! p.V.c.j.c.c.j.c.G.A.c.p.7.j.j.j.!.`.#X;X!.;X#Xj.<.} D +.p.p.<.<.<.+.G.;X`.!.`.`.#X!.7.<.V.!.G.j.<.<.7.j.A.j.c.<.! *.<.! ! <.7.( r...<.<.j.j.<.3.*.} ( ! ! D C ( p.+.( <.r.! C C <.r.*.*...} 3.<.c.r.j.c.V.Y.A.c.c.p.c.`.!.Y.j.C.A...U ! ! ",
"`.#X#X;X;X`.G.G.`.;X;X`.!.;X5X#XV.7.V.G.V.G.;X9X6X$X`.;X5X;X=X;XD.j.!.!.G.!.W.!.!.!.#X!.j.p.7.j.7.G.G.p.7.p.V.`.`.;X#X`.!.V.V.j.<.<.<.7.r.V.#X;X;X#X&X&X/.A.j.A.j.<.<.j.d.<.<.r.<.3.<.} d.A.A.j.j.`.`.`.;X;X!.Y.Y.j.r.d.p.p.j.j.j.G.!.V.j.l.!.W..X/.!.!..X!.!./.A.p.*.( d.#X&X&X!.`.!.;X5X#X;X;X5X;X#X`.!.G.!.`.`.!.p.j.!.#X5X#X`.#X!.j.j.!.!.`.#X;X;X;X#X!.`.;X`.V.!.5X`.j.G.!.j.!.!.j.p.V.V.j.V.!.`.!.G.!.!.!.c.!.&X&X!.!.!.`.5X;X!./.!./.&X!.j.Y.!.!.V.j.!.G.c.G.A.!.!.A.A.V.c.!.`.!.Y.!.!.!.V.V.j.d.r.j.!.!.#X#X!.c.V.p.<.j.+.! } } <.<.j.A.d.j.!.;X.X&Xj.R *.r.A.j.p.( ! *.! *.7.p.V.!.d.! U *.+.} <.<.<.3.<.*.j.!.`.!.G.#X#X;X5X;X#X#X;X;X#X;X9X;X`.;X;X!.j.! N ! <.7.7.G.G.G.!.`.!.j.j.G.7.<.p.+.+.+.7.j.j.p.j.d.j.p.p.3.} <.j.d.3.+...p.G.j.j.c.V.c.c.V.G.3.!././.<.h &XG.<.j.<.<.c.G.Y.V.A.3.} } !.!.r O R Y.p.V.A.<.r.j.j.r.A.c.c.d.7.*.3.<.<.R +.;X/.!.p.d.!.j.*.*.3.j.j.r.3.d.r.<.p.c.3.<.<.<.V.j.!.;X!./.;X#X`./.#X!.A.d.j.c.c.!.V.d.V./..X!.Y.A.j.j.V.G.!.G.c.c.A./.&XG.7.j.j.<.!..X#X!./.V.<.V..XA.d.V.A.V.Y.G.Y.A.c.d.c.!.j.p.j.j.j.7.+.p.#X,X.X!.j.Y..X!.j.c.!.`.!.c.7.<.d.G.!.#XG.A.p.! +.A.Y.V.A.Y.A.7.<.c.#Xj.G.j.<.<.( R ! <.d.c./.;X.X/.!.Y.G.Y.G.+.j.7.j.j.7.j.Y.!.!.A.V.p.j.!.`.!.<.D +.d.d.d.j.r.<.d.A.V.j.p.p.j.j.7.V.`.#X;Xj.j.`.`.j.<.j.!.!.!.j.j.7.} j.`.`.!.`.#X;X!.! N ! p.j.j.j.p.3.j.V.3.c.r.} 3.p.<.*.<.<.R <.*.<.<.<.r.r.p.*.+.<.p.<.D D 7.Y... .<.p.*.<...3.j.<...R n ! ! <.<.d.d.c.!.j.r.V.c.j.!.j.V.j.p.Y.c.<.*.<.",
"!.#X#X;X;X#X`.`.;X;X;X#X!.;X;X`.V.7.j.V.G.!.#X;X6X;X=X;X:X3X;X#Xl.j.!.!.V.G.W.!.!.G.!.G.p.7.7.V.V.#X#XV.7.<.7.V.!.;X#X!.G.j.j.j...<.3.3.<.j.`..X;X&X;X;X`.c.d.!.A.p.7.p.7.<.<.j.7.3.<.<.j.A.V.p.j.`.OX`.;X;X!.c.G.Y.j.j.r.j.j.p.j.G.G.j.j.V.V.V.!.#X&X/.A.r.p.Y.A.p.*.! 3.!.!.^.!.;X!.>X9X#X#X#X;X;X#X#X!.G.!.#X`.!.j.`.!.j.!.;X`.;X`.j.V.!.V.!.!.`.;X9X;X!.!.;X`.7.<.G.!.V.V.V.p.V.!.G.!.#X!.j.p.V.!.`.!.`.`.G.7.j./.#XY.V.Y.Y.#X!.Y.!.!.!.!.A.!.!.V.Y.Y.Y./.A.A.G.V.!..XV.d.j.V.`.!.d.c.!.V.r.d.j.c.j.j.!.`.Y.V.!.!.A.Y.V.j.!.p.<.<.} ( ! <.j..X!.!./.!./.c...p.d.j.3.<.( ! } ( 3.V.!.!.Y.d...+.<.( ( r.r.*.+.j.j.Y..X&X`.!..X;X;X;X;X#X`.`.`.;X;X;X;X4X;X<.h v } j.!.;XV.! +.!.!.!.;X!.j.j.G.p.<.p.} } %.7.j.d.d.j.p.j.7.r.7.*.<.j.Y..XY.3.j.!.A.c.A.!.!.!.G.G.3.!.!.&X<.e 3.<.+.G.h.3.A./.;X#X!.Y.3.! j.*.5 : U V.j.A.G.<.*.c.*.C <.j.d.+.<.3.j.d.r.! ! Y.c..X!./.#X/.G.G.A.c.V.c.j.j.j.r.j.3.+.<.<.7.V.c./.;X#X.X/..X;X#X`.`.A.!.V.p.j.!.Y.j.A.!.!.G.A.A.j.G.A.!..X`.A.j.V.!.`.G.j.A.j.p.!.`.`.!..Xc.D <.!.j.7.j.!..X/.Y.Y.V.j.<.d.A.d.r.c.j.p...R ..V.`./.Y.j.!..XY.V.c.G.!.G.j.<.+.<.j.Y.!.V.A.j...<.c.d.p.j.V.!.j.3.A.;X!.A.7.7.<.! ! U 7.G.!.#X&X!.!.#X#X`.A.j.j.V.*.j.j.d.p.A.`./.V.j.p.j.G.G.G.V.+.! <.r.<.+.<.( ( p.A.7.<.p.G.d.<.j.`.;X;X7.} 7.c.j.7.G.!.G.`.!.j.7.p.j.G.#X`.!.#X#XV.<.7.G.!.V.j.!.j...<.j.<.<.<.<.*.+...<.<.! N *.3.<.<.*.3.p.j.3.7.<.3.<.} r.!.!.<.*.<.r.<.*.} +.j.3.<.<.*.j.j.A.<.d.d.V./.A.p.A.G.A.Y.*.c.`.j./.!.3.} ..",
"!.;X#X;X;X#X#X;X5X;X;X;X`.#X;X!.!.V.!.!.`.`.;X5X3X#X$X;X;X;X$X`.G.W.!.V.j.D.!.!.G.j.!.G.j.p.7.G.#X;X;XG.p.<.p.V.G.#X#X!.j.<.<.<.*.<.<.7.7.d.!.`.;X:X,X;X&XA.d.Y.V.j.p.r.<.*.<.7.3.<.<.3.j.r.c.d.j.A.!./.Y.`.!.c.Y.Y.j.c.d.j.j.<.j.V.j.j.V.V.V.G.!.#X.XY.d.*.<.A.j.3.*.! <.!.Y.!.`.;X!.`.5X`.!.G.G.G.G.!.G.V.G.`.`.`.!.;X!.7.!.9X#X;X`.V.V.V.p.j.V.!.#X;X#XV.j.!.#Xp.} p.G.j.j.7.<.j.j.G.`.!.V.j.j.G.#X`.!.!.`.V.( +.j.!.A.c.G.G.!.A.G./.!.Y.Y.V./.!.A.!.Y.c.A.j.!.Y.!./.#X!.j.c.d.A.j.3.j.G.V.j.d.r.j.j.d.A.Y.j.j./.`.c.j.c.c.`.c.3.*...*.} 3.j.;X#X!..XG.j.d.<.Y.c.!.V.p.} ! ! } 3.V.G.j.j.3.( ( *.} 7.G.r...*.!.!././.`.`.!./.;X#X#X;X5X5X;X#X;X;X;X5XwX;X} h ! +.7.p.V.V.<.j.;X`.;X;Xj.! ! p.p.<.<.U U <.j.V.j.c.G.j.j.7.j.G.G.j.d.j./.!.r.c.j.r.r.r.r.G./.G.c.p.!..XwXp.5 h ! ! j.p.+.j.!.#X&X!./.G.r.A.! e 0 R c.j.V.!.p...V.! N 3.c.r.+.*.p.Y.V.j.*.( j.r.!./.!.!.V.j.A.c.d.j.j.d.d.j.j.G.j.j.j.V.V./.G.!.;X.Xj.<.d.!.`..X/.A.#X!.p.p.Y.!.A.Y.!.G.c.G.!.Y.G.c.G..X.XA.j.j.G./.!.Y.!.c.j.!./.#XY.!.j.D +.r.r.<.<.V.`.!.A.G.A.j.<.7.V.d.d.A.j.d.7.3.3.r.j.A.<.<.c.!.Y.!.G.G.Y.j.j.j.d.<.7.j.V.j.j.d.7.p.j.3.p.j.G.#X/.V.!.!.!.j.! <.<.! *...A.#X#X.X/.A.!.#Xc.j.c.c.!.c.! r.c.j.3.p.!.!.j.7.7.j.G.G.G.#XV.7.3.j.7.*.<.+.( <.j...! 7.Y.j.<.j.G.;X;Xj.p.p.G.!.!.#X;XG.!.G.!.!.!.!.G.`.`.!.#Xj.+.j.;X5X!.p.<.j.j.( <.3.<.( ! <.<.} ! } *...R j.c.7.7.<.r.p.j.j.3.p.j.7.<.c.#X`.V.V.V.j.<.<.} ! ! ! R 3.r.A.p.7.<.V.!.A.G.Y.Y.!..X#XG.R 7.Y.j.V.V.r.*.<.",
";X5X;X;X;X`.#X;X9X;X;X;X`.`.#X!.!.G.`.!.!.!.;XwX=XL.!.:X;X`.+X+X`.).D.g.j.G.!.!.G.j.G.G.V.j.5.G.#X!.V.p.<.<.<.p.j.`.`.!.p.+.+.<.r.<.+.r.r.7.Y.#X`.&X;X#X`.V.3.d.d.p.7.3.<.<.*.<.3.<.<.7.7.*.V.A.A.j.j.Y.r.G.#X`./.Y.j.A.V.A.j.<.V.V.j.p.V.V.V.!.`.oX!.c.j.<.*.p.3.*...! <.V.j.j.!.;Xj.j.;X#X`.j.<.7.p.j.j.p.j.!.G.`.!.#X!.j.#X5X9X5X#XG.V.j.j.j.j.V.!.!.V.p.p.V.!.G.j.V.G.j.j.G.V.V.j.V.!.V.p.j.j.!.;X`.V.!.`.G.<.<.p.A.V.j.j.j.G.V.!.#X.X!.Y.G.Y.!.!.#XY.r.d.p.j.j.!.`.;X,X#X`.A.j.r.3.7.r.j.!.d...<.r.*.3.j.3.j.`.&XA.c.c.r.p.<.! ! ..<.+.<.d.#X&X/.,X!.p.7.3.j.<.G.!.j...} +.} <.j.d.7.r.<.! 7.3.<.c.!.<.+.G..X;X;X`.#X;X;X;X;X;X;X5X9X5X;X;X;X;X5X;X;X#XG.!.V.+.<.7.V.!.!.`.;X#X;X;X<.N U j.p.<.j.+.} <.p.j.A.Y..X!.c.<.j.!.j.c.V.j.j.3.} j.!.j.7.( N *.G.j.+.j.;X&XqX+.w ! r.<.x.j.<.j.!.#X#X`.!.!.!.V.N y f ! c.j.d.A.j.*.<.U ! j.r.j.j...3.A.j.r...! p.j./.!.V.V.c.V.!.G.V.V.Y.j.p.j.c.Y././.Y.G.A..X!.Y.;X.Xj.<.j./.!..X!.V./.!.A.j.A.A.j.V.G.V.j.A.Y.A.d.p.j.!./.G.j.j.G.!.A.A.j.7.j.!.!.&Xc.j.j.*.j.7.j.j.7.j.!.c.V.G.G.A.7.j.!.j.p.j.V.j.j.V.p...<.V.+.<.j.Y.!./.G.j.j.7.d.!.Y.3...<.!.V.r.3.j.c.V.Y.!.!.`.,X;X/.^.V.G.G.} r.c.} <.j.`.,X&X!.G.j.V.`.p.7./.;X;Xj.( r.p.j.<.*.c.G.d.<.} +.!.5X`.#XV.p.<.<.<.<.<.<.<.<.7.} ! <.V.c.7.j.j.;X!.V.#X`.`.`.`.#X`.G.!.!.!.`.`.`.V.!.`.#X;X<.} j.;X;XG.p.<.j.j.+.3.<.7.! ! <.3.+.R R *.r.<.!.!.p.p.3.r.3.j.j.7.Y.!.d.<.c.`.`.Y..X`.A.*.+.! C ! R C 3.d.A.<.( } c.!.j.<.j././.!.!.c...p.3.} 3.A.c.d.j.",
"#X;X;X;X5X;X`.;X;X;X;X5X;X#X#X!.[.L.N.!.;X;X;XwX;X!.#X=X!.!.!.l.!.~.L.!.G.V.#X;X~.j.j.j.A.c.3.j.!.!.<.( *.<.j.A.j.G./.!.c.7.+.<.d.A.7.j.<.3.!..X#X.X`.`.&XV...*.7.r.j.<.<.d.V.} *.<.<.j.p.<.j.r.!.!.c.j.V.V.!.#X;X&XV.A.!.V.G.j.j.G.7.r.j.Y.j.V./.#X/.j.<.7.! <.....*.<.<.r.j.V.j.#XY.V.`.`.G.p.r.<.p.j.d.7.<.7.V.!.`..X/.!.`.&X;X;X;X;XG.V.!.j.j.j.V.j.j.j.p.p.V.3.j.V.j.Y.!.!..XG.c.c.!.Y.#X!.V.G.!.!.j.A.`.!.j.j.V.A.G.c.g.A.Y.!.!.Y.!.!.A.G.j.L.&X&X.XY.r.3.+.c.G.A..X;X!.j.A.c.<.p.p.<.V.A.<.<.} <.+.} d.j.V.c.!..X/.<.7.d.7...r.c.j.j.j.A.G.!.#X;XY.d.d.<.d.<.d.G.d.<.<.<.! ..<.<.<.<.2...j.p.p.A.d.U ! V.j.d.!.;X!.!.,X/.p.<.!.;X#X#X5X5X;X5X9X;X;X!.!.!.j.Y.j.G.j.G.`.!.G.!.&X.Xr.( <.c.V.G.G.j.p.r.Y.p.A.;X5X;XV.r.j.A.7...j.c.7.+.*.G.!.!.!.3.+.( } <.<.j.!.,X;X2 8 *.V.p.c.A.<.j.G.!./.!.A.V./.A.( e a +.A.j.p.j.<.+.+.z ! <.<.d.r.d.3.7.j.<.( <.p.c..XG.j.V.!.G.j.c.A.V.!.Y.G.d.V.Y.!.#X/.`.Y.!./.!.#X/.`.&X`./..XA.A.A.`.&X!.!.G.c.d.c.!.Y.c.c.V.j.r.3.j.j.r.j.G.!.Y.V.V.j.d.<.j./.`.`.Y.p.<.p.<.r.r.7.c.j.A.j.j.G.Y.!.V.c.c.j.c.j.V.G.j.!.c.d.G.!.V.j.V.!.G.c.j.j.j.j.j.j.G.V.7.d.V.j.*.<.j.c.G.!./.&X#X.X/.!.!.A.A.!.j.j.V.<.*.G.#X;X`.Y.!.!.G.Y.A.G.`.`.!.p...<.d.V.r.d.A.c.j.7.<.j.j.!.;X!.! <.c.j.j.<.+.j.d.<.<.7...} j.V.d.r.p.V.!.`.G.!.;X;X;X!.`.#X!.;X;XG.!.G.j.!.`.#X#Xp.G.;X;X!.!.V.7.j.7...<.*.*.} ..<.j.Y.<.J } <.d.A.!.!.c.<.<.3.p.j.7.*...} +.V..XY.j.V.!.3.! <.J R } ! ! <.d.j.7.U D r.c.p.+.p..XV.c.G.j.j.Y.p.( r.G.Y.j.p.",
"#X;X;X;X9X;X#X;X;X;X5X5X5X;X;X`.`.!.D.!.;X;X;X6X;X$X;X[.L.G.V.N.!.`.~.;X=X).;X;X&XA.G.!.!.!.j.d..X!.<.! <.j.`.;X.X.X.X!.V.p.<.3.j.G.c.!.c.c./.!.;X;X.X.X;XV.( *.<.3.j.*...j.Y.3.! <.j.G.d.<.p.r././.c.j.Y.Y.!..X,X7X/.!.!.c.A.c.j.A.d.p.V.c.r.c./..X!.d.<.7.} <...*.3.3.<.3.j.G.j./.A.c.A.j.7.*.3.p.V.A.A.c.7.3.c.A.&X;X`.!.Y.&X#X#X;X;X`.!.`.!.j.j.j.j.V.j.j.j.r.*.p.j.j.A.!.!.!.V.j.c.G.c.`.#Xc.j.j.c.V.!..XY.j.c.Y.Y.G.c.j.!.!.!.!.j.c.G.V.Y.Y.G.`.;X;X/.j.<.r.G.c.3.d.A.j.<.c.j...*.3.<.p.*.+.+.} *.*.<.j.A.r.j.!.&X!.3.p.V.V.j.V.Y.Y.G.c.G.V.!.#X!.c.p.*.! 3.*.3.V.r.} <.*.( ! +.r.r.3.<.<.3.r.p.j.p.! N C e w ! !.<.J } ! 0 v `.;X`.p.;X5X5X9X5X(.#X`.j.7.*.j.Y..XA.A.!.j.c.!./.!.Y.c.j.V..X/.!.j.d.r.c.V.!.#X&X#X.X.X`.!.<.( <.<.<.<.7.j.j.;X;X!.r.<.*.} 3.<.d.;XN + s G.G.j.A.Y.p.V.Y./.!.Y.!.!.!.`.j.8 8 +.!.G.p.d.*.+.! v R ( +.r.7.j.j.<.<.3.3.j.V.G..XG.r.j.!.Y.j.V.!./.!.j.j.7.r.d.V./.G.#X/.G..X&X&X;X$X&X`.Y..X/.j.V.A..X.XG.Y.Y.c.V.G.A.j.d.c.V.A.p.d.r.<.j.G.!.G.j.V.j.j.3.c././.!.Y.c.<.p.r.d...+.j.c.V.A.Y.A.A.!.V.j.j.c.V.j.V.!.j.c.j.j.!.!.A.d.c.Y.c.j.V.j.j.j.j.j.V.j.<.7.p.d.7.V.#X`.Y.A..X`.<.! c.!.c.j.c.c.3.p.A.p.r.G..X;X.X/.`.Y.c.Y.!.Y.G.!.!.c.d.c.A./.!.j.r.*.<.p.G.G.G.!.`.G.} p.!.!.Y.*.! 7.r.p.<.<...*.d.j.p.j.7.N.#X;Xj.<.V.;XG.p.V.`.!.`.#X!.j.G.V.G.`.#X`.j.j.!.`.V.j.V.j.7.j.r.j.d.7.<.<.<.A.`.j.! ! <.d.d.V.V.j.7.3.3.r.j.d.+.*.<.+.j.`.L.j.r.d.r.} 3.3.r.<.+.} ..p.V.3.! <.j.j.j.p.j.!.j.V.!.!.G.!.j.<.Y.G.V.3.<.",
"`.#X#X;X5X;X`.#X;X;X;X5X5X;X#X`.#X`.!.`.=X$X#X;X=X;X$X!.G.D.N.!.!.#X+X;X;X`.`.!.`.!.#X&X/./.A.b.;X;Xd.<.7.j.!.!.!.!.Y.V.j.j.7.p.G.!.!.&X!.#X;X`..X;X#X$X,XG.} <.7.p.Y.3.} p.V.7.( d.A.G.j.p.A.Y.G.!.c.V.!.A.j.A.`.;X#X/.!.j.d.3.*.j.j.3.j.3.<.V./.`..XG.7.t.*.3.d.j.Y.A.p.7.c.!.A.G.j.V.c.<.<.*.<.j.A.V.Y.!.A.c.V.A.,X.X`.;X!.!.#X;X;X;X#X!.!.!.j.j.j.j.V.V.V.V.p.<.d.p.3.j.Y.Y.Y.V.j.V.Y.c.!.;XA.j.j.j.A.!.!.c.j.A.!.!.Y.V.V.`.`..X!.j.j.A.G.!.;X!.!.#X.X!.A.j.!.!.V.7.<.7.<.<.p.7.( <.d.j.j.<...+...} *.d.A.c.j.A.A.!.G.V.V.G.c.Y.!.!.`.!.c.G.!.&X#Xj.p.p.( ! <.<.*.j.<.( d.j.<.+.*.p.d.p.7.3.3.d.d.j.c.r.U y 7 w R !.A.<...C 7 ! wX`.#Xj.5X#X#X5X5XG.`.`.j.7.j.Y.!.G.7.c.`.c.V.`.;X!.c.j.j.j.!.Y.Y.<.r.c.G..X`./././.&X5X;X.X3.} ..<.<.r.j.j.c.&Xp.A.r.r.j.d...3.<.V.7 s Y.Y.!.A.V.A.j.!.G.!.!.A.G.A.c.!.G.3 1 ..!.Y.d.7.<.<.} ! ! ! ( } } <.d.j.7.<.*.d.c.c./.Y.j.V./.!.A.!.#X&X.XV.V.r.3.p.A.!.*.j.`.!..X!.!./.j.c.!.V.V.G.j.V.p.!.`.j.A.!.A.V.G.Y.j.r.d.c.!.d.r.<.<.j.G.A.V.j.V.V.j.<.j.!.A.V.Y.!.j.x.p.<.+...V.A.j.A.!.r.p.V.c.j.V.A.j.3.c./.j.d.c.A.G.Y.A.d.j.V.j.A.!.V.c.j.d.p.V.V.7.<.3.d.7.j.!.!.V.d.r.p.D c 7.G.r.j.j.j.7.d.c.j.c.!..X#X.X/.!.c.A.#X#XV.<.7.j.j.j.c.j.G.A.d.r.p.p.j.j.!.#X`.V.j.<.p.!.`.;Xj.<.j.r.j.<.} } 3.j.j.p.V.V.!.;X5XV.! <.`.j.} <.V.!.#X;X#X!.!.G.!.$XG.j.j.V.!.!.p.7.j.j.7.p.p.V.d.3.+.*.<.c.(.p.J C ..j.V.j.d.r.r.1.<.r.A.j.<.<.r.<.s.Y.j.j.7.<.d.3.7.p.j.j.7.<.<.j.Y.<.R j.c.j.j.j.j.!.Y.A.!.#X!./.G.7.!.Y.G.d.d.",
";X;X#X;X;X#X!.!.#X;X;X;X9X;X$X#X;X;X$X#X#X#X+X+X`.`.!.N.V.G.D.~.[.;X[.!.!.!.C.a.c.c..X#X!.!.!.Y.&X;Xc.r.j.j.V.j.j.j.A.V.G.!.Y.!././.`.&X/.,X,X#X#X#X#X.X.Xj.<.d.7.3.!.V.7.j.A.Y.r.c.j.j.j.V.!.!.A.`.!.!.!.j.d.c.A.#X#X.X!.c.p.<.} j.A.3.d.<.r.!.!.!.;X;Xj.7.<.r.j.Y.&X#XA.j.!.&X`.V.r.V.V.<.<.<.3.c.A.j.A.!.G.G./.Y./.*.3.5X`.A.;X;X#X;X&XV.j.G.V.V.j.V.G.V.j.j.c.j.j.3.+.p.G.!.Y.Y.V.A.!.!.!./.Y.Y.Y.G.G.Y.Y.A.V.Y./.Y.V.j.j.!.!.`.!.j.j.!.`.#X`.c.G.!.G.G./.;X7X`.j.p.p.r.7.7.<.*.} r.c.j.c.j.+.<.*.! *.V.G.d.A.!.G.!.G.Y.<.R d.!.`./.&X/.c.Y.#X;XA.*.*.r.*.r.p.3.<.7...( r.j.<.<.+.<.*.r.7.<.<.p.j.V.!.!.d.U h C ! 3.G.!./.#X<.G.;X+.V.!.5X`.`.;X;XQ.`.!.!.j.c././.V.7.j./.c.Y.!.;X!.+.<.j.c./.!.G.D ! A./.;X/./.`.!.!..X`..XV.3.<.r.p.j.G.G.V.r.r <.j.p.<.} ! j.p.!.y C G.p.Y.A.j.j.c.!.c.c.G.!.Y.V.c.!.;Xh 2 } j.j.r...! } *.*.! ( ..! ! ..<.A.<.<.<.j.j.V.c.V.Y.!.!.A.V.!.`.!..X`.!.j.p.A.Y.!.( <.&X#XG.j.r.<.R ( G.A.<.3.c.j.7.j.Y.j.A./.!.V.A.!.V.p.p.V.V.j.a.7.3.j.E.V.c.d.A.G.j.<.d.c.G.`.`./.A.c.3.<.3.<.j.d.r.c.`.V.j.j.j.j.G.Y.j.<.j..XA.j.!.A.j.c.G.j.j.j.c.!..X!.!.j.<.3.j.V.3.( <.c.c.j.V.A.c.r.*.<.+.} p.A.j.j.j.A.A.G.V.c.!.#X;X.X#X`.j.d.G.#X/.d.! } <.<.p.j.c.A.G.j.A.`.A.d.7.G.#X!.p.G.V.j.<.j..XA.j.G.3.7.<.! ..j.A.d.r.G.`.#X;X;X!.<.<.!.j.%.<.j.!.#X!.j.`.#X!.`.;XG.j.!.`.#X!.j.7.j.j.j.j.7.r.+...( } ! A./.7.! *.*.<.G.!.A.j.c.j.r.p.c.d.<.7.p.p.V.!.c.j.j.<.d.j.p.+.d.j.7.<.r.V.A.p.<.c.V.d.j.j.j.G./.A.!..X!.!.A...<.V.!.G.!.",
";X;X#X;X;X;X`.#X;X5X5X5X9X5X;X;X;X;X;X=X#X#X$X#X+X!.G.j.j.D.G.!.`.;X).V.C.L.N.7.<.<.c.Y.G.!.Y.j.#X;Xc.p.d.d.j.j.p.j.G.G.!..X.X#X`..X.X#X/.,X;X.X,X.X#X!.j.7.r.c.7.<.G.!.A.G.Y.;X!.`.G.A.!.!.Y.A.!.#X/.!.L.d.r.j.c.`.#X`.!.V.j.p.<.V.G.<.d.r.j.!.!.Y.`.;XA.7.*.7.r.V.`.&X!.Y.#X7X,X!.d.A.j.+.*.<.<.j.j.j.j.j.c.G..XG.!.} +.#X!.V.;X;X;X;X;XG.j.j.j.j.p.j.V.j.j.j.j.d.d.+.! 3.A.!.G.!.A.c.A.Y.c.c.V.!.`./.!.!.!./.!.!.!.V.j.j.p.j.G.!.Y.c.G..X;X,XA.p.V.!.G.Y.!.#X7X!.7.<.<.r.p.7.*.+.*.3.r.7.3.3.j.d.7.*.<.p.r.<.c..X#X.XG.G.*.C j.&X;X#X&X!.A.`.;X;X<.! } p.V..X<.*.7.<.! } +.<.+.<.*.<.+.r.<...! *.7.j.d.p.d.<.R +.} +.A././.5X;Xp.<.h N j.V.!.#X`.!.!.!.p.j.<.*.Y.#XY.c.V.A.d.j.7.V.j.+.3.!.&X/.!./.( ! G.#X#X/.!./.`.!.!.!./.G.r.+.<.r.d.j.j.+.*.r <.p...! ! } j.p.!.J v <.V.Y.!.j.d.j.Y.j.A.V.Y.!.c.j.Y.7Xk , ! <.j.V...J ! 1.*.( <.<.! +.*.<.j.! <.c.V.<.j.j.c.!.#XY.c.A.Y.Z.d.`.;X`.j.c.G.j.G.7.d.#Xp.R 3.j.j.7.<.!.!.<.j.V.p.d.j.A.!.Y.`.!.V.j.A.A.j.j.!.V.A.A.j.3.d.Y.Y.j.r.V.Y.G.j.V.d.c.7X;X`./.c.+.3.7.r.c.d.<.7.!.!.`.A.p.d.Y.!.V.j.j.`.!.G./.c.p.V.G.V.d.p.V./.`./.#Xc.<.<.d.j.<.R <.A.!.G.j.j.V.A.c.p.g.p.r.j.j.j.V.G.Y.Y.A.!.&X&X&X!.#X`.r.<.j.j.A.3.! *.7.7.c.Y.Y.!.;X`.!.!.j.7.j.V.G.j.<.G.`.!.( <.!.G.c.G.p.j.p...<.j.j.<.<.!.;X;X#X`.!.j.<.p.j.j.G.!.`.#Xp.N !.;X`.!.#X#X!.!.`.`.!.j.j.p.7.!.j.3.+.! } *.3.+.V./.A.A.!.j.r.Y./.Y.A.Y.!.G.V.c.V.A.j.r.j.!.Y.V.c.j.r.p.j.j.+.p.G.d.3.c.d.3.G.!./.!.j.p.c.V.Y.!.Y.!./.!.Y.j.! ! j.!.!.!.",
";X`.`.;X;X;X;X;X;X;X;X;X;X;X;X;X$X;X;X;X#X$X;X;X+XV.V.C.N.L.!.!.!.#X!.j.j.V.j.7.<.<.d.j.j.j.p.*.`.&Xc.d.d.3.7.3.r.d.A.V.V./.#X&X.X&X.X`.`.;X;X,X;X/.;X.Xj.r.d.j.r.3.j.A.V.c.j.`.;X;X!.G.!.!.G.!./.`././.Y.d.7.<.j.!.#X.X!.G.c.c.7.j.j.3.j.G.!.!.&X!.!.;X!.j.r.j.j.V./.&X/.!..X;X,X#XG.!.j.*.<.<.<.r.r.r.7.r.V.!.!.c.#XY.j.G.j.G.#X;X;X;X;XV.7.<.<.p.<.p.j.j.V.j.d.7.3.} ! <.d.j.j.A.V.j.p.c.d.p.c.!.!.!./.!.!.`.!.`./.G.A.A.c.V.V.Y.c.j.G.`.;X;XY.j.j.Y.!..X!.Y.c.c.j.<.( *.p.r.<.<.<.<.<.r.3.<.G.j.d.j.r...+.r.A.`.;X/.G.!.c.j.A..X#X.X/.V.Y.&X9X,X<.+.<.A.&X7X<.( <.*.} *.*.p.<.<.<.j.7.7...} ..! ..r.3.<.<...+.3.3.<.j.!.!./.U r v r d j.!.#X;X!.`.5X`.7.V.j.<.V.!.V.!./.!.j.*.( <.7.7.p.j.;XV.d.`.G.j.!.&X/.!.!.Y.`.#X/./.!.A.p...( 3.j.j.7.<.!.<.<...J } 7.A.V.j.G.j.} <.<.G.!.G.j.p.V.c.!.A.j.G.j.d.G.`.1 % R ..c./.<.! ..d.<...d.p.+.<.<.*.c.<.j.7.r...j.A.V.!./.!.G.!.!.c.7.`.&X!.V.G.A.d.<.<.j.d.s q } r.j.G.j.A.V.3.`.Y.j.V.j.G.`.G.!.G.j.j.V.G.c.c.!.!.`.!.j.<.r.Y.!.d.3.V.!..X&X`.7.<.!.A.!.;XG.( *.j.G.!.j.*.} c.!.;XG.p.p.G.!.V.c.j.!.!.G.Y.j.j.!.V.j.p.p.A././.!.`.c.7.p.p.p.p.<.p.G.!.A.7.*.j./.Y.V.V.d.<.3.j.A.!.Y.V.G.!..X;X`./.A.!.Y.<.<.p.r.c.r.7.j.c.j.G.`.Y.!.;X&XG.d.r.r.j.j.p.p.+.p.G.#XA.V.!.G.j.c.A.!.Y.<.*.<.3.<.<.Y.G.!.`.!.#X`.V.j.!.!.;X;X#X;XV.} G.`.`.!.`.#X!.G.!.`.!.G.!.p.<.j.p.p.r.+.} ..d.j.j.A.Y.Y.c.j.Y.!..X!.G.Y.!./.`.!./.#XV.3.j.A.j.j.j.3.p.d.r.j.<.<.G.Y.A.!.r...!..X.X#X!.V.A.!./.#X!./.`.!.V.3.} <.Y./.!.!.",
"`.!.!.#X#X#X;X5X;X`.!.`.`.#X#X!.`.+X;X;X#X#X;X:X`.j.D.!.!.!.!.+X!.!.C.a.j.j.0.p.3.7.7.3.7.r.7.<.G.!.c.j.j.3.3.7.d.j.G.V.V.`.;X&X!.;X/./.`.#X`.;X.X`.;X;XG.c.j.7.<.p.7.d.c.G.j.j..X!.j.p.j.d.j.&X;X&X&X;X!.j.j.r.d.A.!./..X/.G.A.c.c.j.V.!..X/.!.&X#X/.#X!.G.V.Y..X!.`.&X.X!./.`.#X;X!.!.G.j.j.d.<.p.j.d.<.<.c.A.A.j.!.!.V.c.c.A.G.`.;X;X!.j.j.7.<.p.<.<.p.p.G.G.j.r.7...! *.3.r.d.j.j.c.j.G.j.7.d.c.c.A.!.!.G.Y.!..X&X/.!.`.!.!.c.V.p.p.c.Y.!.!.A.j.j.j.G./.I.c.*.7.j.d.+.*.d.j.7.7.p.<.<.d.p.p.c.d.3.c.c.<.7.Y.j.j./.!.!.V.c.Y.!.!.!.`.G.p.V.!.;X.Xp.7.3./..X/.V.<.<.r.<.<.<.j.p...! d.3.*.! +.7...*.j.A.A.j.*.! <.<.! ! <.j.;X! D s.N <.5X9X;X!.j.!.;X!.<.j.!.p.j.V.j.!.`./.G.<.( <.p.j.r.*.j.j.} r.Y.!.Y./.V.j.G.j.G.!.Y..X!.Y.j.*.! r.V.d.j..X;XV.( *.( ..<.V.d.j./.#Xj.<.*.d.G.G.j.r.j.d.V.V.c.!.c.j.c./.q 4 3.} 7.Y.<...<.p.<.} 7.d.7.p.7.3.d.j.Y.C +.7.V.c.c.j.c.Y.Y.G.!.!.7.A.G.c.j.c.V.c.+.*.j.<.s h <.R <.3.<.p.p.r.!.!.V.c.j.G.!.j.c.j.j.c.A.A.j.d.c.!..X/.j.<.3.V.j.<.r.`.#X;X;X.X<.( <.*.G.&Xc...*.j.Y.G.<.! } Y.`.`.G.j.p.V.!.c.c.V.G.!.j.j.r.G.&XG.j.j.j.V.!./.G.!.j.7.j.j.p.j.p.3.A./.!.j.<.p.V.c.Y.Y.j.3.p.G.!..X.X!.!.!./.#X/.A.j.j.j.j.3.7.j.c.p.V.!.G.j.c./.!.!.#X`.V.d.d.<.<.<.7.G.j.p.p.G./.j.c.G.c.c.V.j.V.7.*...<.<.*.V.p.j.!.`.;X5X;X;X#X!.#X;X#X;X`.!.j.j.!.#X!.!.`.!.!.`.!.!.!.G.7.7.d.j.c.r.+.! <.3.V.c.j.p.*.<.Y.!.&X!.!.!.!.!.`.`.!./.A.d.c.A.V.A.j.7.7.j.7.j.d.7.j.!./.!.j.j..X/.!.`.`.!.!./..X&X/..X!.!.j.<.r.A.&X#XY.!.",
"#X!.`.#X;X`.#X;X5X`.!.!.`.#X#X!.).`.;X;X#X[.=X=X`.C.!.[.`.!.!.;X!.!.j.g.j.a.p.D.p.<.( ( 3.j.j.j.!.`.A.A.V.r.p.j.j.j.Y.V.A..X#X/.j..X!.`./.A.d.V.,X;X,X#XY.A.d.<.<.G.j.p.G..Xj.3.!.c.3.<.d.7.d.;X,X;X&X.Xj.r.A.V.d.r.3.j.!./.A.j.Y.V.c.`.!.!.G.A.!.;X#X.XA.A.Y./.#X!.!.`..X.X.X`.!.;X!.Y.!.!.Y.j.} 3.j.V.7.r.G.c.j.V.!.Y.Y.#X.Xj.j.!.#X`.!.V.!.!.V.G.7.<.<.7.V.V.V.j.r.*...<.7.d.d.r.j.!.!.#Xc.7.<.r.r.j.Y.Y.c.A.!.#X;X.X/.`.!.!.j.j.3.7.j.j.j.r.j.V.V.p.7.r.<.+.7...<.p.r.r.j.V.j.p.d.<.+.*.*.r.V.j.3.c.A.r.j.A.3.<.!..X.Xj.j..X.X!.!.#XG.<.d.j.r.3.<.<.+.!.j.<.G.<.<.V.c.<.<.c.j.( N <.*.<.*.d.d.3.p.Y.G.A.j.} ..+.} +.3.D h *.<.<.j.v `.wX9X5X;Xj.!.!.G.7.7.!.r.d.G.j.j.j.!.`.V...<.c.G.j...} <.N N j.`.Y.!.<.+.c.p.r.<.7.!.Y.c.3.( R <.3...j.;X!.j.! j.<.3.A.d.c.j.d.V.!.V.j.<.d.j.j.r.j.<.<.r.A.!.3.! R G.( z `.<.*.A.j.c.!.p.<.} <.p.p.d.r.!.! ! j.f ! <.3.j.A.j.j./.!.A././.<.<.7.p.7.r.A.Y.d.j./.G.<.Y./.j.A.p.c.`.!.!.V.A.A.7.3.V.c.p.j.j.A.A.j.d.7.3.j.G.!.!.c.<.3.d.+.( j.5X,X.X.X!.( U R <.;X&Xr.} +.3.j.V.7.<.r.!.j..X!.c.r.j.Y.G.!.A.V.!.j.7.r.!.;X#Xc.A.!.c.G.!.d.Y.r.<.d.p.3.r.<.! j.!.!.j.p.d.7.j.c.V.j.<.j..Xj.!.&X#X!.j.p.c.Y.j.j.p.V.!.d.<.j.j.p.Y.`.Y.j.j.!.!.;X;X`.A.Y.!.3.+.+.<.#X5X`.7.<.j.} <.!..X!.V.+.+.<.d.<.<.*.} V.G.G.`.`.#X;X#X;X`.j.!.;X;X!.V.j.j.j.`.`.V.!.#X!.!.`.`.!.!.#XG.7.d.r.r.r.p.<.<.( c.c.j.p.r.r.c.V.d.7.j.G.G.A.Y.!.!./.!.!.!.!.Y.!.V.V.<.d.d.j.!.!.Y.;X#Xc.j./.&XG.!.Y.!.!.`.#X/.!./.`.Y.Y.j.<.j.!.&X/.V.!.",
";X#X#X;X;X;X;X;X;X#X;X`.;X`.!.`.!.A.`.#X.X.X&XY.!.Y.`.&X&X/.Y.&X/.Y.V.<.<.j.r.r.!.r.} ! <.G.V.d.`.#XG.Y.j.<.<.j.!.j.p.c.G.A.!./.j.G.A./.Y.A.d.p.!.;X&X.X!.Y.d.r.j.r.p.<.7.!.Y.r.p.p.<.} <.7.+.A.;X;X#Xj.3.0.3.d.j.j.j.d.!./.!.V.d.A.!.!.j.*.3.d.&X;X;X$X!.c.;X[.`.!.!.#X#X;X`.;X;X!.#X!.!.#XG.7.+.G.G.j.s.p.V.!.V.!.!.!.!.!.!.G.!.!.!.G.j.G.G.!.V.j.j.V.p.<.j.j.d.j.3.*.r.d.r.p.j.p.c.!..X.XA.!.j.<.7.A.Y.G.A.c./.,X;X#XA.Y./..XV.p.j.j.j.d.j.3.7.p.V.j.<.<.*.*.d.*.<.V.V.j.V.j.d.7...<.3.! +.j.c.d.<.j.V.7.<.<.<.j.!.G.V.!.!.`.#X!.d.!..XV.G.j.+.r.j.!.`.Y.j.<.d.j.<.r.j.j.*.+.d.<.J ..U *.R D R 3.G.!.d.p.c.} ! j.+.! <.( J J ! ! ! ! A.&X;X,X;X!.V.A.d.V.j.<.*.j.A.V.r.<.j.!.c.j.j.!.!.p.} *.! R N 3..X/.p.V.! U r.*.U <.<.d.j.3.<.<.*.*.c.j.j.<.J ! 7.d.j.7.j.#X<.J j./.Y.c.3.7.<.*.j.c.c.<.7.j.3.*.! v R *.D G.!.!.!.j.D.5X/.A.j.d.d.Y.Y.#X;X7.! V.<.<.! ! 7.V.!.;X;X!.`.#X`.p.<.7.p.j.<.V.!.!.`.#X!.!.;X#X`.!.!.!.!.`.`.!.A.c.j.V.c.<.<.!.j.j.j.+.7.7.j.j.V.V.7.j.p.G.`.j.V.!.;X;X&X!.j.U U ! j.&X#X<.R ! ( j.j.<...3.V.j.c.V.j.j.c.r.Y.!.!.Y.Y.j.j.A.!.;X.X!.!.d.<.V.V.+.d.p.7.3.7.j.7.!.<.( } p.j.V.c.<.<.j.A.A.j.c.!.j.j.#X#X.XV.p.3.j.r.d.j.j.j.j.3.j.j.c.!..XV.c.r.7.p.`./.Y.r.p.!.<.( <.d.G.`.&XY.*.+.R ! V.;X/.!.<.r.<.<.A.j.j.j.j.j.!.#X;X;X#X#X#X!.j.!.;X`.p.! 7.G.G.!.`.!.!.`.;X#XG.G.`.#X;X`.G.G.V.<.<.j.d.3.j.G.p.<.j.G.<.<.<.V.j.G.V.p.j.!.!.`./.`..X!.!.!.G.j.V.j.j.j.G.;X`.!.#X!.<.j.#X#X;Xj.!.!.G.`.;X`.`.!.!.G.G.G.j.j.!.`.!.} +.",
";X#X#X;X;X#X#X;X`.!.#X!.!.G.!.#XG.V..X&X/.!.`.!.!.A.!.#X#X!.Y..X#X!.!.c.j.G.p.+.r.*.} ..p.j.d.A.!.Y.j.A.d.<.*.p.c.r.r.d.d.3.3.j.!.!.G..X&X;X/.!.`.&X/.!.!.Y.r.<.j.d.j.p.7.j.j.7.7.p.<.( +.7.} p.G.Y.l.<.<.j.j.a.c.A.c.7.V.Y.!.j.d.Y.Y.V.j.j.j.p.!.!.[.;X#XC..X`.#X#X;X;X;X5X#X;X;X!.#X!.!.`.j.<.p.!.G.V.G.G.!.#X!.!.!.!.G.!.!.G.G.V.c.c.d.c.r.3.d.j.G.!.d.<.d.7.d.p.3.<.7.j.j.c.j.<.7.r.V.!.j.d.j.j.G.`..X!.V.A.!.;X#X;X`.`.!.A.j.c.V.d.r.<.d.d.r.7.j.j.j.c.d.r.*.+.<.j.c.j.j.<.<.<.<.d.p.*.<.<.3.<.7.Y.c...} *.p.j.V.d.p.V.Y.!.`.!.p.c.Y.V.!.G.r.!.#X9X!.( +.3.j.d.*.3.p.r.*.<.<.! J <.R ..! U j.j.j.j.<.<.p.! N r.<.( ..! ! ! ! <.c.V.!.`.;X5X;X.X!.Y.d.j.d.<.<.j.c.V.j.p.G.A.r.7.c.#X.X7.! ( +.} R 3.!.G.+.<.D ! !.j.( ..+.7.V.j.p.<.<.<.j.p.<.+.( <.j.j.j.3.7.!.r.<.!..X.X`.!.} J U 3.c.j.r.<.p.! ! ..R ! <.<.<.j.!./.!.`..X`.!.G.Y.c.A.j.G.;X!.<.<...<.z c +.V.!.`.`.!.#X#X#XG.G.!.G.V.<.!.!.!.`.#X!.!.#X`.`.`.`.`.#X#X`.!.A.j.d.j.j.<.*.j.3.r.d.<.j.V.Y.j.j.A.r.3.<.G.,X&X#X&X;X.X!.j.j.r.! ! p.!./.3.*.<.<.d.d.7.<.r.A.A.j.G.A.j.j.p.!.A.G.Y.!.G.c.G.!..X!.V.A.p.<.Y.!.d.} <.p.3.<.7.<.A.d.( ! ..7.c.j.3.<.j.c.c.j.<.3.j.G.9X;X`.!.G.3.<.<.3.j.d.7.<.+.7.r.r.A.!.j.j.r.3.<.d.r.p.7.<.p.<.} j.!.Y.A.!.!.d...} <.j.;X/.r.+.3.<.<.A.G.G.j.j.j.V.!.`.#X#X#X;X!.V.!.#X`.j.p.j.V.V.!.!.!.!.!.`.!.G.!.`.#X#X`.!./.j.} +.j.p.3.j.j.p.7.p.V.<.<.p.p.j.G.G.j.V.!.!./.!.`.`.!.Y.G.c.j.j.<.7.!.`.#X;X!.!.#XG.G.j.j.;XG.G.!.;X;X!.`.`.!.!.V.V.!.!.!.`..Xj.( <.",
"#X#X#X;X;X#X;X;X;X!.;X`.j.j.!.!.V.j.`.&X/.A.Y.c.c.d.V.!.Y.V.V.!.V.j.!.G.j.c.d.<.+.*.( ! <.<.<.A.!.V.p.A.c.r.3.j.A.j.c.j.j.j.j.Y.!.G.G././.`.!..X&X&X!.G.A.G.j.d.`.!.!.G.p.3.7.p.d.V.d.<.3.j.<.p.G.C.r.| <.j.c.l.d.c.c.3.j.G.!.j.j.`.`.A.j.V.c.3.l.0.d./.;XG./.#X`.;X;X5X;X;X#X#X;X!.#X`.!.`.j.<.j.!.j.j.V.V.!.`.`.`.`.!.V.G.!.!.G.j.j.M.j.G.p.<.j.c.!.Y.p.d.A.a.p.3.3.r.j.j.A.Y.p.+.+...3.Y.A.d.c.!.!.!.!.V.j.!.`.&X&X5X7X5X`.c.j.Y.!.r.7.<.3.p.3.<.r.j.c.G.c.j.} *.3.j.A.j.d.<.<.<.p.c.j.d.j.7.<.} d.#XA.+.<.7.<.3.r.r.j.Y.!.!.#XY.<.*.d.A.!.!.!./.j./.G.! <.7.j.r.<.d.d.p.<.<...h h <.( ( } 7.A.c.j.d.( U } R C <...U R ! +...! <.!./.!.!.;X,X,X;X/.!.c.V.j.d.<.c.j.A.G.A.`.c.7.7.A.&X!.r.} ( } ! ! r.!.G.<.p.+.( `.Y.<.! ! +.d.j.d.3.p.p.j.7.<.7.j.Y.!.c.r.+.<.j.7.3.j.G.!.Y.V.U U ! r.!.G.d.r.j.! ! *...N } G.j.!.&XA.j.G.!.A.!.`./.j.j.j.Y..X!.<.R ( 3.h h } V.`.`.!.`.;X;X`.!.`.`.!.G.7.!.!.W.#X#XG.G.`.!.!.!.`.#X#X`.!.G.d.r.3.r.j.r.p.V.j.j.j.3.V.c.j.3.<.j.r.7.3.c.&X;X;X;X;X!.!.p.`.,Xj.<.p.G.!.j.j.j.j.j.j.c.j.j.V.j.3.A.!.d.3.r.!.j.A.Y.!.A.j.j.c.G.Y.c.A.d.7.!.`.V.! 7.c.j.j.!.A.!.j.*.+.<.j.!.j.r.+.<.<.d.!.j.} <.j.;X!.!.,XV.( 3.+.*.r.p.7.7.p.j.j.7.j.A.7.p.r.7.r.j.p.j.G.j.p.j.d.!..XA.j.V.V.j.r.} <.<.V.j.} 3.j.r.<.j.j.j.j.A.!.G.V.G.!.`.#X;X#X`.;X9X;X!.`.;XV.V.!.!.`.`.#X`.!.!.G.G.!.!.!.!.c.3.+.p.Y.G.d.d.p.j.p.7.j.j.7.j.+.7.G.!.!.!.#X`.#X`.!.G.j.j.j.c.p.p.<.j.;X;XV.`.`.!.`.!.G.7.p.`.!.j.j.!.;X!.;X#X!.V.j.7.7.j.!.!.G.<.7.Y.",
"#X#X#X;X#X#X;X5X5X#X;X#XV.V.G.V.!.c.!.#X.XA.c.7.j.r.j.j.<.<.r.j.7.3.V.V.d.p.r.r.*.r.<.( <.r.7.j.Y.A.j.!.G.V.j.Y.Y.A.G.7.p.!.!.Y.j.j.!.#X.X!.A.G..X&X`.G.j.j.c.A.;X`.`.!.d.<.7.c.G./.A.d.j.!.j.j.!.A.r.#.#.<.a.n.d.d.d.3.p.r.7.<.A.#X,X&XG.j.j.d.Y.<.#.C.#Xj.l.!.!.#X#X;X`.#X`.`.;X`.#X#X#X*XG.f.!.#XG.j.V.V.!.!.!.!.#X`.V.G.!.`.!.V.j.c.V.!.G.G.Y.V.A.j.<.j.!.G.d.3.<.j.G.j.d.A.j.*.<.+.3.!./.Y.V.!.G.c.c.j.j.!.&X;X;X;X;X;X!.d.r.A.G.3.j.j.7.<.*.*.3.r.r.d.d.p.+.*.<.j.j.<.<.r.r.p.d.p.7.j.G.j.<.! 3.!.j.<.r.d.<.7.j.G.!..X.X!.`.c.} R 7.!..X`.7XY.^ <.V.j.j.r.c.p.d.j.j.j.7.3.+.h a +.*...( *.J ..p.c.<.! *.<.} <.( U ! ..<.+.3.j.!..X/.!.#X;X;X;X.X.X!.A.<.} <.j.j.G././..XA.j.j.A.G.j.d.r.<.<...<.V.`.`.!.qX!.*.G.V.d.! } *.( <.p.d.!.!.G.p.p.V.!./.G.p.+.! ..7.+.! +.c.!.r.N R p.j.V.`.!.p.<.j.( ! R R i k j.A.!.j.r.3.p.#Xj./.&X!.r.j.Y.#X/.G.<.! ! <.N N ! j.!.!.!.!.`.`.`.`.!.!.!.!.p.V.#X`.#X`.G.G.`.`.G.!.!.#X#X!.G.V.j.j.j.j.j.d.p.d.j.d.d.r.c.d.p.3.3.3.<.j.j.3.d.Y.&X&X;XV.Y.<.!.5X`.p.p.j.A.A..X.Xd.j.j.c.c.V.c.r.3.j.!.j.<.7.!.G.j.j.j.V.j.j.j.V.j.7.d.7.3.G.!.j...7.d.r.A.&X!.V.r.+.3.p.A.!.r.<.<.r.d.r.j.c.<.*.A.,Xr.<.9X;X<...<.+.<.3.3.d.c.V.V.7.d.c.3.j.j.j.r.j.j.j.A.c.p.r.G./..X!.Y.!.!.!./.! <.r.<.+.} A.!.j.<.<.<.<.p.!.5X#XV.j.!.#X`.#X#X`.#X5X!.<.j.G.p.j.!.`.#X#X;X;X#X`.G.j.V.G.G.!.p.p.A./.&X#XG.d.V.j.7.+.j.G.7.<.<.p.G.!.`.#X;X#X&X.X!.V.j.d.j.c.V.G.j.j.#X!.<.V.`.!.!.G.`.#X#X#Xp.+.+.<.`.;X;X!.G.j.j.7.+.<.j.G.d.*.Y.&X",
"`.`.`.`.`.!.`.#X;X#X#X!.G.G.V.G.#XY./.#X&X!.G.j.c.3.r.p.+.+.r.7.3.<.7.d.d.<...+.} <.d.<.<.d.j.d.A.G.G.!.V.G.A.!.G.V.V.<.<.c.j.p.j.7.V.!././.!.Y.!.&X;X!.j.7.p.p.G.c.c.A.d.<.p.G.!..XG.j.j.G.j.j.!.l.a.j.p.+.1.Y.!.d.r.s.j.7.7.7.c./.5X;X!.j.j.G.#Xj.r.Y..Xr.3.j.!.!.!.;X#X;X#X#X;X#X;X#X#X;X!.G.;X5X#XV.j.G.`.`.!.!.#X`.G.!.!.!.!.G.c.V.c.Y.Y.#X#XA.V.j.3.j.!.Y.G.j.<.j.!.p...j.c.*.<.<.3.G.!.Y.A.Y.Y.Y.!.V.c.!.`.;X;X.X.X&X`.A.<.j.z.<.V.Y.d.<...*.<.<.<.3.p.7.3.<.<.j.V.*.} 7.j.j.j.3.<.j.c.c.r.( 7.A.p.7.j.c.7.r.j.Y.Y.Y.!.!.#XY.7.} 7.!.!.Y.!.3.} ..r.j.j.j.V.j.j.p.j.c.c.c.3.! N J ..r.<.( h N *.j.3.R ! <.*.*.} ..+.*.<.*.Y././.&X&X!.`.&X;X;X.X#X`.!.7.<.d.d.V.!..X#X!.Y.Y.V.j.r.<.r.d.7...+.3.<.<.r.Y.7Xj.! <.....J ( ..R ..d.V.&X;X`.A.G./.#X/.G.j.p.3.<.p.*.( *.A.`.p.r ! r.G.!.!.!.7.} 7.<.*.( <.C U j.c.7.! 7.G.j..XV.G.G.A.7.p.j.A.G.Y.j.3.} ..} ! +.7.j.!.!.j.!.`.`.;X#X`.;X;Xj.p.#X`.`.`.G.!.`.`.G.!.!.`.`.!.V.j.j.V.Y.G.c.j.3.+.<.+.<.j.A.r.3.d.j.<.*.r.7.! +.j.&X;X#Xj.c.*.!.#X;Xj.r.r.j.V./.!.<.3.r.r.d.c.V.c.p.f.V.l.7.<.!./.j.r.j.Y.G.j.d.p.3.*.7.p.d.!.Y.j.<.d.j.d.Y.;X.XY.p.<.7.j.!.!.3.7.<.<.j.<...d.d.*.j.9Xj.N <.;X#X} 4.} } <.<.p.c.j.c.3.3.p.<.j.V.A.j.j.A.c.j.V.j.j.G.!..X!.Y.!.!.!.;X<.j.!.r.} *.G.V.p.*.<.7.*.7.`.9X;X!.G.`.#X`.#X;X#X#X;XG.<.p.7.+.7.V.!.!.`.#X;X;X#XG.j.j.G.G.!.A.Y.;X;X#X&X.X.X!.!.j.+.7.V.<.! j.V.G.!.#X#X#X#X.X.X`.!.G.V.c.V.!.!.!.j.G.G.p.!.#X`.!.!.;X;X;XG.<.} <.<.#X#X7.<.!.j.!.!.j.7.7.j.r.<.!.A.",
"#X#X#X#X`.`.#X;X`.;X#XG.j.G.V.`.;X`.#X#X#X/.#X`.!.j.d.j.<.r.j.*.<.*.*.<.<.+...<.} ( 7.d.<.3.p.d.c.G.!./.A.!.Y.!.V.d.j.d.p.j.r.j.j.7.G.Y.Y.Y.!.!.`.;X;XG.d.r.j.7.7.r.d.V.j.p.j.c.A.!.V.p.r.c.j.A.Y.l.j./.!.1.<.c.V.*.} <.d.3.d.V.j.Y.#X.X!.Y.G.!..XL.!.&X.X0.<.r.G.!.G.#X#X;X#X#X;X;X;X`.`.#X`.!.#X;X;XG.p.G.;X`.!.!.#X!.!.#X!.G.Y.Y.Y.!.G.!.Y.;X.XG.Y.!.G.Y.!.!.#XY.3.j.!.<.R d.Y.<.<.3.j.!.!.!.!.Y.A.!.`.!.V.Y.!.#X,X.X.X#X.X/.p.d.V.7.j.c.p.<.+.*.....*.p.j.p.<.<.<.j.G.p.<.<.<.3.r.<.<.r.p.j.j.r.A.!.j.j.G.!.c.j.j.j.7.7.A.!.,X&X!.d.3.r.d.j.j.! ..<.*.<.<.j.c.d.j.r.j.c.V.!.V.j.<.! <.A.Y.c.+.<.j.c.+.h z *.<.! D ! +.+.+.*./.!.d.Y..X.X&X;X;X;X.X.X/./.!..XV.j.!./.&X&X!.Y.Y.j.r.3.<.<.<.<.+.3.p.( U +.!.&Xr.<.7.( ! J <.7.....p.c..X#X/.Y.!./..X!.!.#X#X&Xc.c.<.<.3.V.;X#XN N f 3.;X&X#Xd.} <.<.r.7.Y.j.V.G.j.r.} <.G.A.Y.!.d.<.c.j.d.3.<.r.A.j.<.p.j.d.*.7.p.j.`.!.j.!.#X`.;X#X`.`.;X!.V.!.!.!.`.!.!.`.`.!.!.!.!.!.!.V.z.7.d.G.Y.V.j.7.( ( } 3.V.A.<.+.7.j.<.<.3.*.U ..j.#X;X/.p.j.r.&X&X#XV.j.d.j.j.V.p.3.p.j.p.j.j.d.c.j.<.r.7.<.*.j.!.!.j.p.V.j.3.<.*.c.d.c.c.j.G.A.j.r.j.Y.V.A.A.Y.Y.A.j.j.G.#X!.7.j.r.<.7.<.! <.j.7.<.!.!.( h ! ;XY.7.<.<.r.d.j.c.j.j.<.*.<.*.j.j.j.j.r.j.j.r.j.A.A.!.!.`.j.d.!.c.<.!.j.c.!.j.<.<.V.d.<.! ..j.7.d.&X;X`.`.#X#X`.`.#X`.#X!.#X!.V.G.<.} p.V.G.!.`.#X;X!.`.!.V.j.G.`.#X;X#X;X&X!.!.!.#X#X;X!.j.7.j.<.+.V.V.V.!.`.!.!.;X`.#X.X/./.!.!.!.!.G.!.V.G.`.!.#X!.G.V.!.`.!.#XG.j.j.!.!.#XG.N <.!.j.!.!.G.j.,.<.<.*.G.j.",
";X;X-X;X;X;X;X5X#X5X;XG.j.V.G.;X;X#X;X#X#X`.;X;X,X/.!.Y.r.j.G...7.3.<.*...<.r.d.<.! <.c.j.p.d.j.j.c.!.#X!..X!.!.A.d.d.V.G.c.j.G.p.j.;X#X!.Y.G.G..X;X;Xc.p.j.G.j.3.j.j.A.V.j.j.d.j./.V.7.<.j.c.A.G.Y.L./.!.r.3.d.j.<.3.r.j.d.c.c.p.d.A.G.!./.G.A.`.!.$X#X!.0.1.<.j.G.G.#X#X#X`.!.#X;X`.!.!.!.`.`.`.#X#X!.j.G.;X`.!.!.#X!.!.#X!.G.!.!.!.&X#X.X!.;X!.!./.!.!.!.!./..X!.d.j.Y.3.( j..XV.c.j.Y.#X/..X/.Y.j.V.#X!.V./.`.!.&X.X.X!.!.!.V.d.!.j.r.7.3.<.+.*.( ! ..p.A.r.} +.*.p.j.r.r.7.} ! <.3.<.<.<.r.j.p.V.A.j.j.j.G..X!.A.V.3.<.V.!.&X/.Y.j.+.+.j.A.!...<.d.3.*.<.r.c.d.V.j.G.j.r.A.G.j.j.j.G.A.G.V.3.j.c.j.( h h ( <.R N J ( +.*.7./.j.<.c.!.`.;X&X#X;X#X;X`.!.Y.!.Y.Y.!.`.;X;X/.G.A.j.j.p.r.<.<.<.*.3.3.} ! <.`..Xj.j.7.! U J <.V.d.+.7.j.G.G.G.G.!.!.!.V.Y.&X;X&XV.j.+.*.7.j.;XwX..a , *.qX7X,XV.} ( +.<.<.r.p.V.r.<.j.d.} *.j.G.!.j.3.A.c.j.r.<.<.r.7...j./.Y.p.p.j.G.!.V.j.!.#X`.`.`.!.G.#X#X`.!.!.!.`.`.`.`.!.!.!.G.G.!.!.G.V.7.7.j.j.j.j.p...} +.7.c.c.<.<.d.j.<.7.3.*.! } <./.#XY.j.j.j.&X!.!.A.V.j.G.V.c.7.d.Y.A.p.j.j.3.d.j.3.<.*.<.*.r.j.V.p.<.r.<.<.r.<.G.j.V.j.7.p.d.d.V.G.`./.!.j.j.c.A.A.V.!./.d.*.c.Y.j.j.d.} ! p.!.c.A..X!.! U #X&XY.A.d.j.V.j.j.p.7.<.+.*.<.j.p.r.j.3.p.j.r.d.!.!.!.G.!.r.7.!.Y.<.G.V.j.7.r.j.<.j.p.r.+...V.j.j.&X#X!.#X;X#X`.`.`.#X;X#X#X;X#X`.j.p.G.!.G.!.`.#X#X!.!.G.j.j.!.#X;X;X.X&X/.(.A.<.<.G.;X;X!.<.<.7.7.j.V.V.!.!.V.j.`.`..X/.!.!.!.!./.!.!.`.!.!.`.`.!.#X`.!.!.!.G.`.j.p.!.#XV.V.G.! V.!.j.V.G.G.j.} } <.( j.A.",
";X;X;X;X;X;X;X;X#X5X;X!.j.V.G.#X.X`.;X#X&X.X;X#X;X#X#X/.r.c..Xp.j.p.3.*.} <.r.! ..C ..c.Y.V.d.p.7.r.G.&X`.&X!.!.#XY.j.Y./.!.G.G.c.j.#X!.Y.!.!.Y.!..X;Xj.r.j.G.j.r.V.A.V.V.j.c.r.j.#XY.3...p.j.j.!.&X.X!.G.j.c.C.r.p.c.c.V.j.c.r.<.*.r.V.!.`.G.A.G.j.Y.C.j.d.j.3.p.!.!.;X#X;X#XG.!.`.!.V.V.!.`.`.!.!.!.!.j.G.;X!.!.#X;X!.V.`.!.`.`././.;X;X;X!.`.!.!.!.A.c.A.A./.!.!.j.c.Y.d.<.c./.Y.Y.j.c.Y.A.!.!.G.r.j.;X!.c.&X/.c.!..X;X`.`.,XA.r.!.A.7.<.3.<.+.<.! U ! 3.j.3.<.<.3.p.3.<.p.j.t...p.c.3.<.r.j.r.3.p.d.j.p.3.j.G.c.V.G.p.<.V.!..XG.j.<.R ! c./.c...<.A.p.<.p.d.!.j.Y.G.!.d.<.c.j.3.j.c.V.j.V.r.<.V.!.Y.c.<...7.*.} ! ( ....<.V..XY.c.&X!.Y.`./.;X&X#X;X#X.X!.!.G.!.!.`.;X,X;XG.A.!.G.j.j.p.3.7.<.*...*.*.*./.!..XY.<.! ! ! p.&XG.*.7.j.V.c.A.Y.`.!.!.j.A.`.!.G.V.j...+.r.r.!.,X! q , d.wX&X#XY.( ! +.1.r.*.p.!.<...V.!.*.! r.Y.c.j.d.j.*.*.r.7.<.<.j.*.r.Y.Y.V.V.!.#X`.j.j.`.;X`.!.!.`.G.`.`.`.;X#X`.`.`.`./.!.!.G.V.V.G.!.!.G.p.<.<.3.7.c.V.7.<.3.7.p.r.3.r.A.G.<.<.3.<.! ( ! Y./.Y.G.A.A.;XY.!.!.Y.j.G.c.d.<.7.!.c...r.A.d.j.G.j.r.+.<.3.r.r.j.d.r.p.<.<.j.3.c.d.j.p.*.3.j.!.j.j.G.`.;XG.A.V.V.!.G.Y.V.( ( Y.V.j.<.p.d.+.3.Y.p.!.;X;X!.Y.9X/.!.V.<.7.V.j.p.<.*.<.+.*.r.Y.j.j.<.<.<.7.<.r.A.c.c.j.G.7.*.C.!.j.!.V.d.<.<.c.<.7.p.c.d.<.G.j.j.!.5X!.`.;X#X#X#X!.!.`.`.;X;X#X`.!.G.`.`.!.!.#X`.`.`.!.j.7.7.G.#X`.A.c.G.c.!.!.*.D <.!.`.!.} ! <.7.j.V.G.!.!.7.<.G.!./.!.!.!.!.V.V.V.!.`.!.G.!.`.`.#X;X!.!.!.!.`.} <.#X!.} } !.p.V.j.j.!.!.!.j.} +.7.! <.V.",
"5X-X`.#X;X;X#XG.;X5X!.j.j.!.j.!..X!.&X,X&X#X#X!.!..X;X`.G.`..Xp.j.j.<.<.+.j.7.} } 3.r.<.j.G.j.<.<.M.Y./.`.!.`.!.#X`.`.!.!.!.G.G.V.A.c.c.j.!.`./.!.`.G.3.<.j.c.p.j.!.V.c.c.p.c.`.#X5X;X*.*.j.G.!.&X&X!.V.c.j.V.!.G.!.!.j.d.p.3.3.r.*.7.j.!.!.`.Y.j.d.j.A.!.!.A.r.p.V.!.#X`.#X;X!.!.`.G.G.!.;X#X!.G.G.V.G.G.V.!.#X!.!.#X;X#X`.!.!./.#X&X,X5X;XA.Y.c.A.!.d.3.<.j.V.A.c.!.!.G.A.j.p.V.!.G.c.A.V.c.!.Y.A.j.j.!.!.A.#X!.c.!././.#X#X;X/.G.V.G.+.<.j.+.<.r.<.<.<.j.c.*.<.V.3.+.r.7.3.c.7.<.d.d.<.r.c.A.j.7.+.p.!.!.A.c.c.7.*.<.3.3.p.A.#X`.Y.V.! ! 3.j.<.*.<.G.j.*.A.+.r.j.j.j.c.j.j.c.<.<.p.c.G.!.j.d.j.A.V.j.V.!.!.Y.r.d.A.j.r.R +./.;X`.!.;X!...<.Y.;X;X`.&X#X`.;X/.`..X`.`..X;X;XY.V.`.c.p.p.3.7.*.( ....*.7.d.j.V.A.d.} ! +.D j.;XV.j.j.G.!.!.Y.`.`.!.!.Y.c.V.j.d.<.V.3.p.+.D ..Y.n 7 f V.7X!.G.r.h N 3.V.p.*.7.V.p.} <.!.c.j.j.G.G.V.j.d.<.<.d.p.3.<.d.<.*.c.!.V.j.G.#X;XG.j.#X;X;X#XG.<.} <.V.G.#X;X`.#X;X`.`.;X!.V.j.G.G.G.!.!.j.<.7.p.c.Y.j.p.r.j.d.j.j.3.<.j.j.p.<.R p...+.<.G..Xp.p.`..X.X/.!.V.7.A.G.p.j.7.7.j.3.<.r.A.c.c.A.7.r.+.7.j.d.3.j.7.<.p.7.<.j./.!.A.Y.3.*.j.3.<.j.j.G..X;X;X!.<.d.!.!./.Y.3.r.A.j.j.G.V.j.*.<.c.j./.!.#X!.#X7X<.<.r.3.j.G.c.j.j.*.<.7.<...G.!.j.<.j.Y.j.p.3.7.!.V.r.!.j.<.7.*.j.A.j.c.j.j.p.<.p.7.c.j.j.V.Y.j.!.;X#Xj.!.;X#X`.!.!.`.!.#X;X`.#X`.!.!.V.7.j.!.#X`.!.G.j.j.V.`.#X`.*.<.<.7.j.c.V.A.<.p.G.j.<.<.<.<.j.!.!.!.!.G.!.!./.!.Y.r.j.G.!.c.j.G.#X!.V.!.!.`.#X#X!.j.j.G.j.j.<.!.G.<.p.!.G.G.j.p.!.j.j.j.7.<.<.<.j.!.",
"5X;X#X;X;X`.!.G.!.;X!.j.j.!.V.!..X!.`.;X;X&X&X#X/.!.`.`.Y.!./.c.V.j.<.<.} j.p.<.d.j.r.p.V.G.V.j.j.G.G.!.`.!.!.`.`.#X#X!.G.G.j.j.!.G.V.Y.Y..X.X/.#X`.A.7.<.j.V.V.A.A.j.j.j.7.j.`.&X,X.X<.<.j.!.`.`.!.A.V.^.`.`..X!.!.!.G.j.*.( <.3.<.d.j.Y.!..X#X`.A.c.G./..X!.j.j.G.G.!.!.!.#X`.!.!.V.!.#X9X5X`.G.V.j.!.`.!.G.j.V.!.`.#X`.!.!.`.`.#X/.#X&X;XA.A.j.c.G.j.r.<.p.A.Y.Y.!.Y.G.d.<.p.!.!.Y.V.V.j.j.c.d.A.V.j.A.V.j.!.`./.`.`..X.X.X;X#XA.d.j.<.d.A.<.+.7.3.3.<.7.A.V.j.d.*.} 3.p.7.r.7.<.<.<.<.7.d.V.c.j.j.V.!./.!.j.p.7.} } d.V.j.V.&X>X!.j.....p.V.7.*.} j.c.<.c.j.( <.7.j.j.c.!.&Xd.<.7.c.!.!.Y.Y.d.V.G.7.*.j.!.!.`.!..X&X/.3.r.!..X;X;X/.<.N ^ j./..X`.;X;X&X,X#X/..X/.`.`..X`.j.c.c.p.c.V.r.<.! ( ....*.3.r.7.p.<.<.! N U U d.j.V.V.c.G.`.#X.X&X!.!.`.!.c.V.j.j.V.c.3.d.*.! *.j.R v +.#X#Xp.<.! i h 3.&X!.r.7.7.j.! ! j.c.A.!.#X/.!.A.V.j.j.c.j.j.j.j.3.<.j.j.j.a.V.!.#X!.!.;X;X`.!.V.+.h h <.#X`.`.V.G.#X;X;X`.G.j.j.G.!.V.G.j.V.3.p.p.j.j.7.<.<.3.7.p.p.<.<.G.Y.j.3.! j.<.p.!.c.j.N N d.G.G.!.A.c.7.3.d.j.j.j.r.j.3.7.j.A.j.A.j.3.j.r.d.j.j.j.p.<.+.<.r.p.V./.;X!.!.7.3.V.7...d.j.!./.j.<.*.+.d.!.G.!.#XY.j.!.!.A.G.V.c.7.j.!.V.!.!.!.`./.j.<.<.j.j.j.j.d.j.j.( 3.j.7.+.A.!.7.*.c./.c.3.+.<.V.c.j.!.r.+.r.3.p.V.J.c.<.p.j.3.r.j.!.!.Y.j.c.j.c.!.!.j.V.!.`.#X#X!.G.j.G.#X`.`.G.j.p.<.<.j.!.`.`.#X!.V.V.G.#X5X;Xp.!.c.*.<.j.G.j.} <.j.p.p.G.G.V.!.`.7.7.`.!.j.V.j.p.j.<.<.j.!.c.<.j.`.!.j.V.!.!.`.!.G.p.p.j.p.p.j.`.#X!.`.;X!.!.j.p.j.j.j.j.V.!.c.d.A.!.",
";X!.!.#X;X#X!.#XG.!.!.j.j.!.G.V.Y.A.A.!./.`.&X;X/.j.c.!.`.#X;X#X!.G.p.<.! 7.p.p.j.j.d.G.`./.`.!.!.!.V.A.`..X/.;X;X#X!.G.V.G.j.7./.G.c.!.!..X!.Y.;X/.V.p.7.p.j.A.V.d.7.j.j.r.c.`..X#XY.p.j.j.Y.!.Y.V.j.G.#X;X;X;X#X.X/./.V...U ! <.j.!.!.!.!.`.;X;X`.!.!./.`.!.c.!.!.V.V.G.!.#X;X`.!.V.!.`.;X;X#X`.!.V.!.!.!.!.G.!.#X;X;X`.!.`.;X;X;X!.!.`.;X!.!.j.V.V.j.!.G.A.j.!.!.!.!..Xj...p.`.#X!.Y.!.G.c.c.V.G.j.A.`./.!./.;X#XV.c.!.`././.!.j.3.<...j.G.r.<.j.d.j.r.<.G.&XY.} R ! +.d.7.*.*.<.3.r.j.j.p.j.j.!.!.!.!..X`.j.<.j.<.*.!.;X!.j.!./.j.<.+.3.d.j.!.V.r.c.G.<.<.p.! ..<.j.c.j.A.!.3...r.c.r.3.j.!.j.3.p.p.3.j.!.&X!.!.c.A.&X/.!.Y..X.X`.!.G.!.&X!.Y./..X;X;X&X;X.X!.!.!./.`..X#XG.<.! ..!.&XY.V.7.*.<.<.<.r.p.3.<.! ..! c C +.V.3.7.d.j.!.&X;X.X!.A.V.Y.A.j.A.c.j.j.p.p.c.<.<.r.<.R ! j.9X&X!.A.r.J n ( Y.!.7.<.d.A.( J <.3.3.j..X`.`.!.!.!.Y.Y.j.c.c.j.3.7.r.<.3.!.!.!.#X#X!.!.!.!.!.`.G.<.<.!.;Xp.U s z 7.;X5X`.!.!.G.!.G.V.V.j.d.<.r.d.j.j.7.<.p.j.j.j.d.<.r.!.!.c.p.! j.! ! 3.j.p.N N j.!.A.!.!.`.`.j.r.r.3.r.r.r.<.j.V.Y.S.!.c.r.j.r.<.<.3.j.7.*...<.d.V.!.&X`.Y.Y.p.d.!.d.*.d.j.!.G.! h h v d.V.j.j./.!.j.!.!.V.V.A.V.d.j.G.c.j.Y.G.;X.XR ! d.Y.!.G.p.d.j.j.! <.p.<.+.c.Y.7.! <.3.<.<.<.<.3.7.j.!.j.<.c.j.3.r.Y.G.<.p.!.c.c.!.&X;X#Xj.p.j.c.!.#X!.`.#X`.#X!.!.`.G.!.`.!.#X`.!.p.<.p.V.G.!.!.!.G.G.!.!.`.`.!.c..XG.j.Y.`.G.<.<.7.p.p.p.G.!.!.!.L.! ! V.j.<.j.c.j.c.3.*.j.V.<.U 7.!.!.G.G.G.G.G.V.j.<.<.7.<.<.j.!.`.!.#X;X`.;X!.j.j.j.j.j.!.`.!.G.!.!.",
"#X!.!.#X#XG.V.`.V.G.j.7.j.!.G.p.j.j.j.j.A.!.#X,X/.d.d.!.;X7X7X7X`.`.V.p.+.<.7.7.<.d.j.G.!.!.#X`./.G.d.d.!.[.!.&X5XV.7.7.j.j.<.<.j.r.7.c.!.!.!.!.!.G.V.j.d.r.d.c.c.r.d.G.A.j.A.!.;X&XY.G.Y.V.V.d.j.j.G..X;X;X,X7X;X5X;X#X!.j.<.( +.c..X/..X!.!./.&X&X#X/.!.G.A.A.!.`.V.j.G.G.`.;X#X#XG.!.G.!.#X`.`.!.V.j.j.V.!.!.G.#X;X`.!.!.`.;X/.!.j.r.j.`.V.c./.#X&X#X,X`./.`.!.!.c.Y.&XY.r.c..X#X!.!././.!.Y.c.p.3.Y.;X&X&X#X;X!.7.d.!././.Y.A.j.r...! 3.j.3.7.d.3.d.p.<.Y.9X#X} ! ! +.j.<...! *.r.j.A.G.d.p.p./.#X!.!..X.Xc.<.j.<...!.qX.Xd.c.j.<.<.r.A.j.p.p.j.j.c.c.<...3...! +.c.G.j.d.j.<.<.V.Y.<.} d.!./.<.+.3.p.7.<.3.j.V.<.d.;X5X`.p.A.Y.`.!./.;X,X!.!./..X;X&X`.&X`.G.Y.Y.!.!..X;X`.3.R } /.;X!.Y.j.3.7.<.<.7.r.3.<.! ..! k D <.c.<.d.p.j.!.&X&X.X!.d.7.r.p.j.Y.G.c.7.j.G.j.<.3.p.^ ..! <.#X`..XG.7.*.U N <.Y.7.*.Y.A.( R <.r.*.<.!.`..X`.!..X!.!.V.j.d.3.<.3.3.<.<.!.G.!.#X#X`.!.G.G.G.!.G.G.!.!.j.j.U h D p.#X;X!.!.!.!.!.G.V.j.j.<.( <.d.j.c.j.d.3.d.j.j.p.7.j././.V.j.! c...+.( <.3.! ! j.A.c.!.`.&X,X.Xj.3.3.3.p.7.<.j.V.!.A.G.G.j.Y.j.*.*.<.r.<...} ..3.j.G.`.A.j.A.j.d.G.j.j.d.p.V.G.7.! U ! c.G.V.j.!.!.j.!.!.A.A.!.!.A.!.!.d.<.<...3.p.<.j.G.G.G.!.j.j.c.j.! ..<.<.<.j.!.j.*.3.<...<.r.3.<...<.j.3.+.r.r...<.V.!.r.d.!.!./.#X!.!.#XY.c.Y.!.G.`.`.#X#X#X;X#X`.;X;X;X#X!.;X;X#XV.j.V.G.V.j.j.G.G.!.`.!.j.j.!.!./.!.!.`.!.j.j.V.j.j.7.<.<.j.G.!.j.<.7.j.p.p.V.Y.A.A.2...<.! z D <.G.`.!.G.G.!.V.j.p.7.7.<.<.<.j.!.!.!.!.`.!.`.p.<.p.p.G.!.!.!.G.!.#X!.",
"`.p.p.G.!.j.p.j.j.j.7.+.7.G.j.p.d.V.j.r.j.!.`.;X`.A.V..X,X5X5X5X#X#X!.j.<.7.a.7.+.7.d.j.d.p.A.!..X!.A.j.!.#X!.#X;Xj.+.<.j.V.p.<.3.*.<.p.A.G.!.`.d.c.G.A.j.d.j.j.c.d.c.Y.G.A.G.G.;X&X!./.!.Y.!.G.d.c..X7X5X#X/.`.`.5X,X;X#X!.A.p.( d.Y.A.!.V.V.!..X&X#X!.V.j.c.Y.!.!.j.j.V.V.!.#X#X#X`.#X!.`.`.!.!.#X`.!.G.j.V.V.j.!.`.G.G.!.`.;X`.!.j.3.7.j.( ! <.! C 3.;X;X#X!./.A.d.j.!.!.!././.`.!.!.!.!..X!.3.3.p./.;X.X&X#X!.j.d.!..X/..X!.!.!.Y.<.( 3.j.7.j.j.3.3.<.} r.!.A.! R ! +.r.+.<.} ..3.p.c.!.V.7.j..X.X!.!./..X!.p.7.( U 7.;X,XG.3.<.*.d.c.!.A.j.p.c.A.j.7.<...! <.+.*.j.A.c.j.d.r.r.c.G.p.r.A.!.`.V.3.<.*.U n v *.3...3.j.c.j.! n } !./..X/..X!.!.!..X;X#X`.#X/.Y.!.!.!.!.!..X/.!.r.d.`./.V.V.j.V.c.r.*.*.*.+...+...U z J } } ! Y.j.j..X;X.X.X!.d.3.r.r.j.Y.!.G.G.!.!.7.( *.<...*.N N j.Y.`.j.+.} J N +.V.3.<.`.Y.+.*.G./.p.*.c.!.&X&X/.;X!./.!.j.<...+.*.<.3.<.p.<.V.`.`.!.!.V.j.G.!.!.!.G.j.G.`.j.V.`.!.!.`.`.;X;X`.G.j.j.j.j.r...<.p.d.j.V.V.<.p.j.p.r.p.j.G.c.r.r.C *.} p...+...} } <.r.j.U.;X.Xp.r.j.r.d.j.c.j.r.j.A.`.!.c.j.A.#X!.d.j.7.<.( } +.! +.p.c.`.!.c.c.d.r.j.c.!.Y.j.j.j.j.7.3.7.7.r.c.!.&X&X!.!./.A.j.Y./.!./.!.7...U N r y 3./.Y.c.A.$XG.V.V./.p.<.<.j.j.d.j.p.} 7.3.( R ! <.3.V.c.c.d.3.7.d.d.r.j.!.c.d.A.Y.`.`.+.! j.`.Y.G.!.!.`.#X#X#X#X;X#X!.`.`.#X#X`.#X`.`.!.!.!.!.V.j.j.!.!.!.!.G.<.7.;X.X`.&XA.A.!.d.A.G.j.p.p.<.} p.!.#XV.j.j.7.<.j.!.G.!.A.3.*.<.! C <.<.7.V.!.G.V.G.j.V.V.j.7.<.<.7.j.!.#X`.#X;X`.#X<.! 7.<.V.#X`.#XA.!.`.`.",
"7.! } j.V.j.!.!.j.p.<.} <.7.7.7.d.A.c.r.p.c.Y.!.!./..X&X;X;X;X;X#X#X!.j.7.j.V.j.<.<.p.j.r.<.r.V.!.!.G.c.!.#X&X&X#XG.j.j.G.!.V.j.3.3.r.d.V.c.Y./.j.Y.!.Y.j.j.j.j.3.3.j.j.j.A.G.G.;X#X/./.V.A./.&Xc.G.#X5X.Xj.<.+.j.#X;X;X/.c.V.A.<.j.c.d.c.j.c.!.#X.X!.V.j.j.V.!.!.!.V.j.V.G.!.`.!.`.!.`.!.#X;X`.!.#X;X;X`.!.!.V.V.!.!.G.!.!.`.`.G.A.A.j.j.V.} ..p.N 5 3 z <.`.`.!.A.j.V.G.!..X`.`.#X!.!.G.Y.&X/.V.V.!..X.X;X,X&XA.d.j.!..X#X&X`.#X&X.Xj.d.c.A.V.*.3.j.r.<.+.*.p.j.<.<.<.d.j.<.c.<.+.3.j./.;X`.c.!.`.!.Y.G.!..X.Xc.<.! ! <.!.;XA.....3.V.j.j.r.r.V.c.j.j.<.r.r.! ! <.7.d.j.j.j.7.7.7.7.r.7.p.V.A.Y.!.j.r.+.v N ( ! 7.<.! N ! ! a 2 e D +.A.!..X`.`./..X;X#X#X.X!.!.`..X.X!.A.!.Y.!.V.A.!.A.d.d.j.!.!.j.3.<.<.3.7.c.7.*.( <.} D ( !.j.j..X`.G.!.c.V.j.A.c.j.G.!.!.!.A.A.<.+.*.<.7.N s c 3.G.`.V.<.} R ! <.7.+.<.A.d.*.c.;X;Xd.! <.Y.`..X!.#XG.Y.!.j.3.( ! } <.p.<.<.+.V.#X!.!.!.V.p.p.G.;X;Xj.7.!.`.V.!.;X`.!.`.`.j.!.!.V.j.j.j.V.p.*.3.j.j.c.V.j.d.j.V.j.j.j.j.j.7.3.j.} +...d.*.( } 3.3.<.d.j.c.&XV.f i } <.<.3.3.<.<.r.p.G.c.7.r.j./.!.p.j.<.! J ! } R ..j.A.&X#XA.j.r.3.j.G.`.G.j.7.3.3.7.d.j.<.+.<.c./..X!.Y.c.p...j.!.!.c.p.<...( <.h r d.!.j.c.!.#Xj.r.p.`.Y.d.3.j.V.p.j.j.<.p.3.+.} <.j.c.G.A.V.c.j.r.r.j.V.j.G.A.j.G.!.;X!.R ! j./.V.c.!.#X#X#X`.!.G.!.G.G.G.!.`.`.#X`.!.!.`.`.!.!.G.V.j.G.G.j.j.j.+.<.5X`.`.!.U D d.<.*.p.<.<.j.p.p.G.#X`.V.j.p.p.7.p.G././.A.7.*.<...3.G.p.<.j.!.G.j.j.p.j.V.j.+.! <.p.j.!.`.!.!.#X`.`.j.p.G.p.p.V.!.#XY.!.V.G.",
"! ! p.!.7.+.!.#Xp.7.7.<.j.<.+.<.p.j.c.j.d.j.V.!.!.%X;X;X;X;X;X,X`.#X!.j.j.!.!.j.3...3.p.d.j.d.c.j.j.j.j.j.G..X&X!.!.!.G.G.!.j.j.7.j.c.j.Y.Y.!./.!.!.!.Y.c.j.j.j.*.<.d.d.j.V.G.!.;X#X.X/.j.V.G.!.Y.G.!./.j.! C C r./.&X;X!.d.c.Y.j.c.V.j.c.j.c.Y./.!.c.d.j.c.A.!.!.!.!.!.!.!.`.!.G.!.!.!.j.!.#X!.!.`.!.!.!.!.`.!.V.!.G.G.!.V.V.!.G.A.!.!.G.V.} 3.!.!.<.h r h j.!.V.V.A.!.!.!.!.c.!..X!.!.j.V.;X#X`.G.!.!./.;X;XY.c.j.V.G.!.%X.X`.&X.X;X!.!.V.j.V.*.7.A.7...<.! R d.<.3.3.d.r.( 3.p.<.7.A.&X;X!.!.`.V.V.!.G.A..X/.j.( } 7.d.V.A.3.U ..p.A.j.j.p.G.Y.d.3.j.<.3.p.} D <.s.d.j.p.7.7.r.d.3.7.r.r.c.A.G.G.3.d.<.N ( j.! r.! k n R i , 7 s ! ! d.A..X;X.X!.!./.`..X.X!./..X#X`.c.r.d.j.p.c.V.j.j.<.} 7.c.!.!.V.A.!./.#X;XG.G.Y.Y.d.*.j..XV.d.G.j.j.!.A.A.A.!.G.j.A.Y.!.c.7.j.3.<.<.<.7.v z ! <.p.j.3.! ( } *.3.3.*...<.! } !.&X.Xj.<.7.A.!.!.A..Xj.j.V.!.c...R } 7.j.7.<.<.G.;X`.!.G.!.G.j.G.#XG.<.7.V.#X!.`.`.!.#X!.j.N <.!.G.V.G.j.V.j.<.7.V.V.c.V.j.p.d.j.c.j.r.p.j.+.*.j.j.d.<.p.r.+.<.j.j.p.j.d.j.!.!.R z ( <.<.r.<.<.3.j.p.V.j.7.<.<.j.d.( *.( ! D R ! N ! j.j.!.!.c.j.7.7.c.!./.Y.V.c.A.A.j.j.j.j.7.*.p.G.j.p.d.3.3.! r.Y.A.7.<.c.G.G.!.3.! j.c.p.A.G.c...+.} p.j.p.3.r.j.j.!.G.j.j.<.*.<.j.G.c.3.j.!.Y.!.j.*.3.d.p.V.c.j.Y.!.;XA.} V.#X!.A.Y.`.#X!.!.j.7.7.j.V.j.V.!.!.!.!.!.!.j.V.G.G.V.V.V.j.V.j.7.<.7.} <.G.j.!./.3.( <.+.! o.+.<.j.j.V.`.`.!.!.`.!.!.V.p.V./.c.3.*.! ! R *.G.j.7.j.F.j.j.j.p.p.7.<.! ! p.j.j.G.!.G.V.G.j.j.j.V.!.!.j.<.p.j.!.!.+.! ",
"} +.j.`.<.! G.j.<.+.<.p.!.j.<.7.d.j.A.G.c.j.A./.&X:X;X;X5X7X;X;X`.#X!.j.j.!.`.j.r.( ....3.Y.V.c.c.j.j.c.j.j..X;X`.`.#X`.!.G.j.j.d.A.!.A.!.!.!.Y.!.Y.A.A.A.c.j.c.7.p.V.V.V.G.A.!.`.!..X.XA./.Y.A.Y.A.Y.A.*.C D ! 7.`.;X,X.XA./.`.p.d.V.c.A.j.c.G.G.A.j.p.j.j.V.Y.V.!.#X;X!.!.!.j.j.!.#X#Xj.V.!.V.`.#X!.V.j.V.#X;XV.V.V.!.!.j.j.!.`.!.#X`.Y.j.} d.c.j.c.A.j.<.A.c.V.c.j.!./.G.j.3.A.!.G.V.r.j.;X;X!.d.G.`.`.&X!.p.p.Y..X!.!.`.!.`..X/.;X;X.X7.} 3.<.<.j.! D <.! R ..( +.<.r.<.! *.j.7.<.p.V.d.<.G./.3.j.&XY.V.`.Y.d.! *.!./.Y.j.<...p.c.c.j.p.<.j.A.r.3.!.d.r.j.7.} p.p.j.j.<.*.p.d.j.3.p.c.j.A.!.!.Y.+.3.3.+.V.j.n N 2 , n N - * , n A.V.#X#X&X&X/.A.V.A.!..X&X#X/.`./.Y.<.! ..+.<.V.Y.A.V.<.! 7.G.#X;X.X.X#X;X;X1X!.&X;X#X!.V.&X;X!.A.!.A.c..X!.c.j.G.V.j.A.G.G.j.3.A.7...( ( ..N R d.<.<.<...n ! *.( ( r.p.<.<.! ..!././.!.V.V.G.!.!.A.#Xj.d.j.`./.<.J +.d.j.d.7.p.!.#X!.G.j.G.j.V.`.G.} ! p.j.j.!.;XG.p.!.!.G.! j.#X!.V.V.j.G.G.3.3.j.j.j.A.j.j.j.c.A.j.<.<.d.d.<.p.V.V.p.j./.j.c.Y.r.3.j.j.!.p.&X;Xd.( +.+...*.*.3.d.<.3.<.} <.+.7.7.! ..( } +...! N ( j.r.d.d.j.j.p.r.V.Y.G.j.d.V.#X;XG.<.} 7.3.} 3.V.r.<.r.<.r.! 3.j.p.<.<.p.!.`.G.V.j.p.j.j./.G.r.} 7...*.<.j.d.3.r.p.Y.p.<.r.3.<.*.<.V.A...c..X!./.A.( ! ..3.c.d.d.V.A.&X7.R !.#XG.G.!.Y.!.!.!.V.7.<.p.V.j.j.j.j.j.V.V.j.<.7.j.j.j.j.j.j.!.j.<.+.+.} +.<.+.! *.c.j.<.<.+.U } <.p.j.V.`.!.;X#X;X!.p.7.7.j.c...R +...<.*.7.p.V.p.7.<.<.j.V.j.7.} ! } <.V.V.<.j.!.!.!.G.j.j.!.!.!.!.j.! p.j.G.!.D s ",
"G.j.j.!.3.! <.r.( ..} r.c.A.p.7.<.j.Y.A.j.j.!.`.;X;X5X;X;X;X#X`.`.!.G.V.V.`.;X!.j.+.+...<.p.A.A.j.<.7.j.G.!.;X;X;X#X;X;X#X!.j.7.j.G.!.!.!.!.V.V.c.V.c.c.A.Y.Y.Y.A.A.!.d.G.!.j.A.!.!.&X,X.X!.#X;X!.!.!.G.V.j.c.G.#X#X,X,X/..X;X!.<.j.G.c.r.3.!..XY.j.c.j.j.!././.G.V.^.!.j.j.j.3.r.!.!.A.A.j.3.p./.#X`.c.p.V.`.`.j.j.!.#X!.!.!./.`.!..X/.j.<.*.*.<.<.r.j.r.<.<.<.j.c.V.Y.`.!.d.<.V.c.j.d.3.j..X.X!.r.j.G.!.A.3.<.c.`.#X&X#X`./.Y.!.&X;X&X`.<.C ( ~ p.G.D f <.7.<.! ( ( j.A.p.3.( +.<.J ! *.<.*.c.!.j.V.#X.X!.`.!.c.r.<.!.;X;X!.d.<.j.A.V.p.7.j.c.V.<.7.p.7.p.<.<.+.<.<.d.G.d.+.3.j.c.j.j.A.A.j.j.G.j.7.<.3.j.!.Y.J N e y ..C 8 q r z c.5X/.;X;X/./.A.j.j.Y.#X`.&X`.`.&X/.c.7.<.7.7.j.G.!.!.c.j.G..X&X5X5X;X.X`./.&X.X/.;X5X#X!.;X;X^.!.!.#X;X!.c.Y.j.j.V.A.Y.V.j.<.7.V.+.( *...} +.<.<.<.! ! ! ! +.<.! ! +.p.<.} ! <.j.!./.Y.A.!.!.!.Y.Y.#Xc.p.G./.!.r.*.+.7.G.Y.G.G././.j.j.<.*.j.!.`.j.D <.!.!.G.c.`./.<./.;XV.!.Y..XV.r.j.c./.!.r.G.c.r.c.c.Y./.V.j.j.j.7.*.7.j.j.j.3.c.!.!.c.V.Y.j.c.j.<.<.!..XA.Y.G.A.<.! *.*.3.r.<.! R ( *.<.<.<...( } ( J ! ! R } r.r.7.3.j.V.!.`.!.j.7.V.p.p.;X#Xj.G.<.! <.! ..3.3.+.( *.! } d...*.<.j.j.Y./.<.G.&Xj.*.<.r.Y.j.r.<.r.7.7.j.p.p.j.3.<.r.r.<.<.<.<.r.<.j.j.<.j./.3.c.A.3.<.D <.*.( *.r.j.j.3.<.V.!.j.c.c.7.r.G./.G.d.j.j.j.j.r.j.d.p.j.3.+.} <.7.j.d.j.j.p.j.V.p.<.+.7.<.<...! } r.p.+.! } *...<.V.`.;Xj.7.c./.7X!.7. .<.r.d.7.<. .! <.j.j.c.A.l.7.<.7.<.G.j.<.<.( ..<.c.j.p.j.j.A.!.A.V.`..X`.Y.A.A.<.! p.p.A.7...",
"!.V.!.&Xd.R *.p.<.r.7.r.p.c.j.j.d.G.!.c.j.A.!./.#X#X;X;X;X;X!.!.!.G.!.G.G.`.;X!.j.p.d.p.p.7.c.A.j.j.j.G.!.#X;X;X#X#X;X;X`.!.!.V.V.!.`.`.`.!.V.V.j.j.j.j.A.!.!.G.j.j.Y.3.j.!.A.Y.!.!.`.;X;X#X/.!.V.V.V.c.j.j.!.;X;X.X;X&XA.G.!.V.r.j.V.p.<.<.G.!.Y.Y.G.V.d.d.G.!.A.c.G.V.7.7.r.<.<.j.j.j.j.p.p.!././.!.j.d.Y./.!.r.j./.`.!.!.`..X!.!.!.Y.j.3.<.<.<.<.3.r.7.3.<.} 3.r.j.V.Y.A.j.d.A.A.j.r.j.!.!./.G.7.r.j.V.Y.V.!.;X;X.X.X/.!.!.j.j./.;X;X#Xj.( } ..<.j.<.C +.<.7.*.R J A.9X&Xc.( ! +.N J d.!.j.j.c.r.c.`./.!..X/.!.c.3.V.!.!.j.7.p.c.c.V.A.!.#X#Xj.<.r.3...} } <.3.r.d.!.;XY.<.( <.<.<.r.j.j.p.p.p.j.d.7.3.c././.j.j.} U ! a 8 v v r N Y.!..X.X;X;X#X!.G.!.!.!.!.&X#X;X&X#X.X!.!.j.V.!..X.XY.G..X;X;X&X,X;X#X#X/.!./.#X;X;X;X;X;X} 7.!.!.!.!.V.c.G.G.Y.j.p.V.c.r.! *.j.+.! *.7.3.j.3.( ( ! +.+.+.7.3.( ! +.p.3.<.+.<.c..X&X!.!.#X;X!.c.j.!.c.j.G.!./.j.3.<.r.Y.!.!.G.j.j.j.j.*.} d..X;X!.r.A.#X.X`.!.3.7.V.#X;X/.!.c.Y.j.7.j.V.!./.V.!.c.d.V.j.A.!.Y.c.d.j.j.j.V.c.c.j.<.d.G.#X.Xj.j.<.j.V.d.d./.#Xj.c./..XG.<.r.d.j.j.d.<.! ! ..+.+.} U C R ! D ! ( R } p.d.p.p.A.`.;X!.r.+.<.c.3.p.`.A.<.!.c.<.*.} 7.d.7...! 7.<.( 7.<.r.p.Y.!.7Xp.h ../.j.*.*.r./.!.j...! *.c.p.<.7.V.d.*.3.d.<.} ..*.<.+.3.d.p.j..X..} A./.3.( ..*.<.<.p.c.7.p.j.G.V.p.<.<.r.c.Y.!.!.Y.Y.Y.!.G.d.p.3.3.r.<.+.+.*.<.7.<.7.p.....d.p.7.p.c.r.V.j...<.j.p.<.<.<.<.<.7.V.!.#Xj.<.*.<.j.j.j.p.d.j.d.p.<.+.+.<.7.p.c.Y.c.r.+.*...j.d.<.3.*.<.d.A.j.j.j.p.c./.G.V..X/./.A.j.!.V.! N D 7.j.j.",
"j.7.V.&XA.+.<.d.d.V.j.p.<.d.c.Y.c./..XG.j.Y.!.!.`.#X;X#X#X;X!.G.!.!.!.^.!.`.#X`.Y.!.!.!.G.<.r.j.V.!.!.`.#X;X;X`.`.`.#X#X#X#X#X!.G.!.#X#X$X!.V.V.r.c.A.c.v.!.!.G.j.c.!.r.j.!.G.G.!.`.#X&X#XY.3.} p.r.d.j.r.j.!..X!.Y..X/.r.<.p.j.j.V.V.3.*.+.j.j.A.G.j.r.} ! 7.j.z.c.V.c.p.7.7.<.p.j.p.r.j.j.!.9X&X!.G.d.d.!.Y.V.3.c.!.!.!./..X!.!.Y.G.V.j.3.<.<.<.<.<.<.3.j.j.3.+.+.3.d.p.7.p.j.G.Y.j.7.A.!.j.j.V.<.<.7.c.A.d.c.!.Y.G.!.A.j.j.p.d./.;X.X.X!.p.<.+.! <.j...! <.7.<.! U V.;X!.j.*.3.d.R ! A.#XG.V.V.7.j.!.!././.Y..X!.d.j.A.A.<.<.j.V.j.c.!.`.&X`.j.r.A.A.7.+...<.<.+.<.!.;Xj.+.! <.<.<.3.p.p.3.3.r.A.!.A.j.A.A.j.A.d.J n N r 7 h 5 = 3 N 7.&X;X!.!.`.G.G.G.c.!./.&X.X#X.X&X;X.X`./.`.#X;X#X!.!..X.X;X#X;X;X;X;X#X/..X,X5X;X,X.Xj.r J c.Y.Y.!.A.V.c.c.A.j.r.r.<.<.! <.j.7.<.3.d.} +.+...<.*.+...<.3.<.! ! ( <.r.j.c.j.V.`.;X#X!.Y.`.G.d.p.Y.j.j.!.!.`.Y.j.d.c.!./.`.!.p.j.j.7.*.+.3..X5X#Xj.c.A.!.;X&X! ..#X!.!.&X!.j.j.d.<.j.V.!.G.Y./.!.A.V.j.j.c.G.Y.c.j.j.c.!.V.V.A.p.p.p.A.G.<.3.<.j.G.j.j.!.!.7.p.`.!.c.! ..3.7.3.r.p.<.<.p.} ( ! U D ! } } ..*.! <.c.d.r.j.!.;X5XY.<.+.<.V.7...d.c.r./.G.<.+.+.r.3.<.! ! j.3.! <.p.A.Y./.c.;X<.f ! c.c.p.<.<.!.!.G.3.} <.!.p.<.p.!.j.} <.d.3.( ..+.<.+.3.j.V.Y./.} U } r.*.<.( *.j.p.V./.c.7.V.G.G.c.<.*.j.!.!.Y.!..X!.!..X!.j.d.p.d.j.r.3.<.+.+.*.( <.p...! 3.p.r.j.G.3.G.`.7.d.A.r.3.j.p.*.7.7.p.7.Y./.G.r.! ! *.p.d.j.j.j.j.t.<.*.<.<.7.j.j.7.<.! R J *.7.*.<.3.j.A.A.3.c.!.c.j.!.!.V.`.Y.!.c.d.!.!.*.D ! r.c.3.",
"7.3.V.!.j.<.*.<.7.j.j.d.*.7.j.!.A..X;X`.G.G.Y.G.!.`.;X#X#X;X`.!.`.`.#X#X!.!.`.!.!.`.!.!.`.7.7.r.j.`.#X`.;X5X;X`.#X`._.`.#X;X;X!.j.G.!.#X#X#X`.`.c.!.!.c.j.A.G.V.c.G.`.j.V.!.V.p.A..X&X#X.XV.<.<.j.7.d.A.V.G.Y.j.c.j./.&XY.d.r.j.c.V.G.j.f.<.j.c.d.j.j.p.*.} +.} r.p.r.p.p.p.p.r.V.V.p.<.7.V..X9X;XG.V.j.j.Y.c.j.j.c.V.G.!./.`.!.Y.c.j.j.d...( <.r.7.<...<.j.c.j.*.( +.<.+...3.d.j.V.j.r.A.G.3.3.j.r.p.p.c.c.r.c.G.!.`.`.j.3.3.*.3.!.#X!..X#Xj.r.*.*...j.<.( <.3.*.} ! 7.j.<.+.<.j.V.<.<.V.j.d.!.!.d.V.!.!.!.!.!.!.G.j.G.!.A.+.<.A.!.G.!.!.!.Y.G.A.j.!.!.c.r.3.d.+.! +.!.!.<.*.<.j.j.p.r.j.c.j.j.V.Y.A.3.<.d.p.*.G.j.! ..j.D 7 7 1 y C ( +.A.j.U j..XG.A.V.j.!.!.`..X;X.X/..X/./..X%X.X#X#X.X`././.,X;X&X;X5X;X9X;X;X,X;X;X;XG.( N ( r.7.j.G.c.j.j.j.Y.!.A.j.<.<.J ( p.p.3.d.A.} ! <.<.r.*...+.j.p.p.7.<.+.3.c.&X&X.X`./..X,X.Xd.7.j.p.<.c.Y.`.!././.!.c.G././.`.!.!.c.G.j.<.r.j.3.j.!.j.r.V.<.7./.5Xj.p.;XG.!.#X.X!.G.p.+.3.7.j.V.Y.!.V.p.j.V.G.G.A.Y.V.j.d.j.#X!.A.A.p.<...<.3.*.d.j.Y.G.V.V.!.Y.p.p.&X`.V.U ! p.r.*.} *.*.*.3.3.<.+...! ! } ..r.7.*.d.G.7.<.j.!.!.!.V.p.r.p.A.!.r.j.!.V./.V...*...<.....! D 3.r.} 3.p.c.!.Y.! G.G.7.<.p.!./.p.j.Y.j.j.j.d.3.j.3.7.A.&XG.<.j.!.7.*.r.r.j.d.c./.Y.`.j.( p.} ( 7.! ! <.c.p.d.!.!.c.Y.!.!.Y.d.j.V.!.!.A.Y..X!.G.!.Y.V.V.Y.!.A.j.j.c.j.r.<.( } 3.<.7.<.p.d.d.V.<.d./.j.j.d.....3.<.3.7.3.c.j.Y.!.V.!.<.3.p.V.c.V.V.c.j.d.<...<.r.j.A.d.<.<.<...( 7.c.<.<.p.!.Y.d.! <./.!.j.Y.!.V.!.!.!.G.V.!.Y.<.! <.j.G.r.",
"7.j.G.j.3.3.<.+...r.j.j.*.r.j.c.G.`.-X&X!.V.j.j.!.`.;X#X;X;X#X`.#X`.#X#X`.!.`.`.j.Y.V.Y.`.p.d.j.j.`.`.!.#X;X;X#X#X`.!./.#X;X#X!.G.!.!.`.#X#X`.!.!.!.c.p.j.G.A.d.!.!.`.j.A.!.c.7.V.!.!.!.!.c.d.G.d.*.<.p.j.V.j.<.3.*.p./.;X.Xc.V.j.d.j.j.j.3.d.V.3.3.V.p.2.7.} ! <.<...<.p.d.c.c.A.c.r.<.7.c.!.`.#Xj.V.!.!.!.G.A.Y.V.j.V.!.!./.`.`.Y.d.p.j.3...<.<.*.} } *.7.d.j.r.<.<.<.<.<.j.V.c.V.G.c.V.A.j.V.j.G..X`.!.j.7.!.`..X/.Y.j.7.3.} ( j.G.c..X#X7.3.d.j.+.p.p.<.3.r.<.*.! } <.+.( ( +.7.<.p.A.<.<.Y.p.3.V.!.c.d.V.&X!.V.c.!.`.G.<.d.V.!.!./.Y.p.r.j.c.j.G.!.V.r.<.<.+.+.3.G.c.*.*.<.j.j.p.7.j.Y.!.!.V.c.d.} ..d.d.3.A.G.r.d.V.C e h <.j.G.!.j.r.! z j.;X/.Y.G.V.!.!.!./.;X#X`.`.!.!.&X;X.X`./.`./.c.j.c.j.j./.&Xj.&X,X;X;X;X;X;X!.3.<.r.7.<.p.c.r.<.d.c.Y.V.A.A.r.+.C ! <.<...<.A.<.<.p.7.7.<.<.3.c.<.<.7.*.} ( <.V.A.!./.V.j.`.`.d.<.j.7.! *.V.&XY.;X.X`.!.!..X`..X!.!.!./.p.( j.Y.C N <.+.+.A.<.p.<.c.A.c.!.c.!.A.V.!.A.p.3.j.p.j.!.!.A.+.U p.!.G.d.3.<.<.<.r.j.`.Y.j.j.d.7.+.<.*.<.c.c.V.d.j.c.A.j.<.} V.!.A.U ! p.p.*.R ! *.<.7.7.3.<.+.( } ..! 7.j.r.j.A.7.<.j.Y.p.p.j.d.3.3.c.Y.j.c.j.<.j.d.<.*.<.<.+.*...D } <...3.<.<.j.j.N ..r.3.*.<.A.&XV.A.j.+.<.j.c.p.7.r.c.`.;XA.d.Y.!.<.<.c.j.c.V.!.;XG.Y.<.! !.j.*.( h ! j.Y.j.<.3.V.&X/.`.!.j.j.A.c.Y.!.Y.Y./.!.A.!.!.Y.Y./.!.A.V.L.!.!.V.j.p.<.3.7.j...d.V.7.V.p.r.j.7.<.<.<.p.j.r...<.j..Xc.<.<.7.d.<.A.!.!.A.V.j.c.d.j.3.} <.j.G.Y.c.<.3.3.p.d.c.p...<.j.A.( s 3 ( Y.!.j.!.!.V.A.Y.G.!./..XA.! N U ..r.r.",
"<.3.p.<.r.A.<.U <.j.V.j.<.j.Y.V.G.!.`./.G.d.7.7.G.!.#X#X;X;X#X`.`.`.`.`.`.#X`.`.V.!.Y.G.G.<.7.j.G.`.#X!.`.;X;X`.`.!.`.`.`.`.`.!.!.!.!.!.`.#X#X!.Y.c.p.7.j.V.A.c..X&X.Xj.!./.!.V.G.Y.A.G.!.j.7.j.V.3.<.7.j.V.A.j.<.} } 3.!.G.r.!.!.j.j.p.j.3.7.j.<.*.j.<.*.r.} ! ( ..} <.d.d.j.j.j.p.7.r.d.j.V.c.V.7.j.#X&X.X.X/.G.c.G.!.!.Y.A..X,X;Xj.<.j.j.*.} 7.<...+.<.+...*.r.<.<.3.7.p.j.A.A.V.V.c.j.d.V.!.c.!.;X&X!.p.+.V./.G.3.*.7.j.V.r...7.j.r.!.`.7.p.c.A.*.3.d.<...3.d.7.! U +.<.} D } 3.d.A.!.r.<.j...( p.V.j.j.G.;X`.G.j.!.!.V.7.c.j.G.A.Y.c.<.<.r.j.j.Y.!.V.<.+.*.<.<.r.7.<.<.<.*.<.<.<.<.7.j.A.V.j.V.Y.j.j.A.d.r.j.c.p.j.j.! ! .X5XA.<.c.!.A.<.! 7.!./.!.!.G.G.!.G.!..X#X#X.XG.c.!.`.!.!.!./.#XG.<.! U p././.<.V.#X;X;X,X5X;X.X!.7.r.d.j.G.V.7.7.c.j.d.p.j.j.<.<.U R *.<.+.<.c.<.+.3.7.p.3.r.p.j.3.<.r.<.<...} 3.j.A.G.c.A.&X;X.XA.c.r.<.*.<.#XwX#X!.;X`.V.V.V.!.#X!.!.!.<.! p.d.s h <.<.<./.c.`.<.! r.!.G.j.G.c.d.G.j.j.j.!.j.p.c.A.A.( U c.!.<.k D ..*.<.d.j.Y.G.d.j.j.j.7.r.3.r.V.j.r.+.3.d.r.c.r.<.j.V.V...<.c.V.d...( <.j.d.7.p.7...( <.<.! <.c.c.c.c.j.j.V.G.3.7.j.7...*.V.c.7.r.7.<.r.3.A.p.j.p.*.*.*.} +.<.<.j.j.3.7.j.! <.<.*.7.j.r.c.A.r.7.+.7.r.d.7.3.r.j.Y.Y.7.<.d.d.p.r.d.*.*.<.j.!.#X!.G.c.#X!.j.J h ( j.G.!.j.+.+.!.V..X!.r.d.V.j.G.!.!.!.`.`.!./.!.Y.c.V.c.j.V.!.!.!.Y.!.!.c.d.p.<.! p.G.7.j.j.7.c.j.3.<.j.!.Y.p.( 3.A..X3.N J d.d.r.!.`.!.A.Y.A.j.d.c.r.<.p.c.!./..Xj.r.7.G.!.!.j.*.<.3.7.R N c 7.A.V.V./.!.j.c.Y.G.!.G.j.<.J N ! ..! *.",
"<...<.<.c.!.+.C j.j.!.!.p.j.c.j.V.!.!.j.<...<.7.G.!.`.#X*X#X`.#X`.!.!.!.`.#X!.G.!.`.`.G.j.<.7.c.`.#X;X;X#X;X;X`.`.!.`.#X`.`.`.#X`.`.`.!.!.#X!.j.c.d.p.j.j.j.A.!.`.;X#Xc.!.!.G.G.A.G.A.G.!.c.p.p.j.3.<.p.V.!.!.A.p.d.3.<.j.<.} `.;X!.A.p.A.V.j.j.<.<.j.j.j.j.*.( ! ....1.3.*.3.<.<.<.7.r.r.j.c.j.7.2.7.!./.`.;X.XA.j.!.!.!.V.r.A.;X,Xj.! <.7.( ! r.<.( } <.*...*.*.*.*.<.<.<.<.7.j.j.7.d.7.<.j.A.V.c.V.V.G.p.+.Y.`.A...! <.j.G.G.d.r.p.<.d.A.<.<.<.3...<.<.+.R *.d.j.<.R ! *.( U *.r.A././.r.7.p.*.} p.c.G././.;X;X/.c.Y.A.j.d.j.j.V.j.j.A.j.r.0.c.j.j.j.r.+.<.r.3.7.r.} ( <.+.<.+.} <.j.j.d.p.d.j.V.!.A.V.j.<.<.<.7.d.Y.!.c.c.;X`.!.r.j.Y.U.j.7.} r.!.!.!.c.7.!.!.Y.!.`.#X#X!.G.!.!.G.!.V.j.!.!.j.<.} !.!.Y.j.!.!./.&X;X.X#X;X#XA.p.3.j.A.j.<.p.Y.r.<.d.V.j.<.d.3.*.<.<.<.<.3.! ! +.<.d.<.3.j.!.r.<.r.*.<.*.+.7.7.p.r.r.c.`.&X&Xj.<.*.<.*.R c.;X! ! G.!.7.<.3.c..XG.c.j.<.! <...<.p.V.A.Y.`.p.r.!.p.j.&X!.Y././.`.`.A.G.r.j.3.+.} <.A.r.3.Y.d.! c ! j.A.Y.!.A.!.!.p.r.r.d.p.c.j.j.V.j.j.<.d.j.j.j.r.j.j.r.p.<.<.V.G.A.p.<.d.!.!.A.V.j.<.<.7.<.! <.j.V.A.j.d.V.!.!.r.p.j.r.<.3.V.j.<.<.p.p.<.D j.G.Y.p.} } <.p.3.j.j.A.!.j.j.V.3.*.<.<.r.j.*.<.c.r.r.j.!.j.<.3.7.j.r.p.j.7.<.7.7.j.p.<.( ! R <.p.Y.A./.V.G.j.p.} ! +.r.p.j.!.d...<.3..X&XY.V.p.j.Y.!.!.!.`..X.X#X!.!.j.j.j.d.c.R.!./.!.Y.Y.A.V.j.} ! 3.V.j.V.r.<.d.7.<.3.V./.Y.p...*.3.A.c.7.<.Y.V.3.j.c.c.j.V.j.c.c.V.r.d.c.j.G.!.!.r.*...j.A.j.p.<.3.3.r.<.7.j.j.c.p.d.V.d.3.j.!.!./.c...C N ! } <.C ! ",
"<.} 3.7.V.Y.<.<.r.7.!.5XA.<.+.<.j.!.!.7.D C +.j.!.!.`.`.!.`.`.;X#X`.!.!.`.`.G.j.!.!.`.A.j.p.c.!.`.`.;X5X;X5X5X;X`.!.!.#X#X#X#X#X!.!.!.!.!.#X`.j.A.d.r.c.Y.A.A.!.A.&X&XA./.A.r.d.j.c.j.d.j.d.p.p.7.3.r.G.;X5X&X!.+.p.d.p.!.d.+.;X;X!.j.3.G.!.A.j.j.7.d.A.Y.V.7.+.<.7.<.3...! <.<.<.j.c.p.r.Y./.V.<.<.*.j.j.Y.,X!.!.c.Y.c.j.j.*.d.#X,Xj.! *.<.+.<.j.<.! U } +.+.<.<.p.p.r.p.7.<.<.c.c.7.c.V.r.V.!.j.j.c.A.!.j.<.!.!.Y.<.! +.<.j.!.V.7.p.*.+.r.( D R ! } *.*.+.J } <.j.j...} *.} ( J ..A.#X!.<.<.r.*.*.j.j.V./.!.!.&X.XA.Y.V.j.d.<.<.3.*.3.G.Y.j.<.3.<.*.<.<...*.7.<.<.3.( ! ! J +.<.+.j.;X;XV.j.j.7.r.V.c.c.j.} ..p.p.j.V.A.!.!.!.`.5X!.j.p.c.j.p.D ! G.!.!.j.*./.!.V.A.Y.!.`.!.`.!.Y.j.G.j.3.Y..X!.V.<.G.+...j.!.`.D.!.G.j.Y.;X&X!.<.( <.V.7.! <.d.3.<.7.j.j.3.3.3.+.<.*.....<.+.! ( <.j.7.7.j.!.j.3.r.( ....*.d.<.d.p.<.p.V.!./.!.V.p.3.3.*.p...7 7 } j.<.*.<.j.V.p.w.7.p.<.<.} <.Y.c.A.!.Y.r.<.V./.c.c.d.!..XG..XY.c.!.<.p.j.p.U ! j.j.j.V.3.3.A.V.G.!..X`.Y.!.j.<.<.7.d.p.c.j.<.d.j.G.j.V.!.Y.7...j.j.3.d.p.+.G.A.!.c.<.j..X;X!.j.d.j.j.r.<.( <.7.j.V.p.*.d.Y.Y.y.7.r.d.j.j.j.d.j.A.j.j.<.N j.!.!.3.! ( 3.j.<.3.*.*.r.7.j.Y.d.<.A.V.<.r.<.r.c.j.d.A.;XA.r.j.Y.#Xj.d.!.A.p.j.j.j.r.3.3.7...<.3.j.`.!.( 7.7.r.j.V.j.A.3.+.G.`.c.( 3.&X;X;XY.+.p.Y.A.G.!./.`..X#X.X`.c.j.j.d.j.j.G.!.A.j.p.V.`.!.( *.<.j.!.!.r.7.r.<.3.d.c.G.V.d.c.p.<.<.d.j.*.p.V.*.r.V.!.!.G.d.G.Y.V.7.c.A.7.V.#XG.+...+.7.j.p.+.<.7.3.p.7.d.j.3.7.+.} +.+.*.j.V.V./.!.<.D C ..+.r.D +.",
"*.<.V.V.r.j.c.c.Y.c.G.;X!.! J *.r.!.!.<.} U <.j.G.c.!./.!.!.!.;X;XV.!.`.!.!.V.V..X!.G..X!.c./.!.!.`.#X;X#X`.5X;X;X`.!.`.;X;X;X#X!.`.!.V.G.`.!.`.!.V.j.j.G.Y.!.!.G./.#X/.A.j.j.j.j.Y.j.j.d.7...3.7.<.d.`.;X&X#X,Xc.7.r.j.G.V.p.!.j.<.3.j.j.Y.j.c.!.j.d.p.7.j.V.p.j.<.} } *.3.p.d.p.d.j.j.d.!.;Xj.3.j.<.d.!.A.;X/.!.G.V.p.p.d.7.c.#X!.j.7.p.j.d.<.j.d.<.R ! } ! } *.<.<.d.V.j.d.d.j.p.d.j.V./.!.V.<.*.7.G./.j.7.!..XY.7.! 7.j.j.c.3.<.j.d.c.j.J R ( ..*.*.+.3.} ..*.d.j.*.! ....! ! ( A.;X!.j.j.j.d.j.A.Y.`.!.j.Y..X;X`.A.r.c..Xj.*.<.*...j.!.j.<...( +.<.<.*.! <.r.7.<.*.<.( +.*.} ! <.#X;X!.!.!.3.p.V.c.V.j.<.p.G.A.V.c.j.p.V.#X;X#X!.3.N ! 3.! c +.Y.Y.j.A..X/.!.c.r.d.Y./.!.!.A.r.!.#XY.G.!./.;X/..X/.+...} V.Y.j.3.J J p.;X&XV.<.R ! 7.7.*.j.G.j.3.r.c.j.r.3...( +.<.3.*.r.7.*.<.d.A.V.r.G.G.j.p.+.<.*.( ! d.7.G.Y.r.A.Y.V.d.!.G.j.<..X&XG.N 5 h c.Y.G.c.r.*.r.<.<.<.j.<.<.7.j.j.!.!.!.!.,XY.Y.;XV.j.j..XY.`.!.c.Y.G.} 3.j.c...*.!.j.7.A.r.r.A.!.Y.j.Y.Y.j.A.V.p.3.p.r.7.d.3.7.j.!.!.j.j.G.d.<.<.p.<.<.7.r.d.c.7.A.j.p.d.G.`.G.j.d.7.p.p.r.j.r.d.j.Y.c.p.V.A.d.A.j.p.j.d.j.j.p.c.V.j.G.G.V.!.!./.j.r.r.r.p.3.d.<.! ! ( p.j.7.+.j.c.<.r.j.V.<.! <.j.V.V.c.j.c.!.V.j.Y.A.j.j.j.r.3.r.A.3.<.p.r.j.j.d.} +.<.<.G.!.3.c.j.<.A..X!.j.d.!.;X;XV.*.j.!.A.r.d.!.`.!..X.X/.!.Y.V.j.j.j.<.r.A.c.A.A..X&Xr.r.,.A.#X.XV.d.j.7.r.c.A.j.d.p.A.V.<.*.7.p.j.d.d.<.r.Y..Xj.j.V.Y.!.!.c.!.`.d.j.!.r.3.7.*.<.3.+.} <.r.7.3.3.<.<.! <.} R +.*.<.Y.j.( d.j.j.+.U ..<.<.! ! ",
"3.7.G.`.Y.V.c.j.A.V.A.V.d.<.+.! *.j.j.r.7.} 7.V.!.A./.#X!.!.!.#X;XG.G.!.!.#X!.!.#X!.A..X;X!.Y.!.#X#X#X#X`.#X;X;X;X#X`.`.;X;X;X`.!.`.#X!.`.;X#X`./.Y.c.j.j.V.G.Y.Y.!.!.c.d.j.j.j.7.j.j.j.p.p.<.*.<.r.r.Y.;Xj.3.#XY.p.7.<.j.!.A.c.<.+.7.j.j.A.j.A.`.Y.p.3.<.r.V.j.r.<.+.*.<.7.j.V.j.j.d.j.j.Y.!.p.7.d.<.j.#X!.&XG.;X!.j.j.!.A.j.Y.`.Y.j.j.j.j.j.d.j.j.7.! ( ..( *...*.+.7.j.p.p.j.c.j.d.j.Y.`.A.3.*.} 3.!.#XY.j.!.c.c.<.! j.Y.Y.V.<.r.c.j.j.3.! ( ! 7.3.*.<.d.<.<.<.p.V.7.} ! U ! ! N ( c.c.j.j.c.G.A.G.G.!./.Y.`.!.!.V.p.<.j.`.A.p.p.p.3.j.!.d.3.! ( <.<.<.*.! ( *.<.*.<.j.d.j.p.<.} *.j.!.Y.Y.G.d.p.j.p.r.<.<.Y.#X!.V.d.r.j.V.G.!.!.!.7.c z J h v +.Y.!.j.c.!.Y.r.! U 3.!..X!.!.!.V.Y.`..X!.!..X&X`.G..Xc.j.j.A.!.j.r.( ! d.`.!.c.3...! *.<.*.7..XY.d.r.A.!.j.r.! ( } +.r.<.<.<.( <.+.! ..*.j.j.j.j.7.p.3.<.( *.3.p./.j.c.&XG...<.G.!.j.!.!..Xc.U 7..X`.`.Y.d.3.j.3.*.( <.<.3.r.V.!.!.V..XY.!.#X;Xj.<.c.j.r.*.A./.Y.Y.7.N } j.j.3.r.Y.7.*.j.j.G.Y.V.c.p.7.p.j.A.G.c.j.p.<.<.j.j.d.c./.#X!.j.3.<.p.7.3.<.r.j.A.!.j.<.j.c.A.V.A.Y.r.*.<.r.r.<.+.3.r.p.d.c.A.A.V.r.j.j.3.r.j.j.c.j.d.j.j.c.!./.`.,X!.!.V.j.j.<.<.*.c.d...+.+.3.3.+.p.j.j.7.p.3.<.! ! ..d.j.p.r.7.r.c.r.7.j.j.j.j.j.} ..<.j.*.<.d.d.<.*.( N ! 3.p.!.G.! <.j.p.j.G.Y.A.Y.#X.X`.A.<.7.Y.G.j.d.V.G.A.G.V.V.A.A.c.j.7.<.+.<.d.7.j.c.`.;XV.j.p.!.#X.XY.j.j.7.r.j.j.A.!.c.A.V.r.r.j.V.A.j.c.r.j.G.!.c.j.c.c.!.!.c.!..Xj.r.j.<.<.<.+...<.<.7.7.j.G.c.r.+.<.+.+.! ..p.r.7.A.j.J ..r.G.d.( ..j.7...+.",
"p.j.V./.`.Y.V.j.Y.c.j.v.V.j.d.r.r.d.3.r.p.( d.!.!.V.!.&X`.!.!./.;X!.G.!.`.#X_.`.!.Y.j.!.7X#XV.!.`.`.;X#X`.`.#X;X5X;X#X#X;X;X#X`.`.`.;X;X;X5X;X`./.!.V.d.r.d.j.c.G.G.A.c.j.p.p.p.3.<.7.j.p.c.p.( *.p.3.j.!.<.! !.j.3.p.3.p.#X.Xd.7.<.<.j.j.Y.c.A.`./.d.p.p.7.c.j.r.<.3.7.<.3.j.j.c.j.j.j.A.!./.j.d.j.r.!.7X#X&XV.`..XV.V.&X#X!.Y..X!.!.!.j.<.<.j.A.V.7.! ! } +.r.p.d.r.j.V.j.c.A.A.!.A.j.A.A.r.+.} ! 3.Y./.Y.V.!.!.!.*.R j.`.#XV.<.p.d.3...! ! ( *.A.7.} <.j.<.<.*.<.d.r.<.( U <.( c N <.r.7.j.G.Y.A.V.c.V.G.V.G.V.V.p.<.! +.Y./.j.j.V.j.c.c.<.*.} <.<.*.*.<.<.<.<.<.<.<.c.c.A.j.*...*.} p.c.A.c.V.p.7.<.+.} <.`.,XG.7.<.p.A.V.7.!.!.!.d.n z ! C ! 7.!.!.V.A.Y.j.U z N 7.!.!.!..X`.!.G.!.!.V.G.!.7.j.*.j.<.j.`./.!.c.V.<.+.j.!.G.j.j.r...! +.<.<.`.!.V.V.!.!.j.<.! } *.+.} ..p.p.j.<.J C +.! +.d.G.Y.c.j.3.7.3.p.r.r..Xp.d.;XG.( ! V.!.j.c.j.Y.A.r.A./.!.!.c.<.*.j.d.<...<.p.j.c.d.c.j.*.Y.j.d.;Xp.e h 3.d.! n 7.d.j.G.3.J <.V.c.r.j.Y.r.<.j.A.`.V.p.j.p.<.<.r.j.3.d.j.j.3.r.c.j.<.3.j.A.!.j...<.d.7.<.3.j.V.V./.!.c.#X.X/.!.!.!.7.+.<.j.j.p.7.j.p.p.j.j.V./.!.d.j.r.d.c.V.Y.A.V.d.3.p.j.A.!.!.&X!.A.j.j.j.7.<.3.Y.V.<.<.<.3.<.*.d.<.d.V.!.j.d.c.<.! +.<.r.j.d.3.j.<.3.d.j.p.<.*.} ..+.<...<.j.r.+.+.*.R ( 3.p.c.!.<.*.*.<.c.!.G.!.!..X!.Y.p.! +.7.d.j.j.j.j.p.7.7.p.j.c.j.p.3.<.<.j.A.j.V.A.!.!.A.j.j.`./.!.R.j.c.p.p.r.r.!.;X!.!.!.G.!.Y.A.A.j.p.7.j.V.!.G.Y.Y.7.G.G.j.A./.A.<.<.*.*.<.*...<.p.j.7.j.!.!.j.<.<.j.( ! p.!.A.j.j.d.( r.j.Y.j.<.<.j.*.! } ",
"d.V.d.j.!.!.Y.V.V.r.j.!..X!.j.j.A.j.7.j.r.! j.,X!.j.Y.#X`.`./.!.#X#X!.`.`.!.#X#X.X!.A.V..X/.p.j.;X5X;X`.!.G.`.;X5X5X;X#X;X;X#X!.!.!.#X#X#X;X;X`.!.!.A.d.d.j.j.j.Y.G.Y.!.G.j.r.p.<.+.+.3.7.!.A.+.+.<.<.d.V.7.<.A.j.<.j.c.r.G.!.r.j.7.r.j.j.Y.j.j.!.`.j.V.Y.j.A.j.j.7.p.p.*.*.7.7.j.c.j.d.V.!.!.G.c.A.j.j.G.j.Y.!.V.#X!.!.;X`.Y.Y././.&X&Xj...<.A.c.c.7.! R ( *.j.c.c.j.A.G.j.A.Y.Y.!.!.Y.j.7.*.( ....r.j.V.G.Y.!.5X,Xp.! d.G./.j.r.j.p.3...} 3.<.r.c.( J ! <.+.( +.( *.+.<.<.( 3.+.N v ..r.r.c.G.G.Y.!.!.Y.Y.G.A.j.c.j.7.! ( G.;Xj.7.c.c.j.d.} +.....( ! ( <.r.r.j.j.p.<.r.7.p.3.+.*.7.! <.p.j.j.Y.V.V.j.d.r.j.&X!.3.} <.r.j.j.*.j.j.G.j.C N ..} J ..j.Y.G.Y.A.7.N h N p.A.j.V.&X/.Y.G.Y.r.<.A.Y.R <.7.d...A.!.j.r.d.Y.3.<./.#X!.V.A.A.3.! } <.1.A.G.!./.`.Y.d.<.j.( ! ! U <.!.d.r.+.U N ! ! *.V.!.!.c.7.! ! ..3.7.3.V.<.j.;XA.*.} j.j.r.p.<.7.7.j.Y.`..XG.c.7.+.<.p.r.p.c.A.Y.G.j.A.j...d.j.j..XD 2 N d.j.*.R <.! } 7.<.} r.j.p.3.V.A.p.j.!.!.!.j.r.j.d.7.7.3.<.+.p.c.c.d.r.p.*.<.*.<.7.G.!.r.j.V.A.j.p.c.c.j.V.j.c.&X!.G.V.j.j.c.j.j.V.!.A.r.j.7.d.G.V.j.A.j.d.j.p.V.V.p.A.V.G.V.7.d.V.G.G.G.!.#XY.j.c.G.c.j.p.d.p.*.*.r.p.7.p.j.j.c.A.!.j.<.V.j.*.*...<.7.c.G.p.<.<.<.<.3.*.<.<.<.+.*.<.p.j.<.*.3.j.<.*.3.p.d.`.A.d.( ..Y.&X/./.A.A.G.j.! N *.3.p.j.V.j.j.d.r.j.3.3.j.A.j.<...*.c.!.!.!.!.G.V.d.d.j.I.!.!.Y.j.c.d.d.r.d.!.;X/./.!./.%X!.G.Y.A.<.<.j.c.G.j.j.j.d.~.!.G.Y.!.!.p.*.+.*.<.<.+.3.j.V.r.j.!.`.!.j.<./.*.} A.`.Y.p...R } V.j.j.p.r.7.j.+.<.d.",
"Y.!.p.r.Y.!.!.!.V.7.j.V.j./.#X!.!.V.c.A.3.C p.;XG.j.!.#X!.!.!./.;X;X!.!.!.!.`.`.#X.X!.j.j.A.d.p.#X5XG.!.!.j.#X;X5X5X;X#X;X;X#X!.`.!.`.`.!.#X#X#X/./.Y.V.G.Y.A.V.!.Y.V.c.c.c.j.r.3.3.*.<.<.!.(.j.3.3.p.A.Y.j.j.A.j.*.j.!.d.p.c.V.d.j.c.A.j.c.j.d.!./.p.A..X!.`.!.j.<.r.p.*.<.p.r.A.!.G.d.j.Y.!.Y.G.`./.A.d.+.d.Y.c.!.G..X;Xj.d.!./.#X;X&XA.3.3.j.7.d.r.+...+...7.j.j.j.G.A.j.G.!.Y.A.Y.`.j.*.+.! *.<.p.p.j.!./.!..X,XA.<.7.3.j.p.r.A.j.d.3.<.c.d.7.<.! ..( X.+.} *.} ..! +.7.} ..<.R v ! r.j.Y.G.!./..X.X/..X&X#Xj.d.j.j.7.7.A.!.j.2.r.d.j.p.+.7.<.+.! ! } <.3.<.d.j.V.r.<.+.*.+.+.+.3.} <.7.p.j.c.Y.`.`.!.V.j.V.r.<.<.<.*.r.d.<.<.d.!.!.*.! ..! N U <.j.j.j.p.+.D k v *.j.p.d.G.!.!.!.!.p.3.Y./.Y.A./.p.( &X!.r.+.+.r.<.3..X.X!.G.!./.G.<...<.<.j.V.!././.Y.j.3.j.( R R N <.!.j.3.V.G.U n ! j.Y././.!.A.<.} } 3.r.3.p.d.j.G.p.! d.Y.c.j.3.} ( <.7.c./.G.*.c.V.*.<.3.<.j.!.Y.A.j.j.c.A.r.d.Y.`.A.h r p.j.d.c.p.<.3.( ( ! } <.p.d.7.A.c.r.j.!.!.c.c.j.d.7.d.j.3.<.<.j.c.j.7.<.3.+.j.+.+.<.A.!.j.j.!..XA.7.7.7.<.r.7.c.;X!.!.`.Y.j.j.j.j.j.`.A...<.d.j.#X.Xc.3.+.<.d.r.c.r.! j.c.G.Y.p.j.G.A.A.V.G.Y.c.j.j.V.A.j.r.c.A.j.r.A.G.j.V.j.!.c.r.!.#Xd.j.Y.3.3.<.<.<.j.!.<.<.7.<.<.3.*.3.<.3.<.<.p.j.j.<...*.r...+.3.j.j.G.V.V.d.p.G.`.&X`.c.j.!.j.R C r.j.j.c.c.j.j.j.c.j.3.7.c.V.7.+.+.3.V.!.!././.Y.A.j.j.j.d.V.!.Y.G.j.j.p.p.j.A.!./.`.!.!.`./.!.Y.j.r.r.V.G.G.p.r.p.j.`./.!.G.G.!.j.<.! ( <.+.*.7.d.c.j.Y.!.!.#XG.<.A.+.<.G.Y.c.p.+.! +.j.j.j.j.c.j.7.+.p.Y.",
"&X.XV.A..X`.!.`.j...j.p.C ! j.V.Y.j.j.j.} v *.!.G.V.!.`.Y.A.Y.#X5X#XG.G.G.G.!.`..X`.!.d.3.j.j.j.!.`.! <.G.j.;X5X;X5X;X`.;X;X#X`.`.!.!.!.G.!.!.#X!.!.A.A.!./.Y.G.!.!.A.j.G.&X!.r.c.!.V.j.r.!.`./.Y.!.!.&X,XA.3.c.r...r.`.!.d.j.Y.j.j.d.j.r.c.c.j.!.Y.p.Y.;X#X;X.XV.r.j.j.3.p.Y.A.Y.!.!.j.j.A.Y.!.!..X&X/./.V.c.c.Y.!.Y.!./.c.d.Y./.`./.!.G.V.r.+.+.<.3.*.*.+.( <.j.c.V.!.A.j.A.!.A.j.c.!.7.! <.<.<.<.3.3.j.`./.!.c.!.j.+.<.<.3.<.j.Y.j.7.+.} d.d...} <.c.<...*.<.( ..*.( } <...! <.+.J ! *.7.G.!..X;X.X!.!..X;X;X!.j.j.Y.!.!.A.*.j.3.<.p.c.3.( <.V.7.} +.<.<.p.7...<.V.j.p.<.*...! U ! ..+.<.3.3.<.3.3.p.G.!.j.<.j.c.j.<.<.V.G.<.U <.j.c.<.( } ! ! ! ..<.%.<.<.+.C k h U <.<.+.3.!.#X#X.X/.Y.!..X;XY.!.+.C Y.d.A./.p.<.<.p./././.!.!.#X#XV.<.3.3.7.j.Y.!.!.Y.j.*.<.<.( R N } j.A.j.d.!.7.! ! 7.!.#X`.Y.Y.7.( J ! p.r.d.A.<.*.p...j.!.!.!.7.*.! ..<.j.G.<.N j.j.+.c.j.+.j.G.G.j.d.V.A.!.V.j.Y.A.! k y ..r.d.j.d.7.p.! N z D ( <.p.r.c.V.j.V.!.Y.j.c.c.d.3.j.j.<.3.3.j.j.j.p.7.j.j.j.! ! r.G.!.j.j.Y..XY.r.<.<.<.<.p.G.;XA.Y..X`.A.d.7.<.j.`.j.( 3.j.p.V.!.d.( U ! p.j.V.d.*.Y.Y.Y.Y.d.d.j.d.p.d.j.j.j.j.p.p.c.c.j.Y.!.c.<.a.j.j.d.c.G.D r C V.c.A.p.<.j.j.Y.j.j.j.3.p.j.d.p.3.<.<.r.j.j.j.c.j.d.<.} ( ..R ..<.j.d.7.j.Y.G.j.c.Y.!.V.A.!.#X/.3.( 3.j.j.c.V.V.c.V.G.j.<.<.7.7.*.*.7.7.d.c.!.!.!.A.V.j.A.c.*.3.j.j.j.j.j.r.p.d.r.j.!..XG.d.V.!.!.A.7.<.r.A.G.G.p.d.j.p.!.!.Y.G.c.A.V.d.} ( <.<.<.r.p.<.r.Y.!.G.`.Y.<.+.} 7.V.p.<.7.7.+.! +.<.r.<.d.j.3.*.7.j.",
"#X`.!.!.;X.XV.G.c.7.!.`.r.! ! p.j...*.+.! U 3.!.A.j.j.V.G.G.G.#X5X`.G.G.j.j.!.!.;X.X!.c.7.<.7.c.;X!.N ! j.j.`.5X5X9X;X`.;X;X#X`.!.!.!.V.j.j.j.!.!.!.c.c.!.!.G.Y.!..X!.Y..X7X&Xj.A.`.`.Y.j.!.`.`.!.&X/.#X5XY.<.r.r.r.j./.&XV.7.j.c.j.7.r.r.Y.!.!.Y.V.j.!.;X.X.X`.Y.d.c.V.3.j.`.`.V.j.V.c.j.j.j.A.`.!.G.j.!./.!.c.!..X!.V.!..X!.!./.!.V.j.G.`.A.<.} <.<.<.3.3.<.7.j.j.V.Y.j.p.c.A.j.d.j.V.*.D *.r...+.*.+.7.j.j.c.d.!.V...<.<.<.*.j.G.3.*...! <.7...<.A.!.+.( } } ! ! } *...+.*.! ..<.! ! ! ( j.`.;X5X`.Y./.#X&X.X;X!.`.#X#X5X`...A.j.<.r.c.<.( 3.r.<...<.3.r.j.d.( } d.j.d.<.+.( U J ! 7.+.*.+.} ! D N ! A.;X!.7.!.`.G.<.7.!.!.<.} j.c.p.<.<.d.j.3.( ! } ..<.3.<.C v h N } ! D ( j.G.!./.#X`.!././.!..XV.( U s ! ;Xc.<.d.c.!./..X!.!./.#X!.j.j.c.j.j.G./.Y.d.<...p.j.<.<.<.p.j.j.d.C +.r.<.! } G.A.A.d.j.3.+.! <.j.j.7.d.+.r.!.j.r.c./.!.7.j...+.<.j.j.7.<.!.r.j.!.G.<.d.c.V.V.j.V.c.A.V.!.!.<.C ! k J j.!.j.<.r.r.+.! N ( <.7.j.<.*.7.j.!.#X!.V.j.c.j.j.c.r.*.j.p.j.c.Y.G.j.j.j.j.....j.!.!.Y.A.Y./.!.c.j.d.j.d.V.!.;XA.Y.`./.Y.V.r.3.j.!.j.*.p.Y.r.<.c.j.<.<.3.r.j.G.Y.j.#X!.Y.G.j.j.j.r.7.7.j.!.Y.Y.j.p.c.G.Y.V.Y.A.+.3.V.V.j.A.!.+.N J +.( ..! 3.!.V.!.j.d.j.j.c.d.3.3.r.j.c.j.j.d.r.j.<.<.<...} } J ....<.<.*.d.G.V.j.c.Y.c.7.V.!.`.#XA.<.( <.A.!.!.!.!.Y.G.G.<.! } 3.r.7.3.+.( <.G.A.V.d.p.! 7.c.+.*.r.d.1.r.7.r.d.7.+.<.A.G.j.<.7.Y.!.A.3...7.G.V.j.<.<.<.3.G.Y.G.!.!.A.G.A.3.*.r.j.d.d.j...} j.A.V.!.Y.<...<.j.c.3.( +.7.j.<.<.p.d.+.d.A.j.j.j.j.",
"A.!./.!.`./.j.r.V.c.A..XwX!.+.G.V.( ..} *.<.j.G.c.3.*.3.G.!.Y.`.;X!.!.!.7.<.j.!.%X!.A.A.d...<.G.;X!.! 7.#X!.!.;X5X9X;X`.;X;X#X#X`.#X#X!.G.j.p.G.!.!.c.c.!.!.G.!.V.E.G.A.Y.!.Y.j.r.c.Y.Y.j.!.`.!.j.V.j.j.`.!.r.*.7.V.j.A.&X!.d.V.d.j.j.c.j.!..X`.!.A.V.!.`.!.!.!.V.7.j.j.*.r.`.#XG.d.c.Y.V.j.d.c.!.G.V.7.j.V.V.c./.!.!.!.#X,X#X&X5X;XY.j.G.&X!.p.( <.r.d.V.V.d.j.j.j.V.Y.j.p.A.!.r.p.r.j.3.! ( ..! } ( ! ! ! ! 7.7.&X;X7.*.+.*.<.+.7.} } <.+.<.*.c.!.;X/.+.+...! ! R ! <.*.} <.( ! +.R R ! ! c.&X`.;X!.G..X#X/.A.`.!.&X`.Y.;X;X3.`.!.<.3.j.<.<.Y.*.<.<.d.p.7.r.*.<.} 3.3.7.<.( R ( +.<.!.<.+.! J J S J *.V./.A.<.c./.Y.<.<.j.c.3.r.!.G.<...<.j.!.G.3.<.p.M.c.p.} ! N k N ..U v J ( ..j.G.G.!.!.!.V.!.!.;Xc.n r +.} ! U <.d.A.A.G.!.!.G.!.^.Y.!.`.;XG.!.&XA...} 3.j.A.Y..X!.!.A.j.`.r.j.3.<.<...3.r.j.7.r.3.<.<.j..X!.*...p.#X.Xd.j.A.#XA.+.c.<.<.V.A.j.G.!.Y.v <.!.!.3.j.j.j.A.A.A.c.j.p.`.Y.n N ! R ( j.!.j.*.<.r.d.d.} <.7.3.<.} N U 3.!.&X!.!.A.V.A.A.j.<.<.!.j.j.j.!./.V.d.p.Y.j.p.j.!.!.!.A.!.!.c.j.j.j.Y.Q.j.j.!.V.`.#XA.7.d.<.r.c.G.c.r.d.j.} U 3.d.<.<.<.<.g.c.Y.j.!.A.A.j.d.j.d.p.7.3.j.V.j.V.j.j.G.Y.Y.j.Y.!.<.r.A.j.*.p.!.`.,X!.<.} r.} r.j...p.p.j.d.A.G.r.<.7.d.A.!.c.r...( <.! } ..} } ( C ! R +.<.+.<.j.A.c.A.!.V.3.j.j.j.G.A.<.! *.!.`.A.A.G.c.j.j.d.r.7.3.3.3.3.7.( ..V.j.p.<.<.y D j.3.<.j.V.7.<.*.r.j.<.( <.j.c.j.<.<.c.A.j.<.} j.`.G.j.<.*.} <.G.Y.A.!.!.j.j.G.j.<.p.A.j.p.j.<.! <.V.G./.!.r...<.j.c.r.+.*.j.!.j.d.j.d.( <.r.j.V.A.V.",
"j.G.j.!.#X#X7.p.V./.c.#X#X!.j.Y.c.} ! <.<.j.G.;XG.V.j.7.A..X!.!.#X.XV.j.3.<.V.Y.`./.A.c.!./.G.j.G.G.p.j.;X#X!.#X;X9X;X;X;X;X#X;X;X;X#X`.`.!.G.!.&X!.!.A.j.c.A.!.j.V.d.j.!.V.d.c.A.V.V.`.Y.d.!.`.c.j.p.<.j..XA.+.7.A.`.c.`.#XY.G.7.<.p.A.A.!.#X/.Y.!.G.c.G.!./.!.A.3.r.j.d.j.Y./.A.V.G./.!.G.j.c.A.j.j.j.j.j.j.Y././.!.!.#XY.3.!.&X#X!.d.c.!./.c.! ! 7.Y.!.Y.Y.Y.7.j.A.G.d.j..XY.7.+.*.r.j.*.U } <.3...*.<.( } r.<.XXwX<.U } ( R ! ! ! } r.3.( <.!.,X;X!...D ! *...<.! ( *.} +.! ! ! J ( ! R j.!.V.Y.j.A.#X! ! r.!.!.V./.`.!.A...Y./.7.<.<.<.j.<.<.j.j.+.+...<.( <.<.*.<.A.p.} ( } *.} j.p...( N c N D <.V.j.G.j.7.V.c.3.<.<.+.U r.!.c...N h ( A.!.Y.G.G.j.A.<.U ! N n N } J c N N z U *.j.G./.A.!.!.Y.c.j.U ! #X+.s ! r.j.!.j.G.!.!.!.G.j.V.V.;X/.p.Y.;Xc.! ..!.!.d.Y.;X&X;X;Xc.!.A.d.<.<.3.+.7.j.r.*.j.G.j.V.`.&XG.i k Y.!.A.Y.p.V.Y...<.r.<.j.G.Y.!.!.;X/.! ! ;X!.<.p.G.j.j.Y.V.p.j.*.;X*.k <.j.3.<.<.j.j.3.d.d.A.Y.r.j.<.7.j.! c D p.!.;X#X!.c.A.Y.A.r.<.r.A.j.V.c.!.&X!.A.j./.c.!.`..X`.c.j.j.G.A.j.V.V.A.!.!.!.c.d.A./.<.( r.p.p.j.Y.A.p.j.p.<.3.<.U ( c.c.7.*.G.!.j.G.!.j.r.j.3.7.7.j.j.c.c.V.d.j.!.`.!.Y.j.!.Y.p...d.j.<.d./..X#X#XY.j.r.7.V.3.! p.V.j.*.c.j.Y./.j.<.<.c.} ( ( ..( <.( ! <.r.<.( +.+.! <.<.p.d.j.!.`./.G.j.<.p.j.V.p.<.! *.c.A.j.V.G.c.j.V.V.!.j.p.d.+...j.!.p.<.7.<.7.3.U <.M.j.c.!.c.c.j.7.<.r.p.r.j.j.j.j.p.j.c.} } ( <.j.j./.V.d.} ! <.!.!.r.p.j.*.! j.!.r.r.V.<.! <.} ! j./.!.!.j.p.<.+.+.3.<.+.3.p.A.c.A.!.d.U ( j.A.!.V.Y.",
"c.c.p.Y.`..Xr.d.!.A.V.!.!.j.d.r.j.*.R ( <.j.j.!.!.G.j.p.!.#X!.Y.!.!.G.G.j.r.!.!.!.!.V.V.!.!.!.Y.p.j.<.p.#X#X!.#X#X;X#X#X;X;X`.;X;X;X;X`.!.!.!.`.`.!..X!.j.j.V.!.!./.Y.G.!.j.p.A.c.j.r.j.c.d.A.G.j.j.j.7.j.oX!.j.+.3.A.j.!..X!.!.7.<.d.Y.Y.!.^.A.!.!.j.3.r.A.!.!.c.r.p.j.c.V.!.!.!.!.!..XY.G.c.!.&XG.j.d.c.!.G.!./.!..X#X.Xp.! 7.;X.X/.A.A.j.j.r.<.<.7.j.j.p.c./.c.j.j.j.7.j..X&Xp.<.<.*.} J N U r.j.<.<.7.*.3.Y.( j.;Xd.R R } +.! +.+.! <.3...*.3.&X,X!.} ! } ..<.7.! ! ..! ( ( } ! ! ..! +.j.Y.j.V.j.!.`.z n A.!.j.p.G.j.<.*.! s.A.j.c.p.+.7.3.<.<.j.<.+.} *.3.<.<.<.3.G.j.<.*.! ..U <.3.3.7.( C N N ..c.7.c.Y.7.d.j.3.<.<.! N ! j.!.!.p.R ! <.j.j.j.j.*.*.} ....h k R } D D ( U N F ! 7.j.~..XG.j.+.! ! U *.j.! h 7.#X!.!.A.!.!.V.V.j.7.j.r.V.c.7.!.#Xr.! 3.`..X!./.#X.X;X;X.X.Xc.p.d.V.V.j.V.Y.j.*.3.j.j.Y././.d.a r ! <.+.r.+.<.! h U <.<.c.!.j.V.j.!..XA./.;X/.p.p.A.V.c.A.j.c.G./..Xk k j.c.j.3.+.r.c.j.j.j.Y.`.V.G.p.j.A.} U *.c.!.!./.`./.!.A.j.r.<.r.j.j.j.j.!.;X!.A.j.j.r.G./.`.!.d.7.d.G.G.V.A.A.A.!.#X.XY.j.p.j.*.<.j.r.7.j.!.Y.p.d.j.j.c.s.+.<.A.c.( ( j.Y.d.j.G.j.G.Y.r.7.j.A.j.j.j.A.V.V./.`.G.Y.c.Y.G.3.J <.j.V.j.!.!./.#X!.A.A.A.G.A.d.V.V.c.j.G.!.!.!.j.! C +..X!.j.3.*.j.7...<.r.r.*.<.<.+.3.*.d.V.Y.!.!.!.G.3.+.<.d.c.<.! N ! p.G.j.j.c.A.V.c.j.j.3.3.j.<.<.!.#Xj.<.7.<.<.3.r.!..Xp.<.c.!.Y.G.c.j.r.<.<.p.<.<.<.3.c.V.! ( ..p.c.j.#X!.j.<.3.3.j.j.<.p.p.} ! <.7.<.7.j.j.c.j.3.<.!.!.j.G.c.3.3.....7.3.7.A.G.V.Y.!.#XG.<.<.d./.3.! A.",
"<.<.<.V.!.;X!.!.j.<.!.!.G.r.c.p.#XY.+.! 7.G.r.r.j.V.j.p.G.`.Y.A.c.V.G.!.V.j..X.X`.!.c.j.A.G.Y.!.<.p.7.p.`.;X`.;X#X#X!.`.;X;X`.#X5X5X;X#X!.!.!.#X/.`.;X.XV.j.A./.#X`.A.A.!.G.p.j.j.j.<.3.d.d.j.d.<.<.d.r.7.G.Y.j.*...j.c.!..X`.!.d.<.j.!.#X;X;X/.!.A.j.r.7.A.!.V.j.j.j.j.j.j.j.j.G.!.!./.Y.!.c.V.&XA.j.j.Y./.!.Y.!.c.!.#X`.r.*.!.!.G.A.V.G.c.V.A.j.7.3.p.r.<.r.!.Y.G.A.A.j.j./.;XV.p.7.<.( ( ! ( p.G.j.3.<.<.j.`.} ! 3.p.} ! *.+.} <.*.U ! <.+.} ! j.!.G.*.+.*.! r.p.( ! ! U ! ! +.( p.7.<.p.j.A.j.d.7.r.c.( <.A.Y.<.+.r.*.! ! } ..<.r.j.r...<.j.7.*.c.p.<.*.+.p.r.r.d.j.Y.j.<.+.C ! ! j.j.<.....R J N } G.d.7.r.<.<.*.<.3.7.3.*.3.j.Y.`.c.! R R <.<.r.p.( ! ( 7.p.N N ! ! N J <.r.<.*.<.j.c.!.&X/.p.! J N N +.C 8 r d.;X!./.`.!.d.<.<.j.p.j.<.<.j.<.j.j.+.*.V..X.X!.!.!.Y.G.`.;X,XA.7.j.V.j.j.j.j.j.p.p.p.j.Y.!.!.V.+.N J ! U ..*.p.<.c *.c.d.Y.!.p.c.c.V.`.`.&X;X#Xc.j.G.G.A.A.Y.j.V.;X+.3 C !.p.j.3.! <.G.A.j.p.c.`.!.!.j.V.A.r.*.7.j.A.!./.&X#XY.d.r.p.j.j.j.d.3.3.G..XY.j.r.<.<.A./.`./.j.r.d.G.!.G.Y.A.V.G.`./.!.j.r.p.<.c.V.3.3.j.!.!.j.j.j.G.G.V.j.j.c.r.( ..j.A.r.3.r.r.A.G.7.<.p.V.d.l.d.j.V.j.A.c.<.3.p.j.G.j.! *.j.c.Y.Y.A.!.#X!.Y.!.j.<.j.c.j.p.7.d.j.j.d.d.p.<.<.!.;XY.j.<.+.j.d.*.*.<.7.+.<.7.3.3.<.j.!.#XY.c.!.!.<.*.<.7.j.<.<.<.r.j.A.c.j.j.V.c.A.V.c.3.7.V.j.d.!.~.p.+.7.<.} <.j.Y.Y.! z ( V.!.!.A.A.G.d.p.G.V.<.+.r.Y.j.! <.3.<.7.<.!.G.p.<.<.d.7.<.r.c.d...*.<.<.7.3.r.!./.c.<.*.c.j.*.p.j.<.<.! ! <.3.j.!.!.!.!.Y./.!.j.<. .j.U f ! ",
"3.p.j.j.p.!./.#X<.3.;X#Xj.<.j.G.!.A...! j.#Xd.} *.d.r.<.d.A.V.G.V.V.Y.!.c.c..X.X/.V.j.j.c.c.c.c.7.j.j.j.`.;X;X;X;X`.!.!.#X#X`.;X;X;X;X;X#X`.`.#X`.`.;X#X!.G.G.!.!.!.A.c.!./.j.r.j.V.j.r.<.<.r.<.+.<.j.j.d.V.G.j.r.<.j.V./.&X`.!.d.<.r.G.!.`.&X#XG.j.A.V.j.A.Y.j.j.!.!.c.j.d.r.p.A.G.G.G.G..Xc.7.j.p.p.j.G.G.G.!.!.j.A.!.Y.p.d.&XA.V.j.j.Y.Y.Y.G.A.c.j.j.V.p.3.j./.`.`.#X.X/.#X,X!.j.r.3.<.7.<.( r.!.Y.<.} *.r.c...C U <.<.} <...*.*.! D J } +...( ! d.Y.3.+.*.! <.<.( ! ! R ! ! R ! c.d.d.j.*.c.*.<.c.<.+.j.`.c.! z v J U ! ..( +...3.7.<.*.*.7.7.p.V.r.3.r.<.3.r.d.V.!.Y.j.<.} N D N <.j.d...R ! ( R ! j.3.! J ! D J } *.*.+.} <.+...<.O.! ! ! D J } <.! ! U ( <.<.( ! *.! J <.G.Y.A.A.!.Y.!.!.Y.7.*.3.N k <.U h D A.!.<.3.!..X7.! ( 3.3.j.r.<.d.3.<...! +.p.V.!.Y.!./.G.j.Y.&X;X#XV.j.j.r.p.r.<.d.V.c.j.V.!.Y.G.d.r.<.j.G.7.<.+.G.Y.+.j.!.c.Y.G.<.r.d.d.!.!.`.#X`.G.j.V.V.c.V.p.G.!.7.8 y !.V.j.c.*.N ! j.Y.A.<.r.!.!.G.d.j.j.j.7.j.V.G.!.!.`.;XY.p.7.d.j.j.p.<...*.j.G.d.<.<.<.7.V.!.!.!.A.c.j.!.!.!.!.A.j.j.Y.V.V.c.j.j.3.V.V.7.p.c.c.d.3.r.j.!.!./.#X/.G.d.3.3.V.!.j.j.A.A.G.Y.c.j.7.d.7.j.d.j.c.j.j.d.( } 3.p.A.A.*.3.j.r.A.c.j.!./.V.c.V.p...j.c.V.V.p.j.j.d.j.j.7.3.j.G.r...+.<.<.j.c.j.*.*.<.( <.7.3.+.<.j./.&Xc.r.V.G.c.d.7.7.j.<.7.j.j.j.j.c.V.c.c.A.A.A.G.j.j.A.V.V.j.j.<.+.r.r.*.7.3.j.V.<.! } d.A.!.j.j.!.V.<.j.!.p.<.j.c.<.! d.j.r.j.} <.7.r.r.<.3...<.j.!.V.3.d.r.p.j.7.r.Y.G.c.<.! <.7.<.7.r.7.3.( ( <.p.A..X`.Y.G.c.V.V.d.+.D R <.<.<.",
"!.Y.Y.j.<.d.A./.V.c.!.`.j.j.3.r.j.p.*.<.V.;XA.+.} d.7.+.7.c.A.!./.!.`..XA.j.!.!.j.p.j.V.c.j.j.z.j.!.!.G.!.#X#X#X`.!.!.!.#X`.`.;X;X;X;X;X#X`.`.`./.!..X`.!.!.Y.G.j./.#XG.G./.Y.G.A.Y.!.j.+.( <.+.<.<.d.V.j.V.!.G.A.j.Y.A./.#X`./.!.j.j.Y.G.A.!.!.c.p.G.Y.j.c.G.A.V..X.X!.G.c.j.d.G.!.G.j.V.#Xj.+.<.*.<.j.j.j.A..X;X!.!./.!.c.V..XY.A.p.j.!.!.c.r.c.A.G.!.`.!.j.j.!.!./.`.&X;X&X;X!.7.3.r.p.j.d.*.A.`.!.j.7.3.<.<.} ( ! <.*.} <.<.<.( R ! } ..<.r.<.! j.Y.<.} <.( } R ! } ! ! ( ( } <.!.j.!.Y.! V.*.+.c.p.} <.j.*.J c N ! } <.<...! ( 7.*.} <.+.( *.!.A.<.<.j.p.<.<.7.V.!.A.j.3.<.r.<.D ! A.7Xc.N R +...D } ( ! ! <.! ! ..+...+...<.*.+.<.*.+.+.R U U ( <.( ( C N ! j.r.*.7...D ( j.!./.`.!.Y.!.c.<.+.3.d.h i <.<.+.*.j.j.R n *.!.!.7.+.2.+.7.p.p.d.j.p...+.$.! <.r.j.!.`.G.j.A.A.7.`.!.j.j.3.3.3.7.p.c.V.A..X&X!./.A.j.j.V.G.j.7.7.!.!.<.j.!.V.c.c.<.7.r.r.j.A.!.!.!.Y.c.j.p.p.j.j.!.&X..e ( &Xd.G.Y.<.D ( j.G.G.j.j.G.A.j.r.j.p.r.p.G././.G.j.G.!.j.3.7.j.c.j.d.<.+.3.j.d.*.+.7.j.j.V.c.V.Y.Y.!.G.!.`.!.!.Y.c.j.A.c.V.A.j.c.3.d.j.<.r.j.p.<.+.3.d.A.!.;X;X/.Y.A.7...3.d.<.<.j.p.7.3.j.j.*.3.r.j.p.p.j.p.j.j.*.( r.j.c.j.+.p.c.d.j.j.j.!.!.c.V.A.<.+.7.<.7.c.<.d.j.j.j.p.<.3.j.j.( ! <.r.r.d.j.j.*.<.7.} <.<.*.! ..j.!.!.p.3.j.7.d.r.<.<.j.<.7.d.p.j.j.j.V.j.j.c.j.d.d.j.j.j.j.x.j.3.*.*.3.d.p.p.3.j.V.c.j.3.7.j.j.j.j.G.V.<.*.d.c.<.d.j.<.} A./.&X!.( U ( 7.d.<.7.<.d.!.#X!.j.A.j.j.G.c.j.A.G.!.j.<...<.j.d.<.r.r.<.<.7.c.V.<.! ! <.p.c.j.7.<.*.N p.A.<.",
"/.j.c.A.j.j.V.!././.G..XY.A.} ( <...( +.<.G.c.3.<.A.d.<.j.Y.!.!..X.X;X;X!.Y.!.!.c.d.j.c.r.r.V.!.!.#X;X`.!.`.#X`.!.!.`.#X#X`.#X;X;X;X;X#X!.!.`.`.Y.Y.!.!.G.!.Y.G.r.!.;XV.c.`.`.#XV.A.Y.V.*.! <.7.j.r.7.d.p.p.V.Y.V.j.!.A./.,X,X;X!.j.r.j.G.!.V.d.d.r.!.!.c.G.!.!.R.`./.!./.!.j.p.j.!.!.G.c.!.7.! +.+.<.j.V.j.V.!.;X&X.X`..X`./..X!.V.<.p.G.A.j.d.j.V.Y.!.`.`.!.A.!.G.!.!.#X&X!.A.V.r.p.p.p.V.A.j.j.p.r.r.j.7.( ( +.7.*.*.+.*.<.<.*.} ! <.r.*.3.A.j.<.A.j.+.<.p.! ! D ! } ! ( ! } <.p.!.c.#X#X7.#X/.c.c.j.d.r.3...! R ! <.( R ( +.! +.p...! 7.3...+.;X!.<.<.j.j.p.<.r.j.A.j.d.7.7.c.7.J N } V.<.C 3.<.<.! ! ( } <.3.<.*.} R ! +.*.( ( ..+.*.3.<.! <.<.3.3...<.! J ! 3.*.+...! N D j./.`..XG.G.!.c.<.*.3.3.v N <.*.! +.j.!.d.} 3.!..XY.c.A.d.j.r.<.c.A.<.! 7.7.! ( } j.!.!.V.c.Y.d.N j.Y.j.p.<...<.r.p.V.!./.;X;X#X`./.A.d.<.3.j.j.j.A.V.7.!.#X!.G.c.d.c.c.p.r.d.A.!.!./.A.j.p.p.c.!.c.A.7.} 3.p.A.Y.!.p.<.j.G.!.!.!.Y.A.j.r.p.j.p.r.3.j.Y./.A.p.c.r.<.<.r.j.V.A.G.<.<.j.A.3.( *.c.!.!.G.V.V.A.Y./.!.~./.!.!.!.G.c.Y.Y.Y.G.V.!.j.j.d.<.7.d.j.r.<.d.d.V./.;X/.j.A.!.!.p.7.r...*.p.*.D c ! 3.( <.p.j.p.7.7.3.3.p.3.! <.p.c.c.<.d.j.j.c.j.j.G.V.j.V.A.p.j.j.*.*.d.<.d.G.A.r...} *.d.Y.! } r.3.<.3.7.3.<.7.j.<.7.<.+.( ! j.!.G.p.p.d.+.! ` *.<.7.+.j.A.V./.A.7.j.c.d.p.j.<.*.p.V.c.j.j.j.3...} +.3.d.3.<.d.p.r.d.7.<.3.p.!.!.A.Y.c.p.r.j.} <.p.7...j.`..XV.} ( <.p.3.+.j.d.Y.#X#X/.G.G.Y.j.Y.!.j.j.!.`.Y.j.+.*.j.j.<.<.3.7.3.7.A.A.! k k R <.j.j.3.3.<.} +.7.} ",
"G.p.p.j.c.!.!.Y./.,X;X;X`.j.<.3.G.r.<.7.<.p.7.<.3.!.c.r.A./.`.`.`.#X&X&X#X!.!.`..XA.V.j.3.p.!.!.`.`.#X`.!.#X;X!.!.`.#X`.!.!.`.;X#X#X`.!.!.!.`.`.!.!.!.!.Y././.!.j.!.`.j.j./.!.!.c.j.j.V.j.<.+.d.G.V.p.j.j.7.j.Y.j.7.V.j./.wX7XY.j.d.d.j.Y.#X!.d.<.r.!.!.G.`.`./.!.!.Y.!./.!.G.c.j.G.!./.V.j.<.+.7.7.r.c.A.c.A.A.`.&X`.!..X`.!.!.!.!.3.3.p.j.j.j.V.c.A.!././.Y.j.!.j.A.`.;X&Xc.r.c.j.c.p.7.z.A.j.j.p.d.j.Y.V.7.3.<.3...} } <...! +.<...<.3.( <.A.A.p.j.7.<.r.7.( ! U ! R ( ..( 3...<.V.c.G.`.!.7X`.Y.j.7.*.*.<.<.<.r.p.j.*.J } 3.<.3.d.} ! 3.p.2.+.!.!.p.r.j.3.d.d.d.r.j.j.j.3.7.p...U C n U ( r.Y.<.7.+.+.+.( R <.j.G.j.*.<.<...| +.*.*.<.d.d.<.<.<.<.3.+.<.! ! J J N R ( ..} +.A.!.c.!.!.!.G.j.j.<.<.<.+.d.p.3.<.<.j.!.V.d.j.V.!././.&X/.!.c.p.A.j.( J p.c.( R +.A.Y.G.A.A.`.!.( j.Y.j.p.<...7.7.7.V.!.&X&X/..X;X`.p.} *.r.3.*.<.<.3.j.;X.XV.!.!.j.V.c.3.<.j.!.Y.!.`.V.d.j.c.G.j.j.<.} j.j.j.!.Y.!.d.p.A.!.#X;X&X/.A.d.d.c.V.j.j.<.*.7.c.p.<.p.r.<.<.d.j.j.c.Y.d.3.j.j.<...<.c.!.!.!.!.!.Y.G.!.!.!.Y.G.G.Y.V.j.c.V.V.j.j.&XY.j.A.j.j.j.c.j.3.j.j.V.`.;XA.j.!.#X#XA.d.r.<.<.p.*.! n ! 3.} <.<.d.j.d.p.p.<.d.c.( ! <.j.Y.j.j.p.d.c.j.j.c.p.t.j.r.j.A.A.7.*.<...r.Y.j.7.<.*.+.r.(.+.+.<.+.3.7.7.r.<.<.7.( 7.<.*.<.} r.c.V.j.7.r.<.( *.<.<.3.*.V.G.A.!.c.p.j.G.V.j.d.<.*.j.!.!.V.j.G.j.<...+.<.d.<.3.d.d.j.j.j.j.d.c.`.!.!./.Y.j.p.7.! } 3.p.} *.j.j.<.+.3.V.V.<...d.r.V.!.!.G.V.V.!.c.c.A.j.d.Y..X!.A.7.r.A.j.<.<.7.p.r.<.j..XY.p.! 3.d.d.3.*.+.( ..! +.3.",
"V.p.<.} 3./.;X`.,X;X`.!.7X`.`.!.G.7.3.c.c.j.<.<...Y.A.j.Y.`.&X;X#X&X&X.X.X!.Y.`.;XY.A.V.j.V.!.!.G.V.!.!.!.#X;X!.!.`.`.G.j.j.!.#X!.!.!.!.!.`.#X`.`.!.!.!./.;X&X.X/.`.&XA.c.Y.j.j.G.V.j.G./.r.! <.V.A.j.V.A.7.p.A.!.r.j.j.Y.;XV.v ! p.V.d.7.j.A.j.*.7.Y.c.c.#X#X/.!.A.A.!.!.`..X&X!.!.!./.V.j.7.j.V.A.j.j.j.j.G.V.G..X.X#X;X#X!.A.Y.;Xc.r.3.d.j.p.V.d.j./.;X;X.XA.V.<.7.Y.#X/.j.<.j.A.G.p.p.!.!.G.j.c.G.c.c.A.d.p.+.+.! ( ! ..! R ..7.*.} ! C ! j.V.7.p.7.p.*.+.7.R J D N } <.*.G.<.3.`.Y.<.j.!..X.XA.j.p.+.<.j.d.c.#X.X`.j.! ( +...! } R J *.<.*.! <.d.j.d.j...r.j.j.3.j.c.c.7.3.} D J R N R ! <.r.R <...( <.*.! <.Y.;X`.j.c.A.p.( *.<.<.r.j.p.7.*...<.3.*.<.R D v v h R 7.j.d.j.c.j.( d.!.!.d.<.p.*.+...<.V.r.c.j.( <.A.V.j.c.!.!.`.!.`.`.;X#X`.Y.Y.3.} c.!.<.! <.A.j.j.c.j.!.,XW.G.G.j.r.<.*.j.d.<.7.A.;X&XG.!.wX;Xj.! <.V.7...} +.3.A.;Xd.! j.#Xc.c.j.<.<.d.c.c.Y.!.d.7.V.G.G.c.d.! ! j.p.V.V.V.Y.j.j.!.!..X.X;X#XY.j.A./.!.A.j.<.+.<.<.! D *.r.*.<.d.c.j.V.!.c.<.<.<.<.<.<.r.j.V.G./..XY.V.G.!.Y.c.j.j.c.j.r.7.p.7.*.r.;XY.3.j.c.j.j.c.d.<.l.p.r.G.!.j.j.;X;X.X!.j.7.<.<.3...p.( <.d.+.+...r.d.d.p.j.<.j.!.*.( <.r.c.j.j.p.V.G.G.G.G.j.j.V.7.c.A.Y.V.r.7...7.c.<.<.p.<.O.j.!.z.3.<...r.<...<.<.} ! N <.<.<.3.+.+.<.j.j...*.p.7.<.<.3.j.j.Y.p.r.d.V.Y.V.j.j.c.r.3.7.A.`./.Y.j.!.!.r.<.r.p.j.r.j.d.p.j.p.r.A.G.Y.V.j./.#XA.j.A.j.3.3.r.V.<.+.7.3.} ( ..p.j.<.<.Y.j.A.G.j.j.r.r.V.G.7.r.j.7.j..X!.A.j.c.G.d.<.+...3.j.*.*.Y./.G.j.!.!.d.*...<.<.3.*.} ( ",
"<.7...*.j.&X#X#XG..Xj.U A.j.;X,Xr.*.<.j.A.j.7.<.*.j.r...!.;X;X#X!.!.&X&X.X`.!..X;XA.j.c.!..XG.G.A.!.A.!.G.!.#X!.Y./.!.V.3.<.j.!.G.G.G.G.!.`.#X`.`.!.`.`.`.#X;X#X!./..X.X/.G.c.c./.V.j.!.`.c.} r.!.p.r.V.j.r.j.A.Y.j.c.Y..X;Xr.k 7.3.j.r.<.j.Y.j...7.A.j.j.`.&X!.#X!.A.Y.!.!.;X;X!.!.Y.!.j.<.j..X.X/.A.j.j.G.G.j.Y.!.!./.&X`.!.!.!./.!.c.j.V.c.j.c.p.c.&X,X.X!.!.A.p.j.d.r.c.A.V.V.V.j.G.#X&X;X&X!./.G.d.A.Y.j.d.<...+.! *.3.( } <.r.A.+.R R ! J ! ! R ! ..+...} } J U ..3.} ! !.!.<.!.7...Y..XV.!.!.j.Y.j...p.3.<./..XA.j.7.+.! ! ! ! <.3.j.<.} J C 3.r.d.V.<.7.c.c.d.p.V.G.A.G...C ..N ! } c U j.7...+.+.<.+.C D <.`./.j.j.`.j...! } 3.3.V.j.<.} *.<.7.r.<.} ! N n N ! j.!.G.A.!.V.! ( j.A.j.<.<.<.<.7.d.3.*.j.d.<.<.j.V.*.p.Y./.!.;X/.#X&X#X!.A.j.d.j.j.c.j.<.7.d.V.j.j.Y.!.;X!.j.V.j.d.p.<.d.V.*...A.&Xj.! 7 N #XG.r.7.<.*.} } ( ..d.`.J 4 D !.!.c.c.V.j.d.j.j.j.j.j.j.j.G.!.G.j.3.<.r.d.j.A.V.d.7.j.!./.`.A.!.!.G.A.Y./.!.j.<.3.p.<...! ! <.p.3.<.p.j.j.G.`.V.p.<.3.j.j.3.<.r.r.j.A.Y.Y.j.3.G.G.7.7.j.d.3.*.<.<.<.! } /.j...r.j.j.G.j.d.7.r.j.<.A.G...G.`.;X!.c.c.3.+.r...3.+.7.<...} } <.<.<.3.3.<.7.!.j.j.r.7.j.j.( +.R j.!.G.V.j.j.j.r.<.j.j.A.c.d.<.+.7.*.*.<.3.7.3.p.j.d.7.<...+.} <.<.<.} +.R <.j.7.7.} <...<.7.+.<.j.j.r...<.r.j.V.r.*.p.A.Y.3.<.Y.G.j.j.j.!.&XG.7.p.G.G.G.p.j.G.V.j.V.<.7.j.j.j.j.j.V.j.j.`.!.<.7.V.} p.j.p.p.<.p.j.<.<.....<.7.7.<.!..XG.c.d.<.d.!.A.Y.A.d.!.j.p.!./.!.G.V.j.<.<.<.7.c.!.d.*.j.!.j.j.G.#XA.! 7.j.7.r.3.<.<.",
"7.d.j.c.c.7X!.5X~.<.( R 7.<.<.Y.j.+.*.V.!.j.3.7.p.c.p.<.G.!.G.j.A.!.;X;X`.!.!.&X&XG.A.A.!.!.G./..X.X!./.!.#X#X!.A.A.j.j.r.<.j.V.j.j.G.G.!.`.`.`.!.!.#X;X;X;X;X`.!.!.`.#X&X.XY.j.A.Y.G.!.^.c.<.j.!.j.d.j.d.7.p.j.V.j.!..X`./.G.j.A.<.r.c.c.V.p.*.} 3.G.c.p.V./..X`.!.V.A.!.(.#X;XY.j.j.V.A.d.p.G.!.!.Y.Y.!./.!.!./.!.Y.!.#X`./.#X#X`.Y.P.c.j.j.j.r.<.V.;X,X/.G.A.!.j.V.j.p.j.Y./.!.j.3.A.&X#X.X#X.X;XV.<.j.!.!.Y.d.+...+.3.3.<.j.3.p.j.+.*.p.3.R J ! R ! <.<.} R ! J R *.7...( j.j.j.j.U <..XA.7.G.!.A.!.A.<.3.<.! <.} ! *.3.<.U ..} 7.A.d.d.<.+.R ! p.p.7.V.A./.!.G.j.j.c.G.!.`.j.} p.7.<.+.! } !.c.*.! ! +.<.} ( G.!.d.j.c.Y.V.3.*.*.<.3.A.j.<.<.*.+.<.r.3.<.} R D N ! <.j.j.Y.Y.c...} 7.r.7.<.<.<.<.<.7.3.*.3.r.<.3.j.j...p..X/.!.;X/..X#X`.Y.j.<.<.j.j.p.p.j.3.p.j.V.G.!./.&XY.j.V.j.7.3.<.3.d.*.*.j.!.r.n = @ *.!.7.( ! U +.! ! ..+.7...n ^ c.!.!.!.Y.j.j.j.p.r.r.j.c.c.A.!.c.j.r.p.j.j.j.A.A.V.j.Y.!.!.!.j.c.A.!./.!.!.G.j.7.d.j.j.7.*.*.j.r.<.<.j.c.j.V.!.!.V.c.j.j.j.p.<.7.7.j.G.Y.A.j.3.j.Y.j.r.j.d.p.3.<.3.7.3.d.!.p.+.c.V.p.c.c.j.7.7.r.d.!.G.p.`.V.c.c.3.<.( ! 7.+.7.<.3.+.*.r.3.*.+.( *.2.( <.!.d.<.+.} 7.j...<.! ..V.j.j.j.j.j.j.p.r.j.A.d.3.3.7.c.7.r.p.d.j.d.r.7.<.3.r.*...( <.r.+.} <.} p.c.p.7.( <.<.<.<.<.<.3.7.p.*.} <.p.r.*.+.<.p.A.c.G.#X/.c.c.j.c.A.p.*.<.j.j.V.j.!.`.G.V.G.j.j.V.V.V.j.j.j.j.V.#X!.<.<.j.<.p.V.j.p.<.7.7.*.+.} +.3.p.7.<.j.A.c.V.V.d.c.`.A.!.!.c.G.r.+.<.Y.!.G.!.!.j.p.<.r.c.!.d.} 7.!.Y.!.d.j.j...<.<.<.j.r.r.d.",
"j.d.j.A.j.9X7.Y..X7.<.j.c.j.7.G.G.d.p.j.c.j.7.<.7.p.d.r.!.!.c.r.j.Y.&X&X/.!.!.#X;X!.!.Y.G.G.c.!.#X.X!.!.A.!.!.!.!.A.p.j.c.j.j.d.p.V.!.!.!.`.#X`.!.`.;X;X#X;X#X!.!.!./..X;X;X/.j.c.G.j.V.G.A.*...d.c.V.j.d.j.V.!.`./.#X/.G.V.G.#XG.*.r.!.!.j.! ( ! <.A.!.j.c./.,X;X`.Y.A./.#X.X;X!.V.j.c./.!.p.V.G.A.c.V.G.A.Y.;X;X!.V.Y./.!.!..X/.A.d.A.G.d.j.j.r.<.c.,X5X.X!.!.!.G.Y.V.j.j.A.G.V.3.<.G.;X!.G.!.;X;Xj.p.G.G.A.c.d.! ! ..<.( ! d.+.*.+.U 3.;X;Xr...<.*.+.3.<.} ( *...! } *.! } 3.3.!.j.U p.!.7.} 3.j.d.d.c.p.<.3.} ! C J } <.<.! *.( r.A.3.*.! J U ! p.p.<.j.!.#X&X!.Y.!.!.Y.!./.r.( A.Y.+.R p.!.j.!.V.<.} ! ( ! ..A.7.C ! +.<.3.<.<.+.*.3.G.j.<.3.*.} *...} *.} J D D ( <.<.7.j.p.3.<.3.j.j.<.} ..<.d.d.j.j.<.+.3.<.<.d.j...7.#X`.!.#X!.!.!.!.Y.c.7.<.j.j.<.<.d.<.r.d.j.j.j.G.!.V.j.p.<.<.r.j.Y.A.j.j.j.j.c.p.C 3 D j.<.! ! R <.<.} <.<.+.d.V.j.A.!.G.Y.!.A.V.j.j.d.r.p.j.G.!.!.A.j.p.d.j.r.r.j.Y.!.Y.!.!.!.Y.j.j.V.!.#X!.c.d.7.<.<.p.p.<.( ! +.A.d.r.j.c.s.d.A.V.j.j.j.p.p.j.j.j.d.A././.G.c.j.j.!.G.j.d.j.c.c.j.c.j.c.Y.G.<.} V.A.3.p.c.A.j.j.p.j.j.7.d.!...! <.! ! ..<.d...<...<.*.<.c.V.3.r.} <.p.! *.;XG.p.+.R ..r.! *.<.<.`.G.j.j.j.j.j.j.d.A.A.<.*.r.j.A.c.j.r.<.<.3.3.<.<.r.j.3.<.<.d.c.*...<.} p.V.c.j.} 3.p.7.*.*.<.+.3.j.3.} <.p.7.<.<.<.p.c.!.#X#X.X/.G.j.j.j.7.*.+.p.G.!.V.!.;X!.V.!.!.!.V.G.!.V.j.!.V.G.`.!.<.<.p.<.p.V.V.j.<.p.7.( ! ! } <.d.r.<.*.r.3.r.j.r.j.!.A.c.c.7.3.<.*.<.A.!.~.`.!.A.j.<.<.r.j.r.( *.c.Y.!.<.<.A.j.j.7...d.<.<.d.",
"d.7...G.j.;XD N A.V.G.`.`.j.d.r.A.G.Y.V.j.j.j.j.<.r.c.c.!.!.G.p.d.A./././.!.!.!.;X!.G.c.A.!.A.!.#X.X`.!.V.V.j.!.&X!.d.j.!.G.c.j.p.G.!.`.`.#X#X`.`.`.#X#X`.`.#X!./..X&X#X;X5X;XA.j.c.p.j.!./.r...+.j.j.<.7.c.!..X;X&X!.d.j.A.c.V.l.+.d.Y.!.j.! <.} *.G..X!.!.`.;X;X/.V.j./.;X/.#X!.!.G.j.!./.3.r./.!.c.V.A.d.V.5X;XG.d.c.Y.Y.Y.Y.Y.V.d.!./.j.c.j.j.+.7./.#X`.`.!.!.`.!.j.d.A.A.p.r.<.<.Y.#XY.Y.#X&X.Xj.A.`.j.r.7.r.( ! ..*.! R <.+.*.! n ..;XwXG.N R ! ! <.<.! ! Y.c.( R U D ..<...j.j.<.d.G.d.<.! <.<.<.j.j.<.<.*.( J ! ..! ! ! ( D ! *.<.*.! D C ! <.3.3.V.#X`.!.G.!.`.!.!.!.!.<.n ( ..N C <.3.n ..+.! ! ! } ..7.A.c.<.R R ( U ! } ( +.7.c.<.....( *.7.} ! +.*.} ! ! *.<.+.<.d.V.d.j.j.c.A.A.V.j.j.j.j.j.c.j.7.r.3.<.p.V.3.3.!.!.Y.`.#X!.G.Y.Y.j.r.7.j.c.7.<.j.3.d.c.V.d.j.V.j.G.G.<...<.3.j.Y.!.!.!.j.7.V.!.c.v M <.p.! ! } *.<.C R <.*.3.V.p.c.A.V.Y.!.Y.V.p.A.Y.j.<.7.Y..X!.j.r.r.j.d.7.r.j.G.!.G.A.G.Y.Y.j.j.V.Y.!.Y.j.p.3.<.+.<.7.3.<.<.7.V.j.d.j.j.7.<.<.j.d.c.A.7.*.7.r.d.p.c.!.Y.j.j.j.V.!.G.d.3.3.p.j.V.c.r.j.!.A.p...d.G.7.3.j.Y.V.A.p.j.c.3.3.j...j.j...! 7.j.c.<.7.7.j.V.c.A.G.7.d.<.7.A.} <.#XG.A.p.U C ! h U c.!.7X!.j.j.V.d.7.j.A.!.c.<.<.r.d.d.G.V.p.+.( <.r.7.7.3.3.<.7.h.j.j.<.+.<.*.d.A.!.V.<.p.d.p.<.( ..+.3.j.7...*.<.<.<.p.j.Y.c.G..X~./.Y.d.p.j.d.<.<.p.G.`.!.j.G.!.G.G.!.!.V.p.j.G.V.G.!.V.V.!.V.7.<.7.<.p.j.j.j.p.j.!.d.d.3.<.3.p.7.<.<.7.<.<.d.7.p.!.G.j.j.d.3.<.<.<.j.Y.!./.!.G.G.j.3.3.d.d.3.3.j.c.A.<.+.<.<.G.c.<.d.*.( <.",
"c.j.! .X!.*X<.<.V.V..X`.,X7.p.d.p.j.Y.G.p.<.r.j.<.<.r.<.p.d.r.! 3.V.!.`..X/.!.!./.G.A.j.V.!.A.V.Y.A.!./.G.V.j.!..X!.j.j.j.d.c.!.j.G.`.`.#X;X;X;X`.#X#X`.!.`.#X`.&X;X;X&X;X7X;XV.G.!.A.!.`.`.V.c.j.G.j.*.7.G.!.Y.Y.c.<...j./.G.j.G.r.c.c.V.c.<.j.<.3.Y.&X`.`./.`.;XY.p.7.!.,X.X#XY./.!.j./.#X3.*.A.j.7.j.V.7.3.G.&Xj.<.j.G.!.!.V.!.!.c.!.!.j.c.j.j.<.3.!././.`./.&X;X!.d.d.G.Y.c.j.j.p.V.!.V.!.&X!.A.*.3.c.<.<.<.<.} ! ( +.+.} <...<.( N U !.5XY.! ! ! ( j.c...+.!.G.( U ! ! d.A...<.d.d.7.c.c.3.+.*.3.p.c.A.r.*.<.<.( ..*.! J ! *.( ! } d.j.<.+...<.7.p.p.G..XY.G.Y.!.!.V.G.!.A.r.D ! ! ! 7.7.( n ! ! } 7.p.3.<.j.c.`./.*.! <.! ! ( ( <.r.p.( ( ! ! <.j.3.( <.p.7.3.<.d.3.} <.d.3.p.G.Y.j.j.j.c.7.7.7.p.j.j.j.d.p.r.3.j.Y.j.<.J.j.p.A..XG.d.j.j.c.p.<.d.j.7.<.d.3.p.V.V.j.c.A.3.d.A.3.<.j.<.<.j.;X`.!.G.V.!.V.3.} U ! *.C U *.+.<.U R 7.j.j.c.d.j.A.Y.Y.j.r.j.j.Y./.G.3.<.A.!.G.j.r.j.j.d.7.r.p.j.A.j.j.c.A.V.d.j.V.G.G.G.A.V.c.V.3.<.3.3.p.j.j.<.r.j.A.Y.G.j.7.r.7.c.`.c.<.7.7.p.p.j.V.j.j.d.p.V.A.V.j.d.j.V.!.!.V.d.G.`./.G.<.<.G.d.<.p.Y.G.G.d.r.d.d.d.j.7.`.c.3...r.j.G.j.d.A.j.V.!.c.j...+...1.Y.<.*.j.<.p.A.! D R k C j.!.!.r.*.d.G.j.p.A.Y.!.j.r.7.3.3.3.V.A.A.d.<.3.d.p.+.( ( ..7.c.d.7.<.*.3.p.V.G.Y.r...p.r.<.*...<.r.r.7.3.<.<.*.*.<.j.Y.#Xc.V.#X/.`.d.<.r.j.r.<.p.A.`.`.V.j.!.G.V.!.j.j.p.7.j.V.j.!.`.!.!.!.!.V.j.p.7.j.7.7.7.7.j.#X!.!.V.7.3.3.<.<.<.<.<.<.j.p.r.!.V.7.d.G.V.j.<.7.c.!././.!.Y.!.j.+.*.3.j.j.j.j.j.c.r.*.( ! j.c.p.7.<.} <.",
"j.c.! G.r.3.c.#XV.7.!.3.!.7.<.j.} p.Y.c.<.+.<.<.+.( ( R } *...N ..V./.#X;X.X`.`.!.V.A.j.j.Y.j.j.c.d.j.!.Y.Y.c.V.!.`.V.7.*...p.!.!.!.#X;X;X5X5X;X#X`.#X#X#X#X;X;X&X#X.X/.`.;X!.<.!./.G.`./.!.A.!./.#X!.j.j.G.A.j.d.<...<.V./.Y.Y.`.!.!.d.<.7.<.j.<.7.!.#X!.!./.`.;X!.p.7.!.&X`.!.p.A.V.d..X,Xj.3.G.d.<.j.!.!.A.!.!.p.<.j.G./..X!.!.!.V.G.G.c.V.j.j.r.j./.`.!.!.!.`.#X!.c.j.j.V.Y.V.A.j.j.j.j.V.Y.!.A.*.} <.*.*.<.....! R ( +.+.<.! <.<.} ! j..XY.<.<.+.<.Y.Y.7.V.!.G...} <.<.j./.7.j.!.V.<.d.j.r.j.3.r.j.j.A.A.j.7.j.j.r.<.} ..<.....( ! p.d.<.<.j.V.G.V.z.A.A.p.G.!./.!.G.!.!.A.j.<.3.( } <.<.! ! ..R ! <.<.7.p.!.G.!./.<.U ! ! } ....<.3.7...<.3.+.+.<.+.( <.7.<.7.p.j.<.! <.d.*.7.c.G.c.j.j.r.<.<.3.j.V.c.j.j.3.p.d.j.c.p.<.j.V.j.c.!.c.j.A.G.!.p.<.7.7...( <.r.r.d.r.j.Y.c.7...d.7.j.A.d.j.!.,X!.d.j.j.j.7.( *.( C <.<.! ! ..d.7.+.+.7.V.G.j.j.V.A.V.7.*.r.j.!./.!.c.j.G.Y.c.<.*.<.r.<.3.c.V.j.j.d.d.j.j.j.r.d.A.!.G.A.G.!./.!.d.d.r.<.<.<...<.d.A.!.`.&X.XY.j.p.j./.G.3.r.r.j.c.A.A.V.A.V.d.V.j.j.r.r.p.j.G.!.c.V.`.;X!.G.<.( j.r.<.7.A.G.G.j.*.*.d.j.r...<.<.7.<.<.p.!.!.G.!.3.*.A.c.d.! J ! *.Y.7.*.*.! <.c.<...<.( ! *.7.p.<.<.j.Y.j.d.G.G.G.j.j.j.3.3.d.d.j.c.j.<.<.3.<.! ! *.7.d.V.7.7.<.<.p.j.c.j.A.<...j.7.} } +.<.d.<.} <.p.r.<.<.3.G.!..Xc.A.;X.X!.j.r.7.r.r.d.p.<.V.!.j.7.!.#X!.G.p.7.j.V.!.!.G.`.!.j.j.j.G.!.j.<.<.p.<.<.<.+.7.G.!.`.G.r.7.3.*.+.<.<.<.d.V.j.3.j.A.7.<.j.A.j.*.3.!././..X!.!.V.<.! +.<.p.j.j.c.c.j.p.p.j.7.j.j.j.j.7...3.",
"Y.!.j.j.7.3.c.!.A.j.!...r.d.3.d.! p.G.p.<.r.p.*.*.+.<.*.3.3.<.( +.V.!./.#X#X&X&XV.d.j.j.j.G.j.V.!.Y.A.!.c.!.!.j.!..XY.p.<.<.j.!.!.`.`.;X;X;X;X;X;X`.#X;X#X#X;X;X.X/.!.Y.G.!.c.} c.c.p.!././.Y.!.A./.#X!.j.d.j.j.j.<.<.j.Y.!.Y./..X/.!.p.} +.3.j.<.3.Y..X!.!./..X#X!.p.7.j.G.A.j.*.a.p.d.!.#XG.c.!.c.d.j.!.`././.!.j.d.j.c.!.&X`.!.!.A.A.!.!.!.V.p.d.j.Y.!.!.Y.!.Y.!.V.V.V.r.r.j.r.V.c.c.j.p.j.A./.`.j.3.p.7.*.*.+.*.} ( ( ( +.7.<.3.3.7.( <.A.V.d.j.j.j.!.d.! j./.!.<.<.p...*.V.d.G.&X!.7.j.j.j.A.p.r.j.d.j.!.!.d.d.j.j.<.} <.3.+.*.<.*.j.d.r.j.j.V.G.V.A.E.j.p.j.G.!.!.!.!.Y.G.r.<.<.+.<.<.1...! +.<.d.j.3.<.p.!.j.r.V.p.*.! ! +.*.<.<.*.<.*.3.j.7.( ! ! +.7.3.*.*...<.( U <.d.3.<.( } <.j.V.r.<.3.+.+.<.<.<.<.3.d.j.V.j.p.<.p.c.p.<.d.<.d.A.j.c.<.} *.*.} +.<.j.j.d.<.c.G.3.j.7.p.j.j.V.Y..X;X;X!.7.d.p.7.<.! *...N ..*.J ! C.A.V.j.*.<.V.Y.V.d.r.p.V.c.r.r.3.!./.!.G.G.!.!.c.<.+.<.<.} <.j.j.j.c.d.d.j.d.j.j.j.V.A.V.A.A.!.#XG.c.!.Y.j.j.d.<.r.j.c.V.Y././.!.7.3.<.j.j.p.c.c.j.A.Y.A.A.!.G.7.p.3.7.<.7.j.V.!.V.7.j.!.`.r.7.j...7.<.<.r.V.V.c.j.p.p.c.j.*.! U <.j.3.<.<.A.#X#X#Xj.} d.d.p.! C R <.!.p.3.<.} <.} *.<.3.7...! +.j.A.A.c.c.d.r.j.!.Y.c.A.V.r.d.V.j.<.*.<.....<.<.} ..r.j.p.d.*.3.3.7.p.p.3.3.Y.d.<.j.7.} ! ( <.r.+.! } <.p.7.<.p.Y.G.G.j.A.&X/.V.j.p.<.<.7.d.<.! 7.!.j.7.!.;X!.V.j.p.V.!.`.#X`.#X!.j.p.j.!.`.G.V.7.<.<.7.<.<.p.j.!..XY.j.j.j.3.<.c.7.p.j.c.j.3.d.r.+.! 7.Y.G.<.j.!.^.Y.!.G.A.V.<.( 7.d.r.d.c.j.d.j.j.j.G.j.V.d.d.!.p.( <.",
"!.!.!.<.d.`.`.c.p.j.p.<.<.p.j.c.+.3.r.<.+.<.<.} <.7.c.c.c.7.<.<.<.A.c.V./.#X;X#X!.d.d.j.c.V.d.j.Y.G.j.j.<.A.&XY.G.`.Y.V.A.A.!./.!.`.#X;X;X;X;X;X;X`.`.#X#X`.#X;X.X`.`.Y.j.V.j.*.j.j.d./.&X#X!.Y.G.!./.Y.p.p.G.!.Y.p.d.V.!./.!.`.`.G.j.r.<.r.c.Y.p.3.G.#X.X/.!./.`.!.j.d.j.j.V.p.7.c.j.c.!.Y.G.!.!.!.Y.V.j.c.A.c.`.V.V.c.d.A.#X`.!.V.c.V.!.!.G.j.j.j.j.c.!./.!..X!./.j.d.j.r.7.r.j.!./.G.d.<.j.!.!.!.A.j.j.7.( ..} } } +.} ! ..d.d.7.<.p.} *.j.V.j.d.7.<.j.*.N <.Y.c...*.p.( ! V.j.j.`..Xj.A.j.7.j.d.d.A.c.d.Y./.c.( +.j.<...7.<.<.*.<.<.p.3.3.j.V.V.j.p.c.Y.j.j.V.Y.Y.Y.G.j.3.7.<.<.<.j.j...<.} *.<.7.!.`.V.c.G.!.3.U *.<.<.*.( *.<.<.*.! +.} *.<.r.*...3.V.Y.j.+.} ! *.+.! *.+.*.7.+.<.j.V.A.<.+.r.<.<.r.r.p.p.j.c.G.G.j.c.r.j.V.j.3.d.7.G.!.r.<.+...} ( *.3.<.<.d.j.<.A.d.C 3.A.d.j.c.j.`.;X/..XG.+.<.<.<.<.! <.<.! ( ( } *.j.p.p.j.p.<.j.j.p.p.<.<.j.V.j.j.p.Y./.!.j.c.`./.j.} ..r.p.<.3.j.r.j.V.j.d.d.r.j.G.j.d.r.d.V.G.!.;Xc.V.`.!.j.A.G.j.j.c.V.V.A.G.G.A.3.7...3.j.d.c.d.d.G.!.G.Y..XY.<.} } *.} *.j.V.!.!.p.j.!.!.! ( !.3.3...3.r.j.j.p.d.c.j.j.j.7.r...<.j.r.r.+.<.j.V.!.G.} +.} *.R N Z *.!.j.j.p.} U C *.<.*.7.<...j.p.!.!.j.d.j.c.!.&X!.j.A.G.j.j.V.A.+.! } ..<.7.r.....7.p.*...U ..<.7.p.7.*.<.!.V...+.....( ..j.Y.7.*.+.<.j.p.<.j.V.j.j.j.V.`.!.j.d.r.3.7.p.p.3.<.7.G.j.j.`.!.V.!.j.p.V.!.!.`.#X#X`.!.`.#X!.G.j.!.V.7.<.j.<.j.`.*XV.Y.j.7.c.G.j.d.G.3.<.3.3.3.<.d.d.<.R *.Y.!.p.A.`.!.V.j.r.p.j.7.J <.3.<.p.A.j.r.j.A.Y.Y.G./.j.<.c.3.+.V.",
"<.j.V.*...V.A.<.*.c.j.<.<.7.!.V.d.3.<.3.<.r...} *.3.A.d.<.<.} 7.r.<.+.p.!..X;X!.d.j.7.3.j.c.j.j.G.p.j.V.p.Y.!.!.Y.V.V.A.A.!..X;X!.!.`.`.#X;X#X#X#X#X#X#X`.!.!.;X`./.G.!.!.Y.j.3.p.j.Y..X;X;X.XY.Y.!.`./.!.!.!.!.!.!.V.j.V.A.G.!.!.d.r.p.j.V.V.!.A.j.!.`..X!.A.!.G.j.Y.V.c.A.j.j.d.j.G.j.c.!.!.&X`.!.Y.c.j.c.V.V.Y.Y.!.A.j.j.!.`..XY.V.j.j.V.j.j.j.j.c.j.j.A.!.;X!.Y.G.c.V.c.<.<.j.#X/.Y.7.<.A.j.V.!.G.j.j.3.! *.} ! ! } ..! ..d.p.7.<.<.+.<.p.j.<.} <.+.+.! ! *.r.<.<.} 3.3.<.p.j.Y./..X!.V.j.7.j.c.j.V.A.j.A.Y.j.<.j.c.7.<.c.j.<.<.p.3.<.p.d.p.c.A.j.p.j.j.j.j.!.A.Y.!.A.r.<.} ( 3.d.j.j.p.r.c.c.d.j.#X;X&X.XA.!.j.! ..<.7.7...<.3.3.<.+.7.<.<.<...! U c.&X`.j.J } <.<.<.3.<.<.p.j.j.r.j.c.d.3.<.3.3.p.j.p.r.c.c.G.G.Y.A.c.j.r.j.c.j.c.V.G.Y.p.p.3.......*.<...<.*.7.<.!.<.r +.G.<.7.<.c.!..X#X`.j.( } <.<.*.} } } } <.<.<.j.j.d.!.j.<.<.p.A.d.3.<.<.j.j.d.j.j.G.!.j.<.d.!.`.j.R ! r.c.j.j.j.d.c.j.d.c.j.p.j.d.p.d.7.d.c.c.Y./.!.!.Y.3.<.j..XA.j.A..XG.j.c.7.<.*.*.p.j.j.j.3.<.<.r.j.j.Y./.Y.j.r.} ....<.c.j.A.!.A.7.d.c.*.N j.d.*.7.p.j.V.r.<.<.c.Y.A.j.j.c.<.3.3.<.+.<.<.3.A.d.j.r.! ( R ! U D ! A./.!.3.} ..! } r.<.! ..3.V.j.Y.!.c.j.j.p.c.!.G.p.p.j.d.7.j.Y.j.7.3.+.+.j.j.<.! <.j.3.! ! ( <.d.<.} ! *.V.G.p.<.! ..+.( <.j.7.*...<.r.7.p.j.c.p.j.j.G.`.A.7.r.j.7.<.r.3.<.r.j.j.V.!.;Xj.<.V.j.j.G.!.!.!.!.`.`.#X!.#X#X!.j.V.G.j.V.7.} 3..X/.j.3.p.G.!.V.j.j.!.3.+.*.7.*.<.*.p.p.3.<.c.j.d.G.!.`.!.3.C <.<.<.! U J ! <.G.!.d.p.j././.A.!.!.<.<.3.c.#X",
"j.j.j.} R +.*.( 3.c.j.<.3.d.!.V.j.<.p.<.} j.7.7.<.p.j.<.3.j.7.7.3.<.<.j.Y.!.!.j.p.j.p.7.j.G.G.V.j.p.V.!.j.!.!.!./.!.V.c.c.V.!.!.G.G.!.!.!.`.!.!.`.`.!.`.!.!.!.#X`.!.A.!.!.G.V.d.j.Y.!.`..X.X`.!.!.!./.&X`.A.j.d.j.d.r.p.j.c.j.c.j.r.r.r.j.G.A.!.G.G.`.#X^.c.d.c.G.A.!.A.V.A.j.V.j.j.j.7.d.A.j.A..XY.j.c.A.A.A.A.V.j.V.V.j.j.A.!.#X!.A.j.j.G.c.j.c.j.c.j.j.c.Y..X!.V.Y.!.A.c.3.+.p.!.A.j.r.7.V.j.j.!.!.A.j.+.! ( ! ! } +.+.} ..<.3.<.+.*.<.3.r.p.7.+.<.} +.} <.d.7.! <.p.7.7.j.r.j.!.#X#X!.!.!.j.j.V.j.A.!.A.G.Y.G.A..X!.j.d.!.!.<.*.<.*.<.j.c.j.j.j.d.7.3.7.p.j.V.j.j.G.A.c.j.j.<.d.j.j.A.A.G.!.!.G.G..X`.!.!.j.V.!.a.<.( +.<.<.+.<.j.c.r.d.<...( ( ! ! d.!./.!.} } *.7.d.p.3.<.j.A.c.j.c.G.G.V.j.c.j.j.G.j.<.j.!.!.!.Y.V.A.G.p.j.A.A.G.G.j.7.+.c.V.p.<.<.<.<.<.<...7.7.G.3.h ..j.<.7.<.d.G.!.A.j.d.<.3.3...( ( ..} ! <.c.Y.Y.c.d.j.<.( _ <.j.3.p.<.<.p.j.r.d.j.Y.!.p.<.p.V.G.c.+...<.j.j.A.A.j.d.d.d.j.j.d.d.3.<.j.d.a.j.V.Y.Y.`.!.j.! ( d.!.j.d.r.c.j.j.j.<.<.<.} *.3.j.j.<.+.<.3.d.c.A.A.c.j.r...+.} <.j.j.c..Xp.+.7.j.V.*.*.7.<.r.p.A.!.j.7.3.c.Y.!.G.A.Y.c.p.7.<.*.7.p.7.c.( } ..! ( ! ( ..! ( j.!.!.j.<.<.<.} <.7.7.r.<.r.r.A.!.j.d.j.p.p.j.j.7.7.d.r.3.j.j.d.<.<.( ! *.<.*.+.<.*.! ! ( } <.<.! ! ! } r.7.<.<.+.! R ! } } +.! R ..<.7.d.j.d.d.V.A.!./.A.p.d.j.d.7.r.<.<.7.p.j.G.G.!.j.<.p.p.j.`.#X!.!.G.!.`.#X!.!.!.!.p.p.Y.j.Y.j.<.r..X/.Y.A.A.c.7.<.7.d.c.r.r.j.V.3.<.3.r.7.r.7.d.*.<.j.j.Y.V.<.N <.7.<.] ....*.<.d.7...<.j.G.p.*.j.G.j.<.7.!.#X",
"j.d.j.p.*.} +.7.j.j.3.<.d.V.`.V.<.( 7.} C r.3.<.3.d.r.<.3.f.r.3.<.<.r.A.G.!.!.Y.d.r.r.d.j.A.Y.G.d.r.d.c.j./.!.V..X#Xc.j.c.j.V.V.G.!.!.G.!.`.!.!.`.`.`.`.`.!.!.#X#X!.G.!.Y.V.A.j.!.!./.!.!././.!.!.!./.#X#X!.j.p.r.<.<.j.c.c.c.c.j.p.p.7.p.j.j.j.j.c./..XA.r.1.d.G.!./.A.c.c.d.V.A.A.A.r.7.j.r.d./.c.r.d.c.c.j.c.j.p.d.c.j.j.j.A./.!.A.d.j.G.A.j.j.j.A.G.Y.Y.A.Y.A.j.!./.c.j.p.<.j.!.V.d.j.j.c.j.c././.!.j.( ! ..( +.+.( ! ! ( *.r.7.7.j.!.G.7.<.p.<.<.! } +.d.Y.V.} 3.c.r.<.G.d.c.Y.!.Y.j.G..XG.c.A.j.j.Y.G.A.!.!.A.G.G.c.7.j.Y.j.<.+...3.V.A.c.A.j.j.d.7.<.<.7.G.j.j.c.j.j.j.j.3.d.c.A.G.G.!.!.!.G.A.Y.c.j.j.<.j.!.j.<.! ( 3.G.3.<.7.j.d.j.+.R U ! } *.j.!.;X5X*.! ( 7.c.c.j.j.V.A.A.j.j.j.c.j.V.Y.j.p.G.j.7.j./.!.Y.!.G.A.!.j.V.A.G.Y.!.j.! J <.j.7.<.<.<.7.r.r.} <.3.r.<.D +.j.j.j.<.3.j.!.A.r.d.r.p.r.*.( ! ! } ! <.!.&X`.G.j.p.+.( U ! p.p.j.7.<.d.j.r.p.p.V.V.r.7.j.d.j.c.p.<.<.r.j.c.j.j.j.j.j.j.j.j.j.<.! r.d.p.j.A.A.j.c.j.j.3.<.r.d.<.j.p.p.d.c.j.<.j.d.<.*.3.d.p.<.<.3.p.c.G.V.j.j.c.d.<.7.<.7.A.V.j.`.<.} <.r.Y.d.<.r.3.+.*.V.!.j.3.7.c.!.`./.G.Y.!.G.j.p.p.j.j.<.3.*.! ( +.<.+.+...} +.d.A..XA.7.7.<.} r.!.&X/.r.r.7.d.j...! 3.j.r.7.d.d.d.j.j.j.V.d.d.<.<.<.( ( ..3.d.r...} <.r.<.*...J R ! +.j.j.( ! ! U J ( ..! } ! ! *.r.j.j.j.p.d.j.j.j.V.V.j.r.j.j.d.d.3.<.<.+.+.p.<.7.<.<.V.j.V.#X;X`.!.!.!.#X;X!.!.`.!.<.<.!.7.A.A.j.V.!.A.G.j.r.<.( } *.*.p.d.V.Y.Y.3.<.p.3.<.d.p.<.J ( r.r.j.j.<.D 7.r.} *.<.r.p.r.<...( <.j.V.<.} 7.p.p.j.j./.`.",
"3.<.j.V.r.+.<.Y.#Xc.<.<.j.j.G.j.<.+.a.<.! j.d.3.j.r.<.r.j.7.r.p.<.<.j.A.j.A.!./.c.3.p.G.G.c.V.Y.j.r.<.7.j..X!.j./.&Xj.p.V.V.c.j.V.!.!.!.`.;X#X!.`.#X#X;X#X!.!.`.#X/.!.!.A.c.!.Y.`./.!.Y.!./.!.A.V.!.!.!./.#X/.!.c.r.p.V.V.j.c.c.j.p.7.7.r.r.7.r.r.j.!.`.c.3.3.j.A.!.!.c.c.j.p.c.!..X.Xc.j.j.d.j.Y.j.d.d.j.j.j.j.j.p.r.j.c.V.V.c.A.G.A.d.p.c.A.j.p.p.V.!./.!.V.V.j.c.`.#Xj.3.3.3.V.!.G.p.j.V.j.c.G./.Y.!.r.R } <.3.7.<.*.+.o.<.r.j.j.d.j.!.A.+.! j.3.<.} ..<.c.!.G.r.<.p.7.*.c.j.j.j.V.j.3.h..X!.c.G.j.d.V.j.j.V.`.V.p.p.d.<.3.j.!.j.7.<.7.j.j.j.V.j.j.c.j.3.<.<.V.j.c.A.j.j.j.V.7.d.V.c.d.j.Y.!.`.Y.A.V.p.3.3.*.j.V.G.!.j.3.*.j.<.*.+.7.j.V.<.+.( ..*.<.7.V..X.X<.! ! <.d.7.p.j.!.!.!.Y.j.p.r.3.p.j.p.7.V.G.j.d.V.j.c./.Y.V.!.Y.!.Y.Y.G./.A.! U J <.<.} +.*.<.7.r.+.<.3.<.*.*.<.c.!.Y.d.3.7.j.j.j.j.p.3.<.*...} ! <...<.V.!.!.!.A.r.<.3.<.*.d.p.d.7.3.c.A.j.p.7.c.c.j.c.j.3.3.r.3.<.<.r.c.V.j.c.A.!.A.j.p.j.V.j.<.d.7.3.r.d.d.7.r.7.j.j.r.<.} } j.j.p.7.j.r.+.d.j.3.<.r.d.7.3.d.7.c.Y.!.G.V.!./.A.j.j.3.<.c.A.j.!.p.<.<.<.j.7.c.j.+.U ..V.A.3.+.p.G.!.`./.V.c.Y.j.7.<.<.j.d.<.<.<.! } *.*.*.*.<.7.r.j.A.&XY.d.p.<.<.c..X;X/.r.r.3.<.*.J n ( 7.<.3.p.p.r.r.7.<.7.j.A.j.j.c.7.} ..p.j.r.<.3.j.p.<.d.7.( ! ! } j.G.<.U R ( +.r.<...! ! ..<.p.d.r.<.d.j.j.r.<.3.d.c.j.c.j.d.j.j.7.+.} ! <.! +.+.<.!.!.`.#X`.`.`.!.!.`.#XG.G.!.!.7.<.Y.*.j.G.V.G.A.d.j.r.3.<.<.<.3.<.a.c.!._.!.3.} 3.3.r.j.r.<.U <.V.p.p.j.j.<.j.j.*.+.<.7.r.7.*.( ..p.A.A.<.7.j.<.+.7.7.A..X",
"p.p.A.G.d.<.r..X&Xj.<.<.7.<.p.p.<.<.<.<.+.j.j.<.7...J <.c.r.3.<.<.<.j.V.r.j.c.!.!.j.V..X!.V.c.A.j.p.<.7.j.`.!.c./.&Xc.p.G.G.c.j.V.!.!.!.`.#X`.!.!.`.`.#X`.G.V.G.!.`./.!.V.A..X#X`././.!.!..XY.c.j.!.!.G.!.`./.!.A.d.j.G.c.p.r.r.c.p.r.j.j.3.<.3.j.j.!.`.V.7.p.j.c.G.G.c.A.V.j.!.!.#X`.V.j.j.d.p.j.V.G.V.j.j.j.j.A.j.p.r.j.G.V.j.c.A.G.c.p.d.c.j.7.3.j.V.A.c.j.c.c.Y..X`.j.<.<.<.d.G.V.3.7.d.d.A.!.!.V.G.r.! <.d.3.3.3.r.p.r.r.j.A.j.7.<.r.7.} *.j.3.3.<.<.3.A.!.p.r.*.*.<.+.j.d.j.j.V.Y.j.j.!.A.j.j.j.j.V.j.p.j.A.!.j.<.<.p.p.7.j.j.d.j.j.c.V.A.j.r.r.j.j.j.d.d.V.V.Y.Y.j.j.V.Y.A.c.V.j.<.j.`.#X;X!.Y.V.r.3.<.*.<.7.G.;X!.d.+.<.+.3.7.j.A.V.*.<.<.<.*.<...p.!.Y.<.! } r.r.<.r.V.G.G.Y.A.d.<.*.*.+.7.j.j.G./.A.<.p.r.j.!.G.V.!.!..X`.!.A.!.G.<.+.! d.p.<.<.*.*.<.<.3.d.j.p.7.d.d.Y.`.!.!.c.r.<.} 7.d.r.+.( ( ! } ( 3.<.*.p.c.!.`.!.3.+.d.c.j.d.+.7.3.7.V.G.j.p.7.j.j.j.c.r.<.p.r.3.<.<.j.G.Y.V.c.j.!.V.p.7.j.Y.G.!.G.r.3.<.} <.p.7.<.<.*.*.+.! ! 7.c.j.r.c.j.*.+.p.3.<.r.r.<.7.j.d.!.`.!.V.A././.`.G.j.<.+.j.!.!./.!.c.7.<.7.<.j.j.! R 7.A.j.<.<.V.`..X.X/.A.c.V.j.3.+.<.7.3.3.r.<.<.7.*.R ( <.c.A.A.A.G.#XY.c.c.A.c.!.!.!.V.7.j.7.} *.} D ! +.( <.<.<.*.<.<.*.*.c.!.!.Y.!.d.} *.j.d.7.7.p.r.3.<.j.d...! J ( A.!.V.! ! +.<.<.! D J ( <.3.r.p.3.*.<.p.j.d.r.r.j.A.A.V.j.3.r.j.d.} <.<.7.} +.<.j.`.`.;X#X!.!.!.`.!.V.G.7.7.G.!.j.j.j.+.c.c.j.d.d.p.*.7.A.!.c.p.r.r.j.A./..X!.r.( *.<.d.7...<.} d.!.V.p.j.Y.d.7.<.+...<.<.<.<.} ! ! <.j.j.*.<.d.<.+.^ ..<.!.",
"<.3.j.j.r.<.r.!.#XG.A.j.p.<.r.d.j.j.7.3.*.d.j.7.r.3...7.V.c.c.j.<.<.j.!.p.V.j.V.`.`.#X;X.X!.A.c.A.c.<.r.r.j.c.V./.#XG.d.A.G.j.j.!.`.!.!.`.`.!.!.!.!.!.`.!.G.j.V.!.`.!.G.V.A.`.;X/./.#X!.!..XY.V.!./././.`.Y.c.A.j.7.d.A.V.d.r.r.V.j.p.A.A.r.<.3.j.j.V.!.j.7.j.A.j.j.j.c.!.!.!..X.X&X!.c.V.Y.j.r.<.c.!.Y.j.j.j.j.A.A.j.p.j.V.c.j.A.G.Y.Y.j.r.j.p.r.7.j.V.j.p.r.c.!.!.Y.V.d.3.r.7.d.V.j.<.<.3.r.c.!.Y.c.G.j...<.A.7.3.<.r.j.d.d.c.G.j.p.*.<.<.*.d.3.*.<.<.3.<.j.j.r.3.*.*.<.*.V.j.c.j.V.!.V.j.V.j.d.7.r.j.V.V.V./.G.G.j.7.<.j.j.7...<.p.V.Y.G.Y.!.G.c.p.r.j.c.V.G.!.Y.!.G.j.d.c.A.!.j.j.j.7.A.&X`.Y.Y./.Y.j.j.r.+...<.j.!.j.d.d.j.3.d.p.j.c.j.} ! *.+...<.( r.#X.Xd.3.d.c.r.+.*.<.r.p.7.<.<.+...+.} <.j.c.G..X!.3.p.c.A.G.V.A.!.!./.!.V.p.d.d.<.<.<.j.j.r.r.3.<.<.+.r.j.c.j.j.c.V.!.!.j.!.!.c.7.! <.<.<.! ! ( R U R +.} } <.d.!.#X!.<.( <.p.j.r.*.3.3.7.c.c.7.3.3.j.j.j.r.<.<.j.j.7.<.<.p.V.G.j.r.3.c.j.7.7.j.G.A.!.Y.j.j.3.! +.j.7.j.*.( ( +.+.( <.j.j.p.!./.j.7.j.p.<.r.p.<.3.3.j..X/.A.j.c.!.j.c.d.r.<.*.V.&X#X`.;X;XG.<.7.<.7.j.( ..r.d.7.<.V.!.;X;X&X.X!.!.V.c.j.p.j.j.<.<.<.3.3.7.} J +.p.!.!.Y.V.j.!.c.A.Y.D.V.!.!.V.A.c.G.d.! ..<.! ! ..<.7.<.+.+.<.<.<.3.p.Y.!.Y.Y.p...7.c.7.<.d.j.p.d.c.A.V.<.! J *.G.c.d.( ! ( ! R N z ! *.3.<.7.j.p.<.( <.7.p.d.d.c.A.j.j.p.p.j.!.j.} +.7.V.<.<.7.j.V.p.!.#X!.!.!.`.!.j.j.<.7.j.!.j.j.j.<.d.r.p.p.p.p.! <.Y.`.G.d.d.d.V.j.V.c.p.r...+.7.V.<.! <.*.j.!.!.j.d.Y.j.<.<.<.<.3.<.<.<.<...! ..7.d.<.*.<.7.p.<.<.R <.",
"<.<.r.p.j.j.j.Y.&X.X;X!.V.j.j.3.j.j.j.7.( d.j.<.<.<.*.+.3.j.V.Y.V.p.A.!.r.V.r.j.&X;X,X;X&X/.G.V.!.G.3.r.3.<.7.c.!.!.A.d.j.G.d.j.!.`.!.!.;X`.!.!.`.!.!.!.!.!.G.!..X/.c.c.A.c.Y..X.X!./.A.G.`.Y.V././.!.!.`.A.j.c.p.7.7.j.Y.V.j.j.j.p.7.c.A.j.d.d.r.7.p.c.7.<.c.Y.A.d.r.V.!.!.!..X;X;X/.G.!.&X`.A.7.j.G.V.j.p.d.d.j.A.A.j.j.j.c.A.!.V.c.!.c.7.p.7.r.r.c.A.j.7.p.Y..X!.G.j.<.7.V.j.c.V.d.<.*.3.j.j.j.j.d.c.j.+.*.Y.A.j.7.3.d.j.c.G.V.j.c.p.3.3.*.r.<.} +.3.7.*.7.<.p.3.3.7.r.7.G.V.Y.V.c.V.j.j.A.A.j.<.<.j.A.G.G./.`.V.d.j.r.A.Y.c.3.p.r.c.A.j.j.j.Y./.V.r.j.c.V.Y.Y.A.V.c.j.j.V.A.c.r.j.c.p.Y.#XG.d.Y..Xc.3.c.c.7.7.<.r.!.j.j.G.V.r.<.+.<.r.A.r.*.<.+...d...<.!.!.r.7.j.c.p.3.<.+.7.p.<...<.<.*.3...*.7.j.c.!.!.j.c.G.A.Y.Y.V.A.G.A.d.*.+.<.<.<.*.*.3.<.3.r.p.d.7.*.r.j.c.j.j.V.j.c.j.+.j.!.A.j.+.<.<.+.R ! <.! U J ! ( ..<.7.G./.G.r.+.+.<.3.r.p.r.r.p.c.j.<.<.<.A.!.c.p.7.<.r.j.3.<.<.3.r.j.c.r.3.j.p.7.d.j.V.j.j.j.d.j.d.<.<.p.G.!.+.( ( ..<.<.*.7.3.p.G.Y.c.c.G.j.7.d.j.7.<...<.Y.A.j.j.G./.j.<.<.7.r.3.V..X!.G.&X9X/.3.p.r.j.c.3.p.<.<.7.<.G.`.&X&X;X.X/.!.A.j.j.j.!.A.7.<.*.*.+.+.( ! 7.r.G.Y.G.c.j.A.j.Y.!.j.7.G.Y.j.A.G.!.c...<.p.*.} *.3.j.<...} ..*.3.p.d.G.!.G.G.d.<.j.j.*.*.d.c.c.V.c.d.A.p...} j.#Xj.<.( J R R D U R <.d.d.7.p.c.j.<.<.7.<.7.d.d.j.j.c.r.d.G.!./.V.<.} j.!.j.j.p.j.<.+.G.`.!.!.!.`.!.V.j.p.V.!.!.j.p.j.d.p.3.j.j.j.r.+.3.j.V.j.c.A.c.V.p.r.<.} 7.+...j.G.7...<.<.c.c.V.j.j.!.Y.j.A.Y.j.j.j.<.<.r.7...<.p.j.j.3.<.V.j.j.c.! U ",
"j.3.*.*.r.j.j.j.d.j.Y.c.V.G.V.....+.j.7.! j.j.} ..} R J ..d.A.!.!.p.j.V.<.c.d.A.;X;X;X;X&X!.V.G.Y.V.3.j.j.3.3.c.G.c.V.r.j.G.j.G.!.!.!.`.;X`.!.!.!.!.!.!.!.!.!.#X.XY.7.j.Y.c.V.`.&X!.G.d.c.`.G.j.Y.!.c.j.G.G.j.c.j.d.3.d.G.A.d.d.c.j.3.p.j.p.d.r.p.r.p.j.<.+.c.!.Y.r.<.c.!.!.!.!./..XY.j.Y.#X.X!.A.V.V.j.d.p.d.j.7.c.!.!.A.j.V./.!.j.p.Y.V.7.p.7.r.3.j.j.7.<.j.&X`./.`.!.<.<.A.p.V.j.<.*.<.r.c.j.j.j.j.j.j.*.*./.V.c.7.<.p.c.P.G.Y.V.!.G.j.r.<.3.p.*.<.p.d.<.3.*.*.<.7.j.Y.j.c.V.Y.Y.c.j.j.c.!.!.A.<.r.G.!.A.d.p.!.V.c.j.} j.`.!.j.j.<.r.d.r.r.p.j./.Y.p.j.c.j.V.!.A.V.V.V.A.G.c.j.3.j.V.r.V..XV.r.Y.!.} N <.c.p.p.! U V.c.j.!.c.r.+.+.<.<.G.G.j.c.<.<.!.p.p.!.Y.j.j.A.G.V.A.c.3.d.j.3.+.7.7.<.3.} } *.r.j.j.j.j.!.A.c./..Xj.p.V.j.*.D ! <.<.7.*.*.*...<.7.p.j.7.<.p.V.!.!.G.V.r.d.c.*.c.!.!.c.<.<.7.3.! ! <.<.<.( *.<.3.<.<.j.A.V.d.<.<.r.d.r.r.p.j.j.A.j.*.+.*.d.!.c.j.G.j.d.V.d.r.d.7.*.7.j.p.j.V.d.p.c.A.c.p.p.d.<.<.r.r.r.<.;X!.! ..<...} ! ..<.r.j.c.7.3.j.c.j.7.d.j.7.<.} <.V.j.j.A.!.#Xc.j.j.A.G.j.G..X!.j.!..X!.j.V.d.!.A.V.G.<.r.j...d..X/./.#X`.!.!.c.V.c.c.!.!.d.p.r.<.3.7.3.<.p.*.j.!.Y.G.G.!.A./.!.G.d.!.!.j.j.A.!.c.3.A.#XG.3.} } 3...! ( +.<.c.!.!././.G.Y.j.<.d.c.<.<.j.!.`.G.3.p.!.G.3.<.G.#X3.7.( N C U N ! <.!./.!.V.G./.G.7.<.7.<.r.V.V.G.V.A.<.<.j.c.j.r.+.p.G.!.G.j.j.#X!.<.!.`.!.!.!.!.G.j.j.V.#X#X!.j.<.r.c.c.p.A.c.j.p.<.p.d.3.<.j.Y.A.j.3.r.7...p.*.! <.7.+.( <.<.j.p.d.V.c.A.G.c.A.A.!.!.A.3.+.7.p...r.<.*.r.<.<.A.r.r.A.7.R ",
"r.<.3.<.d.c.3.7.7.j.p.<.<.p.p.<...! <.j.d.j.j.7.p.p.<.+.+.7.c.j.j.j.c.j.p.c.!.Y.&X;X#X/./.`.!.V.Y.Y.p.c.V.A.!.`.`.j.A.j.d.A.!.d.j.!.V.;X;X#X`.!.!.A.G.!./.`.`././.c...<.A.!.!./.#X/.G.V.G.`.!.j.d.G.G.j.c.j.p.!.!.!.d.r.A.A.j.V.Y.j.<.7.d.d.j.7.r.j.7.r.d.j.G.!.!.!.j.c.!.!.!.!.!.!.V.p.!.&XY.Y.!.V.j.j.j.r.d.j.c.G.G.Y.!.Y.Y.#XV.j.V.Y.j.r.r.7.7.<.3.d.r.<.j.;X&X!.!.A.7.p.j.d.d.c.7.<.j.j.d.j.d.p.d.j.j.j.j.j.<.d.j.<.7.A.V.j.j.G.!.d.r.<.! <.<.+.} <.<.*.p.p.<.<.j.3.A.G.Y.Y.!.!.A.A.j.j.G.G.c.<.r.A.7.<.j.<.c.Y.c.V.<.r.d.A.Y.p.r.j.r.<.3.3.j.G.!.j.r.p.r.j.c.!.Y.A.G.G.G.c.G.c.j.p.c.V./.A.c.Y.<.N R 3.3.c.c.<.<.c.d.r.j.!.Y.A.j.j.d.c.!.r.d.j.! <.j.+.j.!.j.!.Y.!.&X#XG.<.p.j.p.*.<.j.j.r.<.( *.7.c.j.j.A./.G.j.A.!.A.j.j.3.U N ..<.<.7...! } *.3.p.G.j.7.<.<.r.j.Y./.A.<.<.j.j.!.!.G.!.r.3.r.r.R ! } <.7.3.d.r.*.<.<.j.j.<.<.<.<.<.j.A.p.j.j.V.!.A.r.<.<.j.G.Y.V.A.j.3.j.V.A.V.j.<.<.j.j.p.j.j.3.j.j.j.7.d.d.p.3.r.j.j.j..Xj.D ..j.p.! ! +.7.3.<.7.<.<.j.A.j.p.p.p.7.7.r.r.j.c.G.!.;X!.c.d.*.3.c.j.c.G.!.A.`./.A.j.A.!..XY.!.G.d.<.<.3.7.V.Y.G.G.d.p.A.V.Y.!.G.A.!.A.d.j.Y./.A.c.j.c.j.V.(.A.Y.Y.`.G.!.;X&X!.`.;X!.A.#X`..XY.!.!.`.!.r.} <.+.<.<.3.j.G.!.,X.Xc.c..X!.p.j.!.3.<..XY.G.&XA.d.c.!.7.<.j.p.r.j.*.( ! N N ( 3.Y.&X/.c.!..XV.<.*.7.3.<.r.l.j.j.V.r.<.| <.p.d.r.V.Y.A.7.<.j..X!.j.j.!.!.G.!.c.V.j.d.j.G.!.A.r.*.} j.c.r.<.j.A.<.3.p.r.<.+.3.V.c.j.3.<.r.c.j.<.( ( <.! ( +.d.j.d.j.!./.!.Y.j.j.A.G.`.!.p.+.+.<.<.p.<.! *.r.7.j.j.<.<.r.*.",
"V.G.Y.j.j.d.<.d.p.d.r.3.3.7.r.r.*.( 7.V.j.p.j.d.V.r...*.<.+.*.<.r.p.j.j.r.d.V.G./..X#X.X.X#X`.Y././.p.3.3.j.G..X`.c.!.!.!.A.G.V.p.j.r.!..X.X`./.Y.G.!.!.!.!.!.!..X/.j.j.!./.`.`..X`.`..X#X;X&X!.A.!.!.G.Y.V.d.A.#X`.j.r.V.Y.A.G.V.d.*.<.r.p.j.d.7.p.p.c.!.V.c.j.!.!.j.A.!././.!.Y.!.Y.V..X;XG.j.V.V.c.V.c.j.c.G.Y.G.V.A.!.!.G./.Y.A.A.j.d.j.V.p.3.<.<.7.3.<.p.`.`.G.!.G.j.c.V.j.e.j.p.7.j.j.r.j.j.p.r.r.r.r.p.j.<.r.c.j.j.c.j.j.G.V.j.<.d.j.<.3.7.<.<.7.3.r.V.V.<.<.V.3.c.A.Y.!././.Y.V.j.c.Y.V.p.3.j.A.3.} 7.V.Y.Y.j.c.r.j.3.p.c.p.r.j.p.3.<.<.j.A.G.d.d.j.d.d.!..X!.!.!.A.j.j.j.j.r.7.c.j.c.j.p.j.j.7.j.c.7.r.A.c.j.Y.!.!.j.j.!.!.p.r.p.j.j.+.j.Y.*...<.( r.j.V./.G.d.j.!.!.7.<.d.3...<.j.c.j.<.+.<.<.3.<.d.V.!.A.j.c.c.p.7.p.*...*.3.3.3.7.<.<.<.<.d.j.j.J f ..+.*.7.Y.`.Y.j.+.*.+.3.d.j.!.V.d.3.+.C R ( +.*.<.r.7.*.<.<.j.j.<...+.*.<.j.V.d.j.j.c.Y.V.r.<.7.r.j.!.!.Y.j.7.c.G.j.3.j.V.j.c.d.+.r.c.d.c.j.j.7.r.7.7.7.d.c.V.A.`.Y.3.j.G.A.7.*...<.<.+.( ..7.V.c.j.p.r.7.r.r.p.p.j.j.V.Y..Xj.<.<.<.p.V.c.V.!.Y.Y.Y.r.*.7.c.!./.V.c.d.<.<.p.j.d.7.j.V.j.7.3.V.G.G.j.<.p.Y.Y.c.G.#X!.G..X/.!.G.!.`..X&X/./.!.;X;X;XY.!.;X/.!.;X.X;X!.!.Y.G./.!.j.p.7.j.c.!.!.Y..X.XY.j.Y.;X#XY.j.A.r.3.!.j.G.,X!.d.V.G.3.3.j.p.j.V.d.+.U U ! *.7.j.!.!.j.j.d.<.<.+.<.<.<.p.d.d.j.V.r.r.*.<.j.G.G.j.j.d.<.*.<.A.Y.p.c..X!.Y.!.c.G.`.G.c.c.c.j.3.*.*.d.j.p.r.j.G.d.r.d.d.d.r.p.Y.!.!.c.j.G.!.j.<.<...3.*.3.p.V.A.V.!.!.G./.`.c.d.7.j.!.V.r.<.3.3.<.c.V.j.7.<.<.j.j.} 3.!.Y.",
"p.G.!.d.3.<.+.j.j.j.j.j.d.3.<.7.7.*.p.!.Y.V.V.j.Y.d...<.r.*.*.r.p.j.V.V.j.j.A.!.!./.#X`.!.!.!.A.G./.V.r.2.j.r.j.!.A.`.`.!.j.j.V.p.3.<.j.!.#X`..X!.!.!.!.Y.!.!.V.!..X!.!./.!./.`.!.G.!.;X;X`.!.!.!.!./.!.!.G.d.j.G.V.r.<.j.!.!.!.j.r.<.p.c.j.j.d.7.d.j.Y.!.c.p.7.c.j.r.j.Y.!./.!././.!.G./.;X!.j.p.j.A.A.j.j.c.G.!.Y.j.V././.Y.Y.G.A.A.c.j.Y.Y.d.3.r.<.<.<.+.*.j.V.p.j.c.j.!.!.G.j.V.j.d.j.p.r.j.V.j.r.p.d.p.p.j.j.s.A.G.j.d.d.j.G.j.<.} d.G.r.3.<.*.3.3.<.p.V.Y...3.!.j.A.G.G.G.!././.!.A.V.A.p.j.c.G.V.p.<.7.!.!.!.j.V.j.c.3.p.Y.c.d.j.j.d.p.j.!.Y.c.r.7.p.r.j.!.!.!./.`.G.c.j.r.d.p.r.c.r.<.<.3.j.Y.Y.G.c.3.<.c.G.G.!.c.!.<.( <.<.U R *.<.<.! 7.!.c.<.<.<.7.<.3.!.!.j.r.Y.!.<...r.<.} ..<.p.7.<.<.3.<.<.+.p.V.V.A.Y.Y.j.3.7.d.<.<.j.j.j.j.j.V.j.p.<.d.V.j.N u ( ....3.Y.`.!.V.+.! ! } *.7.j.j.c.j.p.} } ( *.<.<.r.7.<.r.r.j.j.j.7.p.3.r.!.Y.j.p.r.j.!.Y.j.j.c.d.d.Y.!.G.j.p.A.c.*.! 7.!.V.d.d.3.j.Y.V.A.c.c.p.j.j.j.j.j.c.V.c.!.!.j.j.p.V.A.p.<.<.7.<.! +.j.G.V.c.j.p.p.j.j.j.j.j.c.!..X&Xj.<.j.d.V.G.G.Y.!.Y.c.j.....7.r.V.j.p.<...*.d.!.G.3.*.j.A.j.<.<.j.Y.Y.j.<.3.c.A.G.!./.`.`.!.j.V.!..X!.&X;X;X;X!.Y.;X,XA.Y./.!.!.#X&X#X!.`.!.c./.#XG.A.j.c.c.Y.!.A..X#XG.d.Y.&X&X!.<.7.p.p.j.<.j.#Xj.<.j.V.p.j.A.p.j.V.A.<.D ! <.<.3.j.j.j.d.3.} ! +.<.<.<.p.A.V.j.j.V.r.j.r.<.r.V.A.d.c.A.j.r.*.d.A.c.Y.!.c.j.j.d.A.&X!.G.V.d.p.d.j.j.V.c.j.c.V.G.A.A.G.V.A.c.j.G.`.&X!.V.!.!.j.<.3.j.j.7.p.r.j.c.!./.j.+.j.!.c.j.3.r.A.p.<.r.d.r.<.} p.G.j.*.+.*.<.<.j.`./.",
"j.Y./.j.<.*.<.j.j.j.G.A.V.j.r.3.j.j.V.Y.A.A.V.p.V.j.<.+.<.*.<.d.p.d.A.!.V.j.!.&X$X.X.X/.j.j.A.j.j.!./.A.p.A.d.3.Y.!.!.c.V.j.d.j.j.r.r.d.G.&X.X.X!.!.!.!.G.A.c.j.d.A.G.!./.!.!.!.j.7.j./.!.j.j.!.!.Y.!.!.!.Y.j.d.r.3.<.<.j.Y.!.!.c.p.7.j.A.j.r.p.r.j.c.A.A.j.j.j.r.7.3.j.l.c.!.!.`./.!.G.!.#X/.j.7.j.Y.V.d.d.j.A./.Y.c.A.`..X!.A.G.V.A.G.A.Y.A.j.r.j.p.3.p.<.} <.3.*.d.j.j.Y.!.G.G.G.V.j.p.r.p.j.A.j.j.j.A.c.j.c.V.p.c.G.d.7.7.r.d.d.<...7.j.7.7.<.<.p.3...<.d.c.+.r.!.V.Y.!.G.V.G.!.#X#XA.d.j.r.d.A.!.j.p.p.3.j.G.!.A.A.j.d.3.j.A.A.j.V.!.V.j.A.`.V.j.p.r.<.3.G.V.!.!..X`.!.G.V.r.p.j.d.c.7.<.<.7.V.!.A.G.!.V.p.j.p.d.V...d.<.R ( ..J J ( ....! +.j.!.A.j.A.j.<.! A.#X/.!.`.!.<.<.p.<.<.<.<.r.7.*.....+.<...p.j.j.A..X`.j.7.j.V.d.7.j.j.A.A.d.A.j.d.<.<.r.r.R J ! } <.r.V.Y.A.j.d.<.7.d.j.j.d.d.d.j.G.j.7.+.<.d.7.d.d.p.j.j.j.V.j.p.j.<.r.!.G.d.<.7.c./.`.G.V.G.A.j.!.!.V.j.j.j.Y.r.*.j./.c.3.p.c.j.!.G.Y.A.G.d.d.c.V.V.c.A.!.G.A.A.d.<.( d.c.p.<.<.3.<.*.<.p.d.j.j.d.j.j.j.c.c.V.j.G..X;X#XA.j.V.j.V.Y.`././.A.c.j.r.G.G.3.A.d.p.! R 3./.;X!.+.3.Y.!.j.3.<.p.A.G.!.j.<.<.3.j.c.!..X#XA...d.`.#X!..X.X#X&XC w <.!.r.j.A.j.c.Y.`.`./.;X&X!.#X#X!.`.!.!.c.p.j.V..X;X!.p.c./.`.Y.} +.j.c.d.*.j.!.<.! 3.<.*.7.j.3.V.Y.!.r.! <.j.d.p.p.<...<.<.} ! } <.<.<.j.!.!.A.c.c.r.A.j.7.3.d.r.+.d.Y.V.c.<.p.A.V.A.j.<.p.j.j.!.!.Y.!.G.p.7.p.j.!./.!.Y.!.Y.G.!.!.!.A.G.Y.V.!.`..X`.A.V.G.c.d.p.j.j.d.j.p.r.j.G.`.G.<.3.r...<.3.d.A.3.+.d.j.p.<.f U j.j.<.p.r.j.c.Y.!.V.",
"<.3.j.7.} ..<.<.7.j.V.j.V./.G.j.A.`..Xj.*.7.j.3.c.S.<.} +...*.<.r.3.j.!.A.G.#X,X;X;X&X#XV.j.G.V.G.G.!.j.<.G.G.j.A.G.V.3.j.j.d.p.j.j.V.j.A.;X&X`.Y.A.Y.!.V.d.p.d.<.r.j.!.`.!.Y.Y.j.7.d.A.j.r.j./.`.Y.!.!.!.!.G.j.j.p.r.j.Y.Y.G.Y.!.j.p.p.j.7.<.7.r.V.c.j.c.V.G.A.j.j.j.c.j.j.V.G.!.Y.Y.G.A.!.!.j.r.j.!.c.p.j.j.Y./.!.Y.!.`.`.G.j.V.V.A.A.c.V.V.j.r.j.r.<.j.d.<.3.<.<.A.!.G.Y.!.G.!.Y.G.c.d.d.j.V.A.V.j.V.!.!.c.j.G.j.Y.!.V.c.j.7.<.p.r.*.<.r.r.j.3.r.A.j.*.<.r.j.r.d.Y.j.G.!.!.G.Y.!..X#Xj.<.d.j.p.c.`.Y.c.c.j.j.V./.!.Y.j.r.<.j.j.j.p.f.j.j.p.V.!.c.j.j.d.<.<.j.G.!.!.!.Y.Y.!.V.7.3.d.r.d.p.j.j.j.Y.A.j.G.!.A.p.j.<.*.j.<.p.<.} <.3.*.....} +...j.j.!.!.j.j.d.<.+.j.c.V.!.!.j.3.r.7.*.<.p.3.r.d.<.....<.3.+.d.A.c.Y.`.!.p.7.j.V.d.<.p.3.j.V.<.p.p.3.} ( ..+.R ..! ( <.j.p.p.j.p.7.<.j.G.!.Y.p.<.<.d.G.A.d.} +.<.3.j.V.c.j.p.d.A.d.<.r.<.d.!.V.j.r.j.!.#X.XY.V.V.Y.V.!.!.j.c.c.p.V.j.p.V./.V.3.j.j.j.c.j.j.j.j.7.<.j.V.j.p.j.!.V.j.j.3.+...d.r.<.r.p.r.7.7.7.r.d.d.3.3.d.c.j.j.j.p.j.Y.A.V.V.j.j.+.} r.G.;X#X`.Y.G.j.j.;X!.<./.G.c.( R r..X;XG.<.j./..Xc.r.7.p.j.A.!.c.p.3.<.r.7.G.A.Y.!.d.G..X.XA.c.!..X`.f o k d.*.p.j.p.j.V.!.!.!..X.X`.!.U./.!.!.;X!.<.3.A.!.#X#Xj.j.!./.!.7.p.j.V.j.r.j.!.3.U <.*.<.d.j.7.G./.Y.r.<.d.A.c.p.+.! ( <.<.+.} ..<.<.3.7.j.A.A.V.c.<.j.j.d.p.j.p.*.p.V.j.c.p.p.j.j.c.j.r.c.G.V.!.V.c.Y.A.d.p.7.3.!..X/.!.!.!.Y.!./.`.!.!.!.Y.G.j.j.#X/.G.!.!.Y.j.j.c.G.c.d.p.j.G.!.;X!.j.( N } p.A.!.r.<.V.A.j.7.N ..A.r.<.V.V.V.!.`.`.G.",
"<.*.7.r.<.j.G.j.r.p.j.<.d.!.!.A.!.;X.X7.! 3.j.7.p.r.....<.<.<.<.+.( *.r.d.c.!..X;X;X&X,X/.V./..X`.G.A.V.r.G.!.c.j.p.7.<.c.A.d.7.p.j.A.j.V..X#X!.A.V.!.`.A.r.p.c.r.p.d.Y./.!.!.Y.A.A.A.j.p.j.G.!..X!.!.Y.!..X!.G.!.A.c.!./.G.c.!./.G.j.j.j.7.+.3.7.c.j.j.V.Y.A.r.d.c.j.j.c.c.!./.!.G.A.V.j.V.!.c.r.j.A.d.7.d.j.Y.!./././.`.!.V.p.p.V.Y.A.c.A.V.j.<.7.+...d.c.j.j.<.<.G.!.c.V.!.!.!.Y.Y.V.p.j.Y.G.Y.!.A.G.`..XG.c./.!./.!.V.G.c.r.7.r.3.<.<.r.j.V.d.l.!.G.r.r.d.p.d.r.V.j.Y.`.!.A.V.V./.&Xj.<.d.j.<.<.j.G.A.V.j.r.c.!.!.!.Y.V.j.c.j.j.<.+.<.<.4.j.!.G.j.3.7.p.<.<.j.j.d.p.d.A.!.A.r.7.r.+.<.7.j.A.V.!.V.j.j.j.j.d...3.7.Y.V.<.....*.<.*.+...} +.<.j.<.j.c.3.<.p.c.c.j.+.<.A.A.r.<.p.<.+.*.3.3.3.d.r.3.<.3.r.+.j.Y.!./.!.j.<.7.l.V.<.<.r.! *.Y.j.A.j.7.+.*.*.*.! +.<.*.d.c.<.<.r.7.3.<.c.!..X`.j.7.*.p.!.!.j.( *.<.3.c.!.G.7.*.+.j.c.<.3.d.c.V.j.V.j.Y.`..X!.Y.V.c.!.G.!.j.<.d.A.V.d.r.<.3.j.j.r.V.A.j.j.7.<.*.7.r.7.V.c.d.<.7.c.7.d.j.3.*.<.j.3.3.c.j.p.p.d.p.d.A.j.3.<.p.V.A.A.A.j.`.;Xj.p.G./.!.*.+.j.G.#X!.!.Y.Y.d.c.#XY.<./.V.j.+.( 3.V.j.7.<.j.!..XV.d.j.j.c.G.V.d.A.!.j.j.7.7.d.j.V.j.Y.!./.!.j./.;X5X! + 7 V.p.j.j.j.c.!.!.G.c.A.!.!.V.r.c.!.!.;X!...*.!.`.&X;Xj.<.A.!.!.A.!.c.d.d.r.7.c.p.! p.d.G.!.G.r.Y.#XV.7.7.c.!.V.r.<.<.j.c.7.+.+.+.<.p.p.<.<.r.c.!.j.*.3.7.r.p.j.j.7.d.V.j.V.j.d.3.d.c.j.j.A.G.V.A.A.c.A.j.c.Y.p.<.c.Y.!.A.A.Y.!.`..X#X.X/.!.Y.c.<.+..X;X/././.!.j.V.!..XV.j.j.!.!.V.`.!.7.R J <.A.!./.j.j.!.!.c.j.3.j.!.7.<.Y.!.j.!.`..X/.",
"d.r.p.p.7.j.Y.c.p.<.7.<.7.j.p.h.!./.!.p.<.j.A.d.<.<.( +.<.<.7.r.p.7.<.<.V.Y.Y.`..X`.!.&X!.j.Y.#X;X/.A./.!./.!.V.j.<.<.<.!.!.j.3.7.7.j.d.V.!./.G.c.c.!.!.A.d.d.j.j.c.c.V.A.Y./.!.!.!.!.V.j.V.Y.V.!.!.Y.j.V./.!.Y.G.G.V.Y./.V.j.G./.!.G.j.c.d.*.<.r.j.j.j.A.G.c.3.7.j.p.p.G.!.`.;X#X/.Y.G.j.j.Y.G.d.r.j.7.<.d.j.Y.!.!././.!.!.c.7.<.j.A.G.G.Y.A.j.7.<...+.j.G.V.j.....j.c.r.j.Y.!.!.!.!.V.3.j.!.!.Y.!.A.V.`.&X!.G.!.Y.G.j.p.j.j.p.d.7.*.*.3.p.j.V.j.c.Y.!.G.V.G.j.r.<.j.V.Y.`.G.c.j.d.G.#XY.j.j.d.d.r.d.Y.!.!.G.j.j.A.A.Y.!.`.!.c.j.d.7.3.3.<.*.3.j.V.j.*.<.j.j.r.7.<.! +.r.A.!.V.<.j.d.( <.3.3.c.A.G.j.3.3.j.!.j.J d.j.G.j.! ( ( <.<...( *.+.( <.j.<.<.<.7.7.r.V.#X!.7.3.Y.!.j.3.p.r.r.<.3.d.<.r.7.r.<.<.<.} 7.7.V./.!.j.3.7.j.G.3.<.j.! ( !.V.!.A.p.7.j.d.7.( ` 1.<.d.c.3.*.<.<.....r.V.!.!.V.r.( <.A.!.c.<.p.p.3.j.A.A.7.<.( 7.c.7.<.d.j.d.r.d.c.!..X!.Y.G.A.c.G.j.j.<.( 3.c.G.V.j.r.<.<.<.<.j.G.V.j.r.p.3.p.j.d.j.j.j.7.p.G.d.j.V.j.3.7.V.d.j.V.7.<.r.d.p.j.V.c.d.3.7.c./.`.!.j.!.`.<.*.j.!.V.r.7.c.c.`.!.&X#XG.c.G.!.!.d.`.c.7.3.<.<.7.<...*.7.V.`.A.j.G.!.Y.!.V.d.Y.!.c.c.p.<.j.j.j.3.<.<.Y.!.j.j..X7X<., 8 V.c.V.V.j.V..X#XA.p.j.Y.!.A.d.c././.!.!.<.*.#X;X;X!.! N 7.!.!.!.`.V.p.<.<.<.s.<.<.j.d.A.j.d.<.c.;X!.j.j.G.!.A.j.A.j.A.A.7.+.*.*.7.d.d.3.<.<.c.#Xj.+.<.<.d.p.d.d.<.<.j.d.j.j.j.p.j.j.j.j.G.!.!.G.!.Y.A.p.c.!.p.<.j.j.Y.V.j.V.!.#X!.~.`..X!.!.!.p.<..X#X`.`.Y.A.j.r.A..Xj.r.A./.Y.c.V.d.} ! ..3.c./.!.V.Y./.!.Y.G.V.A./.V.d.Y.A.d.G.!././.",
"j.j.p.3.<.r.j.d.3.} <.p.p.<.} <.c.A.Y.c.d.j.j.j.p.j.r.3.<.3.j.j.j.j...} c.V.p.V./.!.j.Y.c.*.p.!..X!.7.G.`.!.A.Y.c.r.r.p..X#XA.7.r.<.p.d.A.A.!.c.j.d.j.V.c.j.p.3.j.Y.A.j.d.V./.!.Y.G.Y.!.Y.Y.!.Y.j.V.j.3.d.!.Y.A.j.G.A.G.!.V.p.V.!.!.V.d.j.p.<.7.p.c.j.V.Y.!.!.A.j.!.j.p.!.`.`..X;X&X.X#X!.c.G.G.c.d.j.r.7.j.j.Y.G.!.!.!.!.!.V.7.r.r.j.G.!.Y.Y.!.c.d.3.r.G./.!.j.+.*.A.!.A.G.!.!./.!./.j.+.r.!.!.V.G.j.d.!.#X!.G.j.V.A.j.j.V.c.V.d.3...*.7.p.d.j.A.V.A.`..X`..XA.p.<.p.j.V.!.G.A.j.r.j.!.!.G.Y.d.p.A.A.G.G.V.Y.A.j.j.j.j.G.!.!.j.j.j.d.r.7.<.+.<.p.c.c.3.<.d.r.7.j.*.! *.j.G.G.p.} j.j.( d.r.*.j.Y.j.+.! +.G.!...! d.7.<.+.C 3.*.r.r.( ! <.<.R ..j.e.! ! j.c.j.Y..X`.c.d.A.!.V.<.<.7.j.<.<.j.<.<.7.p.<.<.3.+.<.! ..G..XA.r.3.j.Y.j.r.!.*...V.<.d.l.7.d.!.V.p.! ! ! ( <.d.7.*.....! } <.j.Y./.!.c.*.<.d.V.A.r.7.} <.<.7.j.j.j.<.r.j.p.3.r.j.j.d.r.j.!..X!.G.G.A.j.j.r.r.<.+.3.d.j.c.j.j.r.<.*...3.d.j.j.c./.A.j.j.G.V.j.c.j.c./.A.j.Y.Y.j.d.!.V.A.A.*.*.j.V.V.A.j.V.j.<.*.j..X&X!.A.!.Y.+.+.p.c.j.A.V.!.c..X`.#X!.d.c.A.c.Y.j..XV.j.V.d.<.<.*.+.7.<.j..XY.j.!..X/.#X&X!.!.Y.j.A.c.j.A.c.!.d.J N V.Y.j.<.c.`.R 5 N ..r.c.G.j.j.`.`.j.*.<.j.G.!.Y.!.!.Y.j.A.3...!..X&X<.a e } #X;X.X!.Y.V.3.7.d.c.<.p.V.j.G.p.<.! r.`.`.Y.V.V.c.c.A.`.j.r.p.<.*.<.*.7.7.7.7.7.7.c.#Xd.*.3.d.A.j.d.p.<.<.c.d.3.3.j.G.!.A.c.G./..X!.j.d.c.j.<.j.!.d.7.j.j.Y.A.p.j.G.&X.X/.`..XG.!.#XA.A.&X!.!.`.A.c.j.p.G.!.} ! p.!.V.p.p.d.+.} <.<.j.!.Y.c.Y.!.Y.!./.3.<.j.G.A.A.A.A.Y.!.!./.",
"j.V.7.3.....<.<.<.} 7.j.r.<.} +.j.j.G.G.d.7.r.r.d.A.V.3...<.p.r.3.<.<.3.j.!.A.7.V.j.A.!.<.} 3.r.p.j.r.j.V.j.V.V.V.7.r.!./.!.!.d.r.p.3.c.V.Y.A.j.p.r.3.p.r.<.j.j.!.G.c.j.c.V.Y.!.V.V.!.Y.j./.#Xj.<.d.3.<.d.A.!.A.j.V.!.!.Y.!.!.!.Y.Y.A.j.j.d.j.j.j.V.j.j.G./.!.j.j.A.d.j.!.!./.#X.X.X`.!.G.A.A.Y.A.c.!.j.p.V.c.!.G.V.!.!.G.!.A.j.j.r.d.Y./.!.Y.!.d.j.p.p.G./.!.Y.d.j.A.!.`.!.Y.!..X/.G.V.<.3.j.!.G.V.c.3.V././.!.j.V.c.j.A.!.j.<.<.3.7.d.j.d.j.A.!.G.!..X.X!./.j.A.<.d.G.c.j.j.A.G.j.j.Y.Y.V.G.j.3.j.j.j.c.j.j.j.p.V.j.3.j.G.A.j.V.j.p.7.3.<.3.j.j.j.V.V.<.( <.j.r.<.3.7.d.3.r.3.*.r.d.<.d.j.r.7.j.j.( ! ! p.7.} d.p.+.*.+.! <.r.d.p.3.R ..<.+.+.j.p.N J d.A.!.!.`.G.j.Y.A.d...+.<.d.j.p.p.V.c.*.<.7.<.<.<.<.<.U U j.d.c.j.p.d.!.Y.c.Y.j.3.R N <.d.j.j./.Y.p...R ! *.*.*.<.<.<.+...+.+.d.!.`..X!.d.7.d.G.Y.d.+.( *.+.*.A.c.3.+.r.p.d.j.<.<.c.j.*.j.Y.!.!.!.Y.!.p.j.3.7.r.7.<.<.r.V.j.p.p.7.<.+.*.r.r.V.!.!././.A.j.j.7.j.j.Y.;XY.j.G.j.j.G./.A.j.j.r.r.c.Y.V.j.j.j.<...3.j.;X( /.Y.!.!.j.<.*.7.j.V.V.!.j.j.U j.G.j.p.j.G.!.Y.Y.Y./.V.3.*.r.j.<.*.<.V.&XY.A.`.!..X!.!.A.Y.Y.A./.Y.j.r.c.G.j.<.j.A.7...} j.c.C f *.} +.j.V.<.<.A.!.c.j.<.<.7.d.A.V.d.A.r.3.U U j.,X!.R a r D &X5X!.!.c.3.p.d.j.G.j.3.j.j.j.!.V.p.A..XY.Y.j.d.j.c..X!.G.A.<.*.7.<.<.<.3.<.7.p.7.j.`.p.<.r.j.G.j.r.7.3.<...3.d.<.3.!.`.Y.V.G.G.!..XV.V.V.j.d.c.G.c.j.j.G.A.V.j.d.G..X/..X/.`.!..X!.!.!.;X#XG.!.G.j.!.!.`.#X! N j.V.j.p.3.d.7.3.3.<.A.!.`.j.!.!.!.!.!.p.! <.p.7.j.G.!.j.Y.!.Y.",
"r.j.d.j.<.r.d.<.3.<.p.r.<.+.<.p.A.V.c.j.j.j.c.j.V.!.A.r.<.<.7.<.....*.7.A.!.j.*.r.3.j.A.7.*.<.7.7.r.d.d.7.p.j.7.3.3.p.G.!.!./.V.p.7.*.p.j.G.c.p.7.<.*.3.3.<.7.d.!.G.j.d.r.r.j.!.Y.!.#X`.c.Y.!.p.<.r.r.d.j.j.!.!.j.j.!.!.A.c.c.!.Y.Y.Y.G.A.A.G.G.c.G.c.j.A.!.!.j.j.V.d.j.!.!./././.!.!.G.c.j.A.!.!.G.j.7.d.Y.!.!.V.c.!.!.Y.!.G.j.c.c.c.A.!./.!.A.7.r.3.d.Y.!.Y./.A.!.!.!.!.!.!.G.!.!.G.j.<.<.j.G.G.c.G.7.3.A.!.j.j.V.j.d.A.G.j.r.d.c.G.G.c.c.A.G./.!.!.Y.!.V.G.d.d.p.j.j.j.p.r.A.Y.c.j.G.!.G.G.V.<.j.j.V.A.c.c.j.j.A.j.7.j.V.c.j.V.V.G.j.7.r.j.c.<.7.j.c.7.<.7.j.3.<.r.7.r.3.r.<.*.3.<.( p.j.d.j.3.d.<...} <.p.3.d.j.<.*.+.! <.p.+.d.j.( ( ....+.d.j.( ( d.A.`..X;X!.G.A.j.j.<.<.<.r.p.p.r.d.p.<.3.<.+.+.<.r.<.R ! j.p.j.V.d.p.!.^.A.Y.A.<.C N j.d.A.j.!.j.*...! 7.r.3.<.*.3.7.<.! <.*.p.`.`.Y.!.j.d.j.A.G.j.7.<.<.<.r.!.j.3.3.d.p.j.j.<.} <.<.<.3.j.G.D.Y.A./.j.r.<.<.3.<.<.3.j.c.j.p.p.7.<.<.3.r.<.j.!.!..X`.!.d.j.7.p.j.Y.;XY.j.c.7.j.!./.c.V.!.V.d.j.c.j.3.r.d.3.+.<.p.!.C 3.j.A.A.j.<.*.7.j.j.j.!.!.!.( 7.c.A.c.j.A..X!.j.d.Y.d.*...7.d.<.<.j.V.!.A.V.!.G.A.!.!.!.#X`.G.!.c.+.( j.!.!.A..X#X3.*.*.r.c.<.! 3.*.<.j.c.<.+.7.j.Y.G.d.r.p.j.V.j.<.d.j.G.*.R 3./.<.7 + , N !.`.`.Y.j.p.d.7.r.j.d.*.<.7.j.!./.A.d.Y.j.c.j.d.d.j.!.V.( r.7.<.j.*.} } <.7.7.r.r.c.#XV.<.<.7.Y.V.7.+.<.<.*.<.p.3.3.c.#X!.G.!.!.!.!.c.j.j.r.*.} <.j.c.!.A.p.r.d.j.Y..X`..X`./.A./..X/.`.#X!.j.!.!.j.j.#X`.#Xj.<.j.!.!.V.j.j.p.r.7.<.j.V.G.j.G.G.!.!.G.G.<.<.+.<.j.V.j.7.j.V.A.",
"3.j.V.Y.c.!.Y.3.+.<.p.3.*.+.<.j.A.c.7.+.<.r.d.p.<.p.r.3.3.p.<.<...( ( <.A.!.c.<.<.<.7.z.j.p.5.7.7.7.V.j.<.d.j.<.<.j.j.c.V.Y.!.A.A.j.<.j.A./.!.G.j.d.<.3.p.7.7.j.V.j.j.c.j.j.j.!.!.!.;X#XV.A.!.j.7.7.d.V.j.j.!..XG.j.A.!.G.j.j.!.!.!.!././.!.!.G.j.G.A.A.!./.!.j.j.Y.V.V.Y.Y.Y.Y.!.G.!.!.V.A.!..X.XY.<.<.r.V.!.!.!.V.Y.G.c.G.G.c.V.V.c.c.G.!.!.j.7.3.3.c.!.j.r.c.j.!.`.!.G.V.j.7.j.G.A.j.3.c.!.!.!.Y..XA.r.j.!.Y.V.G.j.j.Y.A.p.j.j.!.#X!.j.V.!.!.!./.!.G.!.A.!.!.c.j.j.j.j.d.p.Y.G.G.Y.!./.!.V.G.A.A.c.V.n.Y.!.V.A.!.c.p.j.A.c.V.A.Y..X!.7.3.p.<.<.d.V.j.r.3.7.7.d.j.V.j.j.j.j.r.<.3.+.! p.j.d.V.3.j.j.3.<...7.p.r.d.+.....! } <.! j.Y.<.} +...( <.<.( +.r.j.!.`..XY.Y.d.<.c.j.j.<.r.s.7.r.p.r.r.r.<.<.*.7.p.<...7.V.7.r.j.<.3.G.`.c.j.!.j.+.! Y.<.A.j.G.r.( +.( <.+.<.<.} 7.V.j.} 7.7.j.!.Y.V.Y.V.j.j.j.A.V.j.r.<.<.p.G.7.*.7.p.<.p.V.j.3.<.+.*.<.c.Y.A.V.j.!.c...( *.<.<.<.<.r.7.7.j.j.d.3.<.7.<.} r.Y./.#X`.`.j.A.j.d.j.V.A.r.j.j.<.7.j.G.j.A..XG.p.d.V.j.p.d.p.d.<.3.p.G.C ! 7.d.j.j.3.<.p.V.d.j.!.`.;XG.Y..XG.G.p.r.!.!.j.j.j.<.+.<.p.j.7.r.j.j.c.j.7.p.j.d.Y.V.A.`.Y.j.Y.V.d.<.j.A.j.j./.!.c.j.r.<.p.V.j.r.p.p.j.c.j.r.p.j.Y.c.p.p.p.d.V.Y.r.d.V./.7.} r.`.j.w % w 3.#X!.V.A.d.V.c.7.r.j.j.<.3.r.d.j.!.G.3.j.<.j.j.r.<.3.c.V.i r ! <.<.} R ! <.<.+...*.<.j.j.*.<.r.V.j.<.*.<.<.*.<.d.j.j.j..X!.G.!.!.G.V.j.3.d.j.<.} <.j.c.`.j.( ( <.p.A.!.&X/.!.!.j.Y././.#X!.!.G.G.`.V.<.`.!.!.!.j.j.!.!.j.p.p.<.3.7.*.<.j.j.j.!.V.!.`.G.`.p.<.<.j.G.j.p.j.V.Y.!.",
"<.j.G.!.Y.!.A.3.*.<.p.7.<.*.{ 3.A.A.3.! ! +.*.<.} <.<.<.7.j.3.r.7.....r.c.Y.A.<.<.+.<.7.j.j.3.<.<.*.j.j.3.j.j.<.j.!.Y.V.G.!.!.Y.!.!.p.j.c.!.`.`.!.!.d.7.j.c.j.V.j.j.j.!.!.A.A.!.!.!..X/.V.A.!.A.j.p.j.G.j.c.`.&XY.p.j.G.Y.G.G./.!.!./..X#X/.G.j.c.!.!.!./.`.!.d.j.!.~.!.A.V.V.Y.!.!.`..XG.Y.`./.!.j.<.<.7.d.j.A..XY.!.Y.V.Y.!.G.j.p.p.j.A.A.V.V.d.p.d.G.!.j.+.<.r.G.`.`.!.j.p.r.Y.!.!.V.7.G.!.c.c.c.!./.A.3.7.A.V.j.p.j.!.G.d.j.V.!.,X&XV.G.#X&X.X`.#X`..XG./.;X!.r.p.G.G.A.!./.!.!.!.!.!.A.j.!.`.Y.j.j.V.!.!.j.A.!.Y.j.A.!.G.A.c.V.Y.c.6.3.7.<.d.V.G.j.r.3.3.r.j.j.c.c.j.j.j.7.r.d.<...j.c.3.j.d.j.V.j.j.<.j.V.j.j.*.<.<.} ( ( } j.Y.p.<.<.*.} *.} ( <.j.V.!.!.!.c.V.<.! c.j.j.<.r.p.<.7.j.d.7.7.3.7.<.<.<...<.A.c.<.<.*.! <.c.G.d.<.A.c.p.+.d.*.V.A.j.<.! } ..} ! 3.r.( <.V.G.7.d.j.V.j.j.A.Y.c.p.r.j.V.c.j.r.<.7.r.j.<...r.r.*.r.c.c.j.3.*.*.<.V.!.Y.A.j.!.A.*...<.<.7.r.3.7.<.7.V.!.c.d.p.p.7.} 7.A.!.!.j.c.r.G.A.j.A.V.7.+.j.G.7.*.<.j.j.A.`.Y.p.j.Y.V.d.p.d.c.3.r.j.Y.} } r.j.A.j.7.7.j.j.d.G.Y.!.#X&X!.!.Y.!.V.r.j.j.d.A.r.+.<.j.G.V.d.j.j.j.A.G.7.<.j.d.V.j.c.V.3.3.A.A.!.j.c.j.p.j.!.!.G.V.c.7.7.!.!.d.d.3.<.d.j.p.j.V.A.7.*.7.p.7.V.#X!.V.A.Y.<.*.r.!.;Xj.+.+.j.!.G.G.j.3.c.A.d.c.A.V.V.V.j.r.r.p.j.c.c.r.c.A.p.7.j.A./.n 3 n <...r.! *.7.7.*.*.<.<.+.<.+.p.d.j.7.3.d.p.<.( ( <.d.7.<.A.j.j.!.`.G.c.j.<.p.A.c.r.j.V.d./.d.! ..7.j.!.`.;XY.j.G.j.V.A.G.j.j.`.;X`.;X`.<.<.7.j.j.p.j.!.j.j.A.Y.j.V.!.A.c.G.j.j.!.p.j.G.j.!.<.! p.!.G.j.j.!./.`.!.",
"*.j.A.c.c.j.7.<.3.<.<.7.d.7.<.d.j.G.j.<.....+.<.r.j.p.<.*.r.<.7.j.<.r.!.G.Y.Y.<.7.3.7.3.7.7.<.3.<...7.j.j.c.r.<.V.Y.j.j.G.Y.!.Y././.s.d.j.!.!.!.!.!.j.<.j.G.V.A.G.j.j.V.Y.A.A.!./.!.!.!.A.A.G.c.V.j.A.G.j.c.G.A.G.j.j.j.j.c.V.A.G.!./.#X&X/.V.d.Y.`.`././.!.Y.p.p.A.!.Y.V.j.c.Y.!.!.&X/.c.A.!.A.c.d.p.<.r.j.7.d.!.A.!.!.G.Y.G.c.d.3.3.j.V.j.j.G.j.j.p.c.!.V.7.r.r.c.G.A.A.V.c.A.!./.`.Y.<.j.j.<.3.<.d./.Y.<...7.j.<.<.j./.!.A.j.j.Y.;X;XG.V.`.&X;X/.#X`..X/.&X;X&Xc.j.G.!.G.Y.G.`.`.V.d.c.c.V.`.Y.c.j.j.j.c.c.<.7.G.A.j.c.!.V.j.c.d.3.<.<.<.<.<.p.c.c.j.p.3.3.j.j.p.d.V.V.c.d.<.p.c.j.d.A.c.<.3.j.j.j.d.j.<.r.j.A.j.<.<.r.<.} U ( r.j.r.<.*.} ! ..} <.r.c.!.!.Y.c.r.c.r.<.!.Y.j.<.7.p.<.7.V.d.<.<.<.3.*.} ! ! <.j.3.<.7.*.! <.j.A.Y.j.c.r.7.<.r.3.V.Y.p.*.( ! ..*.! r.j.<.<.j.!.j.j.j.c.j.j.Y.!.d.<.<.j.Y.c.p.p.<.p.3.7.<.} <.<.7.j.j.p.3.<.*.<.3.j.!.!.G.j.!.V.7.*.....<.7.3.r.r.r.V.G.p.<.7.<.<.} <.j.V.j.<.<.<.V.V.j.G.c.2...c.Y.d.<.<.j.j.A.!.G.r.j.!.A.j.j.j.V.p.p.j.G.<...j.G.!.j.3.r.d.7.r.Y.!./..X#XV.j.j.c.!.j.3.<.<.d.d.3.c././.!.A.A.V.G.`.;Xc.3.j.p.j.j.V.j.*.<.c.j.A.d.j.7.j.G././.Y.Y.!.c.r.c.V.p.7.<.<.7.<...j.A.c.<.+.<.7.3.d.!.j.j.j.c.<.<.3.j./.;X5X!.j.p.d.V.j.*.7.j.j.Y.!.G.c.j.<.<.r.*.<.!.!.G./.!.j.A./.`.j.<.s z <.j.!.7.*.r.j.d.j.A.A.j.3.<.p.d.j.p.j.A.j.d.7.p.j.j.7.<.r.3.p.!.#X/.Y.j.3.p.c.j.r.j.V.p.j.<.*.d.A.A.!.`.!.V.7.d.j.A.j.d.p.G.#X`.`.$XG.7.<.p.G.j.<.p.j.p.j.G.!.!.!./.Y.Y.G.V.V.!.p.p.V.G.!.7.} 7.V.G.G.G.c.c.A.!.",
"<.j.G.d.j.r.<.r.3.+.<.r.j.r.<.d.<.d.j.p.<.+.<.r.j.A.A.j.<.d.<.<.j.7.j.`.!.!..Xd.3.3.d.<.....} <.<.+.<.d.G.c.<.<.c.V.p.d.A.G.G.A.!.!.d.j.A./.!.!.Y.Y.j.3.d.Y.A.V.!.j.d.j.G.Y.Y.!.!.!.!.!.!.Y.A.l.V.j.G.A.j.j.r.<.p.p.j.3.<.d.c.A.!.!.`.#X#X!.c.d.!.`./.!.!.!.!.j.d.j.G.V.j.j.j.c.G.!..X!.j.V.!.Y.G.c.j.+.r.!.c.c..X!./.!.G.A.V.j.j.p.p.j.c.c.c.V.j.j.3.3.j.V.j.c.7.d.r.<.p.A.G.A.V.G.`./.<.3.d.7.} } d.!.3...p.j.j.<.<.j.!..X/.V.d.c.`.&XG.j.G./.&X!./.!.`.&X;X;X#X;X!.A.!.G.j.j.#X/.j.j.Y.!.!./.G.G.j.j.d.p.d.3.3.A.A.j.V.!.V.j.Y.j.3.7.p.<.} +.r.j.d.d.j.<.<.j.A.j.j.!.!.Y.j.7.7.V.A.A.Y.A.<.*.d.j.d.d.p...*.3.V.j.*.<.3.<.*.U } 3.3.r.*.} } +.3.j.A.j.j.!.c.p.3...7.d.7.!.Y.V.j.p.j.d.j.G.j.<.3.<.<.*.} ! ! *.} ! <.j.d.<.p.j.V./.G.p.<.<.c.G.<.j.V.7.7.<...} <.R <.j.7.r.j.!.r.c.j.j.A.Y.!.!.r...*.c.!.A.j.d.3.d.<.<.7...<.} j.!.A.r.<.+...*.<.7.j.A.G.j.G.j.7.+.( } *.<.<.7.j.p.V.A.<.+.*.( } } <.p.j.r.<.2.*.j.p.d.V.j.r.7.A.c.d.j.j.A.c.A.Y.!.j.c.!.Y.G.Y.c.A.V.c.c.A.3...j.c.G.j.7.d.j.3.p.!.`.&X#X!.Y.`.3.<.c.A.p.p.d.c.A.j.!..X!.!.!.!.!.A.Y./.j.<.r.<.7.p.j.r.+.7.A.V.c.d.j.7.c.!.Y.!.`..X#XV.3.r.j.j.r.*.( *.....j.j.3.<.<.*.<.7.<.<.+.d.c.c.3.<.<.3.j.Y.&X#Xj.<.<.d.!.7.3.j.c.V.V.A.j.<.! <.M.<.} j.!.`.#X!.j.Y.`.!.j.j.! v ..j.7.*.<.p.A.A.j.A.G.j.d.3.j.d.j.r.j.!.c.j.j.j.j.p.p.j.r.p.c..X#X`.!.j.3.r.j.j.3.y.j.d.3.3.p.!.!.G.G.A.j.j.<.<.r.n.j.<.7.`.!.j.!.`.j.p.!.!.`.V.<.} <.V.!.!.!.`.`.Y.c.G.G.!.!.!.V.j.7.j.j.j.7.<.p.!.;XG.r.3.j.!.",
"<.j.!.d.j.j.j.j.3.<.r.d.r.<.<.3.+...<.r.<.+.<.j.G.!.`.!.j.!.j.p.c.j.j.!.!./.&XA.} ! *.! R ( ( *.<.*.} 3.j.p.<.+.G.!.A.A.Y.G.Y.A.G.!.r.p.c.!.!.!.!.Y.G.j.j.A.c.c.Y.c.j.V.!.!.!./.!.!.Y.Y.!.!.Y.V.j.d.c.c.j.j.<.*.<.7.d.<.+.j.!./.!.!./././.!.V.j.A.!.!.!.!.!.!.A.j.j.A.V.j.d.r.j.A.!./.!.A.V.Y././.Y.j.<.c..X!.!.;X`.&X.X!.!.!.!.A.j.j.j.A.G.V.j.c.V.d.7.d.j.j.c.j.j.d.7.d.A.Y.!.G.V.`.;Xr.3.p.r.( <.V.!.( ! j.A.V.r.<.7.c.!.!.Y.c.A.!./.Y.V.!..X&X!.`.!.!.c.c./.!.;X`.!./.!.Y.A.!.!.j.Y.#X`.`.G.!.!.j.d.j.j.j.j.V.!.!.Y.!.!.G.G.!.j.j.G.c.7.<.3.j.c.d.r.j.<...3.j.j.j.G.A.G.d.<.7.j.V.A.A.G.<.+.p.j.r.j.j.7.<.r.c.d.3.r.<.*.d.<.<.r.3.d.<.*.<.7.<.p.A.j.j.!.A.A.7.( ..<.+.<.3.d.V.j.G.j.p.G.j.<.3.<.<.<.*.} +.+.! R <.d.V.7.7.j.7.j.p...( ! c.!.3.j.<.<.j.p.d.<.<.! <.3.7.r.3.j.<.j.j.j.G.!.!.!.p.+.*.j.!.G.j.d.p.d.<.3.r.*.j.<.j.!.j.d.j.3.*.+.! ! +.j.Y.c.!.A.r.<.3.r.7.3.<.p.j.p.V.G.7.<.<.} <.7.<.3.3.<.<...! <...3.j.j.A.G.V.j.j.A.c.Y.G.V.!.`.V.G./.G.G.!.V.c.Y.G.G.G.p.<.p.r.j.c.j.j.j.p.j.!.!.!.G.j./.&Xj.*.j.!.G.Y.!.;X!.!.#X!.j.c.!.!.!.j.j.c.7.<.3.<.j.p.p.7.3.j.Y.Y.G.j.A.c.!..X/././.#X`.j.d.j.A./.j.<.U ! <.7.j.r.*.3.r.<.7.j.<.R *.V.c.V.r.<.<.<.j.j././.r.} 7.Y.#Xj.<.d.j.p.j.Y.A.r.3.j.V.r.<.6.j.!.!.c.j.V.G.j.!.r.+.! *.3.( ..( +.d.c.j.j.G.c.7.3.j.d.p.<.7.V.V.j.3.+.( } <.p.d.j.!.&X!./..Xj.3.p.j.d.7.7.p.d.V.j.V.!./.!.!.c.p.r.<.7.<.d.p.r.p.#X*Xj.G.!.<.! j.!.!.V.p.<.j.#X/.!.!.!.!.G.c.V.G.#X!.V.j.p.} } <.3.7.7.7.G.;X!.j.j.A.`.",
"<.j.!.p.d.V.F.c.<.<.j.j.<.3.d.c.7...+.3.<.*.p.G..X/.`.!.r.!.V.j.G.!.j.Y./.!./.j.} U ( ! } 7.<.<.r.<...r.j.d.r.<.j.!.!.Y.c.c.A.j.!.`.j.d.j.A.L.!..X!.!.G.c.c.d.j.Y.V.c.V.G.!.!./././.!.G.!.!.!.G.p.7.j.j.c.j.r.d.V.A.A.7.<.j.G.G.!.!.!.!.!.!.G.A.j.Y.!.!.!.!.!.c.j.j.G.G.j.p.p.A.A.!./.`.!.j.j.!./.!.j.A.#X`.!./.!.A./..X!.!.!./.!.c.d.c.!.!.c.d.A.!.!.A.A.c.j.j.Y.G.c.j.j.j.A.&X!.j.Y.;Xj.p.d.7.<.V.!./.7...<.3.j.7.} ! 3.V.Y.!.A.A.A.V.c.V.!.&X!.Y.`./.G.! ! A./.#X.X.X!.Y.Y.j.c.!.j.!.`.Y.!.c.c.c.7.r.A.Y.Y.V.A.Y.A.V.G.V.j.A.A.d.j.V.3.*.<.7.G.Y.d.3.j.7...<.r.d.j.V.j.V.p.*.r.j.j.c.j.G.7.+.p.j.<.j.j.r.+.*.p.7.3.3.! ( j.j.+.<.} <.} ..*.*.<.<.p.r.j.c.r.V.G.<...3...+.3.Y.d.d.Y.r.*.V.j...*.*.*.<.*.( <...} ( *.<.c.<.*.7.<.3.r...! n r.V.c.A.! ! d.r.G.r.} ( <.<.7.p.<.j.+.p.V.V.j.G.#X!.j.<.*.d.G.A.j.p.p.3.+.*.<.+.A.d.7.j.<.7.A.j.<.*.! U ! r.Y.c.!.V.j.r.d.d.7.<.<.j.7.*.7.p.+.*.r.*.<.j.3.<.<.+.7.*.! <.( <.j.7.V.G.j.j.c.V.r.A.!.c.p.G.j.A.!.V.G.!.j.p.V.A.G.G.j.j.d.3.j.G.V.j.j.d.j.G.A.j.j.j.;X.XA.<.c./.!.G.V.`.`./.&XY.<.p.A.A.A.j.A.Y.j.d.j.j.!.V.j.j.V.Y.Y.G.c.7.Y.!.`.&X`.!.Y.;X#XV.A.!.Y.!.!.A...<.j.c.c.d.r.d.c.j.c.G.3.! } j.r.j.j.p.r.d.p.d.A.G.r.3.j.V.Y.r.} 3.d.<.j..XA.p.V.Y.3.<.3.*.<.j.V.j.j.c.c.d.G.j.r.r.*.( } ! ( ! *.7.<.<.3.<.<.+.p.p.p.*.*.3.d.j.j.j.j.j.p.<.3.j.`.&XY.!.;XG.r.r.r.7.7.3.7.p.!.c.j.V.G.Y.!.A.j.<.3.j.<.*.3.j.G.`.;XV.7.j.u.U Q !.G.!.!.V.`.!.`.#X!.Y./.#X/.Y.V.`.j.<.j.G.7.j.j.p.V.!.7.<.!.!.G.!.!.!.",
"r.Y.Y.d.j./.#XY.c.j.p.d.p.+.*.c.j.+.3.c.3.<.j.c.!..X&X!.A.!.!.V.j.!.#XY.c.V.j.7.j...+.*.<.<.} ..3.+.+.3.c.!.j.+.7.d.j.j.c.j.c.Y.!.!.A.b.!.!.!.!./.G.j.!.!.j.r.j.j.c.c.j.j.V.!..X!.!./.!./.!.G./.!.r.j.A.A.A.j.!.!.A.G.j.j.j.!.G.!.!.A.c.G.!.!./.Y.G.Y.!.!.!.!.!.Y.j.V.G.c.j.j.G.A.Y.Y.`.!.j.G./.Y.j.G.G.G.A.j..X!.} R !./.!.Y.V.A.d.p.j.V.c.c.c.!.!.A.j.c.j.r.d.j.j.j.j.j.p.j.!.G.J N !..X<.<.3.<.d.G..X.Xj.j.d.j.c.<.*.3.d.G.!.!.j.r.d.A.G.G.!.!.!.!./.!.<.<.!.;X!.r.Y.Y.A.Y.G.j.j.r.V..X`.!.!.!.V.j.j.!.!./.j.!./.!.G.<.*.G.Y.d.p.<.<.! ..d.j.A.Y.j.r.j.p.<.7.d.r.r.d.r.z.r.j.3.p.j.V.Y.j.<.p.j.3.+.*.<.+.( ..<.<.*.p.<.*.<.r.! ! U ! +.+...<.7.3.7.r.r.j.j.r.<...} ! <.<.p.r.<...7.j.<.7.j.<.<.7.<.7.c.<.*...! <.*.<.1.*.} ! ! *.<.7.*.( 3.*.V.V.r.j.Y.G.3.<.3.7.3.<.<.7.d.d.<.V.!.j.<.j.!.c.7.( <.j.c.j.p.r.7.7.V.<.<.<.A.c.r.7.<.#.j.Y.p.| <.*.<.d.Y.r.p.j.7.*.<.j.p.<.<.3.<.d.d.p.<.<.r.<.<.r.<.<.*.<.<.<.r.A.<.<.d.3.j.c.j.j.d.G.!.G.!.d.j.j.j.G.G.A.Y.!.A.3.<.!.!.r.c.j.j.j.j.V.Y.A.j.d.r.c.j.c.!.A.`.&X!.*.<.V./.j.j.!.G.p.r.*.! ..p.c.c.p.V.!.V.j.j.c.!.!.Y.A.G.!.!.Y.j.j.V.V.A.#X;X!.!.!.`./.!.!.!.&X.X/.V.G.A.!.!.!.A.A.!.G.d.3.j.<.<.*.<.r.j.c.Y.&Xd.7.p.p.c.Y.c.V.G.c.j.j.j.d.j.!.V.j.c.r.} 3.j.r.j.j.7.7.d.d.j.j.Y.d.j.+.} ..*.} 7.V.j.*.<.<...7.j.3.<.*.7...*.d.j.c.j.p.p.j.V.3...3.Y.&XV./.;X!.G.A.r.j.c.p.p.j./.Y.p.<.G.&XG.V.!.V.p.<.<.<.p.j.j.V.G.p.} <.j.p.p.!.#X`.`.!.!.`.`.`.!.`.!.!.`.Y.!.`.`.G.V.!.`.`.!.`.!.G.+.} j.p.j././.!.",
"d.!.!.j.d.Y./.Y.r.7.<.7.r.( R +.j.p.V.A.3.<.p.r.j.!.`.!.A.G.Y.Y.A.#X;X.X!.!.A.d.r.+.r.p.3.<.( <.r.*.<.p.V.A.j.<.j.c.V.G.!.Y.V.G.!.!.A.j.c.j.V././.Y.c.!.`.c.j.j.j.c.j.V.!.`.`.`.!.!./.`.#X`.!.!.!.j.G.A.c.c.c.!.!.!.!.c.j.j.!.!..X`.!.Y.!.!.Y.!.Y.A.G.!./.Y.c.j.c.j.G.A.j.d.p.j.c.!.!.`.Y.j.V.V.A.j.A.j.j.j.7.G.&Xp.D j.`.A.G.A.G.a.7.d.j.j.d.3.j.j.d.j.j.3.+.<.3.r.3.7.j.r.p.G.G.J ! !.G.<.j.3.*.d.A.c.c.j.G.c.V.V.7.<.r.j.!.!.c.p.<.r.G.!.Y.!.!.`..X!.G.G.`.;X&X.X<.<.d.A.!./.j.<.( <.G./.Y.!.!.!.G.G.!.j.p...j.G.V.d.+.<.!.!.<...! <.3.c.A.7.d.!.j.} ..3.7.7.j.r.<.+...3.<.r.*.<.j.G.Y.j.r.j.p.d.3.*.+...} +.*.<.<.c.d.3.<.+...<.*.*.7.7.<.7.p.r.7.3.7.j.c.j.7.<.( ! 3.3.<.<.7.+.7.j.p.j.V.7.*.<.<.r.j.p.j.+.} *.*.7.d.<.+.! ! ! U } *.<.j.j.c.c.d.Y.#X.Xj.<.j.j.r.<.<.p.j.j.3.j.!.c.<.<.7.<.} R ( <.d.j.d.j.p.r.V.d.r.7.G.V.<.<.*...a.!.C.d.p.} ..7.Y.j.p.j.<...<.j.j.<.<.p.c.j.j.p.<.<.r.<...<.*.<.<.<.7.r.c.j.r.3.<.! ! <.*.7.r.V.A.j.A.j.d.j.c.!.!.A.A.Y.c.3...V.A.3.j.j.d.d.d.j.j.j.j.j.j.A.c.G.`.G./.!.d.! *.r.A.G.c.j.p.3.<.( } <.3.j.Y.j.j.c.d.7.j.c.G.!.!.Y.G.!.!.Y.V.j.V.V.V.!.#X!.Y.A.Y.G.A.Y.!.#X`./.A./.&X!.d.j.c.c.!.A.3.+.V.A.j.3.3.r.j.G.V.c.p.c.j.r.c.!.!.`./.Y.j.r.r.7.7.d.A.j.j.7.} <.j.p.r.j.r.r.d.p.j.V.!.j.G.j.j.d.r.<.3.G.A.*.} <.<.r.p.r.<.+.<.3.V.V.p.j.j.r.<.7.j.r.<.<.j.`.j.A.#X`.&XY.j.!.Y.j.c.!.#X!.j.<.j.Y.j.c./.V.3.+.+.<.p.j.j.V.!.!.G.!.!.V.!.!.!.#X;X;X`.#X/.`.`.`.A.j.!.!.!.!.!.G.G.!.;X;X`.!.!.!.j.j.G.G.G./.`.`.",
"p.j.A.j.p.V.!.G.7.<.+.*.7...! *.j.j.c.j...( <.<.j.G.A.c.j.j.V.!.j./.;X#X/.!.!.G.r.<.j.j.<...! <.3.*.<.j.A.j.p.3.j.V.V.!.#X`.Y.G.!.!.A.j.j.r.p.Y.!.!.Y..X#XG.c.c.G.A.c.A./.`.!.Y.G.G.!.!.!.!.A.G.A.c.!.A.j.V.Y..X!.!.!.V.V.A.!././.!.!.!.`.!.Y.Y.G.j.j.Y.!.G.V.A.j.c.!.c.r.d.j.j.j.Y.`..XV.j.A.A.j.j.V.d.j.c.d.!.&X!.N <.!.d.j.j.j.r.7.r.d.j.d.<.r.j.j.Y.!.7.! <.j.j.p.p.A.c.j.Y.`.! ..!.r.<.G.j.7.A.G.<.*.p.!.c.d.j.7.r.j.j.I.!.V.j.7.d.!./.G.G.`.!./.!.j.j.Y.Y.j.`.<.! <.V.Y./.G.3.} ..j.!.A.!.!.!.!.!.!.d.<.R d.G.j.3.<.d.!.Y.<.+...d.A./.Y.r.p.Y.c.<.<.j.j.p.j.d.7.*.} <.3.r.*.+.d.G.A.j.7.r.d.V.c.7.<.r.d.p.<.<.` j.V.j.7...+.7.r.<.<...( *.j.r.<.<.7.c.G.c.p.<.} ! 7.7.<.<.p.*.<.r.7.d.j.<.*...<.j.j.c.Y.! +.*.*.7.c.Y.c.<.} +.( *.<...3.j.A.c.j.G.!.`.c.p.j.d.3.<.<.d.j.j.<.7.c.G.r.*.<.7.3.<.<.&.<.7.3.p.7.3.j.V.p.d.V.j.d.7.*.( 0.!.V.r.r.<.3.<.j.V.j.V.j.d.j.A.V.7.<.r.3...3.r.<.d.j.7...<.<.p.r.<.<.3.A.j.j.r.} ! R ! *.p.7.d.j.d.j.j.p.d.j.A.A.j.d.j.A.j.r.Y.G.3.p.d.3.r.d.d.d.j.j.d.G.V.j.V.!.A.Y.A.7.*.p.*.3.G.A.r.<.r.*.( p.d.<.V.A.d.7.j.j.d.c.j.G.`..X!.A.Y.!.!.!.V.c.j.j.G./.!.A.j.A.V.j.A.!.#X`.!.j.G.&X!.3.j.!.j.j.c.r.<.j.A.<.<.r.r.7.j.d.r.p.A.7.! d./.!.&X;X`.j.3.7.d.d.d.j.j.j.7.+.+.<.<.+.p.7.r.p.3.r.c.Y.c.!.!.G.j.j.<.d.j.j.+.! <.3.<.d.A.Y.j.<.r.!.Y.3.j.c.j.3.<.d.d.j.3.d./.j.j./.#X!.!.G././.A.G./..X!.j.<.p.j.j.G.`.A.7.+.+.<.p.d.p.j.!.#X`.`.`.!.#Xj.G.!.!.!.G.V.V.!..X`.V.d.A./.!.!.G.V.G.!.`.#X!.G.!.`.!.`.`.`.!.!.!.Y.",
"d.r.d.j.j.V.G.c.j.j.<.*.3.*.} <.d.d.G.Y.r...*.7.j.V.j.c.V.r.3.j.3.c.!.!.!.!.!./.c.d.j.r.<.<.<.r.j.3.<.7.d.d.j.j.d.j.j.A.#X#X!.Y.`.!.V.j.c.d.7.d.V.!./.#X/.A.A.G.!.!.Y.A.Y.G.V.A.G.P.G.c.j.j.j.V.c.c.G.V.c.!..X&X&X.X!.!.`.`./.!.!.Y.!./..X!.A.V.c.j.j.A.A.j.c.!.c.A.Y.j.r.j.G.!.V.V.!..Xc.d.!..XG.A.Y.c.c.j.7.!.;X;X} <.Y.j.j.j.d.d.j.j.d.j.j.d.j.V.A.!./.r.} 3.Y.c.r.j.Y.V.j.V.;X*...V.3.<.!.`.V.Y.G.*.} p.!.c.7.r.3.<.<.<.p.A.c.V.d.j.!.!.j.c.!.V.Y.!.c.j.c.c.!.,XY.d.r.c.A.!.`.G.A.j.j.G.V..X`.Y.c.j.z.c.j.3.G.!.j.<.<.7.d.<.<.3.V.#X#X!.G.Y.j.r.<.3.j.V.p.<.*.7.7.*...3.j.j.c.c.!.!.!.V.7.<.j.G.V.d.j.V.V.j.r.r.( <.V.c.j.7.*.d.j.d.3...+.d.c.7.<.<.p.c.V.j.7.<.*.( 3.3.r.d.j.7.3.3.d.j.p.r.3.<.j.A.A.V.Y.! ! p.j.3.+.j.!.j.<.7.r.c.j.+.*.j.j.j.j.Y.A.!.A.j.j.r.3.<.<.<.<.7...! <.A.V.3.<.7.<.d.d.7.p.7.*.<.p.r.j.!.d.d.p.3.d.<.+.+.j.~.a.R ..j.c.<.<.c.!.A.A.!.!.!.Y.j.<.<.<.*.d.j.j.c.j.d.3.3.r.c.c.7.7.7.j.c.c.<.} <...J +.3.<.<.7.7.7.<.p.r.p.p.d.7.<.r.p.j.r.c.V.3.p.j.4.r.j.c.V.G.j.<.c.j.<.3.j.d.j.c.r.7.G.<.<.V.A.p.p.c.r.<.V.j.<.V.Y.j.7.c.V.j.A.j./.&X`.A.V.!.`.`..XG.V.V.j.j.G.A.c.j.V.c.d.c.Y.!.!.Y.d.7.c.A.j.V.!.j.d.c.j.r.7.<...+.j.j.7.r.d.j.j.!.d.( r.!.!.!..X`.c.3.7.d.d.p.7.r.7.<.<...( ! } 7.<.<.7.*.+.3.j.p.V.c.j.3.7.<.j.d.p.....j.c.<.j.j.A.j.*.<.d.c.d.j.j.V.j.p.d.3.p.<.7.Y.V.G./././.;X`.G.G.G.G.!.#X.XA.j.j.j.j..X/.Y.j.7.7.p.j.d.j.G.`.#X!.`.#X#X#XV.!.!.j.j.p.<.<.3.<.r.!./.!.!.!.!.G.!.`.#X`.!.!.!.G.G.!.!.`.!././.!.d.",
"c.p.p.j.c.A.Y.G.j.j.r.<.<.<.<.p.j.c.!.!.j.<.3.p.j.c.j.c.V.<.+.<.<.j.V.A.G.A.G.!.!.Y.V.r.<.p.j.c.j.d.3.<.7.j.V.c.7.7.r.j.!.`.!.G././.V.j.V.V.j.s.c.!.`.`.Y.A.!.Y.Y.!.!.G.G.V.V.G.!.!.!.c.p.d.j.G.A.j.c.c.G..X.X!.!.!.A.Y.`.#X/..X/.!.!.!.!.A.c.j.p.r.j.!.!.c.j.V.G.G.A.j.p.j.!./.j.j.Y./.G.V.!./.j.A.!.V.j.d.r.!.&X;Xj.<.j.j.j.j.j.j.c.j.j.c.V.j.j.A.j.d.h.3.<.j.Y.3.*.j.A.c.j.c.7XA.7.j.j.7.j.!.c.d.p.+.<.j.!.Y.j.d.7.<.( ! } d.j.j.p.d.A.V.j.c.G.G.G.A.A.Y.!.!.;X;X#X`.j.j.G.Y.!.!.;X!.G.Y.G.;X#XA.j.p.r.!.#XV.Y.!.j.<.<.<.<.*.7.p.Y..XY.<.<.Y.c.*.! <.j.A.j.<.} <.<.+.<.j.!.!.!..X.X!.`.!.d.7.A.Y.G.c.V.A.V.V.j.c.3.p.A.c.A.j.j.j.c.V.V.7.3.V.c.<.+.7.j.j.j.d.<...+...<.<.j.d.7.j.p.3.j.V.3.p.r.r.j.!.!.A.Y.<.*.c.A.7...p./.!.p.d.j.G.A.<.+.r.d.j.p.j.r.d.7.3.d.<.<.<.*.( ..7.<.! ..c.Y.r.} ( +.d.p.<.3.<.*.+.3.<.3.c.3.p.7.r.r.<.1.r.Y./.<.z } r.<.*.<.c./.j.r.V.A.V.A.c.p.3.j.j.G.V.j.j.3.r.r.7.7.c.A.j.c.c.p.!.j.+...*.( N ! <.<.3.j.d.7.<.d.3.<.<.r.7.*.3.p.j.<.p.c.d.j.V.*.3.j.G.G.Y.c.<.p.p.....3.<.<.j.<.<.A.j.d.A.G.j.p.j.j.p.V.j.r.G.#XY.j.j.j.r.j.V..X.XG.j.c.!.!.!.#X!.!.!.V.j.j.p.j.j.c.j.7.p.j.A.c.V.c.<.<.c.A.c.j.j.j.V.c.j.<.*.<.+.r.j.d.p.r.j.Y.&X`.c.j.Y.!.G.!..X!.c.j.j.r.7.7.3.<.*.<.;.( ( ..<.*.<.7.*.} +.j.<.<.3.7.<.3.<.d.j.j.....G./.j.V.7.3.*.*.p.r.A.!.V.j.V.G.c.d.+.} <.<.j.j./..XY.V.A.!./.!.!.!.!.!.`.!.Y.c.3.r.`.!.!.Y.c.j.c.V.M.j.G.!.V.V.!.`.`.;X#X;X!.p.j.j.<.! J h n d.`.!./.`.!.!.`.#X`.G.p.!.!.p.j.V.G.;X`.c..X.Xc.",
"p.7.p.c.A.c.G.!.j.c.j.3.<.7.j.V.A.V.G.j.<.<.r.<.3.d.7.j.j.<.7.d.j.G.G.V.V.j.j.V.!./.!.j.<.0.j.j.7.d.r.<.p.c.j.p.r.r.j.c.A.!.!.S.!./.G.j.c.G.A.A.!..X.X/.!./.#X!.V.G.A.A.G.V.c.V.G.Y./.G.d.j.c.Y.V.j.p.d.j.G.A.j.d.V.j.V.Y.!.A./.`./.!.Y.c.c.V.A.j.d.z.!.`.!.A.V.G.V.j.c.j.j.Y.!.d.d.G.!.!.!.Y.j.3.j.G.j.j.A.G./..X.X!.7.d.c.j.c.j.d.j.j.j.V.A.z.j.V.j.p.d.d.j.G.j...} j.G.G.L.G.;X&XG.j.V.j.7.p.p.<.*.} 7.j.G.Y.c.j.j.j.7.....j.c.j.p.d.j.j.j.G.!.!.!.!.!.Y.G./.&XG.A.`.c.c.c.j.V.Y.#X/.G.A.A./.!.c.V.V.j./.!.7.A.V.j.7.+...<.r.p.r.c.V.j.! ! 7.7.*.<.7.j./.!.7.<.<.<.<.j.A.!.V.*.p.j.d.A.A.p.p.G.Y.Y.Y.G.c.V.!.r.V.!.Y.Y.V.Y.G.V.h.3.d.A.j.<.3.3.( ( 7.V.A.c.j.*.! ....<.<.d.<.<.j.j.3.j.j.....*.<.7.j.!.V.G.j.c.c.j.j.j.G./.!.j.r.7.j.7.! ! <.j.p.<.3.<.7.*.<.p.<.*.<.<.} <.j.j.<.+.7.j.3.} ! <.j.3.} +.<.<.3.<.<.<.r.3.d.j.V.j.d.j.d.c.G.<.C <.R h ..c.A.!.d.7.j.j.j.j.A.j.3.p.V.!.A.c.d.<.7.<.3.r.c.G.G.Y.V.j.!.d.*.<.( R U *.<.3.p.j.j.j.j.j.r.r.7.j.p.+.<.<.+.! *.d.p.3.<.*.<.j.A.V.V.A.j.d.j.<.*.<.<.*.r.r.<.j.c.!.!.!.!.c.c.A.V.V.j.d.A..X!.Y.V.p.<.r.c.!.!.j.r.j.Y.G.A.Y.V.!..X!.c.j.3.c.V.A.j.r.p.j.V.V.c.!.<.( j.Y.j.j.d.d.j.j.j.<.+.3.<.3.d.j.p.7.d.`.!.G.V.j.c.!.Y.!.&X.XG.j.d.j.V.A.h.3.+...} } ..( ..} <.r.3.3.r.j...! *.p.7.j.7.r.3.r.<.( ..r.!.c.p.d.7.r.Y.V.!.!.!.!.!.A.j.j.3.} r.3.r.j.`..XG...N 3.;X`.Y.!.!.A.!.!./.G.<.7.`.`./.!.A.A.Y.!.Y.!.!.!.!.!.#X#X!.`.;X#XV.p.!.!.j.! h 7 r *.!.!..X`.!.!.`.`.!.p.+.j.p.! <.p.p.!.j.<.!.Y.r.",
"<.3.d.G.!.A.j.V.G.G.G.d.<.7.j.j.r.3.j.j.r.j.j.+.+.3.<.j.j.p.j.j.j.G.A.c.c.j.7.r.A.G.Y.V.p.7.d.d.p.c.j.3.p.c.j.d.j.j.!./.G.Y.!.V.G.!.!.V.A.A.V.Y.!.#X.X!.!.`.&XY.c.A.c.c.V.V.c.A.G.G.!.G.j.j.A.Y.V.p.r.d.j.j.j.p.Y..X!.!.!.A.r.j.Y.!./.G.j.j.Y.!./.G.c.G.!.!.G.V.A.c.j.j.c.A.!.A.j.j.!.G.A.Y.V.V.j.c.G.c.c.!.!.Y.!./..XV.G.Y.A.Y.d.p.p.d.d.j.V.c.p.j.V.A.A.V.A.G.p.+.+.d.!.!.!.Y.Y./.Y.j.V.V.d.j.d.7.<.! <.p.p.j.d.7.j.A.A.d.3.c.G.d.d.c.V.j.j.A.!.G.!..X.XA.V.`.;X!.A.!.Y.G.d.p.V.Y.!.!.V.c.V.Y.A.c.c.V.j.c.<.+.G.c.j.r...( +.+.*.r.A.c.G.j.<.3.*.+.p.A.A.!.Y.p.<.7.7.3.j.j.V.r.D ( 7.p.j.d.7.j.G.A.c.V.A.c.c.!.j.c./.G.V.V.!.!.G.d.+.<.j.V.r.<.+.! ! 3.c.!.G.j.*.( ..} +.*.r.3.j.j.G.p.p.V.3.( ! *.<.r.!.V.A.j.j.c.c.Y.G.j.j.A.j.<.<.7.+.U ! <.<.<.+.r.j.j.3.p.j.r.<.<.<.*.<.7.p.3.+.( ..<.<.....r.<.<.3.r.d.7.j.j.d.d.j.j.c.!.j.j.j.0.7.l.j.<.<.N h +.c.A.G.j.j.j.j.j.j.V.c.p.j.Y.!.!.A.j.d.7.<.j.j.j.V.A.!.A.j.j.7.*.3.+.! <.p.<.*.<.<.3.r.p.j.d.j.d.j.d.*.r.*.( ! <.j.j.d.3.<.<.j.Y.A.V.G.G.V.j.p.p.3.p.w.7.j.j.j.c.!.!.`.`./.!.!.!.A.j.p.j.!.V.!.!.A.j.<.p.V.A.j.r.j.c.c.G.j.j.Y.`.!.A.j.r.j.G.!.c.j.j.d.V.Y.j.G.<.! 3.G.G.c.p.<.7.j.A.<.+.r.d.j.j.V.j.r.c.!.<.( 3.p.j.!.!.!./.!.V.d.7.j.!.!.G.j.7...( } } ( } +.3.<.<.j.A.c.} R ..r.r.V.j.7.+.*.7.<.N J G.r.d.j.V.r.j.A.G.c.G.!.!.V.j.j.7.<.j.d.j.j.!./.!.d.U <.!.G.c.Y./.!.!.G.#X;XV.c.&X`.!.G.c.A.!./.!.G.!.!.!.`.`.!.V.G.`.G.j.G.`.#XV.( e 4 z j.;X.X!.!.`.`.`.`.!.!.V.!.!.<.<.<.j.!.p.3.c.<.! ",
"7.j.c.`.;XY.<.<.d.j.Y.c.7.d.j.3.+.! *.j.d.c.A.3.d.p.<.3.p.p.V.d.<.j.j.j.j.d.<.<.d.p.j.G.V.j.c.V.j.Y.!.V.A.G.c.j.A.Y.;X,X!.!./.A.Y.!.!.G.Y.V.j.V.V././.A.j.G./.V.N.A.V.c.V.A.!..X!.Y.!.A.j.A.Y.Y.A.j.j.V.c.j.V.G.!.;X`.&X&X!.3.7.j.Y./.Y.j.j.G.G.G.V.j.c.A.G.G.G.A.c.p.j.V.!.`.G.V.A.!.G.j.j.c.&X!.c.c.V.c.G.G.c.A.Y.!.!.`.G.V.G.j.j.j.j.7.7.j.j.3.7.j.G.A.c.c.c.d.p.7.j.`.&X!.Y./.!.G.j.j.d.j.j.j.c.p.! <.3.<.3.p.*.<.p.c.j.7.V.c.<.r.G.G.c.j.j.c.G.Y.V.j.c.G.!.&X&XY.G.!.!.j.A.Y.!.!.Y.c.j.G.!.!.V.r.<.<.<.( 3.Y.c.V.j.7.7.3.} <.j.Y.3.j.V.c.c.j.<.j.#X!.j.d.d.7.j.d.7.d.p.Y.A.<.r.!..XY.j.j.Y.#X!.V.A.!.Y.A.!.!.V.!.p.r.j.Y.G.!.A.<.} r.j.p.<.<.....<.j.!.A.r.<.<.<.( ....r.j.V.j.Y.d.r.!.A.<.( <.<.d.!.Y.A.r.3.j.j.Y.!.A.V.G.!.7.<.p.7.+...*.*.*.! *.<.<...d.j.p.3.3.7.7.3.<.<.p.7.+.+.r.d.3...7.<.<.7.p.d.<.<.d.p.7.c.c.c.!.j.c.C.p.3.j.p.<.! U J <.7.c.G.G.c.r.7.d.j.V.Y.V.c.Y.G.V.d.p.j.r.j.G.c.p.r.c././.c.3.<.} 3.7.! 3.j.*.} *.<.7.7.<.p.r.j.d.j.j.3.V.p.*.( *.3.r.j.j.7.<.d.!.!.Y.G.V.!.c.j.j.3.j.j.7.r.c.j.c.!.A.!.!.V.j.A.Y.!.Y.V.!.!.j.G.!.`.!.<.<.j.V.j.p.j.j.j.!.c.j.G.!.A.c.j.p.3.V.!.A.G.c.r.j.G.3.j.*.! <.V.!.j.3.+.<.j.A.<.<.d.V.A.j.V.j.<.p.j.! J 3.j.p.G.`.!.!.!.!.V.p.j.!.c.A.Y.j.<.} ..( <.<.7.r...( p.A.j.} U } 2.*.c.G.3.<.<.r.j.+.! j.d.d.7.A.<.<.c.d.7.3.3.j.A.V.p.! ..d.d.j.j.G.!..X;X!.!.G.!.!.Y./.&XG.r.!.5X~.V.!.`.!.c.j.G.`.`.Y.j.V.G.!.`.`.!.!.G.`.G.!.;X#X;X!.! r z j.`.`.!.Y.!.`.#X!.!.!.`.`.!.!.p.! D p.;XV.<.j.<.3.",
"*.d.!./..Xc.! <.<.j.!.G.j.p.d.j.3...*.j.j.j.G.G.!.c.<.7.j.j.j.p.<.d.j.j.j.r.<.3.d.j.V.G.Y.G.A.V.j.!.!.Y.!.!.G.j.G.!.;X,X&X`./.!.G.!.!.!.A.p.j.j.!.!.A.d.r.j.V.N.A.!.c.V.c.d.G.!.!.!.Y.!.!.!.!.!.G.V.j.Y.!.G.G.G.!./..X`.`.!.j.j.j.V.!.Y.j.j.j.r.V.!.j.c.V.j.!.!.!.V.c.j.j.A.Y.V.c.c.Y.!.c.V.!.Y.3.n U p.Y.A.G.V.c.V.j.G.!.Y.Y.!.G.j.d.p.<.7.c.c.7.<.<.p.d.j.V.p.7.j.j.G..X.X!.!././.;X!.!.j.j.V.G.!.A.r.<.+.! ! 3.r.p.<.( 3.G.j.7.<.3.A.c.G.A.c.A.Y.V.d.d.j.Y.`.&X/.Y.!.`.!.!./.!.`.!.A.c.j.V.!.!.G.<.*.<.! } r.c.p.j.c.r.3.d.r.3.j.c.( <.j.j.j.p...d.!.c.r.d.p.V.Y.G.A.A.A.Y.`.!.Y.A.G.j.6.d.A./.!.c.V.!.Y.A.!.`.G.d.3.8.p.p.r.j.V.c.V.c.V.Y.j.j.3.} } r.V.j.7.+.d.3.p.<.*.r.d.d.j.c.r.p.G.V.p.*.} <.j.Y.A.!.c.j.j.j.V.!.j.c.!.&Xd.+.*.*.! ! <.<...+.<.<.+.+.+.<.} *.7.<.p.c.j.d.j.7.<.j.p.j.j.<.<.<.3.r.j.j.j.p.A.7.3.A.V.c.G.V.j.j.<.<.p.r.3.<.( } <.p.j.A.j.c.d.r.c.j.A.A.A.c.c.A.p.p.j.V.j.j.c.V.V.A.!././.A.j.d.+...p.p.d.c.3.<.j.j.7.3.3.7.3.7.p.j.V.c.!.Y.3...<.r.3.r.c.j.p.A./.#X#XG.c.G.j.r.d.<.d.d.<.p.j.c.!.V.<.d./.c.j.G.T.j.`.&X!.!.d.A./.&X!...*.j.p.!.!.c...V.!.j.7.c.Y.j.j.c.j.<.j././.#Xc.<.<.j.<.<.+.! ..j./.Y...} c.V.p.N } 7.p.j.j.c.A.j.3.3.<.p.c.p.a.Y.A.Y.!.Y.Y.!.j.G.G.j.!.p...<.} ! <.+.<.<.7.3.3.d.j.p.! ! ] <.<.j.c.7.*.3.j.p.<.<.j.d.r.<.p.<.<.V.V.p.r.c.Y.#Xj.! ! R <.r.j.d.V.V.Y.!./././.!.!./.!.!.p.<.`.,X! ! `.!.d.d.d.d.Y.G.j.d.V.A.!.`.!.G.`.!.!...<.#X#X.X;Xj.k ! #X#X/.`.!.!.!.G.V.G./.#X#X`.Y.j...*.A.!.`.j.3...p.",
"+.p.!.!.!.j.+.d.j.Y.!.!.Y.Y.G.G.j.r.r.j.p.r.A.Y.!.j.<.3.d.d.j.p.r.j.V.V.j.r.<.*.j.c.A.G.A.V.V.A.c.!./.!.!.!.G.j.j.V.!..X/.!.!.Y.G.A.c.G.V.p.p.p.j.V.A.j.p.j.c.A.c.!.A.Y.A.j.G.!.!.Y.Y.!.!.G.V.c.V.j.j.Y.!.!.!.!.!.!..X!.!.!.c.V.p.V.`..X!.G.j.7.j.G.j.c.A.A.!.!.j.G.!.Y.j.d.j.j.G.!..X`.A.c.Y.!.<.N ! d.!.G.G.G.j.c.j.A.!.G.!./.!.A.c.c.j.G.!.!.7...! <.3.j.V.7.p.G.V.V.!.`.`./.G.G.;X.X.XA.G.Y.A.`.#X!.j.*.! +.+.+.<.p.7.j.A.r.<.*.<.p.d.!.!.V.j.j.p.3.d.V.Y.!.`.!.G.!.`..X.X#X!.!.G.j.c.G.A.G.!.Y.r.3.<...3.V.V.d.d.c.V.A.c.p.r.3.p.<.d.r.3.V.<.! 3.!.!.G.Y.c.A.!.!.!.!.!.!.!.Y.A.j.c.Y.c.c.Y..X/.A.A.!.Y.V.G.!.c.j.j.c.j.7.<.7.V.!.!.V.c.A.j.+.*.( } <.j.d.<.j.!.A.G.r.<.r.7.p.p.d.7.d.!.G.7.<.3.j.A.W.d.j.A.j.d.7.r.j.7.j.V.!.d.3.p.r.+...<.+.+.<.3.<.<.r.p.3.<.7.s.<.p.A.A.c.c.r.<.p.p.c.j.<.<.r.j.j.j.j.c.V.Y.7.<.j.c.j.A.7.<.7.7.r.j.d.p.<.<.r.j.j.c.!.!.G.j.d.G.A.Y.G.Y.V.V.V.7.r.j.!.V.<.r.c.!.`..X.X/.`.!.!.<.! <.p.j.p.<.<.r.d.j.d.r.<.r.V.G.!./.!.#X.XA.j.V.c.r.<.7.p.j.!.#X#X.X!.G.j.p.<.r.r.A.A.p.j.A.Y.Y.j.+.3.G.!.G.G.G.j..X&X/.A.<.d.Y..XA.} <.j.j.V.r.7.} d.c.r.7.c.!.j.j.j.p.7.V._.G.!.V.r.3.j.p.d.j.3.+.<.j.<.R ! j.d.*.z J <.+.<.r.p.j.j.j.j.<.<.j.c.G.Y.p.j./.`.!.!.r.j.c.!.!...N J ! ..<.<.<.<.<.7.<.*.3...+...p.V.( ..d.d.<.! } <.+.} c.j.j.j.c.p.p.!.G.d.j.c.!.&X7.+.} +.<.<.3.<.j.V.A.Y.!.!.Y.c.!.#X!.!.G.j./.c.w r j./.7.( 3.!.!.d.d.!.!.!..XY.c y 3.j.j.<.j.;X/./.,X`.<.j.;X&X/.!.!.Y.c.j.j.c.Y.!.!.`.G.G.A.A.p.+.j.`.A.3.p.",
"7.c./.!.V.p.+.<.G.Y.V.G.j.G.c.V.j.p.j.j.1.*.p.p.j.j.p.j.c.j.d.7.j.A.A.A.c.d.p.+.j.c.V.V.V.c.V.V.Y./.!.G.V.V.j.j.j.V.!.!.Y.G.Y.Y.Y.Y.A.!.!.c.A.Y.j.G.Y.A.j.j.j.j.r.V.V.!.Y.j.G.!.V.V.A.Y.Y.A.j.j.c.j.j.G.!.!./.!..X#X;X`.!././.`.V.!.#X.XY.c.d.3.d.V.j.c.G.G.!.Y.j.!..X!.p.7.j.G.Y.!..X#X!.Y.!.!./.j.V.Y.!.G.V.A.G.Y.V.A.V.j.V.Y.!.Y.A.G.!.&X&X/.j.<...<.7.c.!.j.j.!.G.j.V.Y.!.!.j.7.!./.;X.X.X!.c.!.!.!.Y.r.*.<.<.3.p.j.j.c.Y.d.<.<.*.*.3.!.!.j.j.j.p.p.c.!.!.Y.Y.G.c.V.!.`./.`./.Y.V.j.G.!.j.j.A.j.7.3.<.<.d.V.j.c.V.c.j.j.j.j.j.<.<.7.j.3.+.d.7.} 7.!.!.Y.A.j.c.Y.!.!.Y.A.c.j.A.c.7.j.!.A.A.!.!./.Y.V.A.A.G./.Y.j.r.j.A.j.7.7.V.!.!.Y.V.j.j.3.+.7.<.*.<.7.r.+.c..X/.!.7.<.d.j.j.j.j.p.j./.c...<.p.j.G.!.4.<.j.j.<.*.<.7.+.3.p.7.3.r.j.j.<.*.<.} <.7.3.*.<.d.c.7.7.j.j.3.p.A.Y.c.V.d.*.3.r.j.j.<.<.7.j.j.d.d.c.Y.Y.p.<.j.V.j.c.7.p.j.c.V.A.G.j.3.r.c.A.j.c.!.!.!.j.d.G.G.Y.A.G.j.c.c.3.<.r.A.V.c.c.G.!././.!.G.!.`.;Xc...<.7.<.<.*.+.+.<.r.j.7.+.d.!.!.!..X.X.X`.G.j.A.G.j.r.r.d.j.j.!..X&X.XV.p.7...r.A././.G.j.G.!.G.j.d.d.V./.!.A.j.d.!.!.!.!.r.A.#X;XY.+.3.d.A.j.*.3.<.d.j.7.3.j.A.j.j.j.7.d.A.G.7.c.Y.G.j.j.p.j.!.j...+.7.3.*.*.r.+.} J ! 3...*.p.p.3.3.p.p...} p.G.!.Y.7.r.!.!.!./.7.3.r.G.!.r.( +.<.<.....*.<.r.V.d.+.*.<.3.! r.G.! ! +.<.7.<.<.j.7.} d.d.V.c.V.d.j.!.A.j.A.p.A.G...r.p.3.<.1.7.<.j.V.j.c.G.!.A.<.3.!.Y.Y.`.`..X7.2 4 ( j.<.N ../.A.3.V.A.!./..XV.h 2 i ( j.G.!.&X.X/.#X,X!.`.;X#X`.`..XG.j.d.c.V.G.!.!.!.!..X;X;Xp.U <..X&X/.#X",
"p.G..X;X!.!.c.j.G.!.G.`.j.G.j.j.V.j.c.V.3.*.r.7.r.j.j.!.!.c.j.p.V.G.c.V.j.j.V.<.V.j.j.j.V.A.V.j.V.Y.Y.c.j.d.p.p.j.A.!.Y.V.V.!.!././.!.`.G.d.j.G.j.j.j.j.G.G.c.j.<.d.j.V.A.j.c.A.j.j.j.c.V.V.V.V.Y.A.j.V.Y.Y.!.!.`.`.#X#X!.!.`..X!.`..X!.c.p.r.7.j.c.j.G.!.!.!.!.c.Y.!.Y.j.j.G.!.!.Y.!././././.!./..X#X!.!.`.`.;X/.!.!.G.j.p.j.V.G.!.!.!.#X;X&X&X/.G.G.A.j.V.!.V.A..X!.c.c.j.G.!.j.7.c.G.&X&X&X&X!.Y.V.A..XY.r.*.*.j.G.j.p.j.Y.j.c.p.<.3.j.!.Y.d.p.j.V.A.!./.!.G.c.j.d.j.Y.!.!.`.G.d.d.j.!.`.V.V.c.d.d.j.j.A.!.V.j.c.j.d.V.G.c.j.d.<.*.<.p.p.<.<.p.<.d.!.G.j.j.3.c.A.A.c.c.V.c.j.c.V.r.p.V.j.j.!.#X.X!.j.j.j.V.!./.V.p.d.j.j.j.V.Y.!.Y.V.j.c.j.r.c.!.c.r.3.r.p.<.j.!.!.j.+.<.c.!.Y.A.V.d.j.Y.j.+.<.3.d.Y..Xr.3.V.d.+.<.3.3.} <.3.*.3.d.V.c.7.<...! *.r.d.7.<.r.j.7.7.j.j.r.p.c.j.r.j.j.*.<.3.j.j.j.r.p.j.V.j.j.A.V.V.j.r.c.A.d.j.r.j.c.A.A.G.!.j.r.r.j.j.d.j.A.j.!.V.d.V.V.!.A.A.7.p.c.p.<.*.j.A.c.j.A.!.!.Y.j.p.j.!.,X`.p.7.<.} <.<.*.+.<.7.p.<.} p.!.A.j.G.Y.G.!.V.j.A.!.G.j.r.c.r.+.r.G./..XV.j.p.+.j.`.#X[.!.j.c.A.j.c.!.A.V.!.!.V.r.<.j.j.A.A.d.G././.j.+.7.7.d.r.*.7.<.<.7.d.r.w.p.p.d.j.r.j.j.r.( j.!.G.d.d.d.V.!.j.*.<.d.j.j.r.<.! ..*.<.<...<.j.j.3.+.} } } <.j.Y.Y.!.j.j.j.r.p.G.7.p.j.j.!.G.j.r.<.*.} +.*.*.3.V.V.3.<.<.3.<.p.d.! *.<.! <.3.<.j.d.<.r.j.Y.V.j.7.d.j.d.7.j.3.3.7.! d.c.d.7.r.d.<.d.c.j.j.A.!.A...R r.G.G./.!./.V.z s N ! p.+.3.!.j.r.!.j.j.A.V.!.!.*.c R j./.!.!.#X.X.X;X.X#X#X/.`./.!.c.j.j.c.Y.!.!.!.j.!.#X#X;X!.p.j.G.`.!./.",
"j.!.`.&X!.`./.G.V.V.j.Y.p.j.r.r.G.G.V.c.r.3.j.j.j.c.j.A.V.j.V.A.c.G.j.V.c.c.Y.r.j.j.j.j.c.V.c.j.r.j.V.c.j.d.d.d.s.j.j.j.j.c.Y.!.!.!.!.!.V.3.p.c.A.c.d.j.Y.!.A.V.p.d.r.j.j.p.r.r.j.j.j.j.c.A.G.G.`.!.j.c.A.G.!./.!.!.!.#X`.!.!.`.!.`..X/.Y.j.p.d.c.j.j.!.#X!.!.!.j.V.G.G.Y.!.!.!..X!.!.!./.`./.!.`.&X#X`.#X#X!.`././..X!.G.c.V.Y.!.#X#X.X&X;X#X;X;X.X#X!.V.Y./.!.!.&X`.!.!.c.A./.!.!.!.!.`.!.!.;X&X!.A.j.`.!.p.} ..c.!.!.V.A.!.c.c.3.3.j.!.!.j.7.r.V.!.!.!.!.!.A.j.7.7.j.G.!.Y.#XG.p.r.j.!.Y.c.!.V.d.j.c.G.&X&Xc.p.j.j.j.A.Y.V.A.<.<.<...<.j.p.r.7.<.p.V.A.V.j.7.j.V.V.j.j.A.Y.A.A.Y.j.j.c.7.3.V..X/.A.j.j.j.c.V.Y.A.j.r.r.7.r.z.p.j.V.c.j.c.V.G.!.Y.V.d.7.j.j.r.j.V.j.p.+.7.V.Y.Y.A.c.7.3.j.c.d.p.<.r.!.`.j.V./.r.<.r.r.7.*.3.7.<.d.j.V.c.p.3.+.( +.p.A.V.p.7.j.r.3.p.j.d.d.d.<.*.r.j.*.<.3.j.V.c.p.<.r.j.p.7.j.j.j.V.j.j.c.r.d.r.p.j.Y.Y.V.G.j.j.p.d.p.7.j.A.j.!.Y.j.j.c.!.Y.A...*.j.j.d.<.j.Y.p.3.j.c.j.c.p.<.j.V.#X&XG.j.3.+.3.<.3.p.p.d.d.p.<.7.d.3.3.j.j.d.G.A.Y./..X!.V.j.j.3.} <.p.j.!.!.c.G.p.j..X#X.XA.p.j.j.<.d.!.Y.j.!.`.V.3.<.d.r.j.p.p.j.d.d.d.r.A.d.*.<.<.<.( } *.V.j.7.<.*.<.j.j.G.V.7.} p.j.r...j.A.!.`.c.<.d.j.r.j.p.d.<.<.<.<.r.<.7.j.j.3.! N ..<.7.A.!.!.!.!.A.c.p.p.j.<.d.c.d.G.V.c.j.r.3.3.d.7.<.+.<.j.r.<.( <.j.c.c.<.p.V.j.3.<.<.3.d.p.7.A./.V.d.<.p.r.7.*.r.p.<.<.( <.r.j.p.p.j.+.r.c.j.V.j.j.A.7.U ..G.!.c.j.G.Y.<.*.! C j.j.j.V.3.<.d.+.+.j.V.V.;X;Xc.j.A.Y.Y.!.!.!.!.Y.c.G.!.G.Y.!.j.p.c.j.d.A.G.j.V.V.Y./.!././.Y.!.!.#X!.Y.",
"G.!.j.j.c..X`.V.Y.V.j.!.A.!.V.j.r.c.c.j.j.7.p.j.V.c.j.j.j.j.V.G.j.A.V.A.A.V.V.r.j.j.c.j.j.j.j.V.j.j.c.c.j.j.j.V.j.c.j.r.j.V.A.A.Y.A.V.Y.A.p.j.V.!.!.c.j.j.j.d.c.j.j.7.r.j.p.7.7.j.j.c.c.V.G.G.A.`.!.c.c.A.Y.`.`.!.!.!..X;X`.`..X.X#X#X.X!.V.j.c.A.j.j.Y.!.V.j.c.d.j.j.c.G.!./.`..X`.`././.`..X.X;X#X`.;X;X/.7.<.`.`.;X#X!.!.!./.`.#X.X`..X`.`.#X;X.X!.A.A.!.!.!.Y.`.!././.A.G./.!./.!.!.`.Y.j.`.!.!.A.3.c.j.c.j.p.A.!.#X.X!.!.Y.j.<.r.!.;X!.j.7.j.!.#X`.Y.Y.!.Y.j.7.r.p.j.j.j.!./.V.d.j.c.r.d.!.V.r.d.j.j././.j.<.d.j.j.j.j.j.c.3.p.7.<.*.r.j.V.j.p.r.j.A.G.j.3.j.G.Y.c.j.G.!.A.!.!.j.c.A.r.<.p.j.A.Y.A.j.j.c.Y.p.j.j.j.j.r.3.d.c.j.d.d.j.j.j.G.!.p.j.p.<.p.d.7.d.7.<.7.3.j.c.d.j.d.j.d.r.j.j.j.c.3.p.V.j.<.c.!.3.3.j.<.<.r.j.p.<.p.p.j.j.p.j.r.<.<.7.j.j.7.7.j.j.7.r.j.j.d.7.*.+.3.d.<.7.d.A.!.!.A.d.d.c.j.d.j.p.j.j.j.d.d.r.r.d.<.7.!.!.j.d.j.V.j.j.p.3.j.Y.!.V.V.p.p.j.Y.A.V.+.( 3.j.c.7.d.j.7.<.j.j.r.j.p.7.c.A./.#X!.V.p.3.7.<.<.7.3.7.j.V.j.7.*.*.d.V.d.p.!.!./..X!.A.A.!.j.<.+.3.r.r.V.!.j.`.G.j.!.`.#Xd.*.p.d.<.j.!.A.d.!..XY.d.p.A.j.j.p.c.G.j.d.A.Y.).V.+.<.j.7...<.p.A.G.r.<.( ! d.!.!.A.e.*.d.d.c.c.c.!./.`.c.<.7.3.+.<.<.j.j.3.+.<.r.r.r.r.r.d.7.} <.<.*.d.~./.`.!.j.c.V.j.7.<.G.A.j.G.j.c.G.j.r.r.r.r.j.d.d.A.d.<.*.<.r.p.j.3.d..X&Xj.<.*.3.j.j.j.Y.!.j.j.p.V.d.j.7.r.j.<.+.} ..+.<.<.r.j.<.p.V.V.j.3.3.V.d.J ! A.!.j.j.j.+.N ..<.R <.r.3.<.*.+.+.! <.c.!.!.!.#X#X!..X!.!.#X.X!.V.<.! ..j.j.A.!.p.r.V.j.d.j.j.p.j.!.V.A.!.!.G.V.!.d.A.c.A.",
"c.!.7.d.j.;X;XY.7.7.c.`.!.Y.j.<.( c.A.A.Y.d.7.j.j.d.r.j.j.j.V.c.c.A.A.A.A.c.j.d.j.V.A.c.j.d.c.G.Y.A.V.V.j.j.V.I.G.!.A.j.j.V.c.j.A.c.j.G.c.7.p.j.V.V.j.r.7.<.<.c.A.j.d.p.j.j.j.j.c.V.V.V.A.G.G.V.G.A.j.c.A.Y.!.!.A.Y.j.j.`..X/./.#X#X`./.!.V.j.A.A.j.j.j.A.j.3.3.j.j.j.j.G.!.`.#X/.!.!.!./..X#X&X;X&X`.&X;X/.<.( /.!.&X#X/.`././..X!.A.Y./.`././.;X&X!.V.!.!.j.j.A.!.Y.!.!.Y.Y.!.A.c.c.Y..X!.c.!.A.A.A.7.c.j.!..XY.!.!.`..XY.G.Y.G.j.V.!.;X/.A.r.V.!.`.!.G.!.!.A.A.j.j.3.<.r.<.d.!.Y.j.j.d.<.p.A.V.r.j.j.r.j.c.V.<.<.<.7.j.j.r.7.p.d.r.r.*.<.r.c.!.V.j.d.c.V.d.<.c.!./.Y.V.!.!.V.!.A.p.j.c.d.p.j.d.V.!.!.j.r.j.!.j.c.c.G.Y.j.p.c.!.j.7.7.j.j.r.j.j.U <.7.*.j.V.Y.j.<.+.r.d.G.V.p.r.3.j.V.V.V.d.7.c.7.r.p.<.! 3.j.<.<.7.<.7.j.j.d.<.j.p.j.d.7.j.j.p.7.7.p.d.3.7.c.V.j.j.c.j.p.r.7.<.<.p.<.j.c.A.Y.Y.!.j.d.c.c.p.r.d.j.j.j.d.j.j.j.j.<.r.G.G.d.<.3.V.j.j.j.7.d.A.Y.d.d.<.7.p.j.j.j.7.*.3.d.j.7.r.3.*.<.c.j.3.j.d.p.c.!././.!.V.j.j.p.<.<.<.+.<.d.A.c.7.+.<.G.A.r.j.&X`./.!.A.j.V.!.G.7.<.3.d.j.c.c.p./.Y.d.c.G..Xd.( 7.r.7.j.Y.c.<.j.`.`.V.j.!.c.j.j.!.!.j.j.Y.Y.Y.c.<.d.G.j.7.p.c.j.c.3.<.+.( j.`.&X`.j.<.r.3.c.Y.Y.!.A.!.j.<.7.<.<.+...<.r.+.! 3.V.V.c.r.<.p.d.<.3.<.( 3.!./.!.A.7.r.c.d.*.d.;Xc.<.V.j.p.d.<.<.p.3.j.!.!.!.Y.p.p.j.j.3.+.( C } 3./.&X!.j.V.V.c..XY.!.p.j.c.!.j.j.c.r.p.+...( } *...<.p.V.r.j.c.c.<.+.<.V.j.! *.A.!.c.A.c.R r N +.+.<.<.....p.d.<.*.<...7.Y.#X.Xd.d./.!.!..X!.Y.V.3.U ! j.Y.Y.!.V.d.j.c.j.r.7.p.j.j.j.j.A.!.V.V./.j.j.d.c.",
"V.5X!.Y.p.c.c.p...( 3.d.r.<.<.} R c.G.A.Y.p.<.j.p.7.<.d.c.V.G.V.c.A.A.c.V.j.p.j.A.A.V.j.j.j.c.G.V.c.G.!.A.V.A.A.c.!.!.V.j.j.j.V.j.j.c.!.c.3.j.Y.V.A.j.d.d.7.p.!.!.Y.c.j.c.c.j.A.V.V.V.c.V.G.Y.A.j.j.d.j.V.A.G.c.j.A.<.<.G.`./.!.!.!.Y.!.!.V.j.V.c.c.j.j.V.A.d.r.p.j.j.V./.#X.X`./.!.Y.!.`.#X.X`.`.;X&X&X;X9X/.A.R.A./.`.!..X/./.#Xc.r.c./.&X.X/.!..X`.!.#X&Xc.j.Y.`.!.Y.!.!.!.!.j.d.V.!..X/.G.!.j.j.c.d.Y.p.j.j.!.#X`..X#X!.!.!./.!.A.j.G.A.j.*.j.V.Y.G.A.!.Y.d.Y.Y.G.3.<.p.<.p.G./.V.c.p...3.r.j.7.j.c.<.*.3.V.j.r.3.3.3.<.<.<.r.p.<.3.*.3.r.j.G.A.j.p.d.j.d.7.7.j.G.c.j.A.!.c.Y.j.<.7.p.r.j.G.j.d.j.A.V.c.Y.`.Y.V.j.j.c.7.<.j.j.3.7.d.c.j.7.c.A.J 3.r...j.V./.!.d.7.j.j.Y.G.V.j.<.r.V.!.!.j.p.d.<.3.7.<.! <.3.<.! ..<.j.d.r.j.j.Y.V.V.p.<.j.j.<.7.j.c.V.j.j.V.!.V.A.G.j.7.p.c.3.<.d.7.V.A.j.j.Y.`.!.c.Y.Y.j.p.j.j.j.j.c.c.Y.c.Y.j.V.A.G.Y.j.d.c.d.j.c.d.p.j.d.p.7.<.p.j.j.p.c.j.p.j.d.j.r.p.3.<.<.j.<.! <.p.j.V./.!.A.V.j.c.Y.j.j.j.d.3.3.j.V.j.3.<.d.!.c.<.c.#X!.G.!.!.G.!..X!.p.7.3.p.V.j.j.7.A.c.d.j.j./.c.<.r.*.+.r.j.j.+.*.!.;XY.p.A.V.V.A.!.!.j.j.A.c.j.3.*.j.G.j.7.<.3.p.p.+.<.7.<.V..X!.Y.r.*.r.3.j.c.`.G.p.c.j.3.j.j.j.j.3...<.*.} p.V.Y.G.d.<.<.7.<.r.7.*.p.!.!.V.j.<.3.A.c.7.G..XN f <.j.p.r.<.7.!.G.!.`.G.c.p.*.j.!.j.+.! D k v 7 7 <.!.c.!.G.j.&X!.!.p.c.V.G.<.7.c.3.<...*.( +.<.p.d.j.V.r.d.j.j.<.} +.V.G.j.A.!.!.A.Y..XV.! *.s.} *.7.....c.j.*.p.j.<.r.V.`..X<.<.!.Y.!.V...<.A.#Xp.<./.&X!.!.Y.d.7.j.j.<.<.h.j.j.!.c.j.V.V.c.!.!.A.d.c.",
"c..X&X!.<.<.<.<.<.<.3.R n } j.j.j.r.j.V.V.d.<.p.3.j.p.j.j.A.G.Y.!.V.j.j.j.j.j.j.G.Y.V.c.c.j.d.j.j.c.!.!.!.V.V.G.G.`.!.G.G.G.!.!.G.V.V.!.c.d.G.!.G.V.c.j.j.d.V.`.!.!.!.A.c.!.!.G.c.V.j.j.j.V.!.Y.c.j.j.j.A.!.j.r.p.j.j.j.A././.!.G.!.!.G.!.!.j.G.A.Y.c.c.A.c.Y.!.`.V.V.!.!./._.`.!.!.A.Y.`.!.Y.&X!.j.c.!.!..X7X&XV.! 7.Y.G./.d.G..XG.j./.&X`.#X!.7.j.!.j.V.&X`.`.;X#XV.!.!.V.!.`.!.!.`..X!.#X`.`.j.<.d.d.r.p.7.p.`.;X&X&X/.`.!.!.!.j.r.7.d.c.d.+.<.j.d.A.V.!.!.G.!.G.<.<.3.!.j.<.j.Y.!.V.j.<.<.3.j.A.V.Y.V.<.<.A.c.j.p.c.*.<.p.+...r.<...7.j.V.j.j.V.7.V.V.j.j.d.d.j.d.p.j.V.V.j.V.j.j.3.3.<.j.c.j.j.j.c.!.A.j.G.G.j.3.7.V.c.r.p.c.7.*.<.d.j.d.j.V.<.r.j.*.<.j.j.c.p.3.3.c./.Y.Y.A.d.j.j.Y.!.r.c.j.p.p.3.+.+.j.<.! ..<.p.j.c.j.d.V.!.`.V.7.d.V.A.d.j.p.p.Y.!.A.A.!.Y.c.G.j.r.V.G.j.j.j.j.!.V.j.c.!.Y.G.!.!.!.A.j.j.j.j.j.j./.!.V.j.!.G.c.!.!.c.p.j.j.p.Y.G.j.!.j.7.p.3.+.<.7.d.G.I.p.r.r.3.<.<.<.7.*.r.*.R r.G.d.j.c.Y.A.j.p.j.G.Y.V.Y.!.V.A.j.!.!.d.j.!.#XY.3.r.A.V.G.!..X.X!.#X/.G.!.G.7.V.!.d.3.3.p.j.j.Y.Y.c.<.3.p...r.V.c.j.p.A./.c.j.A.c.!.Y.G.!.d.d.p.r.7.3.( j.!.A.j.<.( ( ( } 3.j.j.G.A.<.<.<.*.3.j.V.!.`.j.p.j.c.j.c.G.!.G.r.<...3.<.j.G.A.j.j.<.<.t.p.j.j.<.7.j.Y.d.p.+.<.Y.c.A.!.! r N 7.c.j.c.A.G.!.`.&X`.c.c.!.c.d.V.p.3.3.*.<.<.c r U p.G.!.c.<.5X7X`.A.j.j.V.r.j.!.j.} *.p.p...<.<.j.j.d.j.j.j.V.p.d.j.V./..X!.!.!.!.!.#XY.!./.V.j.7.<.7.<.<.7.+.<.j...7.c.!.!.j.Y..X!.!.V.p.<.j.!.G./.`.!.G.G.!.!...7.7.+.<.<.r.A.!.A.c.A.j.d.c.c.V.A.!.",
"c.d.j.!.A.G.V.j.A.A.c.! N 7.!.A.c.3.3.d.V.G.d.r.c.A.j.V.c.c.j.j./.Y.j.j.p.p.j.V.!.Y.c.c.A.c.j.c.c.V.G.!.Y.V.c.V.!.!.3.*.c.!.Y.Y.!.V.j.!.!.A.!.`.Y.G.G.c.d.p.V./.!.!.G.V.j.A.!.!.Y.V.j.G.V.c.Y.G.A.A.A.c.G.!.j.r.p.j.j.c.Y.!.G.V.j.A.Y.Y.!.Y.j.j.j.G.A.A.G.Y.!.!.`.A.c.A.G.!.`.`.!.!.Y.!..X!.!.#X!...N J *.V.;X.X*.h N r.c.G.7.c..Xj.*.r.A.!./.A.3.<.V.A.V.`..X/.#X`.c.A.G.c.!./.G.d.j.c.d./..X!.d.3.<...<.r.<.j.!.G.p.p.j.!.A.V.c.*...<.<.d.j.+.<.j.j.V.j.V.A.V.!.A.3.r.<.j.r.p.j.A.Y.G.!.j.j.r.Y.!.G.Y.G.d.j.G.j.j.<.j.r.<.<.*.p.c.<...3.j.V.j.r.V.7.p.j.c.p.3.3.r.p.d.c.A.c.j.c.c.V.d.7.*.7.d.V.c.j.j.A.A.j.V.c.c.j.d.j.j.7.r.j.<.} *.p.j.d.p.j.0.<.+.+.( ..p...+.<.3.A.#X`.`.j.*.r.j.!.!.p.c.G.r.*.} *.<.7.( U <.7.<.r.c.j.d.Y.`.&X!.j.c.Y.!.G.V.r.7.V.!.A.V.!.!.A.A.j.p.A.V.j.c.c.j.G.c.A.!./.!.A.V.A.V.j.p.d.r.j.j.A..X/.A.V.Y.j.p.c.G.V.c.j.j.r.A.G.V.!.j.! <.<.} } <.p.c.j.<.7.d.j.j.j.j.3.! +...! p.G.j.3.j.G.c.j.j.7.3.7.j.!.`.A.G.j.!..XV.V.!.#XY.d.j.!.V.V.Y.#X&X!./.&X!././.A.Y.!.j.+...<.j.c.A.c.r.<.<.7.+.j.!.A.c.j.j.V.j.c.G.h.Y.A.j.V.j.d.3.7.j.<.+.A.Y.d.j.3...( +.+.*.<.d.A.j.} ! ! <.j.A.!.#X!.c.d.r.7.j.A.G.!.A.p.3.<.j.p.j.!.!.V.V.d.j.p.r.d.r.<.<.7.V.j.d.7.p.G.d.d.A.<.( j.j.c.G.Y.A.Y././..X.X!.!..XY.V.r.j.V.G.j.p.V.!.A.2.+.<.V.j.z R A.;X.XY.V.A.d.p.G.j.3.p.r.r.<.r.<.<...<.j.j.j.V.!.!.&X#X`..X!.G.#X/.!.!.p.G.#X!.j.! } j.3.} *.*.r.j.! } r.!.&X!.!.#X.X.X!.c.d.V.Y.j.G.!.!.!.Y.!.A.*.3.<...*.+.3.Y.Y.A.A.!.Y.c.d.j.c.j.j.",
"j.} +.!.!.`.!.Y.A.A.A.<.} j.G.j.7.*.<.r.d.V.c.j.V.c.p.A.G.V.j.c.!.A.j.j.j.d.d.j.A.c.d.c.A.V.V.Y.Y.A.A.Y.!.Y.A.A.!.A.R N 7.j.d.j.!.V.j.!.!.V.V.V.G.Y.Y.j.7.<.j.A.!.G.A.V.j.j.Y.!.A.j.j.B.V.j.V.c.c.A.G.c.V.V.d.p.d.j.c.A.!.Y.j.j.j.p.j.d.j.c.d.p.3.N.V.j.j.G.!.A.!.G.V.A.G.!.`..X!.!.!.`.#X/.!..X.Xj...*.7.p.j.p.3.h v j.`.`.G.!.`.j.<.3.j.!.!.Y.G.j.!.`.!./.!.!.&X!.j.c.A.Y.`.!...! *.<.R <.j.j.j.j.*.} 3.7.<.3.V.c.3.<.3.j.A.!.!.<.<.j.r.c.Y.7.j.Y.G.V.j.j.j.j.A.V.j.j.7.p.r.j.A.!./././.c.p.( c.A.j.j.G.V.c.c.!.!.r.j.j.p.7.p.c.V.<...3.j.V.c.3.V.3...<.d.<.<.7.d.r.3.j.V.A.Y.c.j.c.d.r.*.<.3.d.c.j.j.G.j.7.7.p.j.c.j.r.<.<...r.<.<.3.d.j.d.r.j.j.*.( <.+.! 3.<.3.7.<.j./..X&Xd.! <.c.Y.G.j.V.V.j.<.+.<.+.*.! ( j.c.r.d.c.j.d.G.!.`.!.A.A.Y.G.!.Y.d.7.j.c.c.A.Y.!.A.A.j.j.Y.V.j.V.!.A.G.c.!.!.!.!.V.j.j.j.j.j.d.r.j.j.G./.!.V.c.A.j.d.j.c.j.V.V.c.p.A.G.G./.j.+.d.j.<.+.<.3.r.<.+.<.<.3.d.j.j.3.R ! ! ! r.A.j.r.c.!.V.V.Y.c.p.r.c.!.G.r.j.j.!./.V.c.G.!.A.j.Y..XG.V.!.;X5X.X`.&X/.!.!.Y.j.j.j.r.<.<.p.c.V.V.c.j.r.d.7.A./.V.j.j.3.p.j.j.c.j.!.!.j.V.c.j.p.j.G.j.7.7.! N } 3.<.} <.<.! N ! <.<.<.+...7.V.A.Y..XA.G.c.7.<.j.G.V./.c.p.c.A.!.j.p.A.Y.A.G.V.Y.j.r.<...( ..( p.V.j.j.p.j.3.r.c.d.c.j.d.A.`.!.Y.!.#X/.`..X`.`.!.j.j.G.G.!.`.A.<.<.j.p.+.....j.p.7 ; ! .X`.!.V.j.<.+.d.r.<.r.<.r.j.j.c.<.( <.V.j.r.j.j.V.#X#X!.!.!.!.G.G.!.j.D ! p.j.j.U ..V.3.! ..3.j.c.( ..3.I.`.Y.G.`.!.A.!.Y.c.V.!.V.A.Y.!.Y.c.c.c.p.d.r.*.+.<.r.G.V.V.A.Y.!.A.d.j.j.<.! ",
"j.<.<.A.G.!.!.!.!.j.j.d.7.p.d.d.r.7.j.V.r.7.d.j.p.j.7.c.A.G.V.G.V.j.d.c.A.c.j.p.j.j.c.V.c.j.c.!.!.G.G.!.`.`.!.G././.<.( d.j.j.V./.Y.G.!.Y.j.j.c.V.A.G.c.p.p.c.Y.!.G.V.c.c.c.A.Y.j.j.p.d.j.j.A.j.j.V.V.c.c.j.j.j.j.j.j.V.!.Y.j.j.j.p.d.p.j.A.V.j.j.!.!.c.j.Y.!.!.Y.G.G.Y.!.`..X`./.!.Y.!..X!.!.`.`..XY.A.A.V.Y.!.!.} ( G..X`.!.!.j.d.j.V.c.c.A.!.G.G.!.!.!.!.Y.#X,X!.p.d.V.!./.j.J ( r.d.( +.<.r.j.p.*.*.7.j.V.j.G.!.!.V.j.A.!.;X&Xc.A.!.G.!.`.V.j.!././.!.Y.c.r.V.Y.G.G.j.V.c.V.c.V.Y.!.!.p.r.*.<.7.7.j.!.!.G.A.!..Xj.d.p.d.3.3.j.p.<.<.d.j.j.V.p.V.p.....r.<.<.p.c.p.<.p.Y.!.`.j.p.7.7.r.<.<.<.d.c.j.j.c.p.<.r.r.c.A.c.j.j.j.3.<.7.d.d.d.p.7.<.A.d.*.*.7.<.! R 3.7.7.r.j.Y.!.`.V.! <.j.j.j.p.d.p.d.j.3.<.( ..} +.V.Y.c.A.j.p.j.G.V.G.!.!.!.!.c.G.!.G.j.d.3.p.c.V.G.V.G.V.c.!.G.j.Y.`.G.V.c.~.!.V.Y.V.j.j.j.j.V.d.p.j.c.A.Y.c.c.A.A.j.j.j.j.j.V.c.c.d.V.G.A.Y.r.+.d.p.3.7.<.<.<.<.<.7.3.3.j.j.j.j.+.+.<.<.j.!.G.r.j.Y.V.c.G.j.p.p.j.j.r.<.j.c.Y.c.j.p.j.A.V.V.!.!.j.d.c.#X;X/./..X.X!.G.A.d.7.A.G.p.7.j.A.G.!.`.Y.j.A.c.!./.j.d.p.<.p.j.p.p.j././.G.Y.V.V.V.!.G.!.d.R y y J <.3.7.3.+.R N D +...<.r.r.p.j.A.!.#XG.G.V.7.*.3.j.j.j.7.p.!.!.`.j.r.V.!.!.!.!.!.j.7.<.} } <.! <.A.Y.V.j.d.3.d.j.*.<.p.j.Y.`.`./.`./.`./..X/.!.c.r.j.!.j.j.!.Y.j.j.<.( *.7.r.V.G.N h <.!.Y.A.d.<.*...j.r.*.<.<.j.V.d.j.3.} +.r.7.<.r.+.d..X#X!.!.G.c.<.<.3.7.} <.7.r.<.} r.j.*.( ..*.j.d...*.<.j.Y.G.A.!.V.<.!.!.c.j.!.c.A.!.!.Y.j.j.j.A.V.j.r.<.3.d.!.A.c.V.V.j.d.p.*.<.+...",
"d.c.j.V.c.Y.G.Y.j.<.r.j.c.j.p.c.j.p.V.!.c.r.p.s.r.c.d.c.c.Y.Y.!.G.j.d.c.A.V.j.c.j.j.V.G.c.d.j.V.G.G.Y.!.#X#X!.A./.&X!.G.Y.G.!.!.!.Y.Y.Y.A.j.j.Y.c.c.V.j.p.p.j.j.G.A.c.j.A.Y.A.j.A.V.d.d.j.j.V.j.j.A.A.V.V.j.c.Y.A.c.j.j.G.Y.c.j.j.d.V.V.V.!.A.j.!./.`.!.A.!././.Y.Y.Y.!.!./.!.!..X#XY.G.`.!.V.!.`.#Xj.7.j.!..X&X,X!.c.Y.G.A.!.j.! <.V.!.c.7.d.!.Y././.Y.!.!.!.;X&XV.<.<.d.A.c.*.<.d.c.Y.V.V.j.d.c.j.r.r.j.A.G.j.c.Y.Y.c.V.A.Y.!.!.G.Y.!.Y.!./.!.j.G.!.Y.A.A.A.V.Y.Y.j.j.d.V.c.c.j.d.j.j.j.*.r.j.*.<.3.j.!.!.Y.!.Y./.A.V.d.d.3.<.r.<.<.j.G.c.j.A.j.V.j.p.3.j.<.( 7.G.A.r.j./..X!.c.j.p.j.j.j.d.d.j.j.j.c.G.j.r.d.V.Y.G.Y.Y.Y.A.r.<.p.c.A.A.V.j.r.j.7.<.7.j.j.7.+...*.<.d.V.j.d.d.r.! +.7.r.j.p.r.p.<.r.<.<.+.*.( ..j.A.j.G.V.j.V.G.d.d.V.A.G.V.r.j.!.!.!.j.<.7.j.G.A.c.!.A.j.Y.G.c.!.!.j.p.j.!.Y.A.!.!.c.j.d.d.j.j.j.V.c.j.j.j.V.G.V.j.r.r.p.j.V.j.j.j.c.V.j.j.+...j.r.r.j.3.*.7.*.<.p.j.j.A.j.d.7.*.<.7.<.p.A.j.j.A./.!.A.j.3.<.r.j.c.j.7.c.d.r.j.j.p.j.V.A.G.!.A.p.3.p.G.!.A.!.!..X!.!.`.Y.c.!.c.j.j.!.`.!.!./.!.G.!.!.!./.c.j.j.p.j.j.3.7.j.!./.!.!.V.c.j.G.V.A.j.! h N } +.3.d.+.! ..( ( <.+.<.d.d.j.V.V.G.#X!.j.d.r.<.*.3.p.} ..3.V.A.Y.j.A.c.!.`.#X/..XA.j.p.<.3.c.+.+.c.!.Y.G.G.j.V.V.<.*.!.!.!.!..X#X/.!.`.!./.!.!.c.j.!./.!.Y.!.A.V.c.<.U R ! p.G.A.r.j.!.G.j.p.*.7.3.*.j.7.+.7.d.Y.!.p.r.j.3.+.*.*.+.<...j.A.7.p.!.!.V.} ..*.c.!.!.V.Y.j.j.j.} U ..<.<.j.j.*...+.j.V.j.V.`.A...!..XA.A.A.j.A.!.!.G.d.j.j.G.c.j.V.j.p.p.Y.V.j.A.!.j.<.7.+.<.+.+.",
"<.A.V.j.j.!.G.c.<.<.j.V.A.V.j.c.p.7.j.!.G.p.p.p.j.Y.j.j.j.Y.!.!.Y.A.A.Y.G.j.c.Y.j.d.j.G.G.c.j.j.c.A.Y.!..X`.!.c.G.!.`.`.!.Y././.Y.G.!.!.!.A.j.c.j.p.j.j.p.p.j.d.c.c.j.j.Y.!.A.j.!.A.p.j.j.3.r.j.j.V.c.V.V.j.j.G.G.A.j.j.c.V.j.j.c.c.Y.G.V.Y.V.j.V.A.!.!.G.Y.!.!.!.!.A.A.!.Y.G.G.#X.X!.G./.Y.c.Y.j.A.p.p.!.#X#X/.!.!.G.j.3.p.V.<.( 3.V.!.G.d.j.G.<.d.V.j.j.Y..X.XG.j.<.<.p.c.j.*.j.Y.j.V.G.G.j.j././.A.p.p.r.<.<.<.3.3.<.p.d.j.j.G.!.Y.c.V.!.!.!.G.Y./.G.V.c.Y./.!.V.j.j.j.j.d.j.j.c.c.j.p.! *.d.7.7.j.c.A.A.A.!./.!.!.!.V.j.d.d.r.<.p.Y.!.V.j.V.!.V.p.d.r.j.3.! 3.G.!.j.j.!./.V.7.r.r.d.r.r.7.7.j.j.j.A.`.!.j.j.Y.!.c.A.G.j.p.*.3.r.j.G./..X!.j.7.r.<.+.7.<...} <.<.*.<.p.<.<.<.! ! +.<.7.d.7.3.d.*.<.<.<.7.d.7.<.G.Y.j.G.!.Y.Y.Y.r.3.p.d.j.j.2.r.j.j.G.A.d.c.V.!.!.V.!.c.7.c.V.j.!.Y.j.j.j.Y.j.Y./.`.!.V.c.V.c.V.A.G.j.d.p.7.j.j.j.d.d.j.d.d.d.d.j.j.A.A.j.d.<.7.Y.c.V.G.7.<.j.<.*.<.7.d.V.j.3.3.<.j.V.p.p.c.p.j.j.G.A.j.<...+...p.c.Y.A.!.c.j.d.j.p.j.A.G.Y.A.c.r.3.7.j.c.j.A.c.A.c.!.;X#XA.A.d.j.G..X;X`.!.!.Y.!.#X`.Y.!.V.V.A.j.V.c.r.d.V.V.!.!.!.Y.A.r.j.A.A.!.7.! <.<.*.r.r.*.<.j.r...*.+.r.p.r.j.Y.j.p.Y.Y.p.r.c.c.r.7.p.<.<.*.r.j.G.j.!.j.!.!.#X!.!.G.j.3.<.3.A.7.<.j.Y.Y.!.!.c.j.j.r.p.!./././.`.!.!.!.!.G.G.A.A.c.j.Y.V./.!.A.A.c.r.+.} +...G./.G.d.3.Y.a.r.d.<.V.c...+.<.+.j.G./.Y.d.j.G.j.<.<.<.<.7.j.!.p.v N p.A.j.<.p.r.!..XY.j.!.&X#XG.} ( p.p.j.V.A.p.*.<.!.A.<.j.`.!.<.V.`.Y.!.!.G.!.!.!.Y.j.c.c.A.j.c./.!.c.d.Y.A.j.L..XV.<.<.7.p.<.+.",
"<.j.j.j.j.`.Y.j.V.Y.!.G.c.j.p.j.d.j.c.!.A.r.r.7.j.!.j.p.d.Y.!.!.Y.A.Y.!.!.j.j.G.V.p.d.A.G.c.j.d.j.A.!.!././.!.A.Y.!.!.!.V.c.!.!.!.!./.!.`./.j.j.r.7.j.Y.V.c.Y.Y.G.V.j.c.Y.Y.V.c.A.c.p.j.j.<.<.p.j.c.j.V.V.d.j.A.j.G.G.j.j.j.j.j.Y.Y.!.V.j.G.Y.Y.j.j.!.!.Y.!.!.!./.!.V.V.Y.G.V.G.Y.V.A.Y.!.Y.V.j.j.G.c.A./.`.`./.!.Y.!.V.j.V./.j.r.A.G.!./.G.c.p.( d.Y.G.c.!..X!.V.j.r.p.V.G.j.<.j.A.p.j.j.c.V.G.V.j.j.3.<.1.<.r.<.<.<.+.d.j.G.G.!..XG.r.j./..X!.Y.G..X`..X!.G.Y.!.!.Y.G.V.c.j.j.d.V.c.d.j.+.*.7.j.V.!.G.V.A.A.!.!.!.G.!.V.V.j.j.j.d.Z.!.Y.V.j.c.!.!.d.p.r.j.p...r.c.Y.j.p.A.Y.d.d.j.j.j.p.j.j.d.G.!.c.j.Y.!.V.j.j.A.j.A.!.d.r.<.3.<.<.p.G.!.A.d.3.7.+...r.p.<.<.j.j.<.*.<.<.<.<.( *.<.<.r.<.( ..r.*.<.<.d.j.A.Y.A.!.!.G.!./.!.G.!.j.d.d.p.V.Y.j.p.7.<.j.A.c.!.!./.!.A.V.p.<.c.G.j.Y.A.G.`.A.Y.c.G.!./.!.A.Y.!.Y.!.!.Y.j.p.7.<.7.r.d.j.V.A.V.p.<.r.d.j.V.A.j.j.j.d.G.j.c.c.r.j.c.j.3.<.<.3.j.d.r.p.7.j.G.d.<.j.p.j.j.V.c.j.p.3.r.<.j.A./.!.!.j.p.7.d.3.p.G.!.!.V.j.p.7.r.j.j.d.c.d.3.<.j.!.!.j.d.c.A.G.!.`.`.!.!.Y.!.&X.XA.!.c.V.A.j.V.!.C.V.Y.V.Y.!.!.A.!.j.V.V.!.#XG.p.p.7.3.p.3.7.c./.j.<.7.<.3.7.3.j.V.7.<.j.V.7.7.V.!.G.j.p.j.j.<.3.j.A.r.j.G.!.G.`.c.d.j.<...<.+.j.j.j.V.G.G.c.j.p.3.7.3.3.V.!..X#X!.A.G.Y.V.j.r.7.d.p.*.+.<.j.c.A.!.Y.j.3.<.3.<.c.Y.`.Y.j.r.<.7.A.d.G.Y.! *.j.<.j.!.Y.j.p.d.j.3.<.7.p.r.j.j.c.r.U ! j.G.c.j.c.<.G..XY.A.G.#X.X#Xc.j.V.r.7.3.p.d.7.r.!.c.<.r.Y.!.r.3.!.!.!.!.A.A.G.!.!.A.!.j.c.c.G.`.`.G.A./.Y.c.V.Y.c.7.<.7.j.j.j.",
"j.j.j.c.j.`.!.j.j.Y.`.!.V.p.<.3.V.G.A.!.!.c.j.r.V.G.r.3.r.A.!.Y.!.V.V.Y.Y.j.j.V.G.j.j.A.c.p.7.3.j.A.!.!.!././.!.!.!.G.c.p.r.V.Y.Y.!.!.V.G.!.j.c.j.d.G./.A.j.A.Y.!.G.j.V.Y.c.j.V.j.c.j.j.j.d.p.d.j.c.j.G.Y.j.c.G.7.A.!.c.d.p.d.j.V.A.G.j.d.V.A.!.d.j.!.!.G.!./.!.!.Y.c.A.!.!.G.!.d.<.j.!.G.Y.Y.j.A.A.j.V.G.A./.;X!.G.!.!.G.G./.c.j./.!.!..X!.j.! N p.Y.Y./.`./.#X!.Y.j.j.!.!.7.} *.3.*.r.p.A.!.!.C N r.V.p.j.j.d.7.<.+.+.c.!./.!.!./.j.*.7.`.;X!.V.7.d.j.Y.A.j.j.G.!.!.j.p.j.V.c.p.V.p.<.j.3.7.d.d.c.!.V.j.c.j.j.V.!.Y.Y.G.!.d.3.j.c.!.A.c.V.j.j.!.;XG.c.j.j.j.3.r.j.A.c.r.j.j.3.d.j.r.7.3.j.d.r.j.`./.c.c.V.j.r.r.c.d.G.!.3.<.7.r.<.*.<.d.j.j.r.3.*.( +.d.V.d.<.r.A.j.7.3.<.+.R ( 3.7.3.j.<.! <.<.} } ..c.!.G.!.!.!.!.!.`.!.G.V.!.j.j.d.7.V.!.G.A.d...7.j.j.!.`.!.!.V.j.<.3.Y.!.Y.!.c.!.,X!.!.!.c.c.Y.G.j.A.!.A.!.!.G.d.p.p.<.<.j.j.V.A.Y.G.j.<.<.<.7.j.j.j.j.V.V.A.j.j.j.j.Y.j.r.<.7.3.<.3.p.j.!.c.c.!.z.3.j.c.<.<.j.j.j.j.3.3.3.j.c./.!.Y.d.3.<.r.<.p.!.&X&X!.G.j.j.c.G.Y.V.!.V.3.<.r.j.j.j.j.G.Y.V.j.G.!.G.A.A.Y..X/.c.!.V.A.c.p.V.`.!.Y./.Y.c.!.A.j.!.!.Y.j.!.#X.X!.A.j.d.7...+.r.A.c.c.c.<.<.d.p.7.7.+.( 7.V.3.*.3.j.!.G.d.7.c.j.d.d.d...7.c.V.h./.j.j.Y.7...7.+.j.Y.!.Y.G.A.7.7.j.V.Y.c.d.!.!.&X#XG.A.A.j.j.3.+...3.<.U v ..*.r.A.Y.Y.!.G.c.7.3.V.Y.!.j.r.<.<.*.c.<.<.j.J r.!.7.d.!.Y.c.A.c.7.} +.d.p.7.d.c.r.p.r.r.j.j.j.d.c.<.V.G.c.!.!.G.A.`.A.r.r.<.<.} +.7.r.<.d.<.*.p.c.Y.p.} !.`.!.`.A.j.j.c.c.j.A.3.d.A.G.Y.!.A.!.Y.c.d.7.r.c.Y.Y.!.G.j.j.",
"Y.p.j.j.j.!.Y.c.j.j.`.`.c.3.<.j.!.j.c.V.G.Y.j.d.G.j.7.<.r.V.G.V.G.G.!.A.A.G.c.c.j.V.j.V.V.j.j.3.j.j.A.G.!.!.!.!.!.G.V.A.c.j.c.G.!.!.c.j.A.G.A.G.j.7.j.`.`.!.!.G.V.d.p.j.V.G.G.V.j.j.j.j.j.j.d.r.p.G.Y.j.G.j.V.!.j.G.Y.j.j.!.c.d.j.!.Y.j.G.Y.j.c.d.V.!.A.V.Y.!..X.X!.Y.A.Y.!.!.!.c.7.c./.!.Y.!.j.d.j.c.j.V.!.&X;X&X`.j.c.!.!./.!.`.!.!.A.#Xc.*.! n ! j.!././.!.;X.X.X!.Y.!.!.V.r.<.A.<.! 7.A.A.A.3.p.G.!.G.`.G.V.c.j.V.A.G.!.`.!.V.V.j.3.<.V.`.!.7.+..._ } <.d.!.`.r.} p.m.Y.!.j.j.V.Y.A.V.c.j.7.7.j.j.j.c.j.r.p.V.!.!.A.Y.!.j.d.p.c.!.!.V.V.!.d.j.!.G.j.7.j.3.3.<.<.j.V.j.j.d.<.r.<.<.*.3.c.j.<.j.V.!.Y.A.c.3.3.j.c.j.Y.!.7.*.3.<.<.<.<.3.j.*.*.<.*.<.<.<.<.+.7.r.p.<.+.3.<.! U } ..<.j.d.<.<.*.<.+.} 7.Y.!.Y.!.c.!.V.A.!.!.V.j./.!.c.p.r.j.!.!.!.j.+.( 3.!..X`./.!.j.<.3.<.p.!.!.!.c.G.!.!./.A.p.r.!.!.Y.A.j.V.!.Y.V.j.j.p.<.*.p.c.V.A.!.n.p.r.3.7.j.c.d.j.Y.!.!.A.j.j.p.j.V.3.<.<.j.j.j.<.<.p.c.j.c.!.j.r.!.G.r.<.j.j.j.j.p.d.7.r.V.A.j.A.c.r.7.7.r.j.!.`.`.!.!.!.j.Y..X!.Y.!.!.<.*.V.c.p.j.j.G.!.j.r.d.c.V.A.j.Y./.V.G.!.d.j.j.d.A.&X/.V.G.G.!./.j.d.Y./.!.j.Y././.!.G.j.A.V.3.<.<.j.7.p.j.<.r.c.d.j.d.<.3.<.3.*.! ! <.j.d.*.<.A.j.<.<.<.7.p.j.<.<.A.G.V.!.!.j.p.} <.r.j.j.G.A.r.d.d.A.c.p.d.A.V.&XV.*.<...+.*.<.<.+.*.<.*.( <.! *.V.G.Y.!./.Y.j.Y.G.j.V.7...<.*.<.7.} p.j.i N /.Y.<.d.V.G.d.d.<.} ..3.r.7.r.c.j.j.+...<.<.d.j.r.<.p.+.7.G.Y.j.p.3.! ! <.} ( ! ..7.V.j.j.<.3.j.j.!.!.<.p.Y.!.Y.!.j.d.G.A.j.<.( d./.d.p.!.A.Y.j.3.+.<.p.A.d..X!.A.<.r.",
"!.j.j.j.c.!.Y.V.d.j..X&XG.p.7.j.V.c.G.j.3.p.p.d.A.j.r.<.<.j.c.r.V.Y./.!.A.G.V.V.j.c.j.V.A.V.c.7.r.j.A.G.Y.!.!.!.c.c.V.Y.G.j.j.c.!.G.j.j.A.!.!./.j.3.d.G.G.G.!.!.j.j.j.j.j.j.A.G.c.j.d.j.c.j.d.d.j.Y.!.j.A.c.A.!.j.j.V.j.j.A.c.j.V.!.G.p.A.`.Y.Y.d.A.!.j.j.G.!.`.#X/.!.G.G.!.!.!.!.j.V./.Y.c.V.A.j.j.c.G.!.`..X`.`.!.r.j.!.!..X!.`.;XV.+.p.d.r.r.*.<.p.j.c.G.!.;X!.`.#X.X`.`.!.j.r.!.d.<.d.A.G.A.G.!.!.!.V.`./.!.!./.#X#X`..X&X#XV.Y./.A.7.7.c./.V.r.<.<.3.d.c./.Y.3.} 3.d.j.G.j.c.!.!.c.p.p.j.j.p.j.j.c.V.V.c.V.!.!.G.A.A.V.c.j.p.V.Y.A.j.A.!.j.7.j.r.r.r.j.1.*.<.<.7.j.A./.!.r.<.3.7.<.<.j.j.r.7.c./.!.Y.c.r.d.j.A.j.j.j.<.<.7.<.<.7.<.<.p.<.p.c.j.j.r.d.j.p.j.j.j.<.<.r.<.} <.! *.7.d.d.j.c.p.<.p.j.V.!.!.A.j.r.A.c.V.G.j.r.7.!./.!.c.d.p.A.Y.!.c.3.*.7.G.`.`.!.!.j.d.j.d.j./.Y.V.p.c.G.c.Y.A.j.j.V.<...<.<.7.c.A.V.j.j.j.j.r.7.j.r.p.G.c.<.<.p.p.d.r.<.p.V.!.V.V.j.d.7.d.j.<.r.p.G.c.V.d.3.<.3.p.j.!.c.d.Y.c.<.<.j.p.j.j.j.V.7.3.7.d.d.V.A.p.7.r.j.V.G.G.V.c.!.!.c.G.!.G.V.V.A.p.p.Y.V.r.j.A.V.W.!.G.V.A.V.A.j.j.Y.V.A.A.3.3.j.j.A..X!.j.c.j.j.A.j.p.j.Y.!.c.j.!././.A.d.V.Y.V.d.3.j.p.c.d.+.<.c.d.d.j.j.A.j.7.<.<.*.*.+.+...p.c.d.<.3.j.j.7.3.<.r.Y.A.j.Y.Y.V.p.( +.+.3.j.!.!.d.j.j.c.<.<.j.j.j.!.<.J ....+.3.7.7.<.*.<.<.*.<.*.p.A.A.A.!./.!.Y.&X`.V.j.d.j.V.r.p.j.<.<.<.k ( !.!.3...<.d.7.7.r.<.<.7.<.*.<.A.V.j.( ( <.<.p.d.y.7.j.d.A.G.r.! *.( N ! 3.} +.( *.7.j.p.r.<.j.G.c.&X!.N ! j.`.!.`.A.A.`.`.!.j.<.d.V.<.<.j.p.p.r...! <.V.!.7.7.!.Y.r.p.",
"!.V.j.d.c.Y.G.A.j.A..X#XG.r.<.j.Y.`.#Xj.*.7.j.j.Y.V.r.*.*.j.A.j.p.c.!.A.j.V.V.A.j.c.j.j.V.Y.G.j.3.j.A.G.A.Y.!.!.j.j.V.Y.G.j.d.d.Y.A.j.j.V.Y.!.!.Y.j.j.V.j.j.A.Y.V.Y.!.Y.j.j.V.G.c.j.7.d.G.Y.V.V.A.V.!.j.c.A.V.c.d.r.j.c.j.c.A.V.Y.!.V.<.j.`.!.Y.j.Y.!.j.j.!.!.`.#X`./.Y.G.!.!.!..XA.V.!.A.r.r.c.c.A.A.A.!.`.!.V././.j.G.A.j./.!.!.#X<.N ! p.r.d.G.j.j.g.c.Y.!.`.Y.!.`..X!.!.G.d.*.c.c.j.V.!.!.Y.j.!.G.!.!..X.X/.!.`..X#X#X`./.`.A.Y..X!.p.<.7./.j.r.r.j.G.!.!.#X.XG.d.d.r.p.j.d.d.c.A.j.3.r.c.Y.V.c.A.A.j.j.V.Y.`.G.d.j.p.7.j.p.7.V.c.d.r.j.V.d.<.3.<.<.<.7.<.*.<.7.r.p.c./.!.7.*.3.j.j.3.<.3.<.p.c.Y.Y.!.A.d.j.!./.V.p.<.<.3.3.<.<.3.<.*.7.<.j.!.`.A.3.d.c.p.7.c.j.r.<.3.*.! 7.+.j.V.j.d.c.V.7.3.j.c.p.3.d.j.3.<.j.V.V.V.3.*.<.7.Y.`.Y.7.*.j.!.A.V.j.r.d.G.!./.!.Y.c.j.j.r.d.!.A.d.<.c.V.7.j.V.G.A.V.( N U ! +.<.j.V.j.j.G.G.j.d.j.<.3.A.j.<.<.j.j.d.3.3.r.j.A.c.Y.A.j.3.p.j.3.r.j./.G.A.j.p.<.<.p.j.V.j.d.V.j.<.<.d.p.j.j.j.d.c.j.p.d.p.j.G.j.r.j.A.!.Y.j.j.c.A.Y.j.c.!.G.V.c.j.A.V.Y.V.7.d.Y.c.c.!.Y.Y.!.c.j.j.p.j.j.j.d.+.+.j.j.A.!.A.j.A.V.d.j.c.p.3.V.!.c.j.G.!.Y.p.*.7.V.!.c.7.j.p.G.G.<.<.c.p.<.p.A.!.c.d.d.j.j.3.+.+.3.j.d.p.j.d.c.Y.d.p.p.j.V.j.r.c.V.A.j.<.7.*.*.p.G.A.j.j.G.A.<.<.d.d.j.Y.+.J <.d.j.V.V.j.p.<.*.*.+.} <.j.V.G.!.!.`.`.!.#X.X!.Y.c.Y.!.p.d.A.d.<.<.<.A..X#Xj.} ..<.<.7.d.3.*.*...} <.2.r.d.+.<.j.j.j.d.j.d.V.A.!.j.! C *...J 7.j...*.} <.<.3.3.<.<.Y.`.!.5X7.r D j.!.Y./.Y.Y./.!.Y.V.d.j.d.*.<.d.7.<.<.<.<.j.Y./.j.r.V.!.Y.!.",
"!.G.p.7.j.G.A.G.G.Y.!.!.A.p.3.j.Y..X`.j.3.V.!.c.!.Y.j.p.j.!.`.&Xd.j.G.j.7.j.c.c.d.c.j.r.j.A.G.V.7.j.A.G.G.Y.!.!.A.A.G.Y.G.j.j.j.!.A.j.j.j.V.V.A.V.p.p.j.j.c.G.Y.c.!.#X/.V.j.V.A.j.j.7.7.A.!.Y.!.A.j.V.r.j.Y.j.r.j.p.A.Y.j.V.!.A.!./.c.<.p.Y.V.j.j.Y.!.G.Y.!.!./.`./.!.G.!..X/.!./.G.V.Y.G.r.<.j.j.Y.G.j.c.!.!.V..X;X.X#Xc.<.!./.!.`.<.! *.c.d.d.Y.c.c.V.G.!././.!.G.Y.!.A.V.j.<.! 3.j.c.A.!./.G.<.j.d.!.&X&X.X^.`.`./.`.;X#X!.!.!.G.A.d.p.d.p.!.j.p.d.V.!.!.!.`.!.G.j.p.<.7.d.r.j.V.G.c.d.d.j.j.d.j.V.c.7.p.!.#X`.d.3.j.j.j.G.c.r.c.c.p.p.d.p.r.<.7.<.<.<.*.<.p.+.r.d.3.3.V.Y.p.c.c.c.j.3.*.3.3.j.A.V.j.V.j.d.c.#X#XY.d.<.<.3.<.3.<.*.<.<.7.*.<.G./.j.+.*.<.( ( 7.7.7.<.<.+.J <.<.d.j.j.j.V.V.d.j.c.j.<.} 7.z.r.r.A.G.!.Y.7.*.<.*.c.!.A.3...p.Y.j.V.c.j.c.Y.!.!.A.V.j.j.r.<.7.G.V.d.7.V.j.*.<.j.G.A.G.<.J C ! <.<.j.j.d.d.c.c.d.V.j.7.7.c.j.<.3.j.c.j.j.j.d.r.c.j.G.c.r.*.3.j.<.*.p.!.G.G.A.c.p.<.r.j.j.j.7.p.p.<.7.j.j.A.c.p.*.c.G.j.j.3.<.c.j.<.r.j.V.V.j.j.Y.G.!.c.j.G.!.G.G.d.V.j.c.V.j.j.!.c.j.V.c.V.Y.j.7.j.3.d.j.d.7.<.<.j.j.c.A.j.j.!.Y.A.j.A.j.r.j.c.j.V.!.!.V.<.! ..d.!.j.<.3.*.7.j.7.<.c.d.<.<.j.!.c.A.V.c.V.j.7.7.d.j.d.j.A.j.j.V.j.d.d.r.7.<.<.c.G.!.V.j.Y.d.<.7.j.d.d.j.j.c.3.7.} <.d.G.3...j.G.Y.p.r.p.p.3.*.( ! ( <.p.j.Y./././..X!.!.`.#X!.j.V.Y.j.j.j.p.<.<.A.,X#X;X!.7.<.+.} <.7.r.<.+.! ! ( ..<.p.<.<.j.r.7.j.V.G.`.#X#X!.d.<.7.<.} p.d.} ..<.7.<.3.j.d.d.`.!.#X5X( r d.`.Y.A.!.!.G.Y.A.j.j.j.c.j.p.j.c.j.7.<.<.7.j.Y.!.Y.A.j.!.!.G.",
"!.Y.j.j.A.G.c.c.!.Y.Y.!.Y.c.c.A.!.!.c.7.p.Y.A.*.d.c.j.Y./.#X!.;X!.!.!.d.<.d.j.j.7.j.j.3.r.j.c.V.d.j.V.A.Y.!.!.Y.!.!.!.!.Y.G.G.Y.!.G.V.j.j.c.V.V.j.3.<.r.j.c.V.A.r.V.!.G.V.j.c.V.c.V.j.7.j.G.Y.!.c.r.j.3.j.G.c.j.c.j.Y.!.j.V.!.V.!.!.V.p.j.A.d.j.j.A.G.!.!.Y.!./.`.!.!.G.!.;X`.!.!.!.A.A.!.c.r.d.p.V.V.j.j.G.!..X/.&X.X.Xj.<.!.#X`.!.j.c.j.c.j.j.j.d.p.d.j.A.`.`.#XY.Y.!.A.V.V.r.<.3.d.j.j.!.!.Y.j.c.3.!.;X#X#X.X.X#X/./.;X#X!.!.!.!.j.*.3.c.V.G.V.c.j.j.j.j.V.G.V.j.j.r.<.r.p.7.V.Y.!.G.j.j.j.j.<.3.d.p.<.r.Y..X!.<.<.j.j.V.V.c.j.j.j.j.j.p.<.p.<.r.r.r.3.*.p.A.<.j.r.<.*.p.V.r.j.r.3.d.p.r.j.j.p.c.c.d.3.<.7.j.!.!.j.p.3.<.3.3.j.r.<.r.7.j.<...j.!.c.<.+.} ! +.<.3.3.<.*.<.N C <.<.3.7.p.j.j.j.A.A.V.r.+.3.j.j.G.!.!.`.!.d.<.<.d.c.j.d.p.7.d.c.c.A.j.d.j.G.Y.Y.j.p.7.p.p.3.r.A.G.c.j.c.p.| <.d.c.j.A.j.<.+.<.j.j.c.j.j.j.j.c.c.p.3.<.r.d.j.j.j.j.j.j.j.A.d.7.V.A.!.V.r.<.7.j.7.3.r.Y.A.A.A.V.j.<.<.p.V.j.7.<.3.3.j.c.d.V.j.p.<.<.p.<.7.<.*.j.r.<.<.7.j.V.c.A.`.`.`.G.j.G.!.G.G.j.c.d.j.Y.V.j.c.j.j.c.j.j.j.7.<.7.<.p.j.d.r.r.j.p.j.j.j.j.c.Y.G.!.A.!.A.j.p.7.j.!.!.!.A.d.*.+.p.c.r.+.3.*.<.j.j.r.j.j.p.7.j.!.!.!.Y.V.j.r.3.<.<.<.j.j.j.c.j.c.j.>.7.7.<.+.<.V.!.Y.j.<.p.<.} +.r.j.j.j.j.c.j.j.! N ( d.7.<.j.j.j.} ! ..<.3.<.+.R ( <.r.p.A.!.!.!.!./..X&X.Xj.<.d.c.j.j.r.7.3.3.Y.5X`.#X!.j.3.} } ..+.1.3.+...<.*.<.<.p.<.*.3.<.d.j.G.!.#X`.V.Y.`.d.*.( *.7.3.....<.7.<.d.!.V.j.!.!.!.!.( v .X;X!.G.!./.!.!.G.c.c.V.A.c.V.A.A.V.p.d.<.<.j.!.!.Y.r.j.!.!.V.",
"Y.!.V.G.!.Y.j.d.!.!.!./.G.c.Y.!.!.G.d.r.j.!.G.+.7.j.j./.`.!.j.!.;X/.Y.r.<.d.c.c.<.j.j.r.d.j.p.j.j.j.c.A.!.`.!.Y.Y.Y.Y.Y.G.G.G.!./.Y.A.V.c.G.!.!.Y.j.r.p.j.j.j.j.d.j.c.c.c.c.j.c.j.V.j.p.d.A.!.!.j.d.j.3.d.c.A.Y.A.c.A.V.p.j.!.c.j.j.j.j.V.V.j.V.V.G.G.!./.Y.!.#X#X!.!.Y.!..X!.A.G.!.V.j.A.A.j.j.j.c.j.c.A.A.!.;X.X.X!.!.A.j.!.&X.Xc.d.V.j.j.j.j.j.p.7.3.<.p.Y.Y./.Y.!./.Y.Y.!.!.V.j.j.d.j.Y./.`.!.A.3.Y..X.X&X;X`..X`././.!.G.V.!./.V.<.<.j.G.G.p.j.c.c.j.p.j.V.G.A.A.j.p.j.d.r.d.c.G.V.j.j.c.G.p.p.p.3.<.p.j.d.A.<.<.<.7.j.j.Y.!.Y.Y.Y.G.j.3.j.r.j.j.j.j.<.d.c.A.j.<.*.3.j.c.7.7.*.} p.j.j.c.j.3.r.r.3.+.+.3.<.<.r.<.<.7.3.r.j.c.c.j.c.p.j.3.*.p.G.j.<.<...*.r.<.*.} +.+.3.N f 7.<.<.*.<.3.7.j.A.G.G.j.*.+.p.A.!.c.j.!.A.r.3.<.j.j.3.3.d.d.j.V.!.!.j.3.d.V.A.G.p.<.<.3.d.p.r.r.Y.A.c.j.<.+.<.d.j.j.c.c.j.V.A.V.*.<.7.j.j.d.d.j.7.<.p.j.p.j.A.V.j.j.p.j.c.r.r.G.!.!.G.j.r.d.V.j.p.3.j.j.G.Y.!.A.r.+.r.V.c.j.p.j.7.j.j.<.7.<.r.p.<.<.+.<.p.d.j.r.<.7.r.d.Y.Y.!.#X#X#X!.V.!.!.V.A.V.j.d.A.!.c.j.p.p.p.7.r.j.d.<.*.3.r.j.j.j.p.j.V.j.V.V.G.G.A.Y.V.A.A.!.G.p.*.<.j.j.c.V.V.V.d.<.r.p.*.! 7.7.p.j.A.d.j.V.c.d.j.G./.Y.!.A.d.<.*.*.*.<.V.j.3.j.A.j.r.*.d.j.d.*.( 7.j.!.j.<.r.7.<.<.j.j.7.d.c.Y.V.j.+.c U 7.p.7.7.<.<.<.! ! ! ! ( ( U U <.p.r.j.A.Y.!.G.!.`.#X/.j.<.p.j.c.G.c.c.A.j.Y..X/.#X!.j.<...<.<.*.<.3.<.<.r.f.4.*.<.*.+.3.7.c.G.!././.j.R ..Y.j.<.+.<.3.<.+.+.<.<.7.V..XA.j.V.!...N R ! /.!.!.G.!././././.!.!.!.!.Y.!.Y.G.A.j.j.j.V.V.p.<.3.! *.V.!.G.",
"V.G.V.Y.!.A.c.p.Y.!.`.!.3.*.j.Y.G.c.p.j.A.!..XY.Y.Y.A..XY.G.j.Y.`.G.c.3.+.r.c.A.<.d.j.d.j.c.7.p.c.V.V.G.!./.!.A.V.V.A.V.V.V.A.A.!.Y.Y.Y.G.!.!.!.Y.V.j.j.c.c.c.V.n.G.A.A.G.V.j.c.j.j.j.c.j.A.!./.V.j.j.r.j.j.c.G.c.j.j.c.d.j.A.j.d.r.j.j.G.A.j.c.V.!.!.`..X!.`.&X#X/.!.!.Y.!.V.j.V.G.c.j.c.V.j.j.A.G.j.j.G.!.Y.!.&X`.!..X&X!.!.!.!.j.p.j.G.V.c.j.j.j.r.r.<.7.c.j.G.A.!.`./.!.!./.!.A.Y.A.G.!./.#X!.G.j.!.!.`.#X#X`.#X#X.X`.`.!.j.c.G.j.j.r.p.G.A.} 7.j.A.c.d.c.V.V.c.A.j.j.c.j.j.d.j.V.V.j.j.j.V.p.j.d.r.j.j.p.*.j.j.p.7.d.j.V..X!.!.`.#X`.Y.j.c.V.Y.V.V.A.7.j.j.G.j.+.<.j.j.Y.V.`.j.<.d.j.r.c.c.p.3.<.<.*.<.p.} R *...<.j.j.j.A.j.A.A.c.3.r.r.3.<.d.<...} } *.*.! ! R *...p.! v } *.<.( +.3.r.j.!.!.Y.j.<.+.7.A.V.<.<.c.d.3.d.r.j.j.r.7.d.p.c.!.!.!.j.3.d.c.V.G.j.p.3.3.y.r.3.<.V.j.d.r.3.<.3.d.p.j.V.G.G.!.Y.j.! ..p.A.c.d.p.j.j.c.G.V.d.j.j.j.d.j.j.j.j.p.p.c.j.G.c.d.7.r.c.V.<.<.j.j.c.!..X`.V.<.p.j.j.c.c.Y.7.j.7.*.3.<.j.j.d.<.#.3.V.Y.c.7.7.d.d.j.A.G.G.!..X.X/.Y.!.!.j.j.j.<.p.Y.j.7.j.d.p.j.*.3.V.j.3.+.r.j.j.r.p.d.j.c.!.!.!.!.!.!.!.V.j.c.A.c.<.( 3.j.<.<.3.7.j.j.<.3.j.<.! <.<.<.3.7.d.d.c.V.j.d.c.G.c.Y.!.j.<.*.<.7.c./.j.<.d.j.r.*.p.V.A.j.<.( +.<.d.p...7.d.3.<.d.r...7.j.!.G.j.<.R <.j.j.r.7.<.*.<.*...R N N D N N <.j.r.r.V.!.G.A.V.V.!.!.c.j.j.V.A.!.!.!.!.V.j.Y.!.#X!.d.<.<.3.r.d.d.j.p.*...3.<.;.<.+.+.r.r.d.!.!.G.V.3.c J A.G.`.p.! } +.} <.r.d.j.A.!.7.r.j.j.h q } 7.!.!.!.c.c.!.!.!.`.!.`.!.Y.!.!.!.!.G.j.7.V.!.r.N v } J ! j.j.j.",
"j.c.j.V.A.c.V.j.j.G./.A.! N r.G.V.c.j.j.j.c.`..X.X!.Y..Xd.j.j.j.!.V.c.7...3.j.V.r.d.j.d.V.A.r.p.I.G.Y.Y.!.!.G.j.G.G.A.V.c.V.A.G.!.Y.!./.!.!.Y.V.A.A.A.A.V.j.j.V.A.G.G.!.!.Y.c.V.A.d.c.!.V.c.!.!.!.A.d.p.Y.j.p.p.j.p.r.V.c.j.c.j.j.j.j.A.!.!.c.c.d.Y.!..X.X!.`./..X/./.!.A.V.j.j.c.G.G.V.V.V.c.c.A.Y.j.<.c.`.!.V.V.j.c.!.&X!.r.7.p.p.j.j.!.V.c.j.d.r.<.3.<.r.V.j.A.V.Y..X;X`.!.Y.Y.!.&X#X.X`.Y.!.`./.!./.Y.`.#X/.`./.`.`..X;X/.d.p.p.7.A.V.d.A.j.} 7.j.V.j.r.j.j.V.V.G.j.j.A.j.V.j.c.G.!.!.!.V.j.r.V.V.j.V.A.7.} d.`.!.A.A.7.7.j.7.p.Y././.!.j.j.Y./.!.G.G.r.A.A.G.j.<.g.j.7.A.!..Xc.<.j.j.7.V.G.j.p.r.7.*.7.j...D <.<.3.Y.G.c.G.7.c.c.d...<.7.3.j.j.<.....*.<.} ! } } r...7.*.U C *.r.....p.p.d.G.!.A.j.r.<.<.d.j.( +.j.p.r.Y.A.G.Y.j.j.c.j.V.!.A.!.c.p.j.V.c.A.G.V.j.d.7.r.p.d.j.3.<.7.p.r.7.r.7.j.!.`.!.A.j.<.U ..7.p.<.} ..<.r.j.A.c.j.V.A.c.<.j.V.A.V.j.d.p.p.c.c.j.r.3.j.G.7.r.Y.j.7.d.Y.!.V.*.p.p.7.j.j.j.<.r.<.<.V.V.!.Y.d.*.} <.c.!.j.<.j.A.c.j.A.G.G./.#X.X.X!./.G.<.<.V.3.j.Y.<.! <.3.j.!.r.d.G.d.7.<.7.j.7.*.7.j.c.G.#X.X!.!.!.Y.Y.A.M.j.j.j...} d.7.} ......r.j.<.<.V.d.+.<.*.<.r.p.p.p.c.A.j.j.c.A.g.G.!.G.p.<.<.p.!.!.j.7.d.p.r.7.j.c.d.r.3.<.<.<.*.<.( <.p.<.( 3.Y.<.p.j.!./.G.r.<.j.G.j.3.<.*.+...<.j.p.! R U N N 3.c.7.<.V.Y.j.A.j.j.V.c.j.j.c.V.j.V.!.!.Y.c.r.c.G..X!.7.*.<.<.p.j.p.7.p.+.} j.j.7.p.<.3.G.G.A.j.7.*.} R r h 7.*.&Xd.N ! *.! <.j.j.j.p.<.N R ..j.n h !.!.!.!.Y.j.j.A.A.Y.!.Y.!.V.j.G.!.!./.G.j.j.V.j.! h N d...*.V.c.G.",
"7.j.G.!.!.V.j.c.c.c..X!.<.7.A.G.V.c.j.j.j.j./.!.G.j.c.V.! } j.3.`.!.d.j.3.3.j.!.j.j.j.d.j.c.d.j.!..X/.!.!.V.d.7.j.G.A.A.Y.!.Y.G.!.!.!.Y.Y.!.Y.V.!.A.V.Y.!.A.c.V.V.A.G.!.!.!.A.j.c.j.A.V.p.j.!.G.c.A.V.p.3.d.j.r.p.j.G.c.c.!.G.p.Y.c.d.V..X!.j.j.j.V.`..X!.!.`.&X#X&X#X!.!.G.c.j.j.G.G.E.V.c.A.c.V.c.j.j.V.G.!.!.*.<.c.;XA.!.!.c.c./.!.j.G.!.j.7.7.r.<.7.3.d.j.V.j..X;X/..X#X/.#X.X/.`..X/.p.j.j.!.#X`..X!..X.X!./.!.!.!.G.#X/.c.p.p.3.A.c.p.r.V.j.d.<.j.d.<.j.c.!.A.3.j.!.!.A.<.<.p.j.!.!.A.!.I.d.j.j.j./.Y.} U p.!.!.A.G.j.3.j.*.d.`.`.A.c.j.j.A.A.j.A.G.c.G.!..X/.7.d.G.j.A.!.G.j.j.V.p.r.V.j.r.d.p.*.R } 3.3.d.c.j.c.!.G.G.!.r.<.<.<.r.j.g.7.j.c.3.} <.3.*.} ..*...<.3.} ..<.C ! V.} ! V.p.j.A.c.V.3.7.p.j.j.r.<.d.j.c.j.j.G.G.c.V.j.c.G.c.V.G.G.A.c.G.!.A.A.A.G.j.c.V.j.j.j.<.3.r.d.r.<.<.<.<.j.Y.Y.!.!.j.+...+.r.7.j.d.( +.3.p.j.p.d.r.V.j.p.A.G.j.V.j.j.j.7.j.j.V.c.j.A.A.j.<.7.<.<.j.j.A.!.d.<.*.7.j.j.j.j.j.<.7.j.G.`.c.3.<.+.r.Y.G.j.d.j.d.*.<.A.Y.!.!.`.`.#X#X;XG.! ! V.j.d.p.+.! <.7.A.V.<.<.7.+.<.<.3.r.p.3.7.V.V.7.G..X!.!./.!.G.d.3.j.j.p.<.*.3.<...*.( ..p.p.<.r.j.7.! } ! } <.d.3.7.<.<.3.d.A.A.7.r.!.A.Y.c.p.j.!.V.j.7.j.j.<.j.A.j.+.} <.<.r.j.<.p.!.G.<.! r.3.!.<.} <.V.!.A.j.p.j.A.j.7.3.<.} +.+.<.3.<.( U ! D +.p.p.p.j.c.j.V.A.A.7.p.d.G.!.A.j.p.j.Y.Y.d.3.A.!.G.A.<.<.<.*.<.r.<.d.G.<.! <.G.c.<.j.d.A./.!.p.<...7.N 8 k ! *.+.<.+.! <.+.j.d.j.d.A.d...r.p.!.A.d.!.`./.Y.G.V.r.<.d.Y.Y.V.G.j.G.Y.!.!./.!.j.d.r.3.j.+.R <.<.<.j.d.c.",
"j.j.j.V.Y.V.j.d.c.!.G.<.<.!./.V.G.A.j.j.V.c.!.!.V.j.j.c.<.d.!.c..X`.V.V.d.d.j.c.!.Y.G.c.G.Y.V.A./.#X.X!.G.j.p.3.p.j.j.A.!.!.G.A.c.Y.!.!.V.c.G.!.G.V.V.A.V.j.j.G.!.Y.Y.Y.G.A.A.A.c.d.j.j.7.j.Y.V.j.j.j.d.3.p.j.j.V.A.A.V.V.Y.G.r.A.c.j.A.!.G.c.V.A.Y.#X;X.X.X`.`.;X;X#X!.G.Y.c.p.j.A.A.!./.!.!.c.j.j.d.r.j.c.!..Xj.<.<.A.d.V.Y..X!.!.!.c.j.G.G.V.3.3.r.j.3.p.d.p...A..X#X`.!.!.`.`.#X&X#X!.p.j.A.A.!.!./.Y.!.!.!..X!.Y.Y.G.&X.XA./.!.p.d.r.j.A.G.!.!.p.<.7.j.!.!.!./.j.j.G.Y.d.C U *.r.Y.!.V.G.c.p.j.c.V.!.!.j.d.j.G.!.!.!.d.<.j.!.G.G.V.j.A.c.j.j.j.j.!./.!.G.c.A.V.<.3.d.r.j.c.A.A.A.G.j.r.j.p.<.7.<.! ! *.<.<.Y.!.A.V.G.c.j.G.<.} *.<.<.7.7.p.3.3...! ..7.r.7.<.<.+.<.r.<.*.<.R R ..} *.p.p.j.Y.j.j.3.7.7.j.A.j.3.7.<.j.j.j.j.G.j.c.V.A.V.d.d.V.A.Y.A.!./.Y.!.V.c.d.j.c.r.3.3.j.d.j.I.c.3.<.<.7.j.Y.Y.G.V.d.<.<.<.<.3.d.7.*.7.7.j.c.j.j.7.d.r.<.j.V.j.j.p.j.j.p.j.j.A.!.!.!.A.p.<.j.j.3.d.j.j.!.V.r.+.<.c.c.j.p.p.<.<.r.A..XY.r.7.p.j.V.Y.!.Y.d.p.<.r.Y.!.!.!./.#X;X/.`.Y.*.*.V.d.r.d.7.d.c.<.d.j.*.( ..( <.7.7.r.r.7.p.V.A.j.c.!.Y.!.!.A.c.r.r.j.d.r.*.+.*.~ } ..! ..r.3...*.3.3.+.<...} +.<.<.p.<.<.<.p.!.!.c.j.!.G.!.c.p.c.p.<.7.<.7.j.7.p.j.d.( ( 3.d.V.!.A.c.!./.V.7.V.c.p.3.r.j.c.j.p.j.j.A.!.c.<.<.<.r.r.*.R U } ..( *.+.<.<.p.d.j.j.j.j.A.V.+.( <.G.^.A.Y.A.V.G.A.j.z.G.!.Y.G.d.7.<.*.<.r.7.j.A.7...<.Y.j.j.G.7.j.!.j.p.r.+.( C N *.*.<.7.j.d.<.r.3.7.<.7.<.j.G.A.!.G.V.c.j.Y.j.j.V.G.7.<...+.p.A.!.!.Y.Y.!.G.A././.A.d.3.p.j.7.<.7.7.<.<.7.!.",
"!.Y.c.V.Y.V.j.j.V.<.U N +.!.`./.j.d.7.3.j.d.V.G.p.j.c.V.d.c.G.j.G./.Y.Y.j.j.j.j.V.c.V.j.V.A.j.c.!.!.!.A.j.j.j.j.c.V.j.7.j.G.!.Y.E.A.A.A.V.A.Y.!.j.j.V.V.j.j.c.!.!.G.V.A.V.V.G.!.A.j.j.j.j.V.!.G.j.j.j.j.r.r.j.c.V.V.d.j.c.V.G.d.Y.A.A.!./.!.G.G.!.!.&X#X`.&X.X/.`.`.!.j.j.!.G.p.A.Y.V.G..X#X`.!.j.c.d.7.3.r.j.Y.#Xj.! 3.d.c.j.Y.Y.j.c.j.3.j.A.j.3.7.d.j.<.p.d.7.*.G.`.`.G.c.!.#X`.&X;X#X/.c.c.c.c.G.c.G.j.j.A.!.;X,X;X.XV.V.V.d.c.c.7.*...j.A.7.A.!.j...*.j.!.!.`.#Xc.j.V.G.p.N U <.7.V.G.c.Y.A.r.j.!./.`.`.j.3.j.V.Y.!.Y.j.d.V.Y.p.3.7.j.!.!.Y.G.j.r.V.!.!.!.c.d.p.<.<.<.p.j.c.p.c.j.d.r.3.r.7.c.A.j.<.r.j.r.r.j.j.j.c.A.j.3.p.3.+.3.d.r.<.<.j.j.d.7.<.7.j.V.j.+.+.( *.3.<.<.<.p.! c ! <.+.7.d.c.p.j.d.j.7.p.A.d.p.d.3.c.A.c.c.j.d.j.j.A.V.j.j.G.!.!.!.!./.!.!.Y.j.3.p.j.p.d.j.j.p.j.G.c.3.*.<.7.p.j.j.j.p.p.d.c.j.<.r.d.<.3.j.<.j.j.d.j.3.7.7.<.d.c.j.A.j.V.j.7.p.r.j.j.d.d.r.r.<.j.c.d.j.j.c.!.V.d.<.<.j.d.<.<.r.<.7.j.A.`.Y.j.7.j.G.c.V.!.A.j.j.j.c.Y.!./.!./.&X.Xj.j.j.<.<.Y.d.r.d.7.j.j.U } p.7.3.3.<.7.3.p.d.p.p.j.j.j.j.V.!.V.Y.!.c.j.7.<.7.7.3.<.*.<.! ....! ..7.<.! ( <.7.<.3.+.} +.<.<.p.*.*.<.7.!.!.!.V.j.3.r.( ! <.<.! <.7.7.j.p.7.c.j.<.<.r.d.G..X!.j.c.G.A.j.V.p.<.p.V.c.j.3.<.V.!.V.Y.j...} *.<.A.p.J N ! ( ! *.3.*...7.A.A.j.c.d.V.G.<...<.j.<.! d.j.p.c.!.D.A.G./.A.V.j.r.<.3.p.r.r.p.j.j.r.3.j.d.j.j.! ..3...<.r.<.} ! ( 3.3.p.p.j.Y.A.Y.p...} <.<.<.V.Y.j.3.p.j.d.j.<.<.j.V.<.7.*.! *.j.!.Y.j.j.G.c.j.!.!.c.3.( *.7.d.j.7.<...D R r.",
"`.!.G.G.A.j.j.G.j.D J p.!.!.!.!.j.3.3.p.j.d.c.A.7.c.G.V.j.p.p.j.d.!.!.Y.p.d.h.r.7.j.A.Y.!.G.j.c.!.V.c.j.j.A.Y.Y.V.c.j.d.d.c.V.A.`.G.j.c.G.Y.Y.G.A.A.A.V.j.j.V.!.A.j.j.j.V.V.Y.`.j.d.j.A.c.V.A.c.V.j.j.c.j.d.j.A.V.V.r.j.j.j.!.A./.Y.j.A.;X#XA.c.!.`.#X!.G.#X;X`./.!.G.p.d.!.Y.7.!./.G.V.!..X.X#XG.G.j.p.r.7.r.j..X!.<.p.!.`.j.c.j.<.7.3.<.j.j.7.r.d.d.j.3.j.j.j.r.!.`./.c.d./..X`.#X#X#X&X/.V.p.j.A.j.G.c.c.c.j.!.#X#X!.d.7.d.7.<.<.*.! J 3.G.p.r.j.j.<.<.j.A.j.`.!.7.3.d.j.r.! *.j.j.V.Y.G.!.G.d.!.&X!.!..XA.3.j.A.Y.A.j.j.V.A.A.7.<.3.d.c.V.Y.!.j.p.c.V.!..XY.j.d.d.<.<.d.j.d.3.j.3...<.3.r.d.c.A.V.j.c.V.j.j.r.p.j.G.!.c.7.p.r.+.3.j.j.3.<.p.p.<.<.5.r.j.c.r.<.<.....+.*.*.+.j.3.R 7.j.+.1.7.d.7.p.j.j.r.d.A.j.V.A.p.V.V.j.j.j.j.j.j.c.V.c.j.Y.!./.!.!./.Y.Y.G.j.<.<.p.d.j.c.d.<.3.d.p.<.<.7.p.<.+.<.<.<.<.p.j.j.7.7.r.<.<.7.*.d.d.3.d.<.7.a.7.p.j.j.!.G.Y.j.p.c.c.j.r.*.3.d.j.r.d.j.V.Y.A.!.V.p.r.p.p.p.p.r.3.d.p.p.j.V.!.Y.V.<.<.V.c.p.r.3.3.j.V.V.j.c./._.`..XA.} } r.<.3.j.r.7.p.r.j.p.R *.7.<.<.<.<.3.<.d.j.j.j.j.r.3.r.Y.!.j.V.A.j.c.d...<.3.7.<.<.<.| *.+.} *.p.<.( } <.3.<.<.*.*.3.d.7.p.....<.r.!.G.j.j.r.<.<.! ( r.p...3.j.j.d.r.r.A.A.d.7.p.d.j.!.Y.j.j.j.A.Y.!.7.3.c.G.j.j.7.3.Y..X<.*.*.} <.<.+.j.j.! N ! ( ( <.r...} p.G.Y.C.c.j.j.p.( <.j.j.J ! j.p.+.p.!.!.V.d.j.j.d.3...*.7.7.<.<...+.d.p.<.*.d.c.3.! ! ( } +.3.7.<.3.<.r.j.j.*.<.j.G.#XA.3...*.7.7.j.A.<.! r.c.j.j.r.p.V.Y.3.j.r.+.<.c.!.V.*.} d.j.d.!.Y.G.j.*.} <.j.!.!.A.p.R J ( ",
"G.A.c.c.j.3.r.A.!.<.7..X,X`.A.G.V.<.r.j.V.j.A.G.r.j.A.c.j.<.3.j.j.!.!.G.r.d.d.<.3.j./..X`.!.V.G.#X!.G.j.c.!.!.!.j.d.V.!.A.j.d.Y.#X!.G.A.A.V.A.!.&X`.Y.V.j.j.V.Y.j.p.p.j.V.c.V.G.p.d.j.A.V.j.j.c.A.j.j.V.G.A.A.!.!.!.j.j.j.j.!.!..X!.r.d.&X&Xc.j.!.#X;XA.j..X&X/.!.Y.V.d.j.!./.j.!.`.`.!.!.!.!./.G.G.j.j.j.c.V.A.A.`.V.j.G.A.3.d.j.r.r.<.3.c.V.j.j.A.j.j.p.c.c.Y.r.!.#X;X.X!.&X`.`..X/.`.;X;XA.r.j.G.G././.`.G.d.Y.Y.c.j.c.V.G.j.( +.7.<.} r..X/.j.<.p.j.j.Y.!.c.#X!.7.3.r.p.j.<.3.j.j.G.`./.`.!.G.#X!.+.<.G.Y.V.Y.Y.!.G.j.c.G.G.#XA.j.r.r.p.d.G.j.j.V.!.Y.!..X!.p.7.d.<.<.c.j.r.j.!.3.} 7.j.j.V.c.j.A.Y.Y.!.G.j.j.d.V.Y.Y.c.7.p.r.*.r.c.j.p.7.j.r.+.+.<.r.c.V.7.<.<.<.<.<.<.<.*.3.j.p.V.j.*.<.3.r.r.7.7.3.w.j.Y.G.V.j.<.j.V.j.p.G.!.!.A.c.c.c.j.V.G.!.!.`.`.G.V.V.c.r.r.j.j.d.7.d.3.3.3.<.3.p.p.G.7.+.<.p.3.<.3.<.3.d.7.p.j.<.<.<.j.j.3.p.<.3.p.3.r.d.j.V.j.A.j.j.A.V.V.j.7.j.G.j.j.d.j.!.!.A./.A.r.7.j.j.d.j.A.j.V.d.<.<.r.A.!.c.<.+.d.j.3.....<.j.V.A.j.c./.`./.Y.p.U ! 7.<.7.j.p.3.j.V.V.c.7.!.j.7.r.r.3.r.d.d.j.c.G.c.r.<.3.A.A.d.j.c.j.A.j.<.a.j.d.<.#.<.( ..+.+.<.j.r.+.} ! +...*.3.3.p.d.r.d.*.<.3.p.Y.G.*.7.p.7.c.d.j.V.j.<.d.A.j.<.7.c.A.j.7.7.j.c.j.j.G.j.c.d.A.!./.j.r.G.!.c.A.j.d.!..X( R ! ! <.<.+.d.j.} D ! } <.p.j.*.3.G.G.j.j.j.G.j.3.! <.j.j.R <.A.r.+.7.j.p.<.<.7.j.V.3.! *.<.7.j.j.<.} p.j.3.! <.c.<.} ..+.<.! ....} d.d.j.j.j...} ! ( V.p.7.+.} p.j.j.j.+.C <.V.j.d.j.j.V.!.r.j.r.<.r.G..XY.<...j.j.d.A.A.!.j.p.! ! <.d.Y.A.V.*.+.<.",
"c.j.p.j.j.<.3.j.;XA.r.V..XA.3.A.c.3.d.j.j.j.j.j.7.7.c.c.c.r.<.<.j.c.j.j.7.j.j.<.d.G.#X`./.!.A.G.`.!.Y.c.G.!.V.V.V.V.!.G.j.j.j.G..X`.!.G.V.V.G.!.#X/.!.!.Y.G.c.j.c.j.j.c.c.j.p.p.p.d.j.c.j.d.d.V.!.V.j.V.!.Y.A.G.Y.!.c.j.j.j.!.`.&X.Xj.j..X#XG.Y.!.#X;X!.V.!.!.A.j.d.d.r.d.!..XY.Y.!.#X!.G.G.G.!.V.j.p.d.A.!.!.!.V.!.j.p.j.r.<.j.r.j.c.d.j.V.c.c.C.!.j.j.c.V.j.Y.j.!.!./.`..X;X`.!.`.!.!.`.#XV.j.A.!.!..X#X;X.XV.`./.G.G.!.!.!.j.N ! d.Y.j.j.;X,X.X<.<.A.Y./.&XY././.j.p.d.j.!.c.3.j.p.c././.#X`.!.!.<.n ! A.Y.c.!.A.A.!.!.A.G.!.#XG.j.r.d.j.j.A.G.Y.Y.A.j.c./.!.<.<.r.<.7.Y.G.d.A./.r.+.j.G.G.Y.p.<.r.c.V.A.c.3.3.r.A.Y.G.j.<.<.j.p.j.j.p.r.d.j.A.r.<.<.r.A.Y.d.+.<.d.j.j.j.r.r.<.d.j.r.r.3.+...<.r.3.r.<.7.j.c.j.j.j.r.j.j.c.c.Y..X`.!.G.V.V.j.j.A././.`.!.j.p.A.A.j.j.V.j.p.3.d.r.r.7.<.<.7.<.c.<.*.7.j.p.<.<.<.<.c.p.j.G.r.7.7.j.j.r.j.7.p.s.<.r.j.j.j.r.V.V.d.j.7.d.V.j.j.j.r.j.d.j.!.!.V.!.j.3.<.7.7.d.Y.!.p.j.j.<.*.<.j.A.V.j.<.<.p.<.( ..p.c.V.L.G.V.G.G.G.r.*.! ..7.<.7.c.d.3.j.!.Y.G.V.Y.7.<.j.j.3.3.7.j.c.!.!.c.r.3.<.p.j.r.j.j.j.A.j.r.l.c.j.<.+.*.( ( +.<.<.d.r.+.! R } ( ( 3.3.r.7.<.<.<.<.<.3.j.G...<.3.<.V.!.!.V.7.<.p.j.3.+.r.!.c.j.p.p.V.V.j.c.A.d.j.p.j.c.A.j.<.G./.Y.!.!.c.G.V.! +.<.+.<.....j.j.! D ! <.j.d.d.<.j.`.G.7.r.j.G.G.V.3.p.j.j.<.d.G.j.j.j.3.<.<.( *.j.!.j.( } ( <.j.!.7.+.<.<.7.+.} j.+.! *.7.7.*.( } <.V.<.7.r.j.j.j.*.U 3.*.*.+.! 7.j.r.r.} N ..j.c.d.j.r.j.A.d.d.<.<.d.Y.#XG.*.3.G.G.c.V.j.V.!.J.! ! <.<.<.U ..U *.V.",
"j.p.r.j.j.7.3.j.!.A.j.G.$XA.<.d.c.V.A.7.j.c.j.j.3.<.c.c.V.j.r.} j.d.3.d.<.d.j.r.G./.#X!.!.!.G.A.A.G.Y.j.Y.!.j.V.V.Y.#XG.j.A.c.c.!.Y.V.c.V.Y.!.!.Y.G.Y.!./.!.V.d.V.A.G.G.c.d.7.7.r.7.7.p.d.3.3.j.!.!.A.V.G.A.j.j.j.c.j.j.V.A.!..X&X.X!.Y..X#X`.`./.!.#X`.!.Y.j.d.7.<.3.3.3.j.!.!.!.G.!.Y.c.G.Y.G.j.j.p.j.Y.!.!.!.;X/.V.j.j.p.3.j.<.7.j.c.j.j.j.j.A.G.j.A.A.A.j.G.V.!.A.d.c.!.!.A.V.!.!.!.!./.c.A.!.`.!.`..X;X.XY.G./.!.A.j.3.c.j.J U <.c.j.p.`.5X;Xj.3.I.!.!.#Xc.j.G.j.r.r.j.!.G.d.V.d.c.!.Y./..X!.A.3.! <././.V.V.j.j.V.Y.G.Y.!.!.c.p.r.j.c.d.j./.!.c.r.3.j.!.!.3.p.d.<.3.c.V.d.A.!.r.+.d.c.j.c.7.3.r.j.G.Y.A.c.<.7.!./.!.!.p.r.c.j.c.r.<.7.r.7.r.<.*.+.<.j.c.7.*.<.j.V.j.j.7.3.r.d.7.<.j.c.3...<.r.7.d.<.<.3.r.j.p.Y.c.p.3.j.c.j.A.V.G.G.V.A.V.V.!.`.!.!.V.p.r.V.j.7.d.j.3.3.p.p.3.r.p.<.<.<.<.<.....<.7.3.<.3.p.d.j.p.p.j.p.7.3.p.d.r.j.p.j.j.<.d.A.V.j.7.G.Y.j.j.<.r.c.d.r.r.7.7.r.V.!.Y.j.j...} ..<.7.j.(.A.( 3.j.d.7.3.7.j.!.V.7.<.3.*.! ..j.c.p.p.j.r.r.p.c.*.} +.7.7.*.d.d.3.<.j.A.G.!.Y.A.3.7.c.j.7.p.j.j.V./.!.j.p.d.7.7.d.r.p.r.p.V.j.0.j.j.a.<.<.1.#...<.<.*.<.3.*.( } <...! <.<.3.3.! ! +.<.<.<.p.Y.7.*.<...j./.`.G.<.} <.7.+.<.V.A.j.j.j.d.j.j.p.A.V.j.!.V.A.V.V.j.<.G./.A.!.`.G.V.<.! j.A.p.r.<.r.j.<.R ! +.j.G.<.! *.j.Y.j.<.3.c.c.G.G.j.V.j.V.Y.V.V.3.3.<.! *.3.6.7.V..X.Xr.<.<.<.j.G.j.p.<...j.p.*.j.+.} 7.d.d.c.r.p.Y.!...3.j.} 3.r.p.*.*.} ! } ..p.j.r.r.7.*.<.j.G.c.d.3.c.V.r.7...<.j.Y.!.3.D r.!.!.Y.!.Y.A.!.A...R ..( N s D N ..G.",
"j.r.r.j.j.3.3.c.Y.Y.Y.c.V.Y.j.j.j.`.!.*.d.V.j.d.p.<.V.j.j.!.!.7.c.j.d.j.<.7.j.j.G.!.!.A.G.!.V.j.c.Y.!.j.Y.!.j.Y.!.j.!.!.A.j.j.!.c.c.c.j.c.Y.!.!.L.A.A.A.Y.G.V.j.c.G.!.Y.c.d.p.p.j.p.7.d.j.p.7.j.Y.!.Y.c.V.V.j.j.j.j.j.c.Y.!.!.#X.X!./.`.`.#X&X`./.A.!..X/.V.7.3.<.} <.3.3.j.!..XY.j.Y.Y.V.!.!.V.j.j.j.A.`.#X`.`.!.!.A.c.j.p.p.j.p.<.p.j.j.j.j.j.A.j.j.Y.A.A.c.G.c./.!.j.!.`.V.p.j.Y.!.!.!./.j.V.!.!.!.#X.X/.Y.c.G.`.!.r.+.R d.A.<.( <.p.p.<.G.&X.XG.j.!./.Y.!.7.7.c.j.d.p.j./.!.j.!.G.!./.V.A.!./.!.G.r.<.c.Y.V.j.j.r.r.j.A.A.Y.!.c.r.3.j.c.j.c.V.G.d.7.d.c.!.G.p.j.r.+.*.r.j.j.!.`.d.+.3.7.3.7.7.p.d.j.V.j.j.c.<.p./.`.!.`.V.V.G.G.A.r.3.c.j.<.*.<.<.<.3.j.d.<.} ( 7.j.d.d.3.3.r.p.*.} 7.j.j.j.3.p.3.d.<.*.<.7.j.<.j.d.<.<.d.c.p.3.<.j.V.j.A.G.V.!.`.Y.c.j.d.j.G.j.7.j.j.<.<.j.p.<.r.j.3.<.<.3.3.7.r.r.7.r.j.V.G.A.j.j.j.j.V.j.7.r.r.3.p.r.c.j.<.d.A.A.j.r.G.Y.c.V.p.p.j.3.3.j.j.<.3.V.G.V.j.*.} ..<.j.j.j.j.<.C *.j.c.j.p.r.j.!.j.<.<.7.+.( &.j.j.3.<.7.<.3.j.G.*.+.r.j.r.<.c.7.<.<.j.j.j.!.G.j.<.p.c.r.<.3.d.p.j.!.G.7.p.V.j.d.j.p.r.<.7.V.d.3.a.r.0.<.<.0.*.<.r.<.( } <.<.+.<.r.<.} <.*.<.<.! J ( *.<.r.p.!.j.<.p.*.r.!.!.c.7.! } <...j./.j.j.p.7.<.7.p.3.j.d.A.;X!./..X!.j.r.G.!.j.V.`.!.c.d.<.Y.!.A.V.j.G.j.<.} <.3.j.j.N h +.j.p.7.<.3.j.j.c.V.j.Y.j.d.A.j.c.<.<.<.<.j.j.7.<.<.c./.r.<.*.<.<.<.3.j.<.! j.p.7.c.<.p.j.<.7.A.A.c.V.G.<.A.V.<.7.+.G.!.p.<.( ( r.V.j.<.<.d.j.d.j.Y.V.r.<.V.j.<.<...7.A.!.V.R J V..XY.G.!./.!.!.!.j...*.<.! ! ..! ! 7.",
"p.<.r.p.<.<.p.V.Y.V.G.!.Y.G.A.j.c.!.Y.r.j././.!.j.j.j.j.c.!.Y.j.j.j.j.7.7.7.r.Y.A.#X`.A.Y.`./.G.j.A.j.j.G.!.G.<.j.3.c.`.G.d.c.Y.j.j.A.G.j.j.Y.Y.Y.!.G.V.V.c.c.G.j.j.A.!.A.d.r.j.j.d.j.!.Y.j.j.j.j.c.G.!.V.p.p.j.V.A.j.V.!..X&X!.`.`.Y..X#X!./.A.G.j.A.!.#X!.<.3.j.*.U ( <.Y.~.`.A.3.j./.!.G.V.!.!.c.7.c.XX#X.X!.G.V.Y.!.V.c.j.r.<.3.c.V.j.j.j.V.G.p.p.c.c.j.j.j.j.!./.A.A.A.j.d.j.!.!./.!.!.!.j.A.c.j.V.Y.G.V.<.c.!.V.<.<...3.V.d.+.*.r.*.3.`.&X.X!.Y.!.!.A.j.d.d.<.3.r.p.c.V.A.j.A.`.;X.X!.G.V.A.!.j.j.*.d.A.Y.V.!.c...( d.Y.A.!.c.V.A.j.c.G.!.V.7.<.<.j.!.!.G.3.j.r.( +.} !.V.Y.j.d.+.j.r.3.<.7.c.j.j.V.V.p.<.! *.Y.`.!.G.p.j./.Y.c.j.3.!.`.S.3.....<.j.!.Y.3.} U *.V.p.3.j.7.d.j.+.( <.p.V.V.7.r.c.A.j.p.7.<.j.7.7.r.3.p.j.r.p.d.+.<.d.j.!.G.!.A.!./.L.c.j.c.G.!.c.c.c.7.p.p.<.3.r.d.3.+.*.3.<.<.7.j.7.1.j.A.!.Y.V.j.d.A.G.d.3.d.j.<.<.j.A.d.r.j.c.j.j.V.!.`.!.A.r.<.j.r.+.j.j.j.p.d.c.j.<.+.( +...<.c.p.c.R c.<.p.`.Y.<.*.7.j.p.<.r.r.<.3.<.p.A.V.*.( 7.j.d.3.7.<.<.j.c.d.d.j.p.<.<.p.j.j.j.j.j.j.c.j.d.r.3.j.c.j.V.7.j.j.V.!.G.j.r.<.<.j.G.j.<.d.<...7.%.....<.7.<.} <.7.! ..<.R ( } } ( +.! ( ..} ..} +.j.r.<.p.r.7.j.j.c.<.+.*.<.*.7.j.p.d.p.<...<.j.j.<.<.V.;X.X;X/.j.d.p.j.c.d.j.A.j.j.d.V.j.A.!.j.d.Y.Y.p.<.*.d.G.3...( d.p...( ( ..p.j.!.c.j.!.V.<.7.p.7.<.r.<.3.7.j.r.! <.d.Y.j.<.<.*.<.d.d.p.3.<.<.3.j.!.c.<.<.7.<.p.j.j./.G.j.V.j.3.<.A.;X;X!.j.*.*.3.p.j.p.<.7.j.c.j.r.j.j.j.G.j.<.+...j.!.c.<.C ( j.j.G.!.!..X!.!./.G.d.<.! ! <.} <.d.j.",
"7.7.j.d.p.j.c.Y.V.c.Y.XX!.G.V.V.3.r.V.c.c.!./.!.j.3.<.d.j.c.A.G.7.7.3.<.p.r.<.r.r.j.j.c.!.#X`.A.V.A.j.j.G.Y.c.<.j.<.j.Y.c.j.V.c.j.j.G.Y.c.V.!.!.G.Y.A.j.j.c.c.G.c.c.A.!.Y.c.j.j.A.j.c.!.!.A.G.A.d.j.c.G.A.j.d.j.j.j.d.j.V.Y.`.#X#X.XY.!.!.Y.!.G.A.j.A.Y./.!.7.d.V.d.<.<.<.c.Y.G.c.j.!.&X!.c.V..X;X`.j.j.;XG.} !.!.A./..XV.d.p.<.<.p.c.c.G.!.A.c.c.p.7.d.d.j.c.Y.Y..X`.!.A.c.c.!.A.!.!.!.!././.A.c.V.c.Y.!./..XG.j.Y.Y.p.<.*.j.j.r.3.p.c.7.d.`.`.!.!.!..X#XA.3.<.7.<.r.d.j.V.j.j.V.j.!.,X;X`.!.!.V.Y.d.d.*.j.!./.!./.V.<.( 3.c.Y.A.j.c.A.G.Y.A.G.V.p.p.p.c./.!.j.r.j.r.<.<.*.!..Xj.<.7.<.j.r.7.d.7.d.p.p.!.!.j.3...<.Y./.!.7.( j.!.j.d.c.j.!.`.!.r.<.7.p.j.A.Y.j.! N ! p.<...r.d.p.c.p.3.3.p.A.Y.A.V.Y.!.Y.c.r.*.7.3.d.j.r.p.d.r.7.j.<.3.j.c.A.A.G.V.A.Y.!.A.j.j.Y.!.j.p.r.3.d.r.p.p.j.d.3.*.<.d.3.<.r.7.<.*.7.c.Y.Y.G.c.d.j.j.r.d.j.d.<.+.d.A.V.c.A.A.G./.&X#X!.G.G.j.<.r.d.<.7.c.c.j.j.j.7.<...! ( ( } d.d.!.7.!.r.d.!.A.7.7.d.d.r.p.j.3.<.7.r.p.j.d.<.<.j.V.j.+.} +.3.p.j.c.c.j.j.r.7.p.p.p.j.V.A.A.V.j.7.7.p.j.j.d.c.3.j.j.A./.!.G.j.r.7.j.G.j.7.0.~ J +.<.<.<.V.A.d.<.<.<.! ! ( R ( ! ! ! <.<.<.7.3.<...+.p.j.j.j.r.3.3.<.r.7.<.d.j.3.<.7.p.j.p.3.<.7.d.j.d.*.j.#X`.!.3.} <.j.d.j.r.r.j.j.j.p.c.d.j.V.d.j.!.`.p.3.3.j.G.d.r.G.Y.d.<.7.<.+.<.!..XG.c.!.A.r.j.j.7.7.c.r.*.<.G.j.} +.d./.!.j.3.*.7.j.<...3.p.7.+.p.G.j...( 7.j.<.j.d.!.#X/.V.j.j.c.!.&X#X#X&X!.c.V.d.r.p.<.<.d.j.3.*.p.j.j.V.V.7.+.<.A.A.7.<...+.p.j.G.c.j.Y.Y.!.!.!.A.d.*.( +.<.j.j.j.",
"r.j.j.p.j.Y.!.!.c.j.A./.!.j.j.V.<.+.j.Y.A.!.`.#X!.7.+.<.r.d.c.A.j.d.r.p.A.G.r.3.} } <.j.!..X/.Y..X/.G.Y.!.!.V.7.d.<.r.j.d.j.c.p.p.d.c.c.j.j.!./.`.`.!.V.c.c.c.A.c.j.c.G.G.Y.Y.V.!.A.A.`.`.A.V.A.r.7.d.V.G.c.d.d.j.j.j.j.p.r.G.#X#X!.<.r.!./.!.G.V.V.G.V.A.V.r.j.G.c.j.c.j.Y.j.*.c.!.`.&X!.j.V.`.`.#X/.j.`.<.r } !.Y.;X&Xr.} *...+.p.j.j.G.`.!.V.j.j.d.j.j.j.c.G.G./.!.j.d.d.j.!.Y.`.`./.!.Y.A.p.j.G.!.!.!./.#X!.r.7.c.c.7.<.j.*.+.3.j.j.d.V.#X&X#X`./.;X;XA.<.} p.j.c.V.G.G.c.A.r.+.3.G.Y.Y.!.!.Y.Y.p.r.<.j.c.j.Y.!.!.Y.c.j.V.Y.!.Z.j.d.c.!.G.G.Y.c.c.j.c.Y.j.<.<.p.<.y.j.7.j./.j.<.j.p.j.p.7.r.*.<.( } p.Y.Y.A...<.j.!.#Xd...!.`.d.7.c.c.Y.!.!.j.c.A.V.j.A.!.V...( <.j.p.<.r.d.c.!.G.l.d.j.A.!.G.c.c.A.G.V.j.<.3.3.j.c.p.7.p.r.7.j.7.<.j.V.j.V.V.Y.c.c.Y.A.j.j.j.A.V.V.j.7.p.<.7.p.j.j.3...} *.7.3.p.3.<.7.<.j.c.j.j.j.j.j.j.j.j.j.j.7.<.p.c.c.p.V.Y.Y.!..X!.V.V.j.V.j.d.j.p.r.j.j.c.j.r.3.<.<.3.<.<...w.p.!.G.j.3.p.V.j.r.p.j.7.r.A.c.<.<.p.j.7.3.*.+.7.A.!.G.V.<.<.7.<.7.j.d.r.p.j.j.j.j.j.j.!.!.!.G.j.p.d.j.d.j.p.c.7.j.c.Y./.!.!.Y.j.p.j.!.j.d.3.~ Y +.7.<.7.G.j.<.7.r.<.( ! ( } *.! ! R <.r.d.A.c.3.<.*.<.d.p.7.<.<.7.<.r.3.<.d.A.r...<.c.j.7.<.7.p.7.r.d.r.V..X!.c.*.3./.j.<.<.<.*.7.j.c.c.Y.j.d.j.p.j.A.!.p.r.d.c.!.G.A.G.G.c.c.G.j.<.r.G.!.!.!./.V.p.j.j.p.d.!.j.<.3.Y.c.<.+.j..X!.j.} *.<.j.7.! ! *.3.7.j.G.j.*.( <.d.3.A.!.`.!./.c.<.A..X`././././.V.j.!.A.p.p.3.<.j.V.r.<.j.Y.V.A.!.p.+.r.V.d.<.+.+...<.r.c.r.<.j.c.p.r.j.V.V.j.d.7.j.!.j.r.",
"j.j.j.7.j.!.!.`.Y.j.j.j.j.p.p.j.7.<.j.Y.!.G.!.`.`.j.<.*.3.j.c.d.j.j.p.p.Y.!.d.3.<.<.d.j.j.!././.;X`.!././.!.V.d.j.3.<.7.3.d.j.r.p.r.d.p.3.p.G.!././.G.j.j.j.j.j.j.d.j.A.G.!./.Y.!.A.V./.!.j.d.j.p.7.r.j.G.A.d.p.d.c.j.d.3.3.Y.&X.Xc.! ( V./.!.A.G.Y.G.d.p.d.r.j.!.A.V.!.!.#Xc.R G./.Y.!.!.c.V.A.j.G..Xj.G.p.h R j.j.!.Y.<...<.3.3.A.!.V.Y.`././.!.Y.c.j.G.G.c.j.j.!.j.<.<.r.p.j.A.!..X.X!.j.d.d.j.!..X/.A.Y.!.!.c.+.<.j.p.<.p...d.A.G.j.j.G..X.X;X.X!.!.`.V.<.} 3.d.j.c.V.j.p.A.r.+.} <.<.d.Y.c.j.A.j.c.j.c.j.d.G.Y.!.`.!.Y.!.`.`./.A.7.j.!.Y.Y.j.r.p.d.j.A.j.7.j.j.<.r.j.r.} d.c.p.A.r.d.A.V.j.j.d.<.+.p.G.!.!.<.7.j.!.#Xc.<.A.A.<.<.j.A.!./.!.V.G.Y.j.r.d.j.<.j.c.c.A.A.c.c.j.!.!.A.j.j.V.G.!.A.j.j.d.d.d.d.r.3.3.d.j.p.r.j.j.d.j.j.3.p.j.d.V.A.!.G.V.c.j.V.V.3.j.A.!.j.3.j.j.p.d.j.j.7.*.( } 7.7.j.r.j.G.r.p.V.p.7.d.j.j.j.j.j.c.V.j.7.d.c.j.<.j.A.A.G.Y.G.A.r.<.j.j.7.p.j.j.j.j.V.c.r.7.p.<.d.p.p...+.*.d.j.p.7.j.G.j.7.p.j.7.r.G.c.<.3.r.p.<.<.<.r.V.!..X/..X7...<.<.r.c.j.j.j.j.j.j.j.j.c.!.Y.A.V.c.j.p.d.3.3.7.j.r.j.j.G.!././.!.j.r.j.!.l.j.<.<.<.r.c.0.p.c.7.<.d.p.<.} ! ( +.<...+.! 3.d.j.!.A.3.<.<.*.r.7.<.+.<.7.3.+.*.! +.r.<.( <.G.j.<.*.3.r.<.*.*...j.#X!.Y.j.G.;Xc.<.<.<.<.7.j.A.<.d.3.3.r.r.j.j.V.p.j.j.j.!.!.c.p.V.!..X`.j.7.p.p.G.!.`./.V.r.3.j.j.j.!.Y.A.j.c.<.*.*.A..X!.c.! <.+.d.A.d.*.*.r.j.G.!.Y.j.*.<.j.j.A.,X/.! j..Xd.V.`.A.V.!.A.j.p.3.!./.V.j.j.p.p.V.j.7.j.N.j.j.c.7.+.7.p.p.j.3.! ( } 3.j.3.<.j.j.p.<.3.p.d.V.A.r.j.V.r.3.",
"V.j.j.d.G./.!..X`.Y.d.3.r.j.d.<.3.7.j.!./.A.c.A.A.j.r.<.7.j.c.7.j.d.p.d.Y.!.d.7.!.!./.V.j.Y./.`./.G.G.!.Y.G.c.p.j.3.<.<.<.3.j.j.j.j.j.d.7.p.c.G.Y.G.c.j.j.j.j.j.j.j.c.Y.!.`.#X`.G.c.j.G.A.p.r.d.d.3.3.r.A.Y.j.j.j.G.V.p.<.7.G.!./.Y.<...r.j.j.V.Y.!.A.7.<.3.r.j.!.!.!./.!.&XY.<./.`.c.j.G.A.V.d.r.j.c.<.r.A.p.r.j.j.j.d.p.d.d.3.c.`..X/./././.`.`.!.d.s.A.Y.c.j.c./.G.7.r.d.p.j.!.!.!.`.G.r.3.j.d.Y..X!.j.G./.`.&Xj.3.3.3.<.j.p.V.!.!.j.d.V.A.c./.!.d.7.c.V.7.+.<.3.<.d.V.r.<.d.Y.j.p.3.( ! +.} ! j.!.!.V.j.j.G.G.A.A.Y.!.Y.Y.!.Y./.!.c.A./.!.Y.p.*.<.d.j.V.c.c.Y.A.3.r.p.d.+.j.!.j.V.<.7.A.!.Y.Y.j.3.3.V.!.V.j.3.j.A.G.V.j.p.j.7.+.<.j.!.!.!.c.V.!.Y.7.+.<.<.} !.!.c.j.G.!.!.A.G.G.c.j.c.A.G.Y.!.!.A.j.7.3.7.d.r.3.p.j.j.j.A.G.c.c.G.j.r.j.j.A.A.!.G.A.j.j.A.j.j.j.G.!.j.+.<.3.c.j.j.7.<.<...*.7.r.j.d.A.!.r.7.d.<.<.7.d.p.p.j.A.V.c.d.7.j.G.Y.d.j.j.c.!.!.A.A.r.3.V.V.3.3.d.d.j.j.V.c.p.d.j.<.d.j.c.3.<.<.r.j.d.3.p.c.j.r.j.!.c.p.j.r.*.5.7.3.r.p.3.r.j.A..X#X;XG.<.7.d.d.c.A.G.j.p.d.j.V.Y.!.A.V.j.d.p.3.<.<.<.<.7.j.p.p.d.c.!./.`.!.d.<.7.j.j.3.! 3.V.A.!.j.3.3.<.3.<...! ! ( +.*.+.} +.( r.c.c.G.d.+.3.7.*.<.7.7.*...<.<.! } ! ! ..! ! <.c.d.3.<.<.<.+.( ( ! j.`./.`.V.c.A.!.j.j.V.V.j.V.A.<.3.<.7.d.j.A.G.c.d.j.j.d.c.V.p.d.V.!..X`.Y.j.r.j.Y..X/.!.A.j.3.s.j.c.!.!./.G.j.<.3.7.!..X!.V.! } ..7.c.!.Y.j.j.A./..X.XV.<.3.j.A.A.;X<.7 N /.j.j.G.r.<.<.( } p.V.!.#X!.Y.G.j.7.c.V.j.7.3.7.j.j.3...<.<.j.!.j.! ! ..7.j.r.p.j.r.j.d.p.<...d.G.d.3.<.<.7.",
"Y.c.c.G.`.#X!.!.`.`.V.r.j.G.j.<.3.p.d.A.G.j.j.V.c.j.p.<.<.7.j.j.d.d.d.j.!.!.j.j.G.!.&X!.!.#X!.A.!.A.Y.Y.G.!.Y.j.j.3.<.3.<.<.d.c.G.Y.Y.G.V.j.c.c.Y.V.j.j.A.V.j.A.j.j.c.Y.!.`.`./.A.c.p.j.j.d.j.A.p.<.<.<.c.Y.j.j.j.!.V.r.<.7.c.j.!./.c.7.3.7.d.V.!.!.V.7.<.7.j.c.A.!..X#X!.!.!.G.`.`.A.j.A.G.V.d.d.c.<.( <.j.G.A.Y.G.c.c.G.A.p.<.c.!.`.&X.X/./.!.A.j.7.r.c.G.c.d.G..X/.G.V.r.7.Y.!.c.G.!.Y.r.*.7.<.j.!.!.c.G.!.!.&X`.c.<.*.<.j.d.3.p.c.j.p.j.j.r.G.Y.d.<.j.A.p.<.3.3.*.d.!.G.p.3.!.!.Y.A...z c n N <.c.c.j.j.j.Y.j.j.V.!.!.!.G.A.j.Y./.!.!..X/./.c.<.7.c.V.j.d.j.A.Y.j.j.r.r.<.j.c.p.r.<.r.V.Y.!.Y.c.r.p.c.!.!.!.7.j.A.c.j.A.G.j.3.<.7.p.c.A.G.d.j.G.A.7.+.3.d.p.!.G.p.j.!.G.A.A.c.A.G.c.j.j.d.j.V.A.V.j.p.r.d.c.j.j.j.V.A.V.A.G.G.c.!.G.j.j.j.A.c.j.c.V.j.c.V.r.j.d.j.Y.V.r.7.d.G.j.j.r.3.<.} ..3.p.c.j.d.d.<.<.*.+.*.<.7.3.3.d.c.j.d.r.p.A.!.Y.G.c.d.j.A.j.r.7.<.! 7.!.V.3.<.d.j.j.j.j.j.c.V.r.<.r.j.3.<...<.d.j.r.7.j.j.j.j.A.Y.j.7.*.*.7.r.7.j.c.d.p.p.j.Y.Y.`./.d.d.j.p.j.V.!.c.j.j.c.V.V.c.j.c.j.r.r.<.1.j.j.r.j.A.j.d.d.j.V.!./.Y.d.3.7.p.r...J r.!.!.!.d.<.! R ( ( ! ( ! +.3.+.} ! ( ( c.!.j.d.<.} <.7.<.+.r.r.<.+.<.<.+.} ( ( ( ! ! <.j.j.p.7.<.*.} ..<.3.j.G.Y.!.d.r.p.V.A.V.!.!.G.G.V.3.<.<.7.r.7.j.j.c.d.j.c.j.j.j.j.V.Y.!.G.c.c.j.d.c.!.`.^.G.V.j.<.d.j.V.!.!.!.G.G.G.c.d.!.`.`.Y.( } ..<.j.!.Y.V..X`./.!./.A.7.r.7.j.!./.! 1 a <.+.d.G.A.j.p.} <.;X&X`.#X.XG.c.V.V.c.A.j.7.*.3.c.c.7.*.+.*.r.V.p.( ( *.r.r.3.r.d.<.7.j.j.+.! p.!.!.+.! } <.",
"/.G.!./..X#X!.V.V./.!.c.A.!.V.7.r.p.d.c.j.r.V.!.!.c.d.<.+.<.j.G.s.r.r.j.G.G.j.Y.j.G.#X!..X;XY.j./.!.`.!.A./.!.A.j.r.r.p.3.<.7.d.G.Y.!.!.!.Y.A.c.G.j.p.j.A.V.c.!.A.A.c.Y.#X`.!.!.!.G.j.j.j.j.j.A.7.<.<.*.j.A.r.d.j.A.j.r.3.p.V.V.G.G.V.j.p.j.c.A.!.!.A.j.p.j.c.V.j.Y.!.^.Y.G.A.!./.!.!.G.A.!.V.d.7.V.<.<.d.d.G.!.A.j.j.Y.!.A.d.3.p.V./.&X!.Y./.Y.d.r.d.j.c.V.c.j.V.`./.!.A.<.<.A.r.7.V././.V.r.p.<.p.Y.Y.c.A.A.A.Y./.G.<.*.*.7.<.3.7.V.c.p.d.j.j.V.!.A.j.A.A.r.<.<.7.*.7.Y.!.c.<.G.!.A.A.<.n c n z J ( +.j.!.j.A.A.c.A.!..X!.!..XY.G.!.G.A.!..X&XA.r.d.V.V.j.j.c.Y.Y.!.Y.r.<.<.<.d.j.r.3.7.p.j.j.V.j.p.3.<.7.j.G.<.p.V.A.j.A.G.d.7.<.<.*.7.j.!.A.r.p.p.r.7.p.j.j.!.A.p.c.!.G.A.c.j.A.!.A.j.p.<.7.r.r.3.<.r.d.j.V.A.c.j.V.V.j.j.A.G.c.V.V.j.j.j.A.j.j.j.j.c.V.j.d.!.A.j.j.j.j.j.G.A.c.G.j.p.r.*.<.3.r.j.j.5.<.<.<.<.<.<.<.<.3.3.r.p.7.3.7.j.!.Y.j.j.j.d.d.j.p.<.*.! N ! j.!.j.3.c.j.j.j.d.d.V.G.j.j.c.j.r.<.+.<.j.A.c.j.V.A.j.r.<.j.d.*.+.3.d.j.j.j.!.Y.!.!.G.G.7.<.d.<.<.d.j.G.Y.c.d.j.c.A.A.V.j.j.c.j.d.j.j.j.G.c.p.d.V.j.p.p.j.j.Y.!.V.d.d.j.c.a.<.( j.!.A.V.0.3.} U ! } +.<.( ( <.U ! ..! } !./.r.<.<.3.7.<.<.3.j.3.<.r.<...<.<.+.} } ..+.<.j.j.d.p.p.<.*.<.r.r.j.j.V.!.7.7.p.j.A.j.j.A.A.G.G.a.<.<.c.c.d.j.j.d.j.c.Y.Y.A.G.Y.!.!.!.A.r.r.j.j.c.A.Y.!.Y.j.r.3.p.c.G./.!.Y.c.V.!.j.3.V.A.!.Y.*.3.<.r.j.V.V.G.;X.XG.d.G.G.j.j.<.+.!.Y.<.z N <.3.d.V.!.!.A.<.} /./.!.!.A.d.p.j.A.p.<.<.3...+.d.j.7.r.<.<.r.7.<.+.+.3.p.3.<.3.3.<.7.j.j.<.+.p.A.c.} ..+.<.",
"&X!././././.A.p.3.G.!.A.A.Y.c.p.7.7.j.Y.j.7.G./.Y.V.j.r.3.j.V.c.j.p.7.d.A.G.V..X!./.#XY.!.#X!.!.`.!.`.V.j.Q.Y.j.j.d.j.j.r.<.<.<.j.V.G.!.!.!.G.V.Y.j.r.c.!.!.!.;X/.!.A.!.;X&XY.Y././.A.c.c.j.d.j.3.<.<...p.j.<.7.V.G.j.j.r.r.c.A.j.j.V.j.j.c.A.G.`.!.G.c.j.c.A.V.A.j.7.j.c.A.c.!.!.Y./.!.G.!.c.r.2.j.7.r.j.7.c.A.G.<.3.A.Y.c.p.<.*.j.!.!.p.7.V.j.j.j.V.G.j.j.A.Y.j./.!.c.j.<.+.d.7.d.!.#X`.!.c.G.j.j.A.V.j.G.!.!.V.Y.c.<.<.*.3.<.7.<.j.j.<.7.j.G.j.!.Y.V.Y.c.3.<.*.p.<.<.j.!.Y.<.j.V.7.3.<.U D N N U ! ( j.!.j.j.!.A.Y.#X#X!.!.;X#XY.I.c.j.Y./.&XG.d.j.j.j.j.j.V.!.V.G.Y.d.3.j.r.<.c.7...+.7.c.j.c.j.j.c.j.r.<.<.J *.V.!.c.d.j.j.d.7.3.+.<.r.A.V.j.r.r.c.G.j.d.j.!.A.d.d.c.G.!.Y.j.j.G.V.j.d.<.r.j.7.....3.d.d.j.c.j.j.j.j.d.j.Y.A.j.r.p.j.j.j.A.c.V.A.j.j.j.d.A.V.G.V.j.j.j.j.V.d.p.j.r.<.7.<.p.3.7.j.c.d.7.r.<.<.<.+.+.7.j.j.j.r.<.<.<.j.Y.A.3.<.d.p.d.G.G.p.3.3.<.+...j.!.A.c.c.j.j.r.p.j.V.j.V.G.j.7.<.} <.j.7.d.j.j.j.j.7.*.<.3...<.j.c.Y.!.V./.Y.Y.!.!.!.3.3.j.3.3.z.V.!.G.V.d.p.j.j.j.V.c.V.V.j.j.G.A.j.V.p.<.<.p.r.<.<.r.V.!.!.j.p.j.Y.!.Y.c.3.j.V.j.l.p.<.3.*.+...( ! N ! } c U *.R U V.!.<...p.c.p.<.3.j.V.+.<.V.3.( <.d.<.! } <.3.7.p.j.7.r.j.j.7.3.d.d.j.j.j.G.p.j.G.c.!.d.<.d.j.G.!.r.<.3.Y.Y.d.d.d.r.V.!.!././.!.!.!.!.!.Y.j.c.Y.!.A.c.j.G.Y.j.d.j.r.V.!.`.!.!.j.p.!.j.<.p.7.j.d.( <.<.3.<.r.!.!.A.#XG.j.Y.A.j.j.} J c.j.p...( 3.j.p.7.j.Y.`.j.! j.c.Y.j.<.<.p.r.3.<.U ! 7.*.! <.3.3.c.j.d.j.p.p.7.7.j.j.r.<.3.7.p.j.d.p.7.7.j.p.<.( p.d.c.",
"!.`./..X&X#X!.7.7.j.!.!.G.c.r.7.j.7.p.A.r.j.!.!.G.A.b.j.V.A.G.V.c.j.j.d.A.V.!..X.XV.j.d.V.G./..X.X!.!.c.j.V.j.d.r.V.G.c.j.j.d.<.c.!.G.V.!.`.!.Y.!.j.p.j.G.!.!.Y.!.!.Y.G.`.#X!./.!.#X!.V.`.!.d.3.<.7.<.+.r.j.p.j.G.Y.!.G.d.j.Y.G.j.j.j.c.d.d.c.G.!.&X!.Y.!.Y././.`.p.<.<.r.<...d.V.A.!.Y.A.V.d.r.j.c.j.j.j.j.V.r.A.<.<.j.V.V.j.d.3.r.!.&XA.p.j.G.G.p.3.j.V.j.c.A.V.!.Y.j.c.j.<.} j.c.A.Y./..X!.V.j.j.7.<.*.7.V.A.p.p.<...<.<.%.( <.<.r.<.+.r.j.G.G.!.Y.V.c.V.j.p.*.r.j.r.r.V./.+.<.j.p.3.<.7.*.....<.3...3.V.d.d.V.Y.!.`.;X#X/.!./.!.G.A.c.A.G.A.V.j.j.d.d.j.d.j.Y..XG.j.7.<.j.j.3.d.p.+.*.c.!.!.c.j.c.G.*.v N +.( d.`..Xj.3.j.!.j.*.7.7.r.j.r.j.j.j.j.c.A.j.7.r.j.p.j.G.c.c.!.Y.<.r.!.p.3.j.j.7.G.p.y.7.<.A.c.Y.Y.A.V.V.j.d.j.Y.G.G.r.d.A.j.j.c.j.c.c.d.j.j.d.p.j.d.d.j.V.V.V.c.r.7.j.d.<.7.j.A.3.7.r.j.j.p.7.r.<.7.<.<.3.r.V.G.d.7.*.+.3.j.d.j.j.A.j.j.A.A.d.<.3.c.7.C J !..XA.!.A.V.j.j.A.c.c.A.Y.c.3.*.<.3.7.<.p.j.V.j.3.3.<.<.+.! <.j.!.;X`.j.!./.!.!.G.j.j.d.c.d.j.j.c./.!.c.r.d.j.j.j.A.j.j.c.j.c.G.V.c.A.7.<.d.j.d.d.7.<.r.c.!.j.p.j.j.j.A.A.j.d.<.7.!.d.3.<.+.*.<.*.! C <.D h N R +.*.d.7.( *.<.3.d.3.p.j.j.+...r.<.( *.r.<.! R ! <.r.p.d.j.p.r.p.j.j.7.r.d.c.p.7.j.j.j.j.Y.c.3.*.j.!.!.j.3.<.G.!.c.c.j.V.A.!.!./././.`.!.!.!.G.G.!.!.!.Y.j.V.!.!.`.j.j.p.G.`.!.V.A.d.3.j.7...+.d.j.7.+.! *.j.d.r.V.!.!.A.*.j.`.Y.j.V.<.C <.Y.c.7.! <.r.p.} 7.j.j.V.j.r.j.c.j.<.<.p.r.r.<.! } 7.3.*.<.<.7.j.j.j.c.j.d.d.p.r.p.d.p.r.p.d.j.j.<.*.r.d.<.+.! <.j.j.",
"V.!./..X`.!.!.A.V.A.!.!.!.Y.j.j.j.j.j.c.r.c.!.`.Y.G.G.Y.G.j.j.j.A.j.j.d.A.V.A.G.G.j.d.p.Y./..X/.j.j.V.V.c.V.j.7.p.A.!.G.A.A.c.p.p.A.G.A.!.!.Y.!.`.A.c.G.Y.!.!.G.Y.!.V.j.!.&X.X.X#X`.Y.!.;X;XG.d.p.j.p.<.d.G.V.A.G.V.c.V.c.A./.!.j.V.A.j.7.j.Y.!.!.#X!.A.j.c.!.!.A.r.7.d.j.3.} <.A.!./.A.p.7.r.c.A.Y.c.c.G.Y.G.d.A.7.<.7.d.j.j.j.j.p.c.!.Y.V.V.V.G.j.d.A.c.d.c.V.c.Y.!.Y.j.3.*...c.A.Y.Y.!.!.Y.j.r.<.( ! ! +.d.j.<.3.<.*.<.3.*.( <.*.r.7.<.p.V.!.V.G.A.j.j.j.c.j.7.7.3.3.d.c.!.*.<.d.d.j.j.j.3.<.r.j.A.3.<.j.j.j.V.G.!..X;X;Xj.U } G.`.!.!.G.j.r.r.d.c.j.j.j.3.<.G./.!.V.r.3.p.7.j.V.j.r.j.c.3.3.*.J U <.+.U R U <.r.c.A.j.7.7.j.3...r.j.p.d.3.3.j.j.z.c.A.G.c.p.r.+.7.Y.!.!.!.j.( 7.&XG.7.3.r.3.c.p.j.j.p.A.c.!.!.V.j.p.r.7.p.c.A.!.c.j.c.c.c.j.c.A.V.p.d.j.r.r.r.7.p.j.A.A.j.j.r.3.d.d.p.j.j.j.j.d.j.j.j.j.j.7.p.p.<.7.r.p.j.j.d.3.<.<.r.d.r.s.j.G.j.d.j.j.<...3.j.j.7.<.A.V.V.!.G.Y.Y.G.P.c.A.c.A.A.d.<.<.3.<.<.j.A.!.j.<.<.3.7...R +.7.j.#X/.! j.!.Y.Y.V.d.d.j.V.p.d.d.p.V.j.j.p.d.j.j.c.A.V.j.j.j.j.c.j.r.r.+.+.7.p.d.j.7.3.<.j.!.j.r.j.A.Y.A.A.d.<.! +.Y.A.d.j.d.<.*.<.+.! } J v D ! +.} <.} ! 7.d.<.<.} } 7.p.} ! 1...! } +.*.*.+.*.<.<.<.7.p.3.p.c.j.p.<.*.<.j.j.d.d.p.p.j.j.j.d.r.j.Y.Y.G.j.7.c.A.c.A.c.c.A.G.G.Y.!.!./.`.!.!.!./.`./.`.G.j.A.Y.V.A.7.d.j.V.Y.j.r.7.<.+.+.*.*.<.p.c.j.<.+.3.c.j.r.j.j.j.( D 3.!.!.V.!.G...p.!.!.j.( <.j.j.r.A.A.p.p.p.r.j.c.j.<.<.j.j.j.7.*.*.<...*.7.7.7.V.j.d.d.7.r.d.r.3.r.j.d.p.p.p.p.p.<.<.r.p.<...! } ..+.",
"Y..X`./.Y.j.V.Y.Y.V.G.!.!.!.G./.V.A.Y.V.d.c.V.`.G.A.G.!.Y.j.j.c.c.c.j.d.A.G.!.!.G.V.j.j.!.A.c.j.+.<.p.j.j.j.j.r.d.V.G.V.j.c.c.j.7.c.A.A.Y.Y.G.!.!.A.A.!.Y.A.G.!.Y.!.V.V.#X.X!.`.;X`.Y.!..X&X!.j.j.j.j.7.d.Y.!.!.A.j.7.j.P.!.`.Y.j.G.Y.j.3.j./.`.!./.I.j.p.j.Y.Y.r.r.j.A.!.Y.j.j.A.!.#X!.c.j.d.G.G.Y.j.c./.`.Y.j.V.d.3.7.r.d.j.j.c.d.d.V.Y.A.j.j.j.j.j.V.j.d.V.G.A.A.!.!.p.<.<.+.j.c.V.j.j.j.j.7.<.+.( *.<.*.<.3.*.7.r.3.3.<...! <.<.a.d.7.<.7.c.j.j.c.j.d.j.j.j.p.7.<.7.A.A.!.r.7.7.r.A.V.j.3.r.<.j.!.j.j.!.Y.G.V.Y././.!.Y.( r s j.;X/./.Y.j.<.<.d.A.c.V.c.r.3.j.V.`.!.V.A.c.r.!.!.A.j.G.<.c h N h c +.<.3.r...d.r.3.p.c.d.<.3.3.<.j.j.r.p.r.r.G.V.j.V.V.V.A.7.<.! <.A.!.!.!.!.( +.!.A.d.j.V.j.3.3.j.c.d.j.j.G.j.j.p.3.*.+.<.r.V.!.V.j.j.V.c.j.j.A.c.r.j.c.p.d.r.<.<.j.V.j.d.j.j.7.3.<.<.3.<.<.V.j.V.j.3.7.p.<.r.7.<.p.j.j.j.r.7.<.<.<.j.j.r.j.j.!.A.d.j.p.<.<.<.<.d.c.d.d.d.!.!.Y.!./.!.N.j.V.c.j.j.j.7.p.d.3.+.j.!./.c.<.<.7.j.*.( <.<.p.!.G.( A./.A.c.j.3.3.c.c.r.r.7.<.r.7.d.p.j.j.j.j.c.A.j.j.j.j.A.V.j.j.*.3.j.j.c.c.p.7.<.j.A.d.7.j.A.Y.j.d.<.+.R ! j.j...j.V.r.<.<.<.! ! ! J R R ( ..3.<...r.r.+.+.+.<.3.r.+.( *.( ! ! *.7.p.3.<.<.<.<.r.r.*.3.j.p.7.p.r.<.p.j.r.<.<.p.G.j.r.j.p.p.A.!.V.d.7.j.V.G.G.j.c.A.V.j.j.V.!.!./.`.!.!.!.V.j.j.c.d.d.d.<.<.( +.c.j.c.j.r.<.....*.<.d.r.7.h.V.7...3.j.d.r.d.p.3...! 3.V.`././.!.j.j.V.V.d.( <.j.j.j.V.j.<.+.<...} <.3.+.<.j.p.7.<.<.<...! ..3.3.<.j.p.7.7.7.d.j.j.r.r.p.7.p.j.A.c.p.<.+.<.3.<.<...! ( +.",
"V.!.G.A.G.A.Y.!.c.p.j.!.!.A.Y.;XA.j.!.!.V.A.j.!.I.A.G.!.!.G.Y./.`./.A.j.V.Y.!.!.`.!.A.A.!.<.( ;.} 3.r.j.d.p.A.G.G.A.A.c.d.d.j.j.p.j.c.c.A.V.V.Y.Y.c.A.!.A.j.V./.!.Y.A..X;Xr.*.7.;X&X`.!.!.!.Y.A.Y.c.V.j.j.V.A.V.A.d.7.j.A.Y.!.A.p.c.V.s.7.A..X`.!.G.V.j.d.A.!.G.j.V.G.!.`.`.!.!.j.Y.!.G.!.!.j.j.j.V.j.j.`..XG.j.A.c.j.j.j.j.j.d.d.p.p.j.V.j.d.j.j.j.j.c.j.j.Y.!.Y.A.V.j.p.8.<.<.r.j.c.j.p.r.<...+.*.3.A.Y.d.r.7.<.d.j.d.r.<...( 3.3.j.j.r.<.<.p.j.j.V.V.j.7.3.<.<.<.<.p.!.!.!.A.c.j.p.c.j.d.7.j.j.j.A.j.j./..X!.c.!.&XY.+.N a 4 e 3..X!./.Y.V.3.<.j.c.c.Y.!.A.G.d.d./.!.A.#X.X!./..X!.!.!.7.N v ( ! ..p.d.d.d.*.j.j.<.3.c.c.7.<.d.j.V.j.p.d.d.c.!.G.p.V.A.d.j.3.j.7.d.c.j.p.j.`.d.*.d.p.7.d.G.V.<.3.j.j.d.j.j.j.p.c.G.j.3.<.3.d.c.c.j.p.j.j.j.j.j.A.c.r.j.A.j.j.j.<.<.j.V.r.3.j.A.j.r.<.<.<.<.<.7.d.V.d.<.3.r.r.7.3.<.j.V.V.p.*.3.<.p.7.d.3.<.r.V./.!.j.j.p.<.d.<.<.<.j.p.3.d.!.A.c.G.!.!.V.j.Y.A.7.r.j.j.d.d.3.<.p.V.!.A.d.r.p.r.*.<.j.j.j.!.V.<.!.!.p.p.d.r.j.c.j.7.r.3.<.3.7.p.d.j.j.j.j.j.c.A.c.j.d.j.j.7.<.<.j.G.V.A.V.7.<.<.7.r.<.r.A.G.V.j.<...+.....3.<.N *.j.r.<.r.7...( <.+...! ( <.j.r.<.<...( +.+.<.7.j.7.<.*...( +.! *.<.*.+.*.<.7.r.p.<.3.r.3.p.j.j.<.r.j.3.<.3.V.!.j.f.j.d.r.A.!.!.j.<.<.d.Y.!.V.c.G.c.r.7.j.G.G.c.!./.`./.A.j.j.d.r.3.7.<.<.! ! j.p.j.j.d.<.+.<.<.<.r.<...r.j.3.R *.p.p.r.d.j.d.d.j.d.<.c.!.G.j.!.!.Y.!.V.j.G.Y.d.3.<.<.+.*.<.! C ( <.<.r.d.3.<.<.<.<.<.} +.p.j.3.r.*.<.r.j.V.V.!.j.j.j.r.r.c.!.V.p.<.*.<.3.p.d.r.*.*.r.",
"7.V.j.j.Y.!.`.!.r.j.c.!.!.V.Y.;Xc.<.A./.!.!.Y./.`.!.!.!.!.`.#X#X;X&Xc.j.Y./..X!./.!.A.A.Y.*.( ..3.d.p.j.j.j.!..X!.A.c.c.r.<.7.j.d.j.j.V.A.V.V.G.G.c.Y./.G.j.c.!.Y.V.V..X!.N v D c.&X,X.X!.Y.Y.!.c.p.V.Y.A.A.c.c.c.j.d.V.A.V.G.V.r.r.r.3.r.A./.!.G.j.j.j.A./.`.G.Y.Y.G.Y.!././.Y.c.G.A.j.!.&X!.j.j.j.d.d.Y.!.A.A.Y.Y.G.Y.!.!.j.r.<.3.p.j.c.j.j.V.V.c.j.j.j.j.Y.!.c.V.j.7.p.d.3.*.<.d.G.Y.j.d.3.} +.<.j.!./.V.V.V.<.d.V.d.p.p.<.3.j.j.V.j.7.3.<.p.c.j.j.j.p.r.3.<.! <.7.7.A.V.G.G.!.Y.j.r.*.<.r.j.G.c.j.p.j./..X!.7.r.`.!.U 8 , 7 e ! Y./..XY.!.d.j.j.j.j.Y.!./..XA.V.#XV.<.A././.!./..X!.Y.j.<.<.d.d.<.<.p.j.j.p.j.c.p.3.j.V.r.<.j.Y.G.d.d.p.3.j.!.V.<.l.!.j.r.r.r.p.p.p.d.<.+.V.j.<.7.<.*.<.V.!.d.j.j.d.j.G.j.7.r.A.!.G.d.7.p.j.j.p.7.3.d.V.c.d.j.A.V.p.j.G.j.j.j.r.d.A.A.d.7.r.j.d.7.7.7.<.<.<.<.d.j.7.3.r.<.7.j.d.<.j.V.c.3.} 3.<.j.r.p.<.+.p.c.!.!.j.j.7...7.r.<.7.j.p.*.3.V.G.j.c.V.A.V.c.Y.G.7.d.Z.j.<.<.3.3.7.j.c.c.j.j.j.7.<.d.!.V.j.j.7.3.G.j.*.<.d.j.V.j.j.p.p.p.7.p.d.d.j.c.c.j.j.j.c.Y.V.p.<.7.3.<.*.3.c.!.V.A.A.7.<.*.+.+.+.r.Y.Y.V.c.3...<.<.<.7.r.+.7.j.r.7.r.3.*...7.<.<...+.<.p.<.<.<.+.<.<.( ( p.j.j.p.<.+.*.<.! <.3.<.3.3.<.<.3.7.r.d.p.d.j.p.7.<.d.j.p.7.r.j.d.p.d.c.j.j.A.G.Y.d.<.<.j.!.!.j.j.A.V.p.7.j.c.j.r.G.!.!.`.!.G.j.p.d.j.j.j.j.7.7.d.7.p.p.3.*.*.p.7.*.<.<.*.d.V.r...r.j.j.r.7.p.d.d.V.V.<.j.A.V.V.!.!.Y.`.G.j.Y.j.j.3.<.<.r.j.d...! } 3.r.7.<.*.3.d.<.<.3.+.( <.j.d.p.*.<.d.c.A.c.G.j.V.!.j.p.j.j.r.p.j.j.p.d.c.V.j.<.*.<.",
"3.j.c.c.A.!.!.j.3.Y./.!.!.G.!.`.V.<.c./.!.!./.`.!././.`.&X;X;X;X&X!.<.p.Y.`.!.c.G.!.V.j.A.j.d.<.7.r.7.d.c.A.!./.!.V.V.c.7.*.<.r.r.j.V.!.!.G.V.V.V.c.!.#X!.V.G.`.Y.Y.G./.A.D ( *...!.,X;X#X!.!.`.j.p.A.!.!.!.V.c.d.j.d.j.j.j.j.j.p.<.*.<.7.V.!.Y.V.j.j.c.!.#X!.V.G.c.j.A.!./..X!.V.G.Y.j.G.#X!.j.l.j.j.d.j.A.V.!.!.!.G.Y./.!.c.p.<.<.p.V.G.A.A.G.c.j.j.j.j.d.V.A.d.c.j.r.j.j.3.*.+.3.c.A.j.j.j.p.+.3.j.!.Y.j.j.j.<.r.j.r.r.j.d.V.A.c.j.3.<.<.<.r.V.d.r.7.3.p.d.3.+.7.r.<.r.3.7.r.`./.j.<.! <.d.c.c.j.j.j.c.!.`.!.3...!.,Xr.r : 7 0 k j..X#X!.!.d.j.c.j.j.V.Y.!.!.p.c.#Xj...p.G.!.!.!./.A.7.7.j.V.!.!.r...*.7.j.V.r.j.j.7.d.j.7.<.d.Y.c.<.3.3.<.r.!.V.<.j.`.c.3.3.( } } } r.r.+.d.r.+.<.7.p.d.!..XA.G.c.r.j.A.j.<.j.A.G.j.r.p.j.d.r.r.p.3.p.!.G.r.p.j.V.d.j.Y.c.j.V.G.G.c.j.V.j.r.j.p.<.<.7.<.<.3.<.<.<.*.p.j.*.<.!.c.<.j.j.c.r.<.7.3.G.p.j.7.7.A.j.V.!.V.j.d.*.<.j.3.3.p.3.! *.j.A.j.j.j.j.V.V.G.A.d.j.V.7.+.7.c.p.r.j.j.j.j.j.V.j.r.j.Y.j.3.<.} p.c.p.<.3.j.j.c.c.j.j.j.j.j.j.j.j.c.A.G.V.V.A.V.G.V.p.3.p.d.p.r.p.A.!.j.j.j.r.<.*.*.<.<.r.V.c.j.p.<.*.<.<.<.<.j.c.j.d.p.d.p.3.<.<.<.! } ....+.*.*.7.3.<.<.<.*.<.c.j.V.j.<.....<.<.j.d.7.p.d.<.+.3.3.7.d.j.A.Y.r.7.3.j.j.j.j.j.j.7.r.d.c.j.j.c.j.<...+.<.j.Y.c.7.d.V.V.j.d.j.j.r.r.c.j.M.A.G.c.*.7.j.A.G.j.j.j.j.7.<.r.r.<.<.<.j.d.3.r.p.3.j.c.3.7.V.G.V.j.r.d.j.p.d.V.p.A.G.j.c.p.<.<.G.p.j.#X/.G.j.j.j.c.V.j.<.<.<.<.<.+.} ( <.p.<.<.p.<.! } 7.j.j.r.r.d.j.A.c.7.+.7.Y.A.j.c.j.7.j.!.!.p.r.c.A.p.<.*.<.",
"p.j.j.j.j.A.G.r.<.!./.!.!.G.!.!.!.j.!./.!.G.!.!.c.V.!.`.&X&X&X&X`.G.+.r.V.G.c.7.V.!.A.d.c.j.A.3.+.<.r.j.A.A.V.!.!.!.!.G.p.d.c.j.p.j.Y./.!.A.c.A.A.c.!.#X`.!./.&X/.!.!./.Y.<./.`.r.G.&X;X&X/.!.`.`.!.!.Y.Y.!.V.j.j.j.d.j.j.j.c.j.p.<.*.<.7.j.V.g.j.j.j.j.Y.`.Y.c.G.j.r.V.!.`.#X!.j.j.A.c.j.G.j.3.j.j.c.j.j.c.c.!.Y.G.c.V.!.G.j.j.p.3.d.G.!.!.!.V.j.c.V.Y.c.d.j.c.j.j.j.j.A.G.j.r.+.<.d.j.r.j.A.j...3.d.c.j.p.p.3.7.p.j.<.<.j.p.c.j.p.3.<.<.<.<.p.c.j.j.d.3.r.p.<.2.3.7.<.p.3.3.3.!.!.V.r.+.d.V.A.Y.A.j.r.j.V.!.!.j.3.!.5X`.! 7 , 3 i j.!./.Y.G.d.d.V.V.j.p.j.Y.j.( r.!.c.3.V.!.!.G.j.c.d.*.<.j.!.A.!.j.<...<.j.c.d.d.d.p.p.r.<.<.7.j.j.<.<.r.p.r.d.G.V.j.c.j.3.*.! ( +.} <.p.*.<.r.+.*.7.G.A.!.!.j.c.j.r.j.p.3.*.j.A.V.r.3.j.V.c.3.3.j.d.d.G.V.3.7.d.c.d.j.G.V.d.A.!.A.j.d.V.V.j.V.j.7.7.7.<.7.j.<.! ! ( p.c.3.r.!.c.*.d.r.j.r.3.p.7.A.3.d.p.p.G.d.j.!.G.A.V.7.r.j.7.<.<.<.R <.j.d.j.j.7.7.j.V.A.j.j.j.j.7.<.j.!.j.p.j.j.j.j.j.V.j.r.d.j.j.<.*.<.r.p.p.p.j.V.A.A.c.c.V.c.c.V.V.V.j.c.Y.Y.V.A.G.j.G.A.j.r.d.j.p.r.p.j.V.<.*.r.r.<.<.3.d.p.d.c.j.r.*.*.<.<.<.( } r.j.7.<.p.c.c.p.<.7.<.U +.<.+.+.*.+.<.3.<.+.<.d.p.G.d.j.j.<...} } *.7.<...<.r.<.*.7.7.<.7.j.Y./.c.j.p.j.j.j.G.A.V.j.j.p.j.j.j.c.r.+.! ( *.3.j.j.j.j.j.j.d.d.j.j.p.p.d.3.p.d.j.A.3.7.c.V.V.d.j.j.j.r.7.p.3.3.7.3.r.7.7.r.<.} <.p.<.<.j.c.c.V.j.V.V.3.<.j.d.V.V.d.r.3.+...7.C ! `.`.A.j.V.V.c.j.3.<.r.3.<.+.*.<.<.7.7.<.3.d.j.p.p.j.j.j.j.j.j.j.V.c.*.D ! j.A.G.!.G.d.j.V.j.*.<.j.d.<.3.r.r.",
"Y.j.7.r.r.j.c.<.*.c.A.!.!.c.G./.!.!.#X`.`.G.!.!.r.p.V.!./.!.!.`.!.G.<.d.V.A.V.j.j.Y.A.j.j.r.V.r.! <.c.A.G.A.c./.!./.`.V.r.c.!.A.j.V.!..X!.j.c.G.!.G.!./.!.!./.&X.X/.!./.Y.3.,X;X;X/..X;X&X`..X.X;X.X!.j.j.!.!.!.G.G.j.j.V.G.Y.j.7.3.<.<.r.j.j.3.p.d.j.d.A.!.V.c.V.7.<.j.!./.#X!.A.d.V.V.j.j.j.7.7.7.c.c.j.c.j.A.V.j.j.j.A.c.j.j.j.r.j.Y.Y.!.!.j.Y.!.`.&X!.j.j.j.G.j.j.Y.!./.!.V.<.7.c.j.r.p.j.7...<.7.p.d.j.j.d.j.j.c.<.*.7.<.r.c.p.3.3.3.*.} 3.<.3.j.V.j.j.j.<.<.+.<.3.G.A.c.j.c.V.j.p.<.j.V.j.c.j.r.r.j.c.V.A.j.r.c.!.;XY.h , , r j.c.A.A.A.j.7.A.!.j.<.d.G.3.p.V.!.c.d.Y.!.c.c.r.r.<.} +.7.A.j.V.c.d.<.3.p.<.j.p.r.d.d.7.<.<.+.3.j.j.p.c.A.7.( G..Xj.<.p.7.+.( *.j.r.<.r.*.+.3...( <.V.c.G.!.r.d.j.d.j.<.<.<.7.j.j.<.+.r.V.A.3.<.j.c.j.j.d.3.r.d.c.j.p.V.j.3.c.c.j.j.j.j.j.d.r.j.p.p.3...<.j.c...( *.r.j.3.r.Y.c.*.p.3.r.<.<.<.} r.( 3.r.p.A.c.j.Y.A.c.V.r.r.A.j.3.<.3...<.<.j.A.G.3.+.3.3.<.p.j.c.j.j.j.j.j.j.r.j.j.j.V.j.V.c.j.j.j.j.7.<.r.7.3.p.j.c.c.V.c.j.c.A.V.V.Y.G.A.c.j.Y.Y.j.c.V.p.G.G.j.j.j.j.p.7.r.j.j.<.} d.V.d.<.7.j.j.c.A.j.3.<.<.<.*...! ! 7.Y.d.<.r.j.j.r.<.7.7.+.j.c.7.3.7.<.<.j.c.r.j.A.r.A.<.7.d.<.<.+...( <.+.! <.3.*.} <.7.<.7.j.Y./.!.Y.c.A.G.G.Y.V.j.V.j.p.j.A.G.A.p.<.} <.3.3.r.r.j.j.j.p.3.7.l.c.j.p.7.<.3.<.<.A.j.p.V.c.V.j.G.Y.Y.A.j.r.+.+.<.<.<.<.3.3.! J <.c.c.p.V.j.c.V.j.j.p.+.+.c.d.j.c.c.j.Y.A.c.j.v R #X/.r.<.j.j.j.c.<.<.<.<.<.+.3.j.d.p.c.j.r.<.7.j.V.A.j.A.V.c.j.j.j.d.<.N D r.A.!.!.c.r.<.<.<.( <.d.<.<.d.j.j.",
"V.A.7.<.r.j.j.<.+.<.j.!.c.!.;X/.!.`./.!.`.`.Y.c.<.! <.!./.!.#X`.!.c.j.j.<.7.A.j.j.c.j.r.7.3.p.V.<.<.A.!.Y.c.Y.V.j.j.j.d.r.d.j.c.c.j.!./.V.d.j.c.Y.!.G.!.!.V.`.#X`.#X!.!.;Xc.!.;X;X&X.X;X,X&X/././..X!.V.<.A.&X.XY.V.c.j.j.V.G.j.j.j.j.j.j.j.d.p.c.c.p.7.3.r.V.j.j.j.j.G.!.Y.!.!.V.j.V.A.j.c.A.c.j.<.d.j.j.j.d.c.!.Y.Y.A.A.A.V.G.c.r.c./.Y.c.V.j.!.;X`.#X!.c.j.A.!.Y.V.Y.Y.c.A.!.c.c.Y.r.c.c.*.! ! r.j.7.d.j.V.3.p.j.r.<.7.<.*.r.j.j.j.p.V.Y.7.<.<.<.j.V.j.c.j.7.*.<.<.p.A.c.j.j.p.<.<.r.p.7.7.d.j.!.d.A.G.j.j.V.<.p.!.c.!.!.J 4 3 h ..<.<.j.c.j.j.p.*.j.d.+.r.<.j.j.j.3.3.d.d.r.p.d.j.3.<.+.p.c.r.j.j.3.r.c.j.<.p.3.<.7.j.j.7.7.<.<.l.G.7.3.c.A.+.p.A.7.3.j.7.<.} <.j.A.<.7.7...<.d.<.! d.A.V.A.<.j.!.j.c.p.<.<.d.c.c.<.<.<.V.!.p.<.c.A.j.d.*.<.p.V.G.j.j.d.<.7.j.j.7.j.Y.*.d.j.j.j.j.d.<.( +.3.j.p.7.3.<.j.<.3.j.p.+.j.j...*.<.<.U ! +.<.<.7.!.!.j.j.!.V.r.3.<.j.c.3.3.j.<.*.<.j.V.c.p.<.<.3.r.j.j.j.V.G.j.7.<.j.c.G.j.V.!.V.G.G.p.<.7.p.j.d.7.7.p.3.p.j.j.j.A.A.c.V.c.A.Y.j.d.j.V.Y.Y.V.c.j.j.Y.V.V.G.G.c.c.A.A.j.p.<.*.c.!.j.3.<.3.r.j.j.<.7.3.7.<.<.*...+.7.A.G.p.7.d.j.j.p.V.A.!.#X!.c.j.j.d.j.c.!.j.p.A.<.3.p.<.<.<.+.+.+.+.<.<.<.r.<.( ! *.3.3.r.j.!.`.!.V.!.`.!.G.G.G.A./.V.<.r.j.j.j.<.3.*.3.j.j.d.7.j.j.c.7...<.j.j.r.<.<.p.<.( } V.G.G.A.y.r.j.V.Y.F.V.j.<...<.<.} <.3.*.( R D 7./.j.j.c.d.3.<.<.<.! R *.A.j.7.p.7.j.`.Y.7.Y.3.U 3.G.7.<.r.3.r.<.+.+.<.+.*.} ..p.j.7.j.c.p.r.d.j.A.A.A.A.A.A.c.j.d.r.p.r.j.V.j.d.d.r.<.<.3.3.7.3.7.A.c.V.j.j.",
"j.j.8.3.j.G.A.p.3.d.c.j.r.j.#X/..X/.!.!.!.!.V.d.<...j.#X`.!.#X5X.XA.!.!.7.3.!.A.j.j.d.7.<.<.p.Y.j.j.!.`..X!.c.<.! ..<.7.7.7.d.j.j.j.Y.!.A.j.j.V.!.`.!.`.!.G.`.`.!.#X#X`.;Xd.!.;X#X;X5X/.j..X9X&X`.!.c.Y.j.A.!.Y.A.j.r.d.j.A.j.7.j.j.c.j.p.r.d.j.!.G.r.<.<.<.p.j.A.A.j.c.!.G.V.c.A.j.j.j.j.V.V.j.r.3.j.j.p.3.<.d.&X.X!.V.c.!.#X&XG.d.c.!.!.!.!.V.!.`.Y.`./.!.c.c.Y.c.<.+.} ..r.c.!.Y.A.3.j.p...} ! *.<.<.p.d.A.p.r.d.j.j.j.j.<.<.d.c.j.<.j.Y.d.<.3.p.V.j.p.d.d.j.7.d.r.r.7.<.r.d.p.3.<.3.r.7.7.7.d.Y.j.Y.!.G.V.j.j.j.!.G.j.V.c.J h J *.<.<.d.c.A.j.V.j.G.c.r.j.p.3.r.r.<.<.<.<.<.p.j.V.j.d.<.p.j.j.c.A.j.c.G.V.j.j.3.<.r.d.p.d.V.p.3.A.!.r.3.j.j.p.j.j.<.j.!.3.+.! ! <.j.<.<.<.3.<.A.V.<.j.p.d.V.r.V.!.A.Y.V.d.d.j.V.G.p.3.<.j.!.j.r.j.c.j.d.<.<.j.j.A.A.c.c.p.<.j.c.p.d.Y.<.j.j.d.7.<.<.*.<.<.3.p.j.j.c.j.j.3.j.A.7.+.r.p.<.3.<.*.! <.3.p.d.r.A.d.r.c.G.r...+.<.p.j.r.p.c.d.3.7.c.j.j.j.j.d.r.<.d.r.r.j.d.7.<.*.d.j.G.A.G.A.V.!.A.p.<.3.r.d.j.d.j.c.j.j.c.j.A.G.Y.V.V.c.G.!.V.j.c.G.!.Y.V.j.j.j.G.A.A.Y.Y.A.G.!.G.j.j.j.j./.;X!.j.r.r.r.p.<.*.7.3.3.<.7.p.3.<.3.A.Y.V.j.j.c.!.V.!.Y.!..X!.j.j.j.A.Y.G.A.7.*.r.<.p.d.<.....( *.<.! ......<.<.*.<.7.r.<.d.V.!./.!.V.!.`.!.Y.Y.G.V.Y.!.p.r.j.7.7.<.<.<.7.3.<.3.p.G.N.j.<.<.r.p.r.p.<.p.j.7.+...A.!.V.c.r.d.c.c.A.A.j.d.*.( ..( ! ( +.} ( ! R <.Y.d.7.A.Y.V.p.3.p.p...U r.j.<.r.r.<.A.j.r./.p...j.j.j.p.j.r.d.3.*...7.*.<.3.d.j.p.7.j.A.j.j.V.A.!.!.!.!.!.Y.A.V.V.V.j.j.V.V.d.3.<.<.<.7.7.3.<.<.r.V.G.j.r.j.",
"j.j.<.<.j.G.V.d.<.j.A.c.j.V.`..X`.!.!.!.G.G.!.!.j.r.!.;XA...( j./.G.G.!.j.d.!.j.j.j.j.j.j.d.j.G.c.j.j.A.`.!.d.( ! ! <.d.r.r.j.j.d.G.!.Y.!.Y.G.G.A./.!.!.!.!.!.V.Y./..X`.`.3.c.#X#X7X#XJ y C j.#X;X/.G..XG.j.j.A.!.j.r.d.V.A.j.d.j.j.A.V.d.p.j.p.A.A.7.<.<.<.r.c.!.A.<.3.c.c.j.j.A.c.p.7.p.d.d.d.<.<.r.d.j.d.<.<.`.!.Y.V.j.A././.A.d.j.A.Y./.!.c.Y.!.G.`.`.!.G.c.c.j.7.*...<.p.d.#X/.A.p.c.7.<.<.<.+.} <.p.r.Y.V.d.d.V.c.c.Y.j.3.3.d.3.} <.j.p.7.7.j.A.p.<.7.p.V.p.j.d.r.<.<.j.j.<.3.r.d.d.p.7.<.r.A.G.A.j.!.G.V.j.j.Y.c.<.<.#X!.7.r.j.V.V.j.d.j.j.Y.!.G.j.j.V.d.r.j.j.p.7.<.<.j.c.V.G.j.c.d.j.d.<.r.j.!./././.!.Y.p.p.c.p.<.d.A.j.<.j.!.j.j.V.d.V.V.j.7.A.G.<...} R } r.<.} ..7.d.!./.j.p.+.+.r.7.c.!.c.!.!.Y.Y.A.A.!.j.7.} <.d.<.+.<.<.3.6.7.<.c.7.j.G.A.Y.j.<.7.j.<.<.c.+.<.7.r.3.<.<.3.p.j.c.j.j.j.Y.G.j.3.j.V.3.<.r.7.r.j.p.<.<.d.j.c.j.<.r.} <.j.V.3.+.3.j.c.!.A.A.!.A.j.d.G.V.j.V.G.A.j.p.p.7.7.d.p.3.3.p.j.j.V.Y.!.A.A.`.A.d.3.3.3.d.c.V.j.c.j.V.G.A.!.!.!.A.c.j.A.!.A.c.A.!.!.Y.V.c.j.j.!.!.Y.Y.Y.G.Y.Y.j.j.j.j.c.!.`.Y.A.j.j.j.p.<...7.7.<.<.p.c.j.r.r.!.Y.Y.c.3.j.!.c.j.p.j.!.!.j.d.j.A.!.V.j.<.! +.<.3.3.+.} ....<.r.<.<.*...+.+.+.<.7.<.*.d.G.!./.!.G.!.`.!.!.!.!.V.c./.V.j.j.d.p.7.<.3.r.<.<.p.p.j.A.d.<.3.j.7.<.d.r.j.A.j.7.<.V.!.G.c.r.d.j.d.j.c.j.<.} ( } } } } ! ! ( ..! +.j.7.j.!./.G.3.+.p.V.V.( <.j.p.j.j.r.<.<.+.j.r.3.j.j.+.3.j.<.<.+.*.*.c.<.<.r.c.j.3.r.d.c.j.j.V.V.A.A.G.V.V.G.G.A.G.!.A.A.G.j.r.7.r.r.A.G.d.7.<.} p.G.A.r.*.r.",
"V.V.7.3.j.V.c.j.*.j.A.Y.!.!.!.#X#X!.`.!.j.d.!.&XG.<.j.`.V.J i n G.!.j.j.A.V.!.p.j.j.c.A.G.G.V.c.j.r.r.p.Y.j.*.! r.3.j.A.p.j.c.r.p.!.!.G.!.`.!.!.Y.!.V.c.G.!.!.j.G.G.Y.!./.r.j.!.!.;X7.r 7 w s +.&X.XG./.G.j.j.G.Y.V.j.j.V.c.j.A.d.c.!.!.j.j.c.r.j.Y.c.7.p.j.A.!..X!.r.r.j.j.j.j.j.c.p.<.3.7.r.j.3.<.<.<.j.j.<.*.A.A.A.Y.V.d.j.j.j.p.p.j.j.!./.Y.Y.Y.!..X!.Y.!.Y.Y.G.j.7.7.j.!.Y.V.A.j.j.Y.d.3.r.7.<.+.j.j.d.!.!.V.V.V.3.r.!.Y.p.7.r.3.<.<.7.d.V.r.j.V.r.<.r.j.c.V.j.j.p.<.<.p.3...7.j.c.j.j.r.<.3.c.!.j.<.c.G.Y.<.V./.G.p.<.Y.Y.c.j.c..X`.j.3.3.j.Y.!.j.d.j.j.d.d.A.c.j.p.3.p.c.G.A.c.7.j.A.Y.V.d.d.j.Y.!.!.!.!.c.7.j.Y.j.3.j.V.V.*.3.G.c.c.j.+.c.A.G.j.j.7.+.<.*.( *.7.<...} <.r.Y.!.p.r.<.<.r.7.c.!.c.!.!.!.!.!.!./.A.p.+.<.<.<.7.p.r.7.d.c.j.G.r.d.V.A.!.j.*.r.j.7.r.G.<.<.p.<.3.7.<.<.<.r.j.G.7.<.G.G.V.r.r.7.3.d.7.<.3.r.j.p.p.c.G.Y.j.+.*.} +.d.j.d.d.V.A.j.Y.A.G.!.!.G.A.!.Y.G.G.A.c.j.c.d.7.r.j.j.j.j.G.c.j.c.!.!.Y.Y./.A.j.p.r.7.j.V.G.r.j.j.!.!.A.Y.!./.G.c.j.V.!.G.G.!.!.!.Y.A.A.A.V.!.!.G.A.G.!.!.G.V.j.d.p.j.G.G.V.V.V.V.c.j.3.<.3.p.3.3.d.j.j.d.j.!.V.A.j.*.7.G.j.<.<.j.!.`.!.A.j.V.!.j.j.7.( ..7...*.*.<.<.<.<.r.7.3.*.+.*.<.<.p.<.<.<.j.Y.!.`./.!.`.`.!.!.`./.G.V.!.Y.A.G.V.c.j.7.<.*.( +.3.<.<.j.r.*.<.j.<...7.j.c.V.j.j.7.c.G.!.V.d.j.d.<.<.r.<.! U ! ( +.+.! D ! ..+.U R <.3.p.j.j.d.<...r.V.!.<.! ( <.<.( *.! <.! ! <.3.<.r.R <.d.<.<.<.7.r.j.r.<.3.j.j.<.r.d.c.j.j.c.j.j.j.p.p.j.A.Y.G.G.Y.A.A.j.r.3.p.c.A.!.V.<.d.7.( d.!.Y.j.<.7.",
"j.A.p.p.V.c.j.j.j.A.A.G.`.!.A.`..X!.!.!.r.3.A.`.Y.+.<.V./.p.c h J *.7.j.!.Y.!.r.j.A.G.c.j.A.Y.G.p.<.<.r.!.j.3.<.j.7.c.A.7.j.A.<.3.A.G.V.!./.Y.A.G.!.c.j.j.!.!.A.Y.c.A.!.`.c.A.!./..X3.y 7 u N 3.#X;XV.c.V.Y.j.p.p.p.j.c.c.d.d.c.j.G./.A.d.G.!.j.j.!.!.A.Y./..X5X/.!.G.Y.V.j.j.r.j.A.j.r.j.d.r.j.r.j.7.<.r.7.+.! <.j.V.G.G.d.r.3.7.p.d.p.d.A./.`.G.V.!.!.A.V.!.!..X!.c.j.j.Y.;X.Xj.c.c.c.Y.d.<.<.<.<.3.A.A.j.!.!.V.Y.V.+.3.!.V.3.7.7.<.<.<.<.p.V.7.7.j.d.3.j.j.j.A.j.j.V.p.7.j.<.*.7.d.d.j.c.j.7.3.j.!.j.+.j.V.V.j.V..X!.j.7.j.d.j.d.j.&X&Xc.d.j.A.V.j.7.7.j.j.j.c.!.G.j.j.j.c.V.c.c.p.<.c.`.#XY.!.Y.j.V.c.p.j.G.7.<.d.!.j.j.G.j.j.} +.j.c.c.j.*.j.j.D.A.7.+.*.3.<.+.<.<.<.<.*.3.r.G.Y.3.7.p.j.j.p.G.`.A.!.!.G.A.V.A.!.V.d.<.3.*.( <.r.3.*.<.j.j.G.p.7.p.c.G.p.*.r.j.3.j.!.7.<.d.j.j.j.d.7.3.<.7.d.( ..c.p.7.7.<.<.j.A.p.3.7.<.7.d.r.j.Y.A.r.+.<.<.<.p.j.j.V.A.j.j.Y.A.A.!.!.!.!.!.!.Y.A.j.p.p.j.p.7.r.j.A.A.G.!.G.G.A.G.Y.Y.!.!.G.c.j.j.d.j.A.A.p.r.j.!.!.j.j.G.`.!.Y.V.V.Y.Y.!.`..X/.!.G.G.Y.Y.G.A.j.j.G.!.!.G.c.j.d.p.j.V.c.j.c.V.j.p.d.p.p.d.d.d.d.d.r.3.r.d.Y.p.j.j.*.<.j.r.7.j.A.!./.`.!.V.A.Y.c.c.j.<.+.<...<.<.7.r.3.<.r.7.<.+.*.<.7.r.j.0.r.r.c.!.!.`./././.!.!.!..X`.!.G.Y.!.!.G.V.A.j.<.} } } +.<.<.<.r.d.7.7.j.d.<.7.d.d.d.p.j.r.V.Y.c.j.d.p.r.*.} <.+.D N R } *...U D ( <.*.J C } <.! ..*.7.7.3.j.G.c.7.( ..j.j.<.d.<.j.+.! <.3.! ! ! *.<.} <.3.7.<.7.d.j.r.j.c.p.r.j.G.V.A.G.V.A.A.j.j.V.!.!.!.Y.Y.A.c.r.<.*.p.j.j.r.! N d.A.<.j.G.Y.A.d.r.",
"c.G.j.c.!.Y.j.d.A.Y.A.A..X!.j.Y.!.V.V.G.j.j.G.!.A.7.r.j.!.!.<.J h k +.G.&X/.`.d.V.!.!.A.d.j.!.!.A.3.+.<.A.c.j.j.r.<.j.c.r.j.G.3.r.A.G.c.A.c.7.<.r.c.G.A.Z.A.A.c.!.V.G./.!.j.j.j..X#X;X<.y N j.<.!.9X`.V.c.Y.j.7.p.<.7.d.p.p.j.c.j.Y.Y.r.<.c./.G.A.!./././.Y.V.!.Y.Y.!.!.d.<.7.<.p.j.d.p.V.V.r.3.3.j.V.A.Y.c.<.J D 7.V.!.!.!.G.d.d.j.j.j.p.d.V.!.A.j.G.V.j.j.Y./..X!.V.j.d.j.!.Y.j.d.j.j.j.<...! ..3.d.G.A.j.j.p.3.j.A.<.j..Xj.<.<.3.*.*.<.<.p.p.7.<.j.j.7.j.j.p.7.r.j.A.j.r.j.d.7.7.<.<.r.V.A.j.r.j.A.c.7.V.j.p.Y.j./.!.j.j.!.j.3.7.j..X.Xj.j.j.j.p.<.*.<.7.r.j.Y..X!.G.V.A.!.Y.j.c.d.<.G./.!.V.G.G.j.c.d.<.p.j.<.<.r.V.j.c.!.j.j.*.<.c.A.A.V.j.j.<.p.c.7.<.3.<.<.+.r.<.*.*.<.3.7.A.Y.<.<.d.A.c.p.G.!.j.c.V.V.G.j.j.G.j.p.<.3.+.! <.r.<.+.7.j.c.7.<...+.p.j.<.<.j.j.p.G.#Xj.7.j.!.j.r.d.c.j.7.<.r.<.r.!.7.<.7.r.<.d.j.r.j.j.<.<.j.p.c./.!.c.j.V.p.r.j.V.c.A.G.j.A.!.A.A.!.!.!./.`.!.G.V.j.d.y.7.j.d.j.c.G.Y.Y.Y.Y.^.!.!.A.G./.!.Y.A.A.V.j.V.G.V.p.3.r.G.A.d.j.G.`.!.!.G.A.Y.!.`.#X#X.X!.G.Y.Y.Y.Y.A.j.j.A.!.!.A.d.p.r.p.j.A.V.j.c.j.<.+.<.3.j.c.d.j.c.j.<.<.<.<.z.<.r.r.*.<.<.*.j.G.V.d.j.G.Y.A.j.j.j.V.c.7.<.<.<.<.3.3.7.3.3.j.d.<.+.*.<.3.7.p.7.r.r.j.G.!./././.!.G.G.!././.!.G.G./..XG.A.!.Y.3.} ..<.r.r.*.*.7.d.d.d.j.j.d.r.r.3.7.7.p.3.A.!.j.p.<.....*.*.7.( N N U ..<.+.R U *.<.*.R U ..*.*.<.3.d.d.r.j.A.j.r.p.c.G.j.7.7.j.G.c.d.p.j.( N +.3.3.<.d.p.p.3.r.j.c.p.d.A.c.j.d.j.j.c.V.j.c.A.Y.!.!.!.!.!.Y.Y.A.c.p.3.r.d.p.r.r.J x d./.d.d.r.p.j.7.<.",
"V.G.j.G.;X`.c.d.c.Y.Y.G.#X.Xc.A.!.A.V.A.G.V.j.j.d.j.c.j.j.A.j.r.} D p.!.#X`.;X!.Y.!./.!.j.j.G.!.j.<.+.*.c.G.!.G.p.7.d.j.j.j.j.j.A.!.Y.c.j.p.<.*.<.p.V.!.Y.A.j.j.G.j.A.!.!.c.p.3.p.d.#X,Xj.A.!.D d.5X;X!.A.Y.V.G.!.j.d.j.7.d.G.Y.j.!.!.d.<.j.`.#X`.G.G.A.j.3.( ..j.A.Y.A.<.! *.<.<.7.<.3.j.A.j.r.<.c.!.`.#X#X!.<.+.d.Y.;X.X/.;X!.G.G.V.c.j.p.r.j.Y.c.G.j.j.j.A./.`.L.c.j.<.<.V.!.j.+.3.3.3.*...+.*.w.d.V.V.c.<.r.<.<.V.j.A.#Xc.3.7.p.7.r.3.<.d.j.7.3.j.j.3.3.p.j.<.<.p.j.3...<.7.7.r.7.3.d.A.G.c.j.j.j.j.d.j.d.d.G.d.!.;X!.c..Xc.<.7.p.Y.Y.r.p.7.j.r.<.<.3.<.3.r.j.A.A.Y.c.c.`.!.V.V.j.r.G.V.V.V.A.G.j.j.d.<.r.<.+.<.<.j.j.V.`.G.!.j.j.V.V.j.d.j.j.<.<.j.p.3.3.<.r.} d.j.3.....<.<.j.V.7.r.j.Y.V.3.c.Y.7.p.j.V.!.j.j.!.G.j.<.p.7.*.+.<.*.*.p.d.d.<.<.*.*.7.7.+.<.7.r.7.V.!.j.7.d.j.<.} <.j.d.<.! *.<.<.j.<.( ..+.+.3.7.7.j.G.p.<.<...7.c.p.7.j.j.3.3.j.Y.!.!.!.V.d.j.j.c.Y.Y.!.`./.!.A.V.V.V.j.p.V.V.c.c.V.G.Y.!.!.`.`.!.G.G./.!.!.G.A.A.A.G.G.j.p.7.p.A.A.j.G.G.!.A.A.A.A.Y.Y./..X.X`.!.!.!.Y.Y.!.!.G.V.V.A.G.G.j.j.j.j.V.!.!.V.V.j.+...*.*.r.c.d.j.c.j.3.7.<...r.7.r.*.( *.*.+.V.Y.j.<.3.j.G.!.d.7.j.V.j.p.r.<.<.<.3.3.7.7.7.A.j.7.<.<.<.<.r.j.r.<.<.d.A.A.!././.Y.A.Y.!./././.Y.!.`.!.G.!./.!.j.<...+.1.r.<.<.7.3.r.j.j.p.r.3.j.3.7.p.p.<.j.c.p.7.*.J J +.<.p.! C N J ( +.} ! ( 3.<.} ! ..3.<.j.c.c.A.j.p.j.j.d.7.c./.!.j.j.d.j.G.A.j.j.V.+.U ! *.<.<.d.<.7.r.j.d.j.p.7.d.d.j.3.d.p.j.j.d.j.j.!.!.!.!.!.!.!.G.V.c.j.d.j.j.r.r.j.<.( V.!.j.d.*.+.*.+.<.",
"7.7...r.`.!.j.7.c.!.!.A.`.;XY.!.!.G.c.c.V.j.r.7.j.j.j.j.d.p.j.j.( ..!./.;X`.&X&X`.G.A.G.j.d.j.A.j.p.p.r.V.G.A.r.c.V.j.c.V.r.7.G.!.!.G.V.j.j.d.j.j.j.j.A.Y.Y.V.A.c.p.c.!./.!.j.3.Y.j.p./..X!./.r.7.;X.XY.A.G.c.!..XA.G.A.r.j.!.Y.j.~.#X!.V.Y.&X9X.Xj.7.+...+.! ! ( r.j.V.p.<.p.V.j.j.p.3.r.j.d.r.<.V./.!.Y.`.7X;X`.V.Y.;XG.j..X.X/.!.A.!.!.c.d.c.!.G.!.j.j.d.V.`.#X!.!.G.7.<.Y.;X.X<.j.j.p.<.<.7.<.7.r.j.V.Y.p.A.d.<.V.G.A./.c.r.7.p.d.j.7.} 7.A.7.d.j.p.<.*.<.V.d.d.d.j.r...<.r.<.p.c.V.V.G.G.V.A.j.r.d.7.r.p.V.Y.c.j.!.c.*.G.V.j.c.j.G.G.j.A.c.j.j.r.r.d.3.3.7.<.r.j.Y.j.j.`.!.G.c.j.p.V.d.j.!./.!.r.p.j.j.c.r.<.3.<.j.j.j.!.A.`.V.p.d.j.3.<.7.j.r.7.j.d.<.<.<.y.! j.Y.j...} <.p.j.A.j.c.A.Y.j.<.V./.j.j.j.c.Y.r.7.A.G.j.<.d.j.<.! ..( <.A.c.j.j.j.j.j.j.7.+.<.r.d.d.G.!.A.j.j.d.<.<.j.V.p.<.+.<.<.( <.7.3.<.<.r.d.j.c.!.`.!.d.<.} 7.j.<.<.j.7.<.<.d.!.!./.!.V.j.j.j.A.!.G.!.!.A.V.j.j.j.A.A.c.c.V.V.j.j.c.Y.!.`.`.!./.!.!./.Y.!.A.A.A.A.Y.G.j.j.j.j.Y.G.A.Y.c.V.j.j.j.V.Y.G.!.!././.!.!.!.!.Y.!.!.!.G.V.c.G.!.Y.V.c.j.c.!.!.A.V.d.*.<.<.} <.j.p.d.j.p.r.j.p.} 7.j.p.( ! 3.7.p.c.A.j.<.<.r.j.Y.c.r.c.G.d.d.j.r.3.<.r.r.r.3.<.j.G.j.7.3.<.<.r.j.c.3.+.d.A.V.Y.!.`.Y.G.!..X`.`.#X!.`.!.V.A.!.G.j.j.r.r.r.p.j.d.j.j.7.j.Y.V.j.d.j.A.r.s.j.j.<.7.*.<.7.<.D J +.<.<.*.( ! ! ..+.} ( <.p.<.! ! 3.j.r.r.j.A.!.!.V.V.c.p.<.d.Y.c.<.3.d.j.G.d.<.7.j...+...*.+.<.V.p.p.p.j.3.p.j.7.<.+.*.r.j.j.V.A.j.j.c.V.Y.!.Y.!.!.!.Y.c.j.j.d.j.r.<.7.7.d.c./.!.c.j.+.*...+.r.",
"<.<...<.V.G.j.p.G.!.Y.!..XY.c.!.!.c.c.c.d.j.j.7.j.V.c.r.r.j.c.j.U <.!.;X`.!.!.Y.d.j.r.j.p.7.G.V.j.j.A.c.V.!.p.! p.j.V.!.G.c.3.A.!.A.c.j.j.c.d.j.V./.!.!.A.j.j.!.A.3.d.G.V.V.Y.c.j.c.j.!.!.&X;X#X`./.;XV.j.!.c.V.#X/.G.G.c.j.A.!.j.j.`.;X;X!.&X;X#X!.j.d.V./.!.A.c.j.c.!.j.} <.d.7.d.d.<.d.d.j.3.*.!.!.Y.c.d.`.5X5X.X!.`.!.j.!.;X;X#X!.`.;XY.d.c.Y.G.V.j.j.A.G.;X;X.X'.!.Y.G.`.7X7X!.c.j.A.d.*.V.d.r.j.c.j.c.A.A.r.r.Y.j.<.j.c.c.j.j.!.G.c.<.<.j.A.G.d.<.*.<.r.j.d.c.G.c.r.3.p.j.3.c.A.j.V.!.Y.Y.A.d.<.+.*.<.3.j.!.V.d.r.*.} <.<.j.j.*.r.V.!.!.G.j.j.j.j.j.c.j.j.V.d.j.j.d.<.j.`.Y.G.j.j.c.d.d.!.V.V.j.j.j.V.!.!.j.j.j.d.j.A.V.r.j.p.j.j.j.p.( *.7.3.d.7.<.r.3.<.<.*.p.Y.r.<.*.<.p.<.j.V.Y.!.j.*.( p.A.G.c.3.<.p.<.;.c.j.j.p.j./.<.R ! ..7.Y.!.G.A.!.G.j.j.j.r.<.3.d.d.V.A.j.j.j.p.j.j.j.Y.!.V.j.G.!.G.d.<.7.j.r.<.r.j.!.`.`.&X!.V.3.7.p.<.<.<.<.} } p.Y.`..X!.G.d.V.`.!.A.A.A.!.A.c.G.p.j.G.Y.G.Y.A.c.j.j.j.V.A.!.!.!.`.#X.X/./.!.c.j.G.!./.c.<.7.A.Y.c.d.d.V.V.A.A.7.<.p.d.d.j.j.j.!./.!.!.!.A.G.G.G.A.V.A.!.!.G.A.Y.c.G.Y.!.d.r.j.r.<.<.( ! j.j.j.r.<.3.7...+.j.r.7...! j.Y.j.j.c.j.c.j.<.r.c.j.j.d.j.p.p.V.j.j.<.r.d.d.r.*.j.G.V.d.j.<.+.c.V.j.G.Y.V.!.#X!.!.!.c.c.!..X`./.!.G.!./.7.<.!.!.d.j.j.d.d.<.r.3.<.j.c.j.j.V.A.j.p.j.p.<.<.<.<.*.! *.<.*.! ( ..} ! ( +.( ! ! ( ....<.p.<...*.j.c.+.*.<.j.G.Y.A.j.3.j.p.d.A.j.d.<.r.j.d.p.<.*.j.p.<.} R +.<.<.r.p.d.d.3.<.p.r.+.( +.d.d.j.j.j.p.d.j.d.j.V.V.G.!.!.Y.A.j.j.V.c.p.7.j.<.j.!.`.!.!.j.3.<.! } 7.",
"7.7.7.j.!.A.d.p.!.!./.&X.XV.j.!.!.c.j.j.j.c.A.j.d.j.j.j.d.j.j.j.} p.!.`.A.d.d.j.7.3...<.7.r.A.j.j.j.j.j.c.G.j.<.A.j.V./.G.c.j.A.!.j.r.<.7.r.<.7.V.!.!.!.!.V.c.!.!.j.d.p.3.j.G.j.j.!.Y.Y.Y..X/.`..X!.`.A.c.G.j.c.!.!.G.!.!.V.V.V.j.j.!.#X&X!.`..X.X/.!.G.!./.!.Y.!.G.G.!.j...*.3.7.d.d.3.j.j.j.3.j.V.j.Y.A.d.!.;X;X7X&X#X&X!.!..X;X/.A.G.!.A.j.G.!.p.7.j.V.G.!..X;X;X;X&X`.!.#X5X;XG.c.c.V.j.<.c.j.p.j.Y.!.G.j.7.1.<.j.3.+.p.j.V.V.Y.!.!.`.c.j.V.!.!.G.7.<.3.3.3.3.c.Y.j.r.r.p.r.d.c.c.c.Y.Y.V.j.j.c.r.<.<.<.<.j.c.A.A.A.r.......d.d.<.j.!.`.!.L.3.p.d.d.j.j.j.d.j.p.r.7.d.<.r.A.Y.A.j.j.V.j.j.Y.V.j.c.Y.!./.&X!.V.A.3.j.V.j.!.j.7.j.!.A.A.j.<.7.p.p.j.r.7.7.3.p.<.*.r.A.r.<.<.<.<.*.j.V.V.j.p.<.+.j.Y.!.G.7.*.<.<.<.V.A.Y.V.A.`.d.+.*.<.j.!./.!.!..X/.A.A.Y.j.<.<.r.7.d.j.d.j.j.A.V.d.j.!..X!.A./.#X`.A.7.7.V.V.c.!..X,X;X.X/.Y./.G.!.A.d.d.r.3.*.! <.V./.`.!.!.G.!..X!.V.c.j.j.V.j.A.p.j.V.G.!.c.j.d.d.d.j.V.G.!.!.!.`.`./././.!.A.c.A.!.!.c.3.r.A.!.j.<.r.j.r.j.p.<.4.3.7.r.r.j.j.!.!.A.Y.!.Y.G.G.A.V.V.G.!./.G.c.V.V.!.!.Y.r.<.7.<.3.r.+.} 3.p.p.3.+.<.<.} <.3.*.3.<.<.j.A.d.j.A.A.Y.G.j.V.!.c.j.p.p.3.3.j.j.j.<.r.p.d.d.7.j.A.c.p.j.r.<.p.<.J ..j.j.V.!.!.Y.A.j.j.Y.!.`.`.!.j.p.p.3.7.!./.V.j.j.p.j.j.V.j.j.c.V.j.p.d.j.j.j.7.<.+.+.} ( +.( ! <.*.R ! ( ! U D ( ! R } *.( } <.3.<...+.p.j.<.<.<.3.d.p.<.<.d.7.7.<.!.`.V.7.3.r.3.*.( ! d.p.7.! ! <.r.r.j.j.3.3.<.<.<.<.<.<.7.<.r.j.j.d.r.r.d.d.j.j.j.A.!.!.V.j.p.p.j.j.d.j.c.r.d.A.!.!.!.A.7.} ! ! <.",
"<.3.r.j.A.A.j.<.!.!.#X;X/.j.j.A.G.d.p.j.j.j.j.d.p.d.j.j.p.d.j.Y.V.!.`.!.c.<.*.<.7.r.<.r.j.j.A.j.7.3.<.p.d.j.V.c.G.d.j.`.j.7.j.A.Y.j.r.<.<.<.<.r.p.j.c.c.A.c.j.G.!.A.d.<.<.j.G.V.j.Y.!.A.A.!.j.A.#X!.!.!.A.j.d.A.!.!.V.A.!.G.V.c.!.G.`.&X;X!.!.!.!.!.!.!.G.V.A.Y.!.Y.G.!.j.<.3.7.p.p.7.<.d.V.A.V.!.r.( r.j.7.G..X!.G.c.V.!..X!.!.#X!.c.j.V.V.A.Y.c.+...j.c.V.!.G.!..X#X.X!.!.`.&X/.V.G.A.c.j.<.p.j.p.d.G.Y.j.3.+.j.p.j.p.d.c.j.V.`.#X!.A.`.!.!.!.;X.X;X!.7.<.<.7.*.j.A.d.7.j.j.r.c.A.j.A.Y.j.j.7.7.A.j.d.j.7.*.j.G.Y.V.j.7.+.3.c.j.r.<.j.G.Y.c.j.3.p.j.d.r.d.j.j.p.d.r.7.j.r.p.A.!.A.d.d.V.c.j.Y.G.Y./.!.3.c.,X&X`..Xc.G.d.7.!.A.<.A.`.Y.A.j.7.r.r.d.d.7.r.r.7.j.V.j.p.V.j.j.r.3.<.*.j.V.V.d.p.7.7.j.j.c.j.r.<.<.V.j.A.c.G.V.j.c.c.7.7.r.d.G.Y.G.!.`.Y.j.j.!.j.<.<.7.<.3.j.j.j.j.j.j.3.7.G.!.A.c.!.!.A.j.<.<.j.G.c.!./.#X/.V.j.j.Y.!.`.Y.j.V.V.j.j.} <.G./.`.!.!.!./..X!.V.j.r.r.*.*.3.7.c.G.Y.!.c.j.j.j.j.j.V.Y.!.!.!././.!.!./.!.G.G.Y.!.!.Y.j.c.!.`.!.j.j.G.j.r.<.<.p.d.p.3.<.d.c.!.G.j.V.!.!.Y.G.V.c.V.Y.!.`.A.j.j.d.Y.`.!.p.j.j.7.p.7.+.<.<.3.3.<.+.*.<.*.r.3.<.j.c.j.V.V.d.d.c.j.V.A.c.V.A.j.d.3.3.3.3.d.c.A.j.d.p.d.c.G.!.j.d.7.j.j.p.<.J h C p.!.!..X/.V.j.d.j.G.!.`./.Y.7.! D ! ..7.V.j.j.p.*.r.j.j.<.r.7.p.j.d.7.3.3.7.3.<.*.*.! ! } } J <.+.U ! ( U J N ! ! J } <.R ! j.p.7.*...3.7.<.( 7.p.7.3.3.7.p.<.<.! c.`.V.r.<.r.<.} +.*.7.<.7.! ! 4.p.r.j.j.<.} *.7.7.<.<.r.7.7.j.A.V.d.7.3.<.d.j.j.j.V.!.Y.j.r.<.3.d.j.j.c.G.j.r.j.Y.Y.!.V.<.+.+.<.<.",
"+.3.r.3.p.A.j...p.c./..X!.A.A.c.j.7.r.V.Y.c.p.3.7.3.3.<.<.7.j.Y.#X/.!./.;X!.j.j.<.j.A.c.j.d.p.<.j.p.+.<.*.+.j.G.c.j.j./.d.+.p.!.G.A.j.r.<.*.3.j.d.j.A.V.G.A.j.A.Y.V.p.3.r.j.!.!.V.c.Y.!.Y.Y.7.V..X!.!.!.G.j.j.!././.V.c.G.A.A.V.G.G..X&X;X!.`.#X!.!.Y.A.j.d.c.!.V.j.j.j.r.<.7.r.r.7.<.*.p.G.!.`.!.} N ! <.r.Y./.!...+.d.A./.!.Y.!.G.c.c.c.A.G.A.c.3.3.V.c.j.G.j.V.!.!.!.A.A.Y.!.!.G.~.G.j.d.3.<.j.j.j.j.j.r.r.3.A.c.j.j.V.c.j.A././.!.Y./.!.`..X;X/././.j.+.<.p.<.j.j.3.3.j.c.j.c.G.j.V.j.p.j.7.<.A.c.j.!.j.<.j.j.j.3.<.<.*.7.A.!.c.r.A.V.c.j.p.d.j.j.7.<.r.j.j.<.d.j.d.j.p.j.!.!.A.d.p.j.j.M.A.V.!.&X<.r z G..XG.!.#XA.} <.d.V.r.!.`.G.V.7.3.3.3.j.p.3.d.j.p.j.!.G.j.V.A.!.V.V.7.<.j.j.V.j.c.j.j.r.<.*.<.7.p.d.c.r.3.7.V.!.G.Y.j.7.3.<.<.p.j.j.j.j.r.<.r.V.j.<.<.3.*.3.c.j.p.7.p.c.j.d.V.Y.A.A.G.j.r.r.<.<.A.!.V.!.!.!.Y.j.r.p.j.V.!.V.r.j.c.j.V.<.d.!.!./.!.Y.`.#X/.j.j.A.c.j.+.( } 3.A.!.!.!.Y.A.A.!.!.A.G.!.!.!.!.!.!.!.!./.!.Y.Y.!.!./.!.A.j.c.G.!.V.j.c.j.<...+.<.d.d.<.*.c.!./.A.r.j.Y.!.!.!.G.A.A.Y.!.`.!.Y.c.r.j.!.V.<.d.j.p.c.j.<.p.3.r.d.7.<.<.<.<.r.d.d.G.G.j.G.G.j.c.c.d.j.V.j.c.A.c.j.3.3.r.3.7.j.V.A.d.r.d.c.!.G.j.j.3.7.j.V.G.r.! ( p.Y.!.!.!.V.j.7.r.c.!.`..X/.!...D } +.<.j.j.j.3.! ..3.<.! <.<.3.j.j.d.p.r.p.3.<.<.<.} R ! ! ! <.<.( } ..( ( ! } *.! +.p.+.+.A.j.p.*.} <.<.+.<.V.V.j.j.j.r.<.r.3.( j.!.c.p.r.d.<.*.V.A.p.*.p.<.*.<.d.p.r.r.j.r.r.r.<.( %.d.j.c.Y.!.Y.j.j.p.<.*.3.7.7.j.Y.G.d.3.<.<.d.j.j.V.A.V.<.r.A.V.A.j.+.<.*.*.<.",
"<.j.c.d.d.V.j.+.<.d.!.`.!.Y.A.j.r.<.<.j.G.j.7.3.<.<.*.+.*.7.j.c.A.7.<.c.`.A.<.<.p.!.#XA.j.j.r.<.d.p.*.3.3.+.j.V.7.A.j.j.<...<.j.p.d.j.d.3.<.d.V.V.V.A.c.G.!.j.j.V.V.j.r.j.V.Y.!.G.j.A.Y.d.j.r.V.!.!.Y.Y.A.j.A.Y.A.!.G.Y.!.G.V.c.V.V.!.`.&X!./..X,X#X!.Y.c.d.j.Y.j.p.r.<.*.<.7.r.7.3.3.<.d.G.A.!.j...J ! +.j.!.G.!.+.<.j.G.!.G.c.G.A.V.A.G.!.!.A.!.!.Y.!.Y.c.V.j.c.!.`.!.Y.A.V.c.!.G.!.G.j.j.d.3.c.Y.c.j.d.d.V.c.j.G.V.c.j.r.j.`.;XG.G.V.j.j.!./.!.c.<.j.c.<.<.3.<.d.p.<.<.p.j.j.c.A.j.j.p.p.A.p.<.!.A.p.V.j.7.j.Y.j.7.3.p.r.7.j..XG.j.Y.j.d.p.r.d.d.d.3.<.7.d.r.<.7.j.j.7.3.j.G.A.V.j.j.j.j.j.j.c.!.`.( 2 3 U r.j.G.#XA.( 7.j.j.j.Y.!.G.G.<.<.<.7.c.j.r.j.V.j.d.Y.!.Y.!.!.G.p.d.<.<.j.7.j.A.Y.V.V.r...! +.7.j.j.d.7.<.r.A.!.V.A.j.3.<.+...<.3.r.<.<.3.<.7.j.j.j.<.3.<.p.j.p.7.<.p.!.!.V.Y./.!.!.!.j.d.j.3.r.!.`.!.!.!.G.Y.c.7.3.7.r.V.j.<.r.j.j.d.3.c.!.!.!.!.Y./.#X/.d.j.!.G.V.A.j.7.j.!.!.Y.!.!.Y.G.!.Y.A.G.!.!.!.!.!.!.!.!.!.!.Y.Y.Y.!.!.Y.j.<.d.d.j.j.p.j.c.7.<...+.p.j.<.7.!.`..XA.7.p.G././.!.!.Y.Y.Y.!.!.!.!.Y.V.G.!.d.<.j.d.3.j.d.r.j.3.3.d.7.<.<.d.d.r.p.j.G.j.d.G.Y.j.c.j.7.j.G.j.c.A.G.j.7.3.p.p.7.p.p.V.j.j.c.V.G.d.j.j.d.r.r.j.V.j...} <.c.!.!.!.`.c.<.( <.p.c.!./.!.<.! *.+.o.r.<.p.3.! *.p.7.*.j.r.<.r.p.r.p.r.j.<...! +.} ! } ( ( *.<...! ! ....} ! *.} +.j.d.7.d.3.<.( } r.3.+.j.d.<.j.c.r.r.j.3.*.3.G.c.j.r.r.r.*.<.!./.V.r.c.j.d.3.p.c.j.j.G.Y.j.p.<...*.p.j.j.V.!.!.A.A.j.3.<.r.j.d.j.A.V.j.3.<.3.d.j.j.V.c.j.*.7.A.c.V.V.<.7.<.<.<.",
"<.j.G.A.V.j.j.r.r.r.V.`./.G.c.j.d.<.+.<.j.r.<.7.3.7.3.3.r.j.j.c.!.j.p.A.Y.p.+.*.r.c.A.<.<.r.<.*.<.3.*.7.d.3.j.j.<.!.j.<...<.*.<.p.p.d.j.j.d.c.c.j.j.j.r.j.!.d.*.c.G.V.p.p.c.A.c.!.A.Y.j.} <.3.j.Y.G.c.c.A.G.G.c.j.c.A.!.!.Y.Y.A.c.j.A.!.;X#X.X.X;X!.A.A.V.c.V.Y.A.j.d.<.*.3.d.c.j.p.7.3.p.V.j.V.V.p.*.( ..j.!.V.V.d.7.p.A.Y.A.!.V.A.A.G.!./.!.Y.!.#X/.!.!.G.c.c.c.!.#X.X!.A.j.j.A.A.Y.A.j.V.A.j.A.!.c.c.V.c.G.c.A.!.A.j.j.p.Y..X/.3.p.<...<.G.Y.V.A.<.p.V.d.p.<...<.<.%.<.r.d.j.c.j.p.d.d.j.Y.p.r.&X/.<.+.r.d.j.G.d.<.<.<.7.<.7.!.c.j.Y.j.r.p.r.r.j.c.j.7.d.j.r.r.p.d.j.3.3.7.p.j.c.V.V.c.j.p.r.j.c.G.r.v a R p.!.!.c.c...r.Y.j.j.j.V.c.!.3.*.3.j.Y.V.j.V.V.j.7.!.#X!..X.XA.( ! +.7.c.7.d.G.!.Y.A.j.7.<.<.7.d.7.} <.7.j.A.c.p.j.j.r.3.*.+.<.r.j.<.7.j.j.7.<.p.c.7.r.j.A.j.3.r.p.j.!.!.A.!..X`.!./.!.G.V.r.d.!.!./.!.V.d.j.j.p.3.<.<.j.d.<.<.7.p.r.d.!.`.!.!.E.Y.!.`.Y.3.r.V.c.c.!.!.G.`..X!.A.!.!.G.c.j.j.j.A.!.Y.!.!.Y.Y.!.!.!.!.!.!.!.!./.!.j.p.G.j.p.j.V.G.!.j.j.p.3.j.j.<.<.!..X.XG.p.r.A./.`./.!.!.Y.G.G.G.G.V.!..X`.!.7.7.Y.j.<.3.7.d.c.7.<.p.3.<.3.d.j.7.p.j.Y.j.d.G.A.j.r.7.<.j.Y.V.j.c.A.j.p.3.r.j.r.p.r.j.j.j.V.A.A.p.3.j.V.j.d.r.7.<.<.3.j.!./.Y.!.!.`.p.*.<.<.<.7.j.j.<.<.7.7.3.r.<.p.7.} <.j.d.*.r.r.<.<.<.7.3.+.7.7...! } } ! +.+.! ! ..} R ! *.<.! D ( ( ( r.p.<.<.<.*.} <.j.j.7.j.3...p.j.r.j.Y...( 7.V.p.d.r.p.r.3.3.G.G.G.V.j.p.j.3.r.G.Y.G.G.G.j.d.j.j.r.7.r.7.j.G.Y.V.V.j.<.<.d.c.c.c.c.j.j.3.<.r.j.d.j.V.j.c.<.p.A.c.V.V.<...( *.p.",
"7.j.h.j.A.j.r.r.<.<.j.!.!.A.c.V.c.d.<.3.j.p.<.r.d.p.d.j.j.j.j.G.!.G.Y.Y.j.r.r.j.d.d.j.<.<.d.<.r.j.j.*.%.<.3.j.j.d.`.A.<.<.d.<.r./.!.Y.!.A.j.j.j.7.d.c.r.j.!.j.+.j.A.A.j.d.j.c.j.!.!.!.G.7.d.d.j.c.V.A.V.A.Y.V.j.j.j.c.!.!.Y.!.Y.p.r.j.A.;X;X;X;Xj.7.<.3.j.c.G.!.G.j.j.7.<.r.j.!.Y.d.<.3.d.G.r.d.G.j.r.} ( 7.V.j.r.j.<.3.A.!.!./.V.G.G.Y.`..X/./.!.`./.!.Y.c.d.V.j.G././.Y.V.j.j.V.G.G.A.A.Y.!.A.G.G.p.j.A.j.V.j.Y.!.j.d.j.j.!.Y.( D 7.3.*.r.V.G.j.V.G.G.A.c.d.7.( <.<.*.<.r.p.j.j.7.p.c.j.A.G.r.j.;X&Xr.} 3.d.3.j.j.V.V.c.A.c.j.Y.c.c.!.d.r.j.d.p.c.!.G.d.j.j.j.d.j.s.j.j.p.<.r.j.c.A.V.c.j.j.r.3.j.j.A.c.<.p.!.!.d.*.j.( +.j.d.p.<.j.d.Y.p.3.j.c.Y.A.A.c.d.p.3.!..XG.!..XV.! ! ( <.j.7.j.!.!.c.c.j.A.c.3.3.p.r.! <.3.c.c.d.<.r.j.p.r.<.<.p.j.A.j.j.j.j.3.<.7.j.p.7.j./.V.3.r.r.c.!.!.!.#X&X/.!..X`./.!.j.V..X!.!.Y.A.d.d.A.j.r.d.d.V.j.*.*.+...r.j.!.`.!.G.c.!.`./.V.3.r.j.V.!.A./.!.&X&X!.A.!.!.A.j.d.d.j.V.Y.V.A.G.A.G.!.!.G.!.!./.!.!.`.!.V.j.G.j.d.j.Y.!.!.j.j.A.d.d.d.+.*.Y./.`.!.j.r.j.!././.!.!.A.V.V.V.A.J.!.!.Y.G.<.<.j.p.3.3.3.d.j.3.d.j.p.r.3.<.7.<.j.c.Y.c.j.G.V.j.j.j.d.V.!.!.G.j.c.j.V.d.7.r.<.<.<.3.<.7.j.j.c.j.3.d.j.j.j.c.c.V.r.j.V.!.!.!.#X!.!.c.j.j.p.<.<.<.3.<.<.<.<.<.<.<.p.7.} <.p.j.*.*.3.<.p.d.c.p.! <.d.+.Q } ..! } ..( +.*.( ! } <.<.+.W } ..} <.7.<.r.3.<.<.r.c.Y.j.j.V.j.j.r.r.c.7.! } <.j.r.j.j.c.d.d.d.A.j.G.Y.r.<.3.3.j.Y.Y.!.G.!.c.7.r.c.j.p.j.p.j.G.Y.j.j.d.<.+.3.j.c.c.j.j.j.p.r.j.j.7.d.c.j.V.7.p.j.j.c.j.<...+.7.c.",
"j.V.p.7.c.c.3.*.3.d.j.A.V.j.d.j.d.p.<.7.j.d.<.7.d.7.r.j.p.3.d.G.V.G.!.c.<.<.j.V.r.7.j.p.d.d.*.r.c.c.3.<.r.j.j.j.j.!.A.r.3.r.<.A.#X.X`..XY.j.G.A...p.Y.d.d.!.j.<.j.j.V.G.c.j.j.j.j.j.j.!.!.!.c.j.j.V.!.!.A.A.c.V.j.p.j./.!.Y.!.V.d.j.c.V./.!.!.!.j.<.( ..<.r.j.c.V.d.j.3.+.<.p.G.A.7.<.r.V.!.r.7.j.d.r.+.( <.r.d.<.<.+.7.V.!.!.d.V.!.Y.!.&X.X!./..X.X;X/.V.r.<.c.d.c.G.Y.V.c.V.Y.G.!.Y.A.G.!.!.A.!.V.<.j.c.p.c.G.j.Y.j.j.j.A..XY.N D V.j.3.j.c.Y.p.<.G.Y.A.A.3.<.<.d.r.*.<.r.r.p.p.<.j.!.A.V.c.r.A..X;XY.r.r.r.*.j.A.#X.X!.`.`./.G.j.j.Y.3.<.p.r.p.A.`.Y.7.r.j.d.<.d.r.j.j.d.<.j.V.V.c.j.j.c.c.j.j.`.G.j.A.r.<.j.7.D +.G.+.+.*.G.j.3.j.p.!.c.j.!.j.V.V.Y.j.<.7.7.Y..XY.A.c.<.! <.! ..r.<.j.T.V.3.d.c.!.G.3.<.j.j.+.<.*.j.V.j.3.j.d.r.p.7.r.j.j.Y.G.j.p.p.7.p.j.j.7...p./.A.3.<...j.G.!..X;X.XY.!./.!.!.G.c.!.#XA.A.G./.G.V.!.j.<.j.c.!.c.<.<.<.} <.7.c.!.!.c.j..X!.!.!.!..X!.A..X`.&XY.`.`.!.A.Y.!.G.V.j.j.j.V.A.c.V.V.V.A.Y.Y.A./.`..X!.Y.!.Y.j.d.j.j.j.c.A.!.!.j.j.!.j.7.j.p.j.G.!.`.!.j.7.p.V.!.!.!.Y.V.j.j.c.j.A.V.p.r.A.3.<.c.j.p.*.! { *.<.p.d.r.j.r.<.p.j.j.j.A.V.c.Y.A.c.G.!.G.A.!./.!.j.3.p.Y.c.7.r.<...<.*.<.p.j.A.V.c.r.d.j.j.c.Y.!.!.r.d.A.!.!./.`.<.*.*.<.7.<.*.<.<.7.<.<.! ! ( } 7.7.<.! +.d.A.p.<.<.<.p.d.V.r.R +.7.( R } ( R ! ! } <.<.R J ! ! ( <...( } } o.<.<.r.3.<.r.d.j.Y.G.d.!.!.G.3.3.j.*.C } ! 7.p.d.j.d.j.j.j.!.V.!.!.7.<.<.d./.Y.V././.`.A.<.*.j.A.j.c.j.c.!.G.p.r.j.d.d.j.G.!.Y.c.d.r.j.j.j.j.<.r.j.j.j.<.<.p.j.c.j.<.<.<.<.7.",
"r.d.7.<.p.j.r.<.j.j.j.j.*.+.d.j.d.3.r.j.Y.A.7.r.j.p.3.r.r.3.p.!..XV.j.V.V.c.c.j.j.<.<.p.j.j.7.r.c.j.r.Y.p.V.G.V.V.V.c.j.p.p.d.j.!..X/.#X!.!.#X!.A.j.V.3.<.c.d.7.A.c.j.Y.Y.A.!.j.V.G.4.+.d.G.Y.j.V./.G.V.!.!.G.j.A.Y.Y.A.A.G.Y.!.A.d.j.V.G.c.} j.;X/.j.r.<.3.j.j.j.j.d.d.3.*.7.j.d.r.<.r.!.`.j.<.<.c.j.<.3.+.7.r.<.*.<.j.G.!.G.j.Y.`.!..X.X&X!.!..X!.!.!.c.j.p.G.j.V.j.G.A.7.j.A.G.V./.!.A.Y.A.c.!.c.3.<.j.A.Y.G.A.j.!.Y.d.A./.A.<.r.j.j.<.<.V./.j.<.p.j.c.!.V.<.j.j.V.r.r.d.3.j.c.j.c.A.`.`.3.} j.!.`.&Xd.} d.j.j.c.r.A.^.!..X.X`.V.j.3.*.*.<.7.p.j.A.Y.7.+.3.p.7.j.Y.c.j.c.p.7.p.V.G.A.c.V.G.V.j.Y.G.G.j.r.j.G.R N } 7.*.} 2.j.p.3.j.!.G.Y.!.Y.G.j.j.A.c.<.+.r.A.`.!.!.p.! +.7.! ! j.c.j.A.j.<.d.A.!.A.<.<.c.j.<.+.*.r.c.<.3.7.3.<.p.r.p.p.j.d.7.3.<.<.7.d.r.j.<.7.c.A.d.<.+...G.`.!.#X.X/.Y.!.!.A.Y.!.A.!.`.Y.j.V.!.!.!.Y.7...j./.!.A.A.V.j.<.<.j.c.j.j.d.r.d.3.c.Y.!.#X/.!.&X#X`.`.!.G.c.j.!.G.c.c.j.d.j.V.V.V.r.<.j.j.d.Y.!..X.X!.Y.G.G.G.p.d.p.r.3.d.;XZ.!.<.G.!.p...p.!.!.!.!.`.!.G.j.p.!.!.Y.!.Y.c.V.Y.G.!.!.<.N U 7.j.p.p.j.7.( <.<.( p.j.<.7.j.V.c.j.!.c.A.V.j.j.G.!.Y.Y.!.Y.V.A.!.V.7.3.3.A.A.V.7.+.} <.<.<.+.r.j.V.c.7.3.d.c.A.V.j.!.Y.c.!.Y.c.!.j.C ! d.7.} ( *.j.Y.<...*.} <.<.+...3.<.} *.p.<.} +.<.d.j.V.j.<.<.+...N } 3.} ! ! J J ( ..! N J <.<.......( ! ..+.! ! +.d.j.j.V.A.V.d.7.j.Y.p.j.A.V.r.<.<.p.A.A.j.3.j.p.j.Y.Y.j.c.j.3.+.3.!.3.r.&X/.G.V.r.! 3.c.V.3.V.d.!.V.<.<.p.j.A.j.A.Y.A.j.7.<.3.p.d.d.j.A.c.p.j.j.7.d.j.r.7.<.....! p.",
"r.r.<.<.7.d.r.7.r.j.p.3.<.<.d.j.c.j.r.7.c.Y.j.p.r.p.d.j.c.j.d.j.!.c.V.Y.!.Y.G.V.V.p.p.d.c.A.d.r.V.c.3.j.r.c.Y.A.!.Y.A.V.j.j.j.j.!..X`.#X`.!.&X/.<.3.A.V.c.G.j.d.G.V.d.j.d.j.A.7.7.j.j.c.Y.V.r.r.Y.`.!./.`.Y.V.G.Y.!.!.G.j.j.c.c.j.V.Y.j.d.r.C ! V.j.r.d.7.<.d.j.d.c.j.d.3.<.p.j.7.r.7.j.!.!.V.d.r.A.V.3.r.3.p.p.7.<.<.p.j.V.Y.!./.#X`.#X#X;X!.V.!.G.Y./.Y.A.d.c.j.V.j.A.c.3.j.V.j.j.!./.c.V.!.c.j.j.7.<.j.G.G.A.j.c.!.Y.d.V.!.c.*.<.r.j.<.} r.A.j.r.j.r.7.G.G.r.<.3.j.<.*.7.j.!.!.G.!.!.&X#Xd.3.A.!.&X;Xj.( 3.j.A.A.d.A./.!.#X#X/.c.j.r.<.<.<.7.3.3.3.p.3.<.r.j.j.j.<.R <.p.*.*.d.j.c.c.V.G.Y.A.d.!.!.Y.G.V.j.<.N U <.j.<.*.<.r.r.7.j.A.V.A.!.!.c.j.j.d.3.<.p.c.!.V.r.A.G.7.j.!.7.( 7.G.G.j.<.! <.j.j.r.*.<.j.d.<.+.*.*.*.! +.*.*...r.7.r.7.r.p.7.p.j.p.p.r.3.d.+.*.r.j.3.<.7.d..XA.7.G./.!.!./.A.V.j.!.`.Y.!.&X!.!./.Y.V.j.*.! r.`.!.G./.G.r.r.7.j.j.d.A.A.p.<.<.p.j.G./.!.!.;X&X/.!.!.!.V.j.G.c.j.p.3.*.<.j.G.!.j.r.j.j.j.Y.!././.!.!.G.A.j.<.<.j.c.3.} V.j.Y.c.A.V.r.<.j.!.!.!.Y.!./.!.G.c.!.!.!.!.!.Y.!./.!.G.G.d.<.d.Y.!.G.<.p.7.( ..<.*.p.j.<.3.d.c.c.j.G.V.G.A.c.c.Y.!.Y.Y.G.A.A.!.!.c.r.j.j.G.j.j.d.7.<.<.7.p.3.r.<.j.G.j.p.j.c.V.j.d.Y.j.3.j.A.j.j.3.! r.!.Y.p.<.<.d.V.} J ! } <.*.+.+.<.<.<.+.! } 3.3.<.r.d.c.A.V.d...! C ..3.} ! ( } ! } } ! J ( j.j.*.} ! ( +.7.p.3.! } r.c.V.V.V.c.7.j.V.A.p.G..X`.Y.V.j.A.!.G.d.<.3.7.p.A.G.V.j.<.*.7.c.!.....G.Y.*.j.G.p.p.p.j.j.j.d.A.j.<.<.p.c.!.d.j.V.c.<.! +.<.<.7.j.A.Y.G.V.j.j.p.p.j.7.<.! ..*.} p.",
"j.d.7.7.d.j.p.p.p.j.r.<.<.3.j.G.j.c.p.<.7.p.j.p.7.d.j.V.!.!.G.z.c.j.V.Y.!.!.!.A.Y.j.r.3.j.A.j.j.!.A...7.7.d.j.d.!.Y.G.A.A.G.A.V.!.`.!.!.Y.A.!./.*.*.j.A.V.c.7.3.G.!.V.j.r.d.V.3.( <.A.!.A.r.*.c.!.!.!.Y.!.!.G.!././.`.Y.d.p.j.j.j.Y.!.j.d.p.J C ! R ( 3.3.+.<.7.p.c.j.p.<.3.j.j.<.r.j.A.!.!.Y.Y.j.V.A.<.r.p.d.j.j.r.7.3.<.d.Y.`.#X&X#X&X#X;X.X!.!.Y.!..X!.!.p.r.r.V.A.!.G.r.p.d.7.j.!.#XV.j.!.d.r.j.r.<.d.c.j.j.j.d.j.j.7.r.V.A.7.<.3.j.r...<.r.j.j.V.r.<.j.A.d.<.+.<.<.3.A.!.#X`.!..X#X;X&XG.G.!.!..X.Xj.+.*.<.A.!.A.!.`./..X`./.V.V.j.7.<.*.<.j.j.d.j.j.3.7.j.c.j.+.C } r.<.7.j.j.j.c.Y.!.A.c.7.!./.!.!.V.3.! ! +.3.7.r.d.d.p.j.j.V.A.A.Y.!..Xj.c.A.j.<.3.G.!.Y.<.D +.V.c.!.!.!.j.j.d.7.r.p.r.d.V.p...} 7.j.7.+.<.<...! ! *.( <.<.d.7.7.7.j.j.c.V.G.c.d.3.<.d.j.d.j.j.<.+.7.d..Xp.! d.G.!.!.!.!.Y.+.<.!.`.G.!.c.c.A.j.7.3.+.( <.!.Y.Y..XY.j.d.7.d.8.<.j.Y.c.p.<.r.j.A.!.V.c.!.`.!.!.!./.!.S.G.d.p.r.3.<.<.j.c.!.G.p.p.j.c.Y.!././.!.!.Y.V.j.<.<.V.!.j.( j.V./.!.c.r.7.7.j.G.!.!.G.!./..X!.V.!.!.!.!.G.Y.!.!.A.j.j.j.V.G.c.p.r.<.p.d.*.*.7.r.7.d.<.3.r.j.j.j.c.Y.!.!.G.Y.!./.!.A.A.Y.!.!.j.r.3.G.A.Y.j.c.c.j.d.<.7.c.j.r.+.p.!.j.j.j.d.7.<.<.j.j.<.r.c.j.<.+.*.j.!.G.p.<.<.7.p.+.U ! ..<.+.*.<.7.7.j.3.! ..j.c.3.j.c.d.<.<.7.*.! U *.<.( ! } <...} ! ( ! ( <.<.} U J ! <.r.p.<.( } r.A.G.c.j.7.<.V.A.d.<.c.!.!.Y.Y.G.Y.!.!.j.<.+.d.A.C.d.p.j.d.7.d.A.!...N } j.<.c.!.c.j.<.p.c.j.j.j.j.r.r.V.G.!.j.r.j.j.*.! <.j.p.d.c.V.j.j.j.c.V.p.<.<.3.7.*...<.+.r.",
"7.r.p.p.j.j.r.<.j.j.p.7.r.7.j.!.V.j.p.j.j.r.j.A.c.j.j.j.A.G.j.p.d.j.V.G.!.!.!.G.Y.j.p.7.d.V.V.V.Y.j.J <.j.j.j.d.j.j.c.c.V.V.V.c.!./.A.V.Y.!..X;XY.d.j.A.V.c.d.j.j.j.j.r.<.<.j.d.d.d.j.c.j.3.3.!.#X/.!.j.j.A.G./..X/.`.!.j.j.V.j.A.!.!.A.V.j.+.<.} ! +.j.j.<.7.j.j.V.j.r.<.<.j.V.3.d.A.!./.!.!.!.d.d.j.*.3.p.r.j.c.j.d.7.<.7.V.!..X.X&X;X`.`.#X;X.X!.!.`.!.G.<...<.j.!.#X/.j.3.<.7.j.Y.!.V.d.j.7.j.j.7.<.r.p.r.p.j.3.7.c.j.p.A.`.c.7.<.d.c.d.p.3.p.j.Y.d.<.p.j.j.7.+.1.r.j..X.X.X!.!..X#X#X.X!.`.!.G.!.V.j.j.7.+.j.!.`.#X&X/./.!.!.A.!.!.j.<.*.<.G.`.!.!.Y.r.3.c.V.A.A.d.<.<.7.p.p.3.p.j.G.G.j.d.7.A.!.Y.j.<.! ! <.p.3.<.p.V.G.V.A.G.G.A.Y.!./.`.j.d.G.Y.7.3.G./.G.<.c h ( p.Y.d.V.c.c.j.7.j.c.j.c.!.d.( ..r.p.<.+.<.3.*.} *.3.( <.7.c.3.<.r.c.j.V.A.G.c.j.7.<.j.c.V.G.G.r.<.d.d.!.j.<.c.!.&X.XG.!..X<.J V.&X7.( p.d.j.3...<.<.+.<.d.j.A.Y.Y.A.r.<.d.7.*.3.c.G.A.7.p.j.Y.!.j.p.j.Y.Y.!.!.`..X!.G.d.d.p.3.<.3.p.d.G.A.p.7.j.G.Y.!.!.!.G.G.V.c.j.<.3.j.!.V.3.Y.!./.V.p.<.<.7.d.A.!.!.!./.`..X/.A.!.!.!.Y.V.V.Y.Y.c.j.j.V.!.A.3.+.*.<.j.j.<.3.p.<...r.7.r.r.p.j.j.c.Y.!.!.!.!.`.`.!.c.G.!.!.V.7.3.d.Y.G.Y.j.A.V.j.j.+.r.!.Y.c.7.j.!.c.c.c.j.7...+.p.j.<.<.3.<.! R ..d.V.r.<.} *.*.<.<.} ! ( *...+.3.<.<.7.r.<.+.7.V.7.<.<.*.( ( <.<.! R +.<.......<.3.*.+.<.<.+.<.<.! N N R <.p.c.V.<.<.r.A.A.c.c.p.j.`./.j.3.V.G.A.A.G.G.A.G.G.j.<.+.j.!.G.3.<.j.G.d.p.d.j.<.C J <.j.j.c.j.V.p.d.c.A.A.p.j.V.c.Y.V.d.7.7.<.<.<.+.<.d.r.7.p.p.7.7.r.V.c.d.<.<.3.d.d.+.<...7.",
"<.r.p.r.p.j.j.7.d.r.j.c.j.7.r.V.j.<.+.d.V.d.j.c.!.c.p.j.c.c.j.j.j.c.A.G.!.!.!.!.A.j.j.c.V.V.j.G.c.c.} <.V.A.j.d.7.j.A.Y.G.G.A.V.!.!.V.A.!.!.!.!./.j.j.A.A.V.A.!./.j.3.<.+.*.d.j.G.j.<.y.A.V.A.!.`.!.!.j.d.c.G.`.`.!.!.!.j.c.Y.c.Y.!.!.Y.G.j.f.V.j.7.p.j.d.3.3.d.Y.c.j.j.3.<.j.V.j.V.!.`.`.!.Y.A.r.3.j.<.7.7.<.j.c.j.j.d.r.p.j.j.!.!.#X;X#X!.!.`..X!.Y.!.A.V.<.! +.j.!..X!.j.<.*.j.j.V.j.c.j.<.r.c.d.*.<.d.r.7.j.j.j.V./.!.G.!.!.A.j.<.r.V.A.j.7.<.p.A.j.2.3.3.d.3.<.j.j.c.!.!.`.!.!..X#X.X`.`.&X!.c.c.j.c.!.j.3.j.Y.!.`.&X#X`.!.!.A.`..Xc.7.<.7.c.Y.c.j.c.7.7.c.c.G.!.!.r...<.d.p.3.p.j.V.A.j.c.V.!.`.!.j...! <.<.j.d.7.d.c.Y.!.A.G.c.j.A.!.Y.G.3.<.c.!.d.7.A.!.!.p.D h N U r.7.d.7.p.V.Y.A.j.r.p.A.j.*.<.d.3.} +.7.r.<...*.<.( <.r.V.<.*.r.j.p.7.d.c.j.p.7.7.V.j.V.V.V.p.r.c.V.V.j.7.V.!.&X`.V.j..X`.7.Y.`.! J Y.Y.!.p.! +.<.+.<.3.2.r.j.G.G.3.+.d.j.3.3.j.c.j.r.p.j.Y.Y.j.r.j.c.!./.!./.#X`.V.A.G.c.7.<.<.d.c.c.V.j.r.c.!.Y.Y.!.A.j.j.j.j.j.<.<.3.j.V.j.!.G.j.7.<.<.3.p.j.V.Y.!.!.#X#X&X`.Y.!.!./.!.A.V.Y.!.Y.c.j.A.A.p.+.+.7.r.A.j.3.j.c.7.+.3.r.j.d.r.j.j.A.V.A.G.Y.!.!.!.!.V.Y.!.Y.j.p.j.Y.Y.V.A.j.A.j.d.j.<.d.!.A.V.j.V.Y.d.j.d.p.<.! ( 3.c.d.3...} } ! ..j.c.p.<.} *.} ..<.<.! ! ..} ! <.} ! ..r.7.<.7.V.r.! N ! +.+.<.<.( U ( *.<.<.*...r.<...<...U U J n n U ( r.7.j.j.r.3.7.j.j.A.`.!.Y.&X#X!.A.!.G.G.V.G.V.j.c.G.V.d.7.j.V.G.d.3.j.j.d.V.j.3.p.p.<.7.j.j.j.j.G.j.p.j.Y.!.j.c.Y.c.A.j.<.<.p.7.<.7.r.<.<.<.<.7.r.r.p.j.j.d.p.p.d.p.7.7.3.<.+.7.",
"p.j.j.3.<.j.c.p.<.<.j.G.V.r.<.r.j.p.r.j.c.V.Y.Y./.j.j.V.G.V.V.Y.j.c.c.j.A.Y.Y.Y.G.j.c.V.j.j.d.A.d.!.j.<.d.A.j.7.<.p.A.!.!./.!.Y.Y.Y.G.!.`.!.j.3.j.p.j.G.V.j.c.!.#X7.! } } ..*.+.7.j.3.j.!.!.!.A.Y.p.d.A.Y.Y.G.Y.Y.G.Y.G.j.V.G.c.!.A.j.c.!.V.c.A.G.j.j.d.3.<.3.j.G.j.d.A.j.7.c.!.!.!.!./.!.!.V.r.3.r.V.p.j.3...3.j.j.j.j.j.j.j.j.A.Y./.#X,X#X!.!.!.A.!..X!.Y.r.<.3.d.c.G.A.p.<.7.d.j.V.j.G.c.+.3.c.r.+.<.j.r.<.j.p.!.&X;X!.!.;X/.Y.V.7.r.j.j.d.<...<.j.A.j.3.+.<.7.7.V.V.c.I.G.!.!.!.#X&X#X#X;X;XY.j.j.j.j.j.3.3.j.j.j.V.`.;X;X#X.XG././.j.3.<.3.p.d.7.7.7.<.3.<.V.G.j.j.d.<.<.j.j.7.d.p.d.j.j.A.G.!./.!.G.p.<.j.p.A.j.r.d.j.Y.A.V.V.j.j.c.!.!.V.<.<.j.V.j.c.!.!.!.d.<.} U h ! 7.c.c.d.j.V.A.A.j.j.A.c.7.r.j.3.*...j.c.c.<.+.} ( *.r.A.7.3.d.j.3.3.p.d.<.*.<.r.G.Y.`.G.j.j.j.A.c.j.<.} d.V.Y.G.A.p.A.;X.X;X!.} 7.`.!.`.j.! ..3.3.7.d.<.<.j.A.c.r.<.d.j.p.p.j.c.j.7.r.d.j.d.<.<.d.d.Y.!.!.!.#X#XA.V.!.Y.p.<.<.d.A.A.A.V.j.A.!.Y.G.Y.V.j.j.j.j.j.<.<.3.d.G.!.!.!.c.r.p.r.p.j.j.j.d.j.G.`..X.X`.Y.!.!./.!.A.A.Y.!.!.c.j.j.d.+.R } 3.A.G.7.<.j.d.<.<.<.p.V.j.p.d.j.G.V.A.G.!.!./.!.!.A.!.!.!.G.A.A.A.A.j.c.p.j.r.r.j.c.j.V.<.<.j.G.Y.A.V.p.r.<.+.3.V.j.j.p.+.*.3.<.<.r.j.j.j.<.<.( +.7.3.! +.<.} R ( } U } 7.<.p.V.j.c.U a c ! ..3.j.+.N D +.7.j.p.<.<.<.<.d.p...! Y U C D n ! ..d.c.<.<.3.c.j.j.!.G.!.!.!..X!.Y.c.G.Y.A.d.3.7.j.A.V.G.c.j.G.c.p.j.V.j.G.c.<.d.j.3.j.j.A.A.d.j.<.<.j.V.!.A.Y.G.c.Y.V.<.<.j.j.<.r.p.<...*.<.7.p.p.d.j.j.<.<.7.j.j.3.<.r.<.<.p.",
"d.j.j.3.<.7.r.<.+.<.p.j.A.j.<.7.r.p.j.j.p.j.G.!.!.j.j.G.V.j.j.j.j.j.d.d.j.V.V.A.!.c.j.d.p.d.j.A.p.A.j.<.r.A.j.d.<.r.j.j.A.!.!.Y.V.j.G./..X`.G.j.j.j.Y.!.A.j.V.Y./.<.! <.r.d.d.r.7.A.A.V.!.!.A.j.Y.r.p.!./.G.V.d.j.c.Y.G.V.V.V.j.!.c.r.j.Y.j.j.j.c.j.G.j.r.d.V.!.Y.d.j.!.Y.j.!..X/.!.!.G.Y.!.c.<.<.j.!.j.j.7.*.2.d.d.j.c.j.V.A.j.d.A.A.j.#X;X#X/.!.A.!.;X!.!.j.d.d.d.j.c.V.j.r.j.j.A.V.c.!.j.<.3.j.p.<.7.j.7.<.d.j.V.`.;Xj.+.!.5X!.A.p.d.c.j.r.<.*.<.j.G.Y.j.<.3.j.d.V.A.!.!.c.G.!.!.#X#X`..X.X!.j.p.j.d.7.*.} +.r.r.r.j.!.&X;X;X#Xj.A.!.j.3.<.<.3.3.3.7.<.<.r.*.Y.!.j.p.d.7.7.r.7.<.3.<.<.p.p.c.j.j.j.j.A.j.<.r.j.!.j.r.d.V.!.c.c.c.V.j.j.!..X!.p.7.d.j.j.!.`.Y.V.r.p.d.*.h ! r.c./.Y.j.j.j.G.V.Y.A.c.r.r.j.r.7.<.j.j.A.r...( <.3.r.A.j.j.j.j.r.j.j.7.+.<.p.d.c.A.&X!.c.G.A.A.j.j.<.( d.V.c.V.!.V.V.G.!.;X!.*.r.A.j.!.V.+...p.V.j.d.<.r.c.A.A.c.d.j.j.j.j.V.G.v.p.d.j.d.3.*.<.7.r.c.A.Y.!.`.#XA.j.G.G.d.7.7.p.j.Y.V.G.c.A.!.!.G.Y.V.j.c.c.c.c.p.r.c.c.!.`.`./.!.c.c.d.r.j.j.p.p.j.G.!.!.!./.Y.!./.!.A.V.G.Y.G.!.!.A.A.V.<.} *.7.j.3.! *.p.3.3.y.<.r.V.j.d.j.j.G.G.Y.!.!.`.`.!.!.A.A.!././.!.c.j.j.j.j.3.p.7.r.V.!.V.V.....d.Y.!.Y.c.3.<.*.( <.j.<.<.3.*.<.3.<.<.<.7.7.j.<.r.} +.c.3...j.j.*.! } } ! ! *.<.7.3.( j.! y s ! 3.j.A.*.c v } j.!.!.c.r.3.3.j.c.<.! J J J J N <.j.!.G.+...<.Y.j.<.j.j.G.c.V.!.G.V.V.!..XG.7.} } 3.j.V./.Y.V.Y.c.d.V.Y.V.V.j.( <.} R <.j.j.p.*.r.7.d.G.j.Y.Y.Y.V.j.Y.G.<.*.7.<.} *.3.7.+...<.7.7.<.7.j.V.3.*.*.7.j.r.r.7.<.<.r.",
"r.p.j.j.p.r.7.*.+.3.7.3.A.G.7.p.7.3.j.j.j.Y.!.`.G.j.V.!.A.j.j.j.j.j.d.d.c.V.c.A.!.A.V.j.j.c.c.A.Y.A.j.<.d.A.j.j.G.V.j.d.c.!./.!.c.d.j.G.Y.!.!.Y.!.!.!.!.A.V.Y.!.`.r.<.7.d.j.V.V.j.c.c.r.c.!.j.j.c.c.A.`.Y.c.!.V.3.j.!.!.Y.A.V.V.Y.j.d.j.d.! <.j.<.p.A.j.<.p.V.!.`.V.c./.!.A.`.#X!.Y.A.j.V.!.V.<.<.V./.j.d.7.<.<.j.j.j.j.j.V.G.V.3.c.d.} j.!.#X&X!.V.!.&XY.A.j.j.j.j.j.G.!.c.j.V.Y.!.j.j.V.r.p.d.p.d.<.3.j.3.<.d.!.3.j.#XR 7 v G.G.j.3.j.!.A.j.p.j.d.j.j.A.c.d.c.j.j.A.G.!.!.d.j./..X#X`.!.Y.A.p.<.r.a.p.<.*.....+.<.d.V.!.).`.&X!.3.d.A.j.s.3.*.<.*.2.<.( <.A.j.j.j.j.j.p.d.c.7.*...<.<.r.A.V.!.j.j.p.p.G.j.*.3.r.!.!.c.j.A.`.V.j.j.A.c.j.!.;X.XV.d.7.r.j.G.!.j.G.d.p.3.<.C <.j.c.Y.G.!.G.r.j.G.A.j.j.r.7.d.7.7.p.j.<.r.<.} ..j.p.3.c.V.G.j.j.j.j.p.3.<.c.!.c.p.r..XY.A./.!.j.<.r.3.*.j.c.j.j.!.!.!.p.p.!.c.( D d.<.A.!.3.+.d.!.V.3.7.A.V.A./.!.V.G.A.V.c.A.A.j.j.c.A.V.p.<.7.d.d.j.j.Y.!.!.!.c.G.!.!.V.A.Y.G.A.G.c.G.A.V.!.!.Y.A.j.d.j.j.c.A.j.j.!.G.G.!.!.!.A.c.j.r.<.3.r.j.A./.`.`.!.!.`.!.!..X!.A.A.!.Y.A.G.!.V.Y./.A.p.j.V.`.j.<.d.d.*.<.3.<.r.c.j.j.j.j.G.Y.Y.!.!././.!.G.c.c.G.!.!.A.c.c.p.j.c.<.r.7.p.V.!.G.`.j.j.G.!.!.V.c.p.d.r.} ..<.! } <.3.3.<.<.3.<.*...7.<.j...} G.*...!.V.<.<.<...} ! ( r.<.C h ! ..R J ..<.j.Y.j.N n ..d.!./.V.j.<...3.p.<.} ! R R ! R c.`.&XA.<.} <.!.j.+.j.A.p.3.7.V.j.j.A..X#XA.<.R ! 3.A.!.!.G.V.Y.A.j.c.j.Y./.!.! ....! <.j.r...! j.A.V.V.V.G.G.V.d.p.j.j.<.<.<.( ! *.p.j.V.p.r.j.p.<.3.c.Y.j.r.<.<.r.7.p.<.<.<.3.",
"<.d.A.A.j.j.r.} +.7.*.( d.Y.A.c.j.j.j.j.c.!.!.!.j.c.G.Y.A.Y.!.Y.A.j.j.j.j.A.V.j.c.!.Y.j.j.A./.!.A.j.7.3.G.!.j.d.j./.!.j.d.c.!.Y.Y.A.G./.A.!./..X;X!.Y.!.G.G.!.!.G.p.3.r.r.d.A.Y.G.Y.G.A.A.G.Y.Y.!.G.Y.!.V.V.!.G.7.j.c.Y.Y.c.j.j.j.p.r.r.3.( p.A.3.j.V.j.7.1.3.7.G..X!.!.`.&X`.&X!.!.!.j.p.c.A.p.p.j.!.G.p.p.p.<.3.7.3.d.r.7.A.c.j.!.Y.j.c.G.!.#X`.G.c.Y.!.G.V.G.!.V.j.j.c.V.A.G.!.G.!.j.7.d.3.7.<.<.3.j.V.j.d.c.!.j.d.A.p.J R j.!.j.7.V.Y.Y./.!.Y.G.A.!.!.!.!.!..XG.!.c.A.A.j.j.V./.#XY./..Xp.} 7.p.<.7.<.*.j.7.r.j.j.!.!.G..X`.j.} <.A.c.c.A.A.j.<.7.r.( 3./.V.A.R.j.r.p.p.t.3...} <.p.Y.!.#X!.3.p.c.j.j.j.<.<.7.c.!.A.r.7.V./.A.j.j.j.V.V.!.#XV.y.j.7.r.!.G.3.j.r.<.d.+.N j.V.j.p.V.c.V.<.( 7.r.d.j.r.<.<.<.r.r.G.<.! <.3.r.!.A.d.c.A.j.r.7.p.d.j.<.<.c.!.A.V.7.A.Y.!.#XY.3.*.2.<.j.G.G.7.N Y.&X!.j.j.A.d.} U d.7.G.!.p.<.j.Y.c.3.p.Y.G.!.A.Y.V.!.!.A.c.A.A.V.V.V.V.Y.Y.A.3.j.r.d.j.j.A.G.V.V.G.V.c.V.A.G.Y.G.Y.c.G.!.`.!.A.Y.Y.j.j.j.j.c.A.A.Y.V.j.c./.!.j.c.!.7.+.<.7.d.G.!././.!.!./.!.!.Y.!.!.!.!.!.Y.A.V.G.G.!.!.c.A.!.<./.A.j.A.!.c.j.d.<.3.j.j.V.Y.c.j.Y.Y.G.Y././.!.Y.Y.Y.!.Y./.V.j.d.<.<.r.j.c.j.j.c.Y.!.G.j.V.!.!.Y.V.d.c.!.j.<.( 3.*.*.3.<.<.p.7.......<.r.c.7.7.+.d.<.j.!.V.<...3.d.p.....*.! ! R D 3...<.*.<.c.j.<.! J <.!.A.j.G.V.r.7.<.<.r.*.! R U <.A.Y..X&XV.7.d.7.<.3.j.G.r.<.<.7.7.7.j.Y.!.G.} ! <.<.d.!.Y.!.V.j.d.7.d.c.j.G.&XG.! J <.7.p.d.<.<.p.V.V.c.c.j.V.!.j.*.<.r.j.+.} +.*.R ! Y.!.Y.A.V.Y.V.r.p.j.j.c.A.3.7.c.j.j.j.<.( <.",
"<.p.j.c.j.j.j.<.*.j.p.7.V.!.j.j.p.p.p.r.d.j.V.A.c.V.Y.!.G.Y.!.G.A.c.j.j.d.j.A.c.j.G.G.r.<.j.A.G.c.c.V.j.j.A.j.p.<.j.V.c.j.j.V.A.!.A.Y.#X!.A.3.! 7.A.#X#XY.V.A.V.j.j.j.7.7.c.!.Y.!.!.!.!.A.j.j.G.Y.G.Y.!.c.r.d.r.r.G.Y.G.j.r.p.j.c.A.d.<.3.+.<.j.3.j.c.j.7.7.p.j.!./.!.;X;X;X.X;X`.!.Y.V.j.A.!.c.c.c.!.!.j.j.d.3.<.<.+.r.d.r.V.A.V.A.!.#X`.G.G./.!.V.j.V.G.G.Y.!.!.Y.A.A.V.c.V.A.A.A./.G.j.V.V.!.c.r.<.r.c.j.j.Y.Y.Y.A.A.V.j.7.r.V.j.d.j.c.V.#X5X`.A.c.!.!.!.!./.j.d./.Y.c.j.d.3.p.!.`.G.!.!.d.p.<.d.p.d.7.*.<.<.p.c.V.!.G.c.!.A.*.+.7.j.j.j.j.!.!.c.A.A.*.<.c.7.A.V.p.d.j.d.3.*.*.+.<.r.V.A.!.c.C *.j.r.r.j.r.7.r.d.j.r.<.<.d.G.`.!.!.!.A.j.V.!.G.j.j.p.r.A.A.<.d.j.j.j.j.p.`.`.j.<.+.<.A.7.( 3.7.j.j.3.<.<.3.j.j.A.j.p.j.j.j./.Y.d.d.j.j.p.3.p.<.<.} } p.!.!.A.j.!.!.!./.V.<.*.3.d.A.!.p...z d.#XG.c.!.`.d.! R d.j.G.j.3.3.p.c.c.p.p.j.j.c.j.Y.Y.G.c.d.d.j.c.j.G.V.A.!.!./.j.d.p.d.3.r.G.Y.c.c.V.c.c.A.Y.!.!.!.G.V.!.`.`.!.V.Y.!.V.c.c.c.V.A.V.c.d.r.d.G.A.r.p.Y.j.7.r.d.j.A.!.Y.Y.Y.!.!.Y.G.V.A.A.G.G.A.A.A.c.j.c.c.c.j.A.c.*.d.A.G.!.!.!./.!.j.j.c.j.c.G.j.d.j.V.A.Y.!.!.!.!.!.Y.Y.G.`.!.V.j.7.p.j.V.A.A.V.j.V.Y.G.V.A.V.d.7.r.p.V.!.j.p.<.3.3.3.p.7.r.c.j.<.*.*.<.r.d.<.p.j.d.3.j.!.!.d.+.<.A.G.d.7.7...R R <.<...r.<.j.!.j.j.r.<.r.G.A.j.V.!.c.V.V.c.V.p.*.! ( j.!.!.#X#Xc.c.p.7.<.<.j.A.<.<.<.p.j.j.j.A.G.r.R R 3.j.c.G.A.A.V.c.7...<.c.A.Y..X3.N ! 3.7.r.<.<.p.A.!.Y.V.V.3.d.G.j.<.<.3.r.*...<.3.} } !.!.A.!.!.!.c.p.j.j.3.<.<.<.j.Y.<.! 7.p.<.<.",
"p.j.c.V.j.j.r.<.<.d.j.d.c.j.3.<.p.j.j.j.d.j.j.c.G.Y.!.!.Y.Y.!.A.Y.A.c.j.p.j.A.G.V.A.!.r.+.7.j.j.A.c.A.d.<.j.Y.V.r.j.j.c.A.c.G.!./.Y.Y..X/.G.<.J N *.Y.!.j.p.j.V.3.j.j.7.p.G.!.!.#X`.`.`.A.7.r.V.V.j.j.A.j.<.+.*.7.Y././.Y.j.c.c.j.!.j...r.7.<.d.7.j.V.c.j.j.A.!././.`.;X;X;X#X&X.X!.Y.Y.V.Y.!.!.!.A.A.Y.c.j.p.<.7.r.<.j.j.3.j.G.Y.j.!.&XG.r.d.V.!.V.c.V.c.A.!.!.!.!.!.!.G.c.c.G.c.j.!.Y.V.!.!.#X`.j.7.j.Y.c.j.V.!.!.A.j.j.V.d.<.j.j.j.p.p.j..X9X;XA.c.!.!.G.!.`.7.<.!.G.7.3.j.r.V..XG.j.A.j.j.A.Y.Y.G.j.7.....<.c.Y.G.!.Y.G.!.V.*.<.d.p.3.<.r.G.Y.G.!.!.3.*.p.<.A.j.3.j.A.j.p.<.<.+.+.+.7.7.j.r.N +.j.d.p.d.7.7.V.j.j.d.d.j.G.`.`.d.p.!.!.j.d.j.j.j.A.j.3.p.c.7.d.j.j.j.!.!.A.j.j.<.! } j.3.} 3.d.V.c.<.+.<.7.c.3.d.G.!.!.c.j.A.j.3.7.j.G.V.r.d.3...! ! ..j.G.V.z.!.!.!.!.j.<.*.d.V.A.j.U R N c.!.c.j.A.A.3.! ! d.c.A.d.7.r.r.c.!.V.j.j.3.p.j.G.G.c.j.d.j.c.V.V.!.Y.!./.A.!.A.p.r.r.*.<.G.!.j.j.G.A.V.A.!././.!.G.V.!.`.!.A.j.G.A.c.c.c.c.V.V.j.j.<.<.p.c.A.j.d.j.j.p.7.p.j.c.G.A.A.Y.!.!.!.G.A.V.V.A.j.p.d.d.3.*.j.j.e.7.j.A.d.A.`.`.!.Y.Y./.!.!.!.A.j.j.V.c.7.<.j.V.A.D.Y.G.Y.!.G.Y.Y./.V.p.<.3.p.V.G.V.!.!.c.j.c.A.Y.!.A.d.7.c.A.Y.V.7.d.7.3.r.7.r.7.j.!.j.+.*.*.7.j.c.7.j.Y.A.c.A.!./.V.<.<.j.Y.G.c.c.<.C N d.3.+.7.7.A.!.c.j.A.j.7.d.V.A.G.Y.j.V.G.G.Y.V.p.<.<.j./.!.!.A.<.d.*.7.d.7.j.V.<.<.<.j.A.d.<.7.j.3.U N *.A.Y.A.Y.A.!.!.p.! *.c.Y.G.!.( N <.3.*.<.<.3.d.A.Y.A.j.j.<.3.d.r.3.3.<.<.<.*.<.3.+.} G.!.j.V.j.d.j.c.!.Y.*...*.<.c.G...N ! p.7.*.",
"j.j.c.V.j.p.<...d.V.c.j.V.c.r.<.j.G.!.!.A.V.V.A.!.!.!.!.Y.Y.Y.A.!.!.Y.A.c.c.G.!.V.G.!.c.7.r.j.G.!.j.j.7.<.c.!.!.G.A.j.j.Y.!./.`./.!.!.!.!.!.G.j.j.Y.#X.XV.p.p.j.7.p.p.r.j.G.Y.`.`.!.!.^.V.7.7.j.A.j.p.j.V.p.7.r.p.G.!.!.!.Y.A.j.<.V.c.*.j.j.7.j.j.j.V.A.A.G.Y.Y.Y.!.`.!.V.#X.X!.`.!.!.!.A.G.!./.`.Y.A.G.c.j.j.3.V.V.j.Y.!.j.d.V.c.j.Y.Y.p.<.7.p.G.A.!.Y.d.V.!.Y.Y.!.!.!.Y.c.c.Y.Y.j.A.A.G.!.!./.!.j.p.V.!.Y.V.A./.A.j.j.j.<.<.d.j.c.p.<.7.j.A.!./.c.G.!.G.V.A.!.p.<.A.A.3.+.r.j.#X;XG.j.7.<.V.`.Y.j.V.c.p.3.7.j.!.A.c.Y.!./.`.A.<.} <.7.<.7.d.j.<.p.j.V.3.<.j.j.d.3...<.p.d.j.p.<.<.3.<.3.<.p.7.<.p.d.c.c.d.3.3.V.j.d.d.j.j.V.`.Y.( ( V.!.d.3.3.j.c.c.j.*.<.j.r.j.7.r.j.#X/.} ! !.!.j.r.j.d.d.j.c.Y.j.<.+.<.3.j.<.d.!.`.!.A.c.c.7.3.r.j.!.!.j.d.<.! ( } } 3.j.c.d.A.Y.A.G.c.7.*.G.!.A.j.n U J d.Y.!.!.V.V.Y.A.j.j.d.j.c.j.d.r.A.Y.c.j.l.<.7.j.j.d.r.d.c.G.Y.!.Y.!.A.Y.!.j.G.V.7.<.3.<.7.G.!.c.j./.!.G.A.!././.!.Y.c.Y.!.Y.V.c.A.c.V.V.c.c.A.V.j.j.<.3.d.j.G.V.c.j.A.j.3.p.V.G.!.G.G.!.!.!.G.c.j.j.c.V.d.<.3.3.} ! j.A.d.<.p.Y.Y.!.A.j.!.!.Y.Y.V.!.#XY.j.j.c.V.7.<.j.c.c.V.V.V.A.j.V.!.!.!.c.d.3.3.r.c.A.j.V.!.A.j.j.V.Y./.!.A.A.!.!.!.c.<.d.j.c.j.j.d.d.A.!.j.<.<.<.p.A.!.A.V.A.G.Y.Y.!..X!.7.r.c.V.c.d.A.j.! ( <.7.<.r.c.!.c.j.7.j.r.*.3.c.!.!.A.c.j.p.d.j.j.p.d.<.d.!.!.V.d.<.<...d.A.j.V.A.d.<.d.G.G.3.} <.p.c.*.D } Y.`.Y.!.G.!.`.c.<.7.Y.!.V.V.! ( d.<.+.<.d.p.d.j.V.j.p.7.<.r.j.j.r.<.<.r.p.3.p.p.<.+.j.j...R N ..V.!.G.j...<.7.7.j.G.d.<.<.j.3.( ",
"p.p.d.j.j.d.3.<.A.Y.Y.G.!.!.c.r.j.Y.`.`.!.Y.!.!.`.`.!.G.G.G.G.G.!.!.Y.Y.G.Y.!.!.j.A.G./.!.j.Y..XA.d.p.d.j.c.j.V.Y.!.j.j.G./..X/.!.!.!.!.G.Y.!./.`..X.X!.V.d.r.r.p.3.3.r.V.Y.G.`.!.Y.Y.G.V.j.j.c.G.V.p.p.d.r.j.j.j.V.V.A.!./.`.Y.<.j.c.3.j.j.d.G.A.j.j.j.c.A.A.V.j.G.!.c.3.!.!.Y.!.!.#X`.V.V.!.!.!.!.!.Y.V.G.!.V.j.j.j.!.;X/.j.j.7.j.A.Y.!.G.j.j.j.c.!.Y.d.j.!.Y.G.Y.!./.!.c.c.Y.A.j.c.!..X;X&X#X/.A.d.r.d.c.Y.!.G.j.j.Y.G.3.<.G.j.V.d.<.p.j.r.<.7.r.G.Y.z.j.j.A.j.7.A.!.j...*.j.#X;X XY.*.! G.#X<.R <.j.d.j.d.d.Y.j.j.Y.!.Y.G.j.r...*.3.r.r.3.<.*.7.j.j.7.<.j.V.r.r.<.<.<.7.j.j.<.p.V.j.j.p.j.j.j.c.p.j.c.d.j.d.j.j.j.d.r.<.3.c.A.<.3.V.j.<.<.7.!.c.7.<.*.<.j.7.d.3.r.j.&X.X<.7.;X#XG.A.j.V.Y.j.d.V.d.<.<.<.*.<.7.c.!.V.j.A.c.j.3.d.d.7.j.V.r.<.<...<.p.d.r.<.p.p.j.j.j.V.A.d.3.j.V.G.Y.! *.( <.Y.&X.Xc.j.Y.G.7.j.7.j.!.G.d.7.j.c.p.j.A.3.j.!.c.<.<.r.c.V.G.!.!./.d.r.Y.V.Y.c.<.<.<.7.j.c.A.A.c./.`.!.A.!./.!.!.Y.c.G.!.!.Y.A.A.A.Y.Y.G.A.Y.G.G.A.p.d.j.j.V.V.j.c.A.j.<.p.V.A.G.G.A.G.Y.A.j.r.7.p.j.j.p.<.r.r.+...3.j.Y.j.j.G.Y.G.3.<.V./.!.G.c.!..XY.j.d.j.A.j.d.c.V.c.V.V.c.c.d.c.!.Y.A.d.j.c.7.7.c.V.p.j.G.G.V.V.V.G.!.L.V.G.!.A.G.!.p.j.V.`.G.V.j.3.p.j.j.c.A.c.j.V.Y.(.A.j.7.3.d.G./.j.+.r.!.Y.V.c.!.!.<.3.! ..*.j.G.G.<.*.<.3.<.<.7.j.V.A.A.!.c.7.d.j.j.j.r.+.w.G.A.r.y.j.j.r.j.!.Y.G.G.A.d.A./.G.<.( <.j.G.j.<.<.G.!.G.!.V.j.c.j.j.A.`.`.Y.j...r.c.7.d.V.c.j.c.V.j.d.3.<.} j.Y.V.7.+.<.c.j.d.c.c.j.3.j.p.( h r R !.!.V.j.p.r.j.j.j.c.c.V.3.7.<.<.",
"7.3.<.7.j.j.d.p.j.V.A.G.!./.Y.d.d.Y..X#X.X/.`.`..X.X!.A.A.G.G.G.G.A.c.S.!.!.!./.j.A.G..X.Xc.V.`.G.j.j.j.c.d.<.p.!..X!.c.c.Y././.!.!.!.G.G.G.!.!.!.`.Y.d.r.h.j.p.p.7.r.r.c.!.Y.!.G.G.V.c.A.Y.G.V.V.V.j.r.<.+.7.p.3.d.j.G.!.`.&X/.d.j.j.r.j.r.j.Y.G.j.p.d.j.G.!.!.j.A.!.G.r.c.j.A.!./.&X.XV.j.Y.Y.!..X/.!.j.c./.A...j.Y.`.;X`.c.j.p.j.j.Y.7X,XY.c.j.V.Y.c.7.p.V.V.Y.Y.!.`.!.V.c.Y.j.j.Y.#X;X&X#X.X&X!.j.3.<.d.A.Y.A.c.j.V.G.c.j.A.j.c.c.p.j.c.r.<.*.7.j.7.<.d.j.A.c.p.j.A.A.+.<.Y..X;X;X#X7.+.A.A.d...p.G.A.V.j.7.j.j.V.`.`.G.A.A.c.j.d.d.A.p.! } <.r.j.j.j.j.!.!.j.V.c.j.<.<.j.d.<.r.c.7.r.7.d.j.r.A.p.3.7.r.A.c.G.!.!.Y.A.d.r.c.G.V.c.d.*.<.7.7.j.a.7.7.r.j.c.d.p.d.j.c./.&XY.#X;XV.3.A.A.Y.Y.<.<.p.7.7.j.3...( <.V.!.j.j.Y.j.p.d.c.j.*.<.j.j.p.j.3.d.j.j.d.<.r.d.c.p.3.c.Y.j.j.G.V.G./.<.3.<.<.Y./.!.j.j.Y.Y.d.j.d.A.Y.c.j.3.<.d.<.7.c.3.j.A.p.d.3.7.d.p.j.!.!./.j.<.V.j.j.j.j.p.7.p.j.d.j.V.j.G.!.Y.A.!.!.!.!.!.c.!.`./.!.!.A.Y.!.!.G.G.A.A.G.!.c.V.V.j.A.V.c.c.c.d.7.r.j.j.j.c.j.c.V.c.d.r.p.d.j.j.p.p.j.p.<.r.( ..V.!.V.Y.!./.j.r.V.G.A.!.G.Y.!.Y.c.j.c.A.j.j.c.j.j.c.j.j.j.r.j.!.G.j.p.c.V.7.p.c.A.j.j.Y.!.A.G.A.G.G.j.j.c.!.j.c.!.j.j.G.#X`.Y.<.R } r.d.V.!.!.!.Y.A.Y.j.r.j.*.<.V.A.<.( j.XX/.!./..XA.<.<.*.! ..V.V.d.+...*.+.*.3.d.p.3.<.V..XY.j.V.A.V.G.j.p.V.!.V.<.7.A.G.A.G.`./.Y.!.!.G.!.`.V.<.} 3.j.c.G.j.<.<.r.j.G.j.r.7.d.j.G.`.!.!.j.r.G.Y.j.A.G.A.c.c.j.7.*.<.r.<.j.r.<.+.} <.j.c.j.c.p.p.7.j.p...z r U G.!.G.!.G.7.3.j.j.<.<.7.r.+.+.*.",
"r.7.<.<.j.V.j.p.c.V.A.c.V./..XY.j.!..X#X.X.X.X`..X.X!.V.A.G.A.G.G.c.j.c.!./.!.!.V.A.!.!./.G.r.!.!.A.c.j.j.r.<.3.A..X/.Y.G.Y.!.!.!.Y.Y.V.!.!.!.!.j.j.3.( +.r.j.j.d.r.j.d.j.!.Y.G.G.V.j.j.c.G.A.c.V.j.j.c.r.<.r.r.<.3.d.V.A.A.G.j.j.j.d.7.j.3.j.A.A.j.j.j.c.Y./.#XA.V.!.!.c.V.d.A./.!.#X#XG.c.Y.!.`.&X`.!.j.p.V.j.+.A..X/.`..XY.j.j.d.3.j.;X;XG.j.V.A.A.j.d.j.j.j.!.Y.!.#X`.Y.G.!.!.!..X;X.XY.V.V.`.!.G.V.j.c.Y.!./.!.j.p.j.G.A.V.j.j.V.j.j.A.c.p.p.d.d.*.<.j.d.c.c.p.7.p.j...7.`.`..X&X`.j.j.G.p.r.*.<.d.j.j.p.r.j.j.!.;X&X/./.`.Y.!.Y.A./.Y.3.r.c.Z.c.j.r.j.Y.c.j.A.Y.V.3.*.3.7.r.p.j.*.<.7.p.j.7.G.p.<.<.3.Y.G.!..X/.!./.A.d.j.j.j.p.<.<.p.j.p.<.<.j.j.j.j.j.j.j.V.j.G.!.#X`.`.!.c.7.!.Y.G.Y.<.+.p.7.d.V.r.*.*.7.A..XA.A.#XG.r.j.c.c.<.3.Y.!.A.j.7.j.<.( 7.j.v.j.!.j.7.G.!.c.A.Y.j.A./.j.r.j.A.!.!.G.j.d.G.A.7.j.c.A.j.j.j.r.7.G.V.j.A.j.j.V.j.c.r.7.7.<.p.j.j.A.c.r.V.j.7.p.G.j.d.r.p.d.j.p.3.j.Y.A.j.G.!.Y.!.!.V.!./.!.!.!.Y.G.!.!.G.G.c.j.A.!.G.!.G.V.V.j.j.A.c.j.j.p.p.j.j.j.j.j.V.V.j.j.V.c.A.j.7.p.d.7.<.p.} ! 7.A.G.!./..X!.G.Y.j.d.Y./.!.G.G.A.A.A.j.j.j.j.j.j.V.j.j.j.r.j.G.V.V.j.G.A.d.j.G.G.G.Y.Y.A.c.G.G.A.V.j.p.j.j.7.j.!.V.G.A.G.!./.p.J ! d.d.j.j.Y.`.`.G.G.d.d.!.j.d.j.j.<.<.G.!.G.A.!.A.3.3.j.<.<.r.!.A.j.7.7.+.! ..r.j.r.<.<.A.!.G.V.j.d.j.j.V.!.#X;X/.j.j.!.Y.!.!..XA.d././.!.Y.Y.V.7.<.r.j.j.c.j.<.! | p.Y.j.j.j.j.d.V.!.A.!.V.A.Y.c.j.A.j.G.c.j.d.<.} *.d.d.j...R ( +.<.p.A.V.j.<.<.3.p.r.! D n ..V.V.j.G.c.<...7.7.+...+...( 7.y.",
"7.7.<.<.c.G.j.r.A.A.c.r.r.!.;X&Xc.!.`.`.!.!.!.!.`.`.!.V.A.G.A.A.Y.c.j.V.`..X!.Y.c.c.!.j.!.!.<.!.!.V.c.j.j.j.3.<.3.A.!.`..X/.!.Y.V.V.G.V.!.!.!.G.d.7...! <.r.d.j.j.r.V.c.c.!.G.G.A.j.d.d.j.j.j.j.j.7.p.Y.c.p.j.7.<.<.3.j.j.c.A.j.j.j.6.<.j.7.j.V.P.V.V.V.c.c.G.!.c.j.Y.!.Y.!.j.!.#X!./.#X!.V.!./.&X;X.X#XV.r.c.d.j.!.`.G.!.,X&Xc.d.p.<.7.!..XA.d.c.A.V.c.A.A.j.j.!.Y.!.&X&X/.!.`.!.!./.;X.XY.G.Y.#X/.`..X!.Y.Y.Y.#X!.j.d.V.G.A.G.j.d.j.d.d.Y.Y.V.c.c.j.7.V.Y.3.3.j.p.7.3.3.( 3.!.G.!.`.!.j.V.!.V.<.<.*.r.G.A.j.A.A.G.`.;X&X&X&X&X#X.X.X/..X;X/.Y.j.j.r.<.<.j.`.!.c.G.!.!.p.*.7.d.j.c.G.p.c.V.j.j.d.G.7.3.7.7.!.!./.`.!.G.!.V.<.+.3.<.<.*.7.j.c.c.3.<.j.j.d.j.p.d.G.G.j.!.!./.Y.d.7.G.A..Xc.d.c.3.<.j.p.j.A.p.3.r.d.c.!.c.j..X!.p.<.<.r.<.<.V.A.p.j.p.A.+.v ( j.j.j.`.G.j.!.!.j.A.G.j./.;X!.7.j.j.!./.!.c.V./.!.7.j.V.c.p.c.A.j.V.j.c.3.p.r.7.r.j.j.3.<.<.<.<.<...3.j.r.G.G.d.r.c.c.j.3.7.j.j.<.} j.A.j.p.j.G.Y.!.!.A.!.!.c.A.!.!.G.!.!.!.!.V.c.!.Y.Y.!.A.j.d.<.3.c.d.j.d.<.<.d.j.V.j.j.V.c.j.j.A.c.G.p.<.r.p.<.<.<.r.<.<.j.A.Y.!.Y.A.!.`.j.<.j.Y.`.A.G.G.!.Y.j.d.c.j.j.A.!.A.V.!.V.j.j.r.p.p.j.p.c.!.!.Y.!.!.c.7.j.V.A.c.j.r.3.r.j.p.G.#XY.Y.7.! 7./.G.! ! <.<.<.3.j.!.`.G.G.j.A.A.j.j.3.*.<.3.d.+.<.d.!.j.<.j.!.N r.j.Y.G.j.<.<...! } p.V.j.j.j.j.j.j.V.p.<.d.p.<.j.!..X`.!.Y.!.!./.!.!.<.! !.#X!.j.c.Y.A.j.c.Y.V.j.j.7.( ..j.!.j.A.!.V.d.V.!.V.c.A.Y.d.<.j.A.c.!.j.j.j.p.*.*.r.j.Y.7.} *.*.<.p.A.Y.G.r.p.p.r.<.<.r.<.7.V.c.c.A.j.r.<.<.*.+.<.*.R ! p.<.",
"j.V.d.r.A.V.d.j.c.A.G.j.A.!.!.`.c.A.!./.Y.!./.A.!.`.!.G.Y.G.V.d.d.V.V.V.!.`.!.G.!.G.j.7.j.G.c.!.!.A.V.j.r.j.j.*...<.V./.`.`./.!.G.!.G.A.!./.!.c.p.3.p.p.p.j.j.j.<.3.d.G.!.!.!.j.d.!.!.c.7.<.7.3.p.p.j.j.j.j.j.3.<.r.j.j.c.j.r.d.j.p.<.<.d.p.r.V.Y.j.V.Y.c.j.j.j.d.!.Y.7.j.!.Y.!.!.c./.#XY.!.!./..X;X.X!.c.j.G.!.!.c.V.`.&X.X!.G.j.r.d.p.3.!.!.Y.G.G.G.V.!.!.c.Y.!.V.!.`.!.!./.!.Y./..X&X.X!..X`.!.c.;X;X!.!.G.A.!.!.p.j.G.A.c.j.j.7.r.r.7.c.!.G.c.G.j.p.j.j.p.V.c.r.Y.d.7.} 3.!.Y..X/.7.r.<.A.c.j.j.j.V.!.Y.!.`.Y.A..X;X#X#X.X;X`.;X;X#X&X;X`.G.! N *.j.<.j.!.G.j.A.G.j.r.d.V.A.j.j.c.c.G.!.Y.c.<.p.d.j.c.j.A.&X.XY.!.!.j.j.j.! +.<.( <.d.j.A.A.r.j.j.d.j.p.3.p.A.V.c.Y.`.Y.r.<.( !.`.!.A.<.7.j.p.j.c.j.G.V.r.c.d.j.G.j.j.G.!.7...<.<.<.<.3.r.j.j.c.!.+.+.7.*.7.j.!.!.j.A./.j.d.V.p.A.,X`.d.+.<.!.j.Y.V.! j.!.3.p.3.r.j.V.j.3.A.A.c.c.7.<...<.p.7.<.r.r.3.<.+.} ! 3.p.d.c.p.3.j.V.c.d.c.c.d.j.<.j.!.j.+.c.Y.j.`.`.!.!.G.A.!.!.Y.c.!.!.V.A.A.V.!.!.!.G.V.j.7.<.<.r.r.<.+.<.7.p.d.p.3.j.!.V.p.d.V.j.p.7.r.d.r.<.r.<.7.7.7.j.A.G.V.A.!.!.!.d.<.7.j.V.G.j.j.G.G.j.j.j.A.j.j.!./.!.(.Y.V.j.c.j.<.<.<.A..Xc.( j.;XG.3.j.c.j.d.d.<.<.d.3.V..X.XV.G.<.5 r v j.j.! ..<.<.} p.G.!.#X/.c.V.V.G.r.<.<.3.r.<.R <.r.d.3.r.G.j.} j.!.V.j.p.*.+.*.! <.j.Y.c.c.j.d.<.3.V.j.d.!.p.<.V./.!.!.Y.!./.!.!.!.Y.<.3.!.!.!.A.A.Y.Y.Y.!.!.G.G.!.G.d.j.!.!.A.V.!.c.j.Y.G.j.d.c.A.! C 7.V.Y.Y.d.V.V.p.+.! } <.c.<.*...} d.j.j.V.G.p.<.p.7.+.d.p.3.j.G.A.V.G.G.j.<.<.<.<.p.<.} *.<.<.",
"j.G.V.j.Y.!.G.!.j.G././.#X!.j.A.!.G.G.!.G.A.!.A.`.&X/.!.!.A.j.7.j.V.c.j.A.!.Y.A.V.j.d.3.d.c.c.!.G.G.V.j.d.j.j.<.+.<.j./.`.!.!.A.A.V.c.c.V.Y.G.c.d.7.d.j.V.A.j.7.7.d.j.G.!.Y.!.A.p.A.G.V.j.r.j.d.p.j.V.d.<.<.3.<.<.d.j.j.d.d.j.7.p.r.<.7.d.p.j./.!.r.j.G.c.p.<.3.p.A.j.<.p.G.Y.!.Y.j.!.`.!..X#X`..X`.!.!.!.!.Y.c.Y.V.Y././.!././.V.d.d.<.! <.j.Y.V.!.!.!.!.!.A.!.G.j.c.G.V.c.V.V.Y..X`.!.!..X;X;X<.<.!.c.<.j.c.j.V.V.j.V.!.V.j.G.Y.c.j.j.j.j.j.d.c.Y.j.7.j.j.j.!.V.j.Y.7.r.7.j.Y.!.&X/.<.<...j.j.r.j.V.V.V.j.c.Y.j.c.`.#X`..X.X&X!.`.;X&X#X.XY.p.! D *.j.j.Y.A.d.d.A.!.Y.G.A.j.j.<.p.j.j.j.V.G.G.7.j.Y./.!.c.j.Y.G.C./.`.A.V.j.} ..<...<.j.j.A.V.d.c.j.r.7.3.7.j.A.V.c.Y.`./.V.d.j.#XG.j.r.<.p.j.r.j.j.j.!.G.p.j.r.d.V.d.r.d.V.3.R ( <.7.p.r.d.V.c.c.G.<.3.j.j.p.r.j.!.c.d.A.A.c.G.!.Y.!.c.j.<.<.c.! U ..! j.!.c.!.V.j.A.!.j.3.c.c.j.p.<.3...} } 3.7.r.3.3.3.<.3.+.r.7.<.p.r.<.3.j.j.3.d.d.p.j.3.7./.!.j.A.Y.j.!.`.!.!.!.!./.!.G.j.A.c.j.A.G.V.G.Y.G.j.j.j.d.7.r.7.<.<.<.<.r.j.p.r.<.7.j.d.<.1.7.7.r.j.p.7.<.<.r.*.<.<.7.j.!.!.A.Y.Y.Y.j.3.+.<.j.!.!.j.<.r.j.j.c.d.V.j.j.!.`.!.!.`./.G.j.p.r.d.p.j.Y.d.! 3.!.V.r.j.A.V.d.p.j.d.r.7.G.!.G.3.3.r.C D ..V.j.<.r.3.<...<.A././.!.!.Y.&X/.p.<.p.j.p.<.! <.d.d...} j.j.A.!.`.V.d.r.<.<.3.<.j.Y..X`./.!.j.7.r.A.j.j./.V.3.Y..X!.!.!.!..X!.!.!.!.G.G.!.j.c.A.Y.Y.J.c.G./.!.Y.!.!.j.c.!.!.Y.V.G.j.p.A.A.j.j.G.c.C n r.A.j.<.<.j.A.j.*.! R <.r.! ( <.<.j.j.p.j.V.3.+.r.d.3.j.3.*.p.G.A.j.c.j.<.<.<...( <.+...<.r.d.",
"<.V.!.!.!.!.!.`.Y.!./.#X;X!.d.A.;X!.c.A.c.j.A.A.`.#X/.!./.G.c.d.A.V.c.j.j.G.!.V.j.j.c.j.j.j.j.V.Y.!.G.d.d.c.j.p.3.<.d.Y.!.!.V.j.j.p.d.j.j.j.A.c.p.<.7.d.j.j.r.3.j.c.j.G.Y.V.A.!.c.A.V.c.j.p.d.d.d.G.!.c.3.+.<.j.r.r.7.r.3.r.c.d.7.r.7.d.j.r.d.!.!.7.r.G./.!.d.+.r.j.V.p.d.A.Y./.!.j.c.A.G..X;X.X`.!.A.!.!.A.j.p.j.c.Y.!.G.A.!.!.!.j.j.7.} 3.<.p.A.!.!.V.A.G.V.!.c.j.j.V.V.j.d.p.j.!.G.j.j.!.;X.XD ! 3.+.} d.j.j.j.j.c.c.j.7.<.V././.Y.V.A.A.j.p.c./.!.j.r.3.d.!.G.c.G.3.j.c.V.c.!.#X!.3.p.r.A.Y.j.j.j.d.j.d.p.r.d.A..X#X/..X#X#X#X.X#X#X`./.Y.d.d.p.j.c.!.!.j.3.j././.!.!.V.7.7.<.j.A.V.j.G.!.`.!.A.!.;X#XG.d.3.j.G.`..X!.!.A.3.*.7.<.r.j.j.V.j.d.!.Y.j.r.7.p.V.V.j.j.V.!..X`.!.!.`.j.7.r.j.A.c.r.d.p.d.Y.V.<.3.<.3.j.p.r.3.r.<.! +.3.r.d.d.d.c.7.7.d.<.} *.c.c.d.j.!.A.j.Y.!./.!.Y.3.! N ( ..R } h r k U V.!.!..X!.Y.Y.!.c.7.d.A.j.3.( <.( ( *.j.j.p.<.7.7.*.3.<.r.3.<.j.c.d.r.d.p.<.3.r.d.j.<.<.A.!.j.G.!.A.!./.!.Y.!.!.!.!.V.c.V.d.r.V.Y.V.j.V.c.d.7.d.j.j.V.c.3.<.<.*.r.c.d.7.<.<.3.7.<.+.+.3.d.j.<.+.*.<.d.+.<.3.r.j.Y.!.F.Y.G.V.7.*.*.+.d.!./.A.r.3.j.j.j.r.V.V.j.A.!.V.d.c.Y.V.j.7.7.j.j.c.A.j.3.j.!.Y.j.j.Y.Y.j.j.Y.G.7.<.V.G.A.p.*.d.c.A.A.V.3.3.c.r.<.! ! d.!.V.Y.#X#X`.&XY.j.c.j.3.*.*.d.!.!.+.} V.V.+.j.!.c.7.<.<.7.A.Y.!.!.#X.X`.Y.A.j.j.!.V.A..X!.7.A.!.G.V.Y.!./.!.!.A.c.V.A.j.<.d.A.G.A.A.c.V.!.!.Y.!.!.!.Y.Y.Y.G.V.G.c.p.j.c.j.j.7.<.R R <.<.<.! *.r.j.7.*.+.( ! ! h v *.p.c.d.<.j.c.7.<.c.L.Y.V.j.j.V.G.V.j.j.A.<.7.d.+.} <.+.( <.7.r.",
"<.c.`.`.!.!./.!.!./.!.!.`.d.<.!.&XG.d.j.d.d.A.G.!.!.!.!.`.!.!.G.!.Y.G.c.j.G.!.A.V.j.A.G.V.V.j.V.Y.!.Y.j.d.A.Y.V.r.<.3.j.V.V.j.<.7.<.r.d.7.j.G.V.j.p.c.V.c.c.c.G.!.A.c.Y.Y.p.p.Y.!.Y.j.j.d.r.7.r.j.!.#X`.A.3.3.V.Y.c.7.d.j.p.G.!.j.p.3.p.j.7.p.A.!.j.j.A..X;X!.<.d.G.`.Y.j.G.!././.G.j.7.7.A.#X#X`.!.V.Y.G.j.j.j.3.r.j.j.d.d.j.j.!.!.Y.j.3.j.<.+.A.G.c.d.j.j.j.j.j.j.j.V.G.j.3.<.d.G.c.3.r.A.!.A.} <.r.7.d.j.r.j.j.c.A.j.7.<.*.c.!./.Y.j.c.!.!.j.G.`.!.V.d.3.3.V.A.j.c.r.c.c.d.r.j.Y.V.<.j.j.c.A.V.c.j.d.j.G.G.V.d.c.!./.!./..X;X;XoXY.Y.!.!.Y.j.j.c.c.V.!.Y.j.7.j.!.A.V.!.V.<.3.j.V.A.V.V.Y.!.!.Y.j.G.&X#X!.c.3.<.d.j.p.r.d.r.<.3.j.d.j.j.j.c.d.d.!.!.j.d.d.j.A.V.j.d.d.c.!..X/.A.A.j.j.j.G.G.p.<.7.7.r.A.j.+.<.3.7.c.j.V.p.<.<.<.d.d.7.r.r.p.j.r.*.r.j.j.c.Y.j.j.j.Y.Y.!./.c.c.V.j.<.R f k c r N c t r N j.G.j.A.!.!.A.Y.Y.j.p.p.d.r.<.r.} ( 7.c.c.j.r.j.c.r.d.<.7.p.j.!.!.Y.G.p.3.<.7.j.c.c.<.} 3.j.j.A.!.A.G.!.A.G.!.Y.A.V.j.!.G.d.3.j.G.c.j.V.V.d.<.7.d.j.V.Y.d.3.<.<.7.j.7.r.r.<.<.3.<.<.<.3.7.7...} 3.r.j.+.7.j.d.r.d.V.V.V.j.j.<.*.<.+.p.!./.!.c.r.d.d.7.3.j.j.j.Y.`.V.*.} 3.d.j.<.} <.7.j.d.j.c.G.!.A.7.d.A.G.j.A.!.c.3.<.j.j.!.Y.3.d.!.j.j.j.<.d.!.j.<...} 7.j.r.d.`.#X!.;X&X!.c.r.<.<.j.j.!.!.<.<.Y.V.D *.A.c.7.<.7.j.!.`.#X`.&X!.!.A.V.j.V.!.A.G.`.Y.d.A.!.G.A.Y.!.`.!.!.G.j.j.c.j.r.j.V.c.c.!.G.V.Y.!.!.!.!..X/.A.!.Y.c.G.A.3.*.+.} *.J J ! <.3.} ! ! +.+.<.+.( <.<.+.+.f s +.j.j.d.+.3.j.r.r.G.!.!.c.Y./.A.r.<.*.3.A.<.7.d.<.3.p.3.+.3.7.<.",
"j.Y.`./.!.!.`.`.3.c.A.!.G.*.( c.A.j.3.r.j.c.!.G.A.!.G.!./.!.!.!./.!.!.G.j.G.!.A.Y.j.j.j.c.A.A.Y.c.A.G.j.d.Y./.A.<.7.j.j.j.d.r.<.7.3.p.r.<.j.Y.A.j.p.V.!.Y.G.G.!./.c.j.!.!.7.<.V.`.!.c.j.j.r.<.7.j.!.;X;X/.j.7.d.!.!.p.p.j.r.d.G.V.j.7.p.p.7.j.!.!.G.A.A.V.!.Y.r.r.!.,X`.c.G.!.!././.A.7.<.d.!.&X.XY.j.G.G.c.G.!.V.c.A.Y.G.Y.!.A.c..X.Xr...j.p.3.j.A.V.c.c.j.p.7.c.V.c.V.Y.c.r.7.p.c.j.3.7.p.7.<.!.;X;X`./.j.+.d.j.c.c.7.<.3.<.c.G.V.j.d.p.Y..Xj.!.Y.c.c.c.d.r.j.V.j.j.V.!.j.<.<.r.c.c.<.7.7.p.j.j.c.c.j.j.A.!.!.p.p.j.V.G.G.!.;X#X!.j.j.`.`.G.r.7.r.j.G.!.G.j.<.p.j.d.j.!.c.<.<.p.p.r.r.j.c.V.V.j.r.V./.Y.A.A.j.r.V.j.<.<.7.p.r.3.p.d.j.j.j.V.j.c./.!.j.j.j.c.G.A.c.j.j.j.G.!.G.j.j.V.j.p.j.d.*.r.j.j.j.A.j.+.<.j.j.A.c.!.c.<.<.p.j.r.3.7.<.<.j.d.! <.p.r.j.j.r.Y.<.<.j.V.<.N R ! ! R R h r r r N N s f U j.j.d.V.Y.c.j.G.!.Y.d.<.r.j.j.A.<.*.j.A.A.Y.A.A.Y.c.j.*.<.r.V.!.G.A.!.<.<.<.7.j.V.V.p...*.j.Y.G.c.j.c.V.c.!.`.Y.j.j.j.!.!.j.7.j.Z.c.V.!.G.d.<.r.d.p.r.j.d.r.r.p.r.3.<.j.j.<.<.<.<.p.p.7.3.3.*.*.r.7.<.<.r.j.d.<.3.j.j.j.r.r.+.+.<.*.d.!.!.!.c.7.<.3.3.3.7.3.3.j.Y.d.U C *.d.d.<.} <.7.p.<.<.j.G.!.A.<.3.c.V.G./.c.<.*.<.<.*.V.!.j.c.!.j.3.7.*.<.A.c.r.3.3.7.r.<.3.!.#X!./.!.j.j.j.j.V.;X..N ! R } d.7.i v <.j.j.j.j.j.A./.#X`.Y.r.j.j.p.d.j.G.A.G.!.G.j.j.V.G.G.G.!.`.c.A.!.V.j.G.G.j.j.V.j.j.!.!.V.Y.Y.G.3.<.!./.c.`.V.<.<.j.3...} ! } } ( U ! *.! D ! ....<.*.! <.*.d.c.N a ..j.j.c.7.j.A.V.A.!.A.V.7.7.d.3.....<.V.A.r.r.3.+.<.r.<.*.<.*.} ",
"A.!./.(.!.Y.!.Y.! <.r.A.!.d.<.d.7.r.<.r.M.!.!.A.c.Y.A.G.!.!.`.`.!.G.Y.E.j.A.!.A.G.j.j.j.A.A.j.j.j.j.A.V.j.A.!.j.3.j.!.!.V.j.j.j.V.j.j.d.7.j.Y.Y.V.r.j.G.!.Y.V.G.Y.p.d.G.Y.d.<.j./.!.Y.c.c.p.<.<.<.c.!.!.!.!.j.<.j.A.j.<.p.7.<.r.V.Y.V.A.j.r.c.G.!.A.A.!.A.j.j.3.} A.5X&XY.G.c.j.Y..X!.c.d.j.!.#X!.!.A.Y.A.j.G./.V.c.G.`.#X#X/.Y.V.&X.X<.( j.j.d.d.V.A.A.j.p.p.p.c.c.j.j.c.j.r.p.r.j.j.r.7.<.....j.!.Y.V.!.j.<.d.p.j.j.3.r.d.p.j.V.7.3.j.d.c./.j.A.V.j.j.j.r.d.Y.Y.V.A./.;XG.r.p.c.!.`.j.<.<.7.j.j.j.j.j.j.c.c.j.c.j.p.j.j.j.A..X&X`.V.!.5X,X!.<.<.*.<.c.G.c.d.<.3.j.j.j.p.<.<.j.j.p.r.p.r.r.p.j.c.d.j.j.p.j.G.V.c.!.V.<.+.7.d.d.*.<.7.j.j.j.A.A.Y.`.!.c.A.Y.G.A.j.c.j.j.A.G.V.V.G.j.A.j.<.p.p.7.Y.Y.!.Y.G.j.3.p.j.d.d.3.Y.G.3.<.d.r.<.3.p.*...j.!.<.<.<.*.p.d.A.G.J U 3.*.h 8 i N N s h f e r v ! R D <.c.A.j.j.!.j.<.r.V.Y.G.j.r.j.V.G./.j.d.A.j.c.Y.V.j.c.j.a.<.<.p.G.G.j.A./.<.<.3.r.r.d.j.j.p.<.d.G.G.c.j.V.A.j.A.Y.j.<.7.j.Y.G.j.p.j.j.j.A.Y.c.7.3.j.c.d.3.j.j.d.j.j.j.d.j.j.j.<.*.} *.j.j.p.3.3.<.*.3.<.<.<.7.j.p.<.3.j.j.p.<.<.+.} <.<.j.G.!.Y.c.p.3.<.3.3.j.j.7.<.r.7.! ! j.c.r.*.<.j.d.p.<.*.p.V.!.!.j.7.c.A.!.&Xj.! ..<.3.<.d.c.d.j.j.p.<.j.p.7.j.3...d.c.p.r.7.7.Y.`./.!.!.j.r.j.c.A.!.h 8 v +.<.} D r k <.!.!.!.!.G.Y.!.`.Y.7.! p.G.j.j.V.G.Y.!.!.A.j.j.c.V.V.G.!.!.c.j.c.j.p.V.A.d.j.A.A.c.V.c.c.Y.c.<.f r <.!.r.c.A.R N <.<.! ! C U *.*.U R *.<.} } <.<.p.7.<.7.*.r.A.R h ( p.d.A.j.j.A.V.c.j.<.+.! k k v N R +.V.Y.A.r.<.*.<.7.<.<.} ( +.",
"c.A.Y.Y.G.c.j.j.*.3.<.j.`.!.V.d.r.d.7.p.c.Y.!.V.j.Y.G.G.!./..X`.!.V.V.G.c.c.A.A.A.V.Y.!..XY.3.<.j.j.c.V.j.V.A.j.j.c.!.#X!.A.Y./.!.Y.A.A.c.j.A.!.c.3.r.j.c.d.3.3.d.<.7.j.G.Y.j.j.A.Y.Y.V.c.d.<.3.<.7.j.Y./..X!.j.p.l.V.r.p.j.<.7.G.`.!.!.V.p.j.d.A.j.V.`./.G.c.<.( j.;X&X!.Y.d.7.A..X/.!.Y.Y.`..X!.!.G.!.V.d.c.!.c.c.!.&X;X#X`./.!..XG.3.<.V.r.r.j.c.c.V.j.3.p.d.p.p.p.p.p.r.3.3.r.c.V.d.p.p.<.<.j.V.c.V.!.!.c.j.a.j.r.p.j.j.j.j.V.7.<.j.j.j.!.c.j.V.V.d.7.7.j.!.!.Y.j.c.!.!.G.!.`.;X,X!.7.<.3.p.d.r.d.V.G.!.!.A.G.Y.j.j.d.7.c.`.;X;X`.&X.X/.!.<...} } 3.p.3.3.3.*.7.V.c.<.+.j.#X!.A.j.j.d.<.<.7.V.d.r.7.r.V.Y.V.Y./.G.<.+.r.j.d.<.<.r.j.j.j.V.A.Y./.!.V.Y.!.V.j.r.j.j.j.G.V.j.A.!.j.V.d.r.c.c.G.G.c.Y.!.G.G.A.Y.p.r.3.} V.Y.7.<.p.7.*.<.r.<.*.j.!.d.+.<.r.j.p.j.j.! } j.p.v 0 a h h r y r r z ! j.j.j..X`.A.j.j.!.j.*.7.c.V.A.j.d.V.!.Y./.A.j.p.7.7.7.<.r.c.j.j.p.p.A./.!.G./.;Xj.7.7.p.r.p.j.V.j.<.3.j.c.j.j.V.G.j.j.c.r.+.<.j.j.j.j.j.c.p.<.d.j.d.7.p.A.G.j.j.c.j.j.j.j.j.V.Y.j.r.<.3.<.<.A.j.7.+.+.*.<.7.7.r.<.r.j.d.<.<.p.r.d.<.7.3.+.*.r.j.j.A.A.j.j.p.3.3.p.j.A.j.p.V.Y.j.r.A.c.<.+.3.j.<.<.<.<.r.j.A.!.A.d.c.c.A.!.j...+.p.Y.j.r.d.r.3...j.7.p.7.r.j.7.3.c.!.c.j.d.r.A.c.j.c./.A.3.p.V.G.!.J s N <.d.7.<.} } j.V.p.d.c.c.Y.!.!.!.j.<.`.;X!.!.!.Y.Y.!.Y.A.G.G.R.A.A.!.`.!.G.j.p.<.7.j.j.p.j.G.!.c.p.r.j.A.j.! 8 2 U c.3.d.j.k i ! ..J U D R +.+.( ..<.<.+.*.3.<.7.7.r.d.*.<.j.*.U ..<.p.c.Y.A.Y.G.V.r.} +.*.N N N J ! } 7.A.A.( ! 7.3.r.7.3.<.3.p.",
"V.A.V.c.c.j.d.c.r.j.d.j.Y.!.A.d.A.V.r.r.j.l.G.V.V.!.!.Y.!.!./.!.Y.c.c.A.V.j.V.G.G.!.`.&X;X!.r.p.d.j.j.j.A.Y.Y.Y.V.p.j.!.!.G.!..X`.!.Y././.V.V./.G.j.G.`.!.j.<.<.<.} <.p.A..X!.c.r.j.V.j.j.j.3.j.V.3.p.!.&X#X`.!.c.j.A.d.r.p.*.r.`.#X!.G.j.j.j.r.j.V.G.!.!.Y.!.d.7.V.`./.!.G.d.d.Y.XX!.Y.!.!..X.X/.Y.c.Y.!.G.Y.A.c.j.A.!.G.A.!.#X`.!.j.3.7.j.*.7.c.c.j.Y.A.r.r.7.d.j.j.c.j.j.d.r.<.j.c.3.7.p.<.3.r.r.j.!.Y.!.!.A.3.7.+.3.j.j.j.c.V.j.<.r.r.7.c.d.d.j.d.3.r.j.V.V.G.V.<.( 3.A.!.`.#X#X5X.XV.c.j.j.r.7.j.A.A.G.!.!.j.G.j.p.3.<.V..X.X#X#X!.<.<.V.<.3.r.3.r.7.( ..3.<.3.A.!.r.3.A.!.V.r.3.j.j.7.w.j.d.j.c.j.j.c.c.p.Y.!.V.*.( 3.j.p.r.3.j.A.c.j.j.V.Y.!.j.p.j.c.j.j.d.j.p.p.c.j.r.V.A.p.j.j.j.!.A.!.V.d.c.A.V.Y.!.!.j.j.d.+.G.!.7.<.<.r.*.} 3.d.d.V.V.V.*.7.r.7.d.G.A.j.r.j.G.*.n } ! ( ! ! h n p.V.!.`.!./.j.c.!.!.c.j.r.j.c.A.!.G.c.Y.Y.p.d.d.d.<.d.r.+.! p.A.j.j.r.d.G.!.A.c.Y.!.V.7.3.d.j.V.A.A.7.<.p.j.p.7.3.j.V.d.j.!.j.<.<.7.d.j.d.c.V.3.} <.d.j.j.c.A.c.j.V.c.d.c.c.7.7.j.j.p.3.<.j.d.j.!.j.d.+.+.<.7.3.+.} <.j.Y.j.*.+.7.7.j.7.d.j.3.<.d.j.3.c.j.<.7.p.3.3.c.p.r.j.A.#X/.7.<.3.<...*.r.d.<.} 7.d.j.j.V.!.Y.j.j.r.7.d.p.<.*.<.!.j.<.p.j.j.<.j.r.p.7.j.j.<.7.d.A.c.V.j.j.G.j.7.r.!.V.<.r.V.A.c.j.d.r.j.G.V.A.!.j.c.V.d.j.A.c.A.A.!.&X/.G.;X!.!.!.G.c.A.Y.G.G.Y.!.!.j.j.!.`.A.j.p.<...3.d.<.7.j.A.Y.j.<.<.p.j.c.+.h e C j.j.!.V.v f } *.D U R U } ( ! <.r.<.( ..<.<.*.<.r.p.( ! *.*.*.*.<.j.V.Y.V.A.A.j.<.} <.r.<.j.3.<.7.<.<.A.j.v N 3.<.} ! } <.3.<.",
"c.V.3.7.j.7.p.j.j.d.<.p.V.G.G.j.V.A.Y.A.d.d.V.V.A.Y.!.`.`.!.!.Y.A.j.j.j.c.j.c.Y.!.!.!.!.!.G.d.j.G.j.j.j.G.!.G.G.!.G.G./.!.!.j.d..Xd....X`.j.A.!.c.c.G.Y.!.j.3.c.3.<.<.p.j.!.`.A.7.p.c.j.3.<.3.V.!.j.j.A.!.#X`.`.!.p.j.c.j.<.+.7.#X/.r.j.j.<.r.r.j.V.G.!.!.G.c.A.j..X;X/.!.!.Y.Y./..X!.V.!..X/.!.Y.G.3.!.G.Y.A.c.j.j.<.r.+.<.!.;X/./.!.7.c.p...7.c.j.j.!.!.7.7.p.d.A.c.j.V.c.j.<.*.c.3.3.p.j.p.d.r.3.c.`././.`.!.j.j.r.G.A.<.p.j.j.j.p.j.j.7.d.r.j.j.7.3.j.V.j.r.7.V.<.! ! p./.A.d.r.&X!.`./.A.G.j.7.j.A.G./././.j.d.V.r.<.3.V.`.!.#X&X!.! R V.7.<.r.j.d.j.+.U 3.j.c.G.d.j.j.Y.G.V.j.V.c.d.p.j.V.j.r.c.V.7.r.d.3.d.G.d.+.<.3.p.p.r.V.A.A.V.j.j.V.j.d.<.<.p.j.j.j.j.Y.j.d.A.j.7.j.c.r.c.G.A.!.V.j.r.j.c.G.G.V.Y.Y.A.r.3.j.!.!.j.} *.p.3.<.<.j.Y.c.j.c.7.3.7.d.A.G..XY./.A.7.<.<.c.c.d.V.j.p.p.!.V.c.c.Y.!.j.c./.G.<.d.G.G.j.j.!.!.G.j.V.j.7.3.<.<.r.<.....3.j.j.r.3.j.!.`.d...*.c.j.3.r.d.G.c.A.A.j.p.r.d.r.3.r.c.A.c.A.Y.V.j.d.7.d.d.j.c.j.7.( +.p.c.V.V.V.j.p.j.G.3.<.j.j.3.<.7.<.<.<.j.j.j.c.7.d.p.p.r.3...! ! <.3.j.j.r.<.<.r.V.d.j.!.!.j.A.G.j.d.<.*.<.+.} <.j.*.j.!.j.d.j.+.D ! ! *.r.7.3.*.( ..<.d.j.j.V.!.j.7.+.( <.j.j.<.7.c.j.r.3.!.j.r.A.r.<.j.!.j.<.3.<.*.<.j.V.V.A.r.<.p.p.G.7.<.p.d.7.A./.Y./.#XG.A.G.!./.Y.j.!./.c.c.j.!.!.!.!.G.d.A.V.d.<.7.V.A.Y.Y.!.j.<.7.V.Y.d.d.r.} ! <.r.3.d.G.c.p.p.Y./.Y.!.`.G.<.} j./.!.!.!.j.<.<...! J R N +...( +...} ( 3.<.V.V.R } +.N k v R r.p.j.j.c.Y.d.j.!.G.d.3.*.<.p.7.<.3.r.r.d.j...R +.<.} ! } <.<.<.<.",
"r.d.7.r.p.<.7.V.d.p.+.3.Y.!.A.c.Y.!.!.V.j.V.G.Y.Y.!.!.!.!.Y.A.V.V.j.p.p.d.j.A.!.Y.!.!.V.V.j.p.V.G.j.p.d.V.G.V.V.`.`.G.G.!.!.j.j./.<.<.&X`.j.A.G.j.c.A.j.j.j.7.j.j.7.7.j.c.!.!.j.p.j.V.p.*.+.<.d.!.j.7.p.G./.G.j.c.3.p.j.p.r.*.<.!.Y.7.j.j.( <.j.A.A.A.A.G.V.V.G.!..X.X/.!.!.G.A.Y.A.j.j.!./.Y.c.V.c.<.j.j.A.V.j.!.!.j.7.! 3./..Xj.c.c.<.p.3...7.p.r.p.A.V.3.<.3.j.V.j.j.V.j.p.<.r.Y.j.p.r.j.d.j.<.3.j.!.!.!.`.!.A..X!./..Xj.3.j.V.d.j.!.Y.j.j.7.A.j.7.p.j.c.j.d.j.Y.j.d.p.j.`./.A.A.`.j.j..X!.V.Y.j.j.!..X!.j.!.j.r.j.p.r.p.V./.Y./.`.!.+.*.!.c.r.7.p.r.r.<.+.3.d.j.A.j.j.j.c.j.Y.Y.!.G.p.<.r.V.j.<.p.c.7.<.7.r.c.c.<...<.3.r.d.3.p.r.j.A.j.c.V.j.j.p.p.j.j.d.p.d.c.r.7.A.c.7.j.j.p.A.!.G.Y.j.3.3.p.d.j.j.j.A.Y.<.+.3.V./.`.V.<.<.7.3.3.r.j.G.j.<.r.r.p.j.V.G.j.c.!.!.<.} j.j.3.<.<.r.j.A.A.!.j.j.j.j.j.r.d.Y.A.d.j.!./.A.V.G.A.V.j.V.j.p.r.3.<.<.<.*.*.3.j.d.<.*.7.c.!.j.3.3.c.j.j.c.c.!.j.j.V.j.p.p.j.d.3.r.V.j.j.G.Y.V.j.j.j.G.A.A.j.r.<...3.c.j.j.j.7...+.p.j.3.<.j.j.p.7.<.p.d.r.j.V.V.j.<.V.c.7.*.3.3.<.3.r.<.3.j.j.j.d.d.c.c.V.!.!.!.&X.XV.j.3.7.j.p.<.<.<.7.!.Y.} ! *.! C ! ..3.7.<.r.7.r.<.<.p.j.j.j.j.j.7.+...3.d.p.3.7.d.r.7.7.!.3.*.j.7.<.j.c.7.*.<.<.<.<.7.d.j.j.<.7.j.j.G.j.3.7.r.<.c./.`.&X.XY.!.A.G.!.V.p.j.A.j.p.j.c.j.V.Y.j.<.d.d.j.d.j.G.V.V.c.j.<.<.d.j.j.7.d.r.*.+.7.r.<.<.V.G.j.c./.`.!./.!.Y.V.A.`.`.G.V.!.j.} } } *.} ! N +.*.+.*.} ( ! ..d.!.!.! J <...N N ! r.7.r.p.c.!.j.c.G.V.j.d.<...*.<.<.r.p.r.r.*...+.3.<.*.<.j.j.j.j.7.",
"p.p.r.7.7.<.r.Y.j.j...<.Y.Y.j.c.!..X!.j.V.G.G.!.!.!.!.G.V.A.V.j.V.c.j.p.7.d.V.!.!.!.Y.c.j.j.p.V.Y.c.7.j.G.V.j.j.#X.Xj.j.!.G.j.A./.<.p.;X;XV.Y.V.r.j.j.3.<.3.7.j.V.d.j.Y./.`.!.V.j.c.V.3.+.<.<.<.j.<.+.<.j.!.A.j.j.r.d.7.<.7.<.3.G.!.V.A.d.( <.c.Y.V.j.j.j.j.c.G././.!.!.!.Y.A.A.G.j.j.A.Y.G.c.j.V.j.<.d.s.j.A.j.j.p.3.d...7.!.V.r.p.j.+.<.<.<.r.3.7.<.7.p.r.j.j.j.A.j.V.A.j.j.d.d.G.j.r.7.j.p.<.p.j.j.p.p.c.!.!.!.;X.X.X;XA.<.d.A.p.G./.!.!.c.<.d.p.j.V.c.p.p.j.6.d.d.j.j.d.!.;X#X!..X!.G.`.G.Y.!.d.p.!.;Xc.<.A.d.<.p.p.d.p.j.G.!.&X&X.Xd.r./.Y.p.7.j.c.p.r.7.7.p.j.A.j.V.V.V.d.V.A.Y.G.p.<.3.A.d.*.<.c.d.<.3.r.j.r...<.j.7.<.<.r.r.7.j.G.c.c.A.j.c.j.j.j.j.d.j.V.G.r.<.j.p.<.d.r.d.!.!.G.A.j.r.j.j.j.j.j.p.j.A.( ( <.p.V.!.!.c.7.7.3.3.<.j.!.Y.+.+.7.d.j.c.j.3.p.j.d.( <.j.<.} j.j.j.c.!.!.!.j.<.3.d.A.c.j.V.j.p.3.V.A.j.j.j.Y.A.C.c.j.d.d.j.j.3.d.d.7.r.j.j.p.} 3.j.!.A.V.j.G.j.j.V.A.!.d.3.j.j.p.d.V.c.p.j.!.A.V.A.Y.A.V.A.G.c.V.A.j.<.*.*.r.j.r.7.7.*.} <.j.d.p.3.d.j.p.j.j.d.j.V.A.A.Y.A.<.j.j.} U <.7.<.7.c.r.7.j.V.c.j.r.j.G.G.A.G./.;X.XA.j.7.r.c.j.1.<...p.`.Y...} y.7.! +.r.j.r.<.p.d.j.r.3.r.j.j.j.V.V.p.<.<.d.r.<.p.7.7.<.<.3.V.<.<.p.<.<.j.j.r.<.<.<.<.<.<.<.<.7.<.r.j.r.c.A.j.p.j.r.V.!..X#XG.c.A.!.G.G.V.j.j.j.d.p.G.j.3.V.!.G.c.p.r.V.!.!.G.j.j.j.<...3.p.3.p.j.r.7.<.<.3.7.<.+.j.!.G.!.`.!.`..X!.V.V./.#X/.!./.A.<.N U +.j.<.} ! ....+.*.+.} R N <.c.A.( C *.<.<.r.3.<.+.j.V.j.d.d.j.j.j.V.d.( +...*.<.<.*.+.....*.<.7.d.j.A.Y.c.7.r.7.",
"p.<.7.7.d.z.j.Y.A.c.<.3.c.V.V.G.Y.Y.V.j.c.V.V.A.!.Y.c.d.j.V.V.j.j.c.V.j.3.r.j.c.V.V.V.j.A.G.j.A.Y.V.7.j.!.A.V.c.Y.j.r.A.!.p.<.j.!.<.j.!.!.j.c.j.r.j.j.3.<.<.t.c.!.c.A./.`.`./.!.!.!.V.<.*.j.r.*.<.<.7.j.A.A.j.G.;X!.!.G.r.p.<.j.Y.;X!.p.*.} 3.j.G.c.j.h.p.p.j.A.!.!.!.Y.V.c.A.G.!.V.!.`.Y.j.j.j.V.A.c.Y.V.A.!.!.G.! J j.j.j.G.j.3.r.j.+...*.<.r.3.r.7.<.7.j.A.c.j.Y.G.A.j.r.d.c.j.V.d.3.r.c.j.<.c.!.G.p.d.G.!.`./.!./.;X;X/.d.p.j.d.Y.V.c.!.j.*.<.3.j.G.c.r.<.7.r.r.r.7.<.3.Y.;X;X!.A.`.!./.V.Y.Y.d.3.G.#XV.7.V.j.r.j.V.V.j.V.Y.!.;X&X.Xj.p.Y.V.r.3.j.A.j.d.r.3.d.c.G.d.j.A.V.7.r.j.c.c.j.3.3.d.3...*.j.j.d.d.r.r.7.<.j.V.r.<.<.3.7.7.d.j.p.j.V.V.A.V.c.c.c.c.G.Y.`.A.p.e.<.*.d.r.c./.!.V.j.c.j.j.c.j.d.7.3.p.p.<.+...+.<.j.Y.Y.p.d.j.p.*.<.G.`.j.<.r.r.<.7.<.( p.V.r.<.V.j.} r.r.A.c.j.G.Y.Y.A.3.7.p.V.c.r.7.3.j.7.V.V.j.j.j.!.G.Y.c.j.d.j.Y.V.7.j.j.<.<.7.d.p.} 7.j.!.J.A.V.G.d.r.d.A.!.j.r.r.j.p.d.V.V.j.j.!.!.A.j.j.c.c.c.j.A.A.V.d.<.+.+.<.+.<.7.*.! *.r.3.<.7.3.j.d.<.j.G.d.j.Y.!.j.c.V.<.r.r...! 3.p.<.<.p.7.r.j.c.Y.!.V.j.Y.A.j.j.V.!.!.A.j.7.3.j.j.<.<.r.c./.!.c.V.G.j.*.+.r.V.d.r.j.c.A.j.p.p.r.r.d.V.j.p.<.7.d.<.*.j.d.r.<.*.+.7.<.j.3...<.j.j.j.j.7.7.3.3.<.<.*.3.f.d.7.<.j.Y.c.c.Y.A.Y.A.!.!.j.j.j.!.G.A.V.V.c.j.d.7.V.r.<.j.Y.Y.G.j.p.G..X!.V.p.r.p.<.<.r.<.( 3.V.!.!.!.Y.V.A.A.j.j.!.!.!.!.j.Y.!.j.<.3.!..X!.!.!.A.( n R <.c.d.d.V.3...*.<.7.<.R ! <.3.d.<...*.*.j.Y.c.7.3.Y.G.r.p.j.V.V.V.G.j.<.*.} *.<.*...<.<.r.r.<.<.j.!.!.V.j.} ! ! ",
"<.*.d.j.A.Y.V.V.c.V.d.p.p.j.!.!.V.j.j.j.j.j.c.c.V.j.r.<.p.V.V.j.p.j.x.j.3.r.j.j.A.j.j.j.A.!.j.j.A.j.<.j.!.Y.!.!.Y.p.p.!.Y.p.j.Y.d.j.c.p.j.3.j.j.c.G.G.V.d.7.j.G.#X!.!.!.!.G.!.'.;X#XA.+.} p.p.<.<.7.V.!.!.j.d.!.#Xj.j.G.j.p.<.V.#X#Xj.} ( <.j.c.N.V.V.V.j.j.c.Y.Y.Y.!.A.j.V.!.!.`.Y.!.#XY.j.j.j.c.V.A.A.c.j.!.;X!.! n 3.r.7.p.<.<.3.d.*...} +.*.<.p.j.7.p.c.j.7.r.A.A.j.d.d.V.Y.j.j.r.*.3.j.j.3.p.!.!.c.G.`..X.X/.!.`.`.;X,XY.d.d.j.!.j.j.!.d.7.r.3.3.p.j.j.3.*.c.j.j.<.} <.j.G.&XA.<.7.d.`.Y.j.Y.j.7.j.A.c.j.j.j.j.V.!.Y.A.Y.!..X&X!.Y.c.j.G.j.7.7.r.A.Y.j.7.3.c.Y.G.<.7.j.d.} <.j.A.V.d.r.<.+.p.j.j.j.j.j.j.r.<.<.<.r.r.<.<.<.<.7.3.7.7.j.G.Y.j.G.Y.!.!.!.Y.!.c.!.!.j.r.<.3.j.j.!.`.!.A.V.V.j.j.A.c.d.7.7.p.7.7.<.+...<.d.V.c.r.j.!.A.3.<.d.G.A.d.d.<.*.p.r.+.<.Y.V.<.d.j.p.A.<.G.A.j.V.G.V.j.3.7.d.A.V.r.7.7.d.<.c.G.V.V.d.V.c.G.j.j.r.d.A.j.*.r.p.<.} *.<.<.( r.V.Y.j.j.j.A.j.<.p.Y.A.j.j.r.p.p.p.j.j.j.j.c.!.j.3.3.r.r.7.3.j.p.<.<.<.<.<.<.+.p.j.<.! <.3.} 3.j.j.A.V.r.r.j.j.d.j.j.r.7.<.+.7.r.7.3.r.3.+.} ..<.<.<.p.!..X!.j.Y.V.j.j.j.Y./.G.j.d.r.d.d.<.<.j.j.G.!./.!.G.j.r.<.p.j.<.<.j.G.!.c.p.r.7.3.7.j.r.7.<.r.d.*.*.j.A.j.<.+.} <.<.c.p.<.7.j.j.j.V.j.<.<.<.3.*.} <.c.c.<.<.V.!.c.G.!./.!.A.Y.!.c.c.j.j.Y.!.G.A.c.j.p.7.p.7.3.p.j.c.j.j.r.A./.Y.j.<.<.<.<.r.j.<.! <.j.!.`.&X/.c.c.A.j.j.V.p.j.c.j.G.A.*.J ! c.!./.`..X!.} N ! ..<.3.!..Xp.+.<.7.r.<.R <.} ( } 7.c.c.A.Y.V.<.<.<.c.A.Y.V.V.c.j.d.j.j.d.<.*.7.d.3.<.d.V.j.V.d.*.<.j.V.p.G.j.<.! ",
"r.j.!.!.V.G.Y.G.c.c.j.d.<.r.G.Y.j.d.c.A.j.j.V.V.c.j.7.3.j.G.Y.V.d.d.j.j.7.j.G.A.V.j.p.r.j.V.j.p.j.r.<.r.c.!.`.`..XV.A.!.V.d.!.c.U c.Y.j.j.p.j.!.Y.!.!.!.j.3.p.V.`.!./.`.!.A.Y./.;X#XY.<.! <.d.c.A.c.A.Y.A.p.7.!./.7.<.j.p.c.d.!.`.j.+.( <.j.c.j.j.j.j.j.c.j.j.N.G.G.Y.A.j.A.!.Y.!.Y.Y.!.Y.j.j.j.j.V.Y.c.A.p.j.Y.j.p.<.c.p.<.7.3.<.r.j.7.3.+...} +.3.d.7.p.c.d.<.<.d.r.<.7.d.c.c.*.r.j.3.p.d.7.3.7.V.G.V.Y.`.`.!./.;X`.d.A.;X`.G.j.j.Y.A.!.!.d.V.c.j.r.<.3.p.p.<.p.<.p.<...3.p.j.7X;X!.!./.;X;X!.#X!.j.j.d.j.G.j.r.j.V.!.G.A.!./.&X!.j.p.j.V.A.7.+.d.V.!.`.j.7.p.G.Y.A.<.7.d.d.*.7.j.!.G.j.j.7...3.c.j.<.*.*.3.<...<.3.<.<.*.<.3.3.p.r.7.r.j.!.!.j.V.V.A.Y.Y.Y.!.V.G.G.d.<.r.j.j.c.!.!.!.!.!.Y.p.j.Y.A.j.p.r.p.3.r.<.*.*.3.j.A.j.7.j.G.V.p.3.7.j.c.V.j.<.<.G.Y.r.<.c.j.<.3.A.V.p.j.G.V.c.j.j.p.*.*.<.d.G.c.d.j.c.3.<.7.p.j.c.7.3.p.j.j.p.7.d.j.7...3.p.7.<.<.*...+.j.A.G.d.d.j.A.j.<.d.A.r.r.d.<.p.r.7.p.c.Y.G.V.A.j.7.3.7.3.<.7.<...} 3.j.j.d.3.<.r.j.3.*.<.3.*.<.d.7.<.7.3.} ! c.p.+...p.3.! +.3.p.d.3.*.} ! R ! } } ! ..j.A.d.c.Y.j.j.j.d.j.!.V.d.j.j.d.r.*.<.p.p.c.!.!.A.c.j.G.j.c.d.*.<.j.!.!.j.7.7.p.7.3.3.7.r.r.j.j.p.r.c.G.c.r.3.p.j.c.Y.j.j.Y.!.c.j.c.j.<.*.<.<.<...<.c.j.<.r.Y.!.c.Y.!.!.!.A.G.Y.V.j.j.V..X;X/.A.d.7.r.j.7.r.7.7.c.A.j.7.<.j.A.V.d.<.<.3.7.d.j.<...3.p.c.!.&X!.c.c.V.d.j.7.} <.j.V.G.c.A.r.r.c.A.Y.`.;X;X*.J +.<.*...V.A.<.*.7.p.r.<...J N <.d.!.;X!.!.d.d.<.<.3.c.c.V.V.j.p.7.<.<.<.3.<.3.j.c.p.<.r.j.c.G.j.+...p.d.<.p.<.+...",
"c.!..XY.r.d.Y.G.c.j.7.r.3.<.p.j.j.A.!.G.j.j.A.G.V.j.d.d.j.V.G.A.j.d.d.d.7.j.Y.Y.7.7.p.7.r.j.j.j.p.<.7.d.j.!./.!.!.j.A.!.A.r.j.! C G.V.j.j.j.j.V.Y.!.!.Y.j.<.r.j.A.G.!.!.!.G.G.!./.!.!.p.*.<.j./..X!.G.j.j.1.<.j.;X!.V.Y.j./.Y..XG.} ! <.r.j.j.j.j.j.<.<.g.j.p.j.A.c.Y.Y.j.j.Y.A.Y.!.!.!.!.Y.A.A.c.!.!.j.`.V.r.<.*.r.<.j.r.*.<.p.j.A.G.j.j.<.*.*.+.<.d.r.j.A.j.7.<.r.<.*.<.<.<.*.<.j.!.c.G.j.3.r.c.G.G.A.!././.!.G.#X`.r.<.Y.#X`.A.j.A.Y.!.Y.c.!.A.G.c.7.+.<.3.r.*.! <.3.<.r.j.G.&X`.&X5X&Xj.Y..X5X#XY.c.d.j.!.j.j.A.A.!.A.Y.!.!.!.c.3.<.3.j.j.+.! j.V.Y.G.j.d.d.V.j.j.r.j.j.V.j.j.d.c.V.j.A.V.3.3.j.p.7.7.<.d.d.7.j.j.j.j.d.j.r.r.j.d.p.3.r.V.V.V.c.j.j.j.V.G.!.Y.G.G.p.+.d.G.r.d.A.A.Y.!.`.!.j.j.V.j.j.p.<.<.<.r.<.+.+.<.j.A.j.7.p.j.p.p.r.<.j.c.Y.j.<.<.j.c.<.7.j.7.3.A.!.c.7.c.j.7.j.<.3.3.*.<.<.r.d.<.*.j.c.j.j.p.<.3.p.r.<.r.j.j.r.<.d.d.3...<.<.<.<.<.*.+.<.d.j.A.j.c.V.Y.c.r.7.j.<.7.r.<.j.3.<.7.V.!.Y.c.V.c.j.d.j.d.r.d.r.*.*.V./.Y.j.3.! *.<.3.3.<.*.*.r.p.3.} 7.j.+.} V.3...*.j.j...} <.c.j.*.} +.} ( ! ! ! R ! 3.p.<.A.G.p.r.j.r.7.j.j.<.d.j.p.<.} <.p.r.j.A.j.d.j.j.V.z.j.p.<.p.c././.V.d.j.j.d.7.<.p.j.j.V.Y.Y.j.d.p.j.j.j.G./.`..XA.Y.`.!.V.j.j.j.p.3.<.<.<.3.3.c.r.7.j.c.G.j.A.!.A.c.A.Y.Y.V.j.c.!.&X&X/.A.7.<.r.c.3.d.3.p.!.A.d.<.<.r.j.c.j.<.<.d.j.j.j.7.3.j.j.d.Y./.Y.c.c.j.3.c.r.*.<.d.c.V.j.!.!.!.!.!.!..X&X.X3...7.r.7.} 7.r.*.7.j.j.r.*.3.+.! j.V.!..X`.V.<.j.7.*.*.j.V.c.j.j.d.j.j.3.+.....<.d.j.j.3.<.r.d.c.j.<.3.z.j.7.<.( ! p.",
"d.Y.!.c.<.3.G.j.j.3.} <.p.<.<.r.d./.`.A.j.c.A.Y.j.j.j.d.p.d.j.c.c.p.7.7.<.7.j.j.7.d.A.j.<.<.7.d.r.<.j.c.c.!.!.j.A.<.3.A.G.j.Y.3.r.;Xc.j.j.j.j.j.G.!.Y.A.p.<.p.j.j.j.j.d.j.j.c.Y.!.!./.G.d.r.j./.G.!.Y.V.V.d.*.<.V.Y.!.!.j./.A.G./.<.3.j.j.V.Y.!.G.j.*.+.j.c.r.j.j.j.!.!.p.3.j.c.G./..X/./.!.!./.`.`.j.U j.c.j.r.V.<.v ~ p.<.<.G.!./.!.j.j.<.<.<.*.3.c.V.G.!.j.3.3.p.3.r.d.7.r.p.p.V.!.j.Y.j.<.p.c.c.V.G.!.!.!.V.p.V.&X!.<.j.&X.XG.j.c.V.V.G.Y.!.A.G.A.d.<.+.*.<.<.C } 3.<.<.7.!.!.V.Y.!.V.} j.#X;X!.j.d.3.3.j.j.d.A.c.Y.j.V.G.V.V.j.j.d.j.Y.Y.3.+.7.*...<.d.j.3.j.3.7.p.V.j.A.G.A.3.7.j.j.!.!.p.7.p.<.7.p.<.<.<.V.V.j.j.j.j.j.3.d.j.A.V.7.<.c.!.A.A.c.j.A.G.A.G.A.A./.V.<.j.Y.<.r.G.G.A.Y.!.!.j.j.j.j.c.j.<.7.d.3.<.+.+.<.j.j.r.r.j.j.3.r.3...3.j.j.3.<.<.3.r.<.+.j.<.+.Y.Y.d.A.Y.p.7.A.3.<.7.<.+.<.p.j.<.+.j.j.p.c.j.3.<.7.j.j.j.j.c.3.<.j.j.p.<.<.*.*.*.<.<.7.<.7.r.c.c.G.A.G.G.j.<.7.<.j.d.3.j.<...<.j.c.d.3.A.c.j.j.A.c.p.r.3.( ! j.!.A.j.<.! <.7.p.d.<.} ! 3.<.7.<.c.Y.<.r.Y.<.7.j.c.c.<.! +.A.j.! ( <.<.*.<.<.*.+...<.3.<.V.A.3.3.j.p.<.3.j.<.r.d.p.<.} <.r.<.r.j.r.d.c.j.d.p.p.3.r.j.d.j.A.j.j.V.G.A.c.V.d.j.j.c.Y.!.j...+.p.j.j.G.!.`..X!.Y.A.j.r.d.j.j.r.<.+.! +.7.<.3.3.j.V.p.j.d.j.V.j.p.A.!.!.Y.G..XY.!.G.A.V.7.<.p.j.r.A.j.G.;Xj.*.<.<.r.p.c.c.r.p.p.j.Y.!.V.j.A.j.V././.G.c.c.p.<.p.3.3.7.d.V.G.!.!.!.!.!.!././.!.d.*.*.<.} ..! 3.<.} <.j.p.+.U ( *.( p.A.G.G.A.} U <.3.d.r.j.d.c.j.j.j.A.G.j.<.( ..<.p.j.j.7.<.<.<.j.A.j.j.Y.!.c.<.<.+.j.",
"3.j.A.Y.c.7.3.r.<.<.( *.j.j.3.<.d.j.c.d.7.V.!.c.j.p.d.d.r.7.p.V.j.d.r.j.7.<.j.V.c.!.j.p.j.d.j.c.r.r.A.G.G.!.c.r.V.j.j.V.c.j.j.j.V.V.V.j.c.j.c.V.Y.`.!.c.j.p.j.V.j.j.r.d.p.7.j.V.!.!..X!.j.p.d.r.<.j.A.r.+.<.r.3.7.+.7.Y.#X;X<.j.9X#Xj.A.c.c./.;XY...N C 3.c.d.j.j.j.G.G.<.! <.A.V.G.A.Y.!.!.`.`.!.qX<.a ( r.j./.j.U h ! r.p.A.!..X#X!.c.j.j.p.*.<.r.j.c.!.`.p...<.j.V.j.c.p.*.<.3.j.G.A.A.j.<.j.A.j.d.j.G.!.!.#Xj.p.!..Xc.c.`./.Y.j.c.A.j.j.G.V.!.c.7.<.7.3.<...+.( +.<.r.7.r././.3.A.p.3.j.Y.;X&X#XV.c.G.j.j.j.j.j.c.!.j.d.!.c.j.r.d.p.<.c.!.d.<.<.<.<.3.j.j.<.7.<...d.A.!.G.G.G.3.j.p.A.V.!.j.<.7.*.d.<.r.7.j.c.j.d.j.!.G.j.j.j.!.Y.G.V.p.3.3.d.V.G.!.!.!./.G.!.Y./.Y.7.p.V.p.Y.G.A.A.A.G.Y.Y.A.G.j.c.j.p.V.j.d.<.<.+.<.j.d.j.j.j.r.p.7.+.3.3.c.V.G.A.j.r.3.3.<.j.r.( G.G.d.!.!.j.V./.c.<.3.p.<.*.3.d.3.r.A.j.3.j.j.p.*.<.j.j.r.p.j.c.j.j.j.7.<.<.3.3.3.j.j.3.<.7.*.r.c.A.j.Y./.A.d.<.3.p.<.<.7.<.<.j.A.V.p.<.A.V.p.r.c.V.p.<.+.} +.<.p.j.d.c.3.j.V.<.r.<.} ! <.j.r.<.<.d.G.Y.Y.A.z.V.j.V.!.<.p.!.j.} ( 3.r.+.} p.c.d.*...<.j.j.c.<.j.A.G.<.! 7.*.j.r.7.d...*.j.j.d.d.j.G.Y.Y.c.c.p.7.7.<.j.j.V.<.<.j.j.G.!.!.j.r.j./.#X!.3.J U <.j.7.7.V.!.;XG.c.c.<.} <.7.p.3.3.<.+.p.j.d.7.r.!.r.<.7.r.c.A.j.j.j.G.`.#X;X&XY.V.c.d.d.7.<.p.7.3.A.d.j.!.<.D ! 7.3.+.c.Y.G.<.3.7.p./.!.!.!.!./.#X`.!.A.d...U <.<.p.r.p.j.!.!.!.#X`.Y.A.!..XV.<...<...! ( <.j.<.} 3.7...( ! R <.<.7.j.!.d.n h N <.V.j.3.7.j.j.M.d.j.j.V.V.<.*.! p.V.j.j.r...<.7.d.V.G.c.c.!./.j.d.7.c.",
"<.d.G.Y.c.p.7.3.<.3.3.r.j.d.3.7.7.<.7.r.r.c.Y.c.j.j.p.7.3.7.j.G.A.j.p.j.d.j.V.c.j.V.d.r.d.7.p.j.j.j.A.V.A.G.j.j.!.A.V.V.j.p.r.d.A.G.G.j.A.j.V.A.!.`.!.V.j.j.c.Y.j.d.p.j.d.3.d.j.Y.!.#X!.d.r.r.<.<.<.d.c.3.<.p.+.<.*.3.j.c.j.f 0 j.;X!.A.A.j.c.#X!.d.*.( <.j.j.V.c.A.!.G.r.<.p.G.!.j.3.c./.`.`.!.!.;Xj.( G.Y.j.A.j.+.*.7.p.g.j.Y./..X.X!.j.r.<.+.<.c.!.c.A.!.j.<.r.j.j.d.j.r.<.<.d.j.d.7.f.7.3.j.V.j.d.V.!.!.`.&X#X!./.!.j.A..X/.Y.d.d.c.j.j.G.!.!.c.<...p.j.3.3.( ..<.3.7.j.V.#Xc.} j.r.7./.;X/.;X&X!.!.!.j.r.3.j.j.c.Y.j.r.G.c.<.*.3.r.7.j.V.r.7.<.<.3.d.G.V.3.7.j.j.G.A.!.G.A.j.<.d.p.G.V.G.j.p.j.d.Y.j.G.c.j.d.3.d.j.j.7.j.A.A.!.Y.!.G.j.p.7.j.!.!.!.!.!.!.Y.Y.!.!.G.d.j.A.V.Y.!.!.G.V.c.c.A.V.V.r.p.p.7.A.!.j.c.A.7.<.j.p.p.V.V.p.d.p.7.V.A.j.A.A.j.d.p.7.3.+.r.j.3.G.Y.j.G.j.r.j.Y.j.3.j.j.<.<.<.p.3.r.c.d.Y.!.G.A.j.j.G.V.j.j.j.j.7.p.j.j.<.3.d.j.j.r.r.p.d.d.7.j.j.c.r.3.&X!.!.j.d.j.r.<.r.d.c.G.G.V.c.c.G.A.j.j.V.c.r.<.7.7.p.7.r.r.3.d.j.r.j.<.d.3.R D <.j.p.7.p.p.p.7.j.j.j.j.7.d.A.j.j.!.V.<.+.<.<.} ( ..*.<.*.<.<.<.j.c.p.A.`.!.r.( +.( <.*.3.j.*.<.d.7.<.r.A.`.`.Y.j.j.j.d.3.<.r.d.3.<.r.V.G.!./.!.j.j.V./.&X!.<.! ! r.V.j.j.r.3.j.A.!.A.<.<.<.<.d.<.3.r.<.j.j.d.<.d.c.<.<.c.V.A.j.c.c.7.j..X;X;X!.c.c.j.3.<.<.<.<.r.7.G.V.j.j...! ( <.<.<.G.Y.Y.j.p.7.j.V.j.!./.`.#X.X.X!.j.+.! ! <.d.Y.A.j.r.j.j.A.!.!.!.V.Y.!.j.N C ! +.+.7.d.V.7...*.*.! R R ( *...<.p.c.c.p.d.*.<.7.d.d.d.c.Y.j.<.3.j.c.d.+.} *.p.j.3.r.p.<.*.p.d.p.r.d.c.Y./.!.V.j.G.",
"p.d.V.A.p.<.<.<.r.j.j.p.r.<.} +.d.r.r.p.p.V.A.j.j.j.j.p.3.3.j.Y.!.V.p.d.V.!./.G.j.A.j.p.r.<.<.3.p.j.V.c.G.G.A.!.!.G.c.c.j.d.d.j.Y.Y.G.j.c.j.A.!.G.!.G.j.j.j.c.A.!.A.V.G.j.r.j.j.V.!.#X!.j.p.p.*.<.*.j.`.!.G.Y.*.( 4.r.7.<.p.h & h G.!.V.V.j.j.!.!..X.Xc.p.c.V.V.G.!.!.G.j.d.j.V.j.<.*.j./.!.`.#X/.#XA.j..X!.V.j.c.p.!.c.r.V.j.c.G.!..X`.j.<.} +.<.Y./.j.d.V.j.3.3.d.p.3.<.*.+.<.j.j.3.<.3.3.7.j.V.j.j.A.!./.`..X;X&X.X!.V.!.#X!.G.p.7.j.A.j.c.!././.c.<.7.p.<.d.p.*...} +.p.V.!.j.n ..G.!.#X;XA.!./.!.`..XG.p.<.j.V.V.Y.c.j.G.G.<.<.3.p.p.p.p.p.d.r.3.7.j.Y.A.3.3.j.c.V.j.!.V.j.<...r.p.G.c.c.c.3.c.j./.!.`.G.j.r.<.j.d.3.+.j.G.Y.G.N.Y.V.d.j.j.j.Y.G.Y.!.!.!.!.!.`.!.G.V.c.V.G.G.Y.G.V.c.j.c.c.j.j.3.r.p.<.r.j.<.j.Y.7.*.p.d.j.A.Y.j.j.d.r.A.!.V.!.Y.j.p.j.p.r.r.<.3.<.j.!./.G.j.r.p.j.<.*.p.3.+.<.7.p.7.j.A.p.d.j.c.!.G.j.V.c.d.r.j.V.j.j.A.A.p.j.c.V.j.<.<.p.c.p.r.j.p.j.r.*.c.j.V.c.d.c.j.3.p.c.G.V.d.r.j.G.A.G.A.c.c.j.3.<.3.p.j.7.<.<.*.7.V.7.*.D ..p.<.( } 3.*.+.7.7.3.<.d.r.j.r.<.*.<.p.j.j.<...! } <.*.<...} *.3.r.r.t.c.!.P.!.`.Y.7...<.+.....7.d.3.7.<.<.<.7.A.`./.V.j.d.d.j.<.r.r.d.r.<.<.7.A./..X/.G.A.j.G..XY.<.( <.A.A.G.!.3.( <.7.A.j...<.u.3.A.p.d.j.r.A.A.c.r.j.c.r.p.j.j.j.j.7.j.<.<.V.!.!.G.7.p.3.*.+.3.d.3.r.<.j.G.G.j.<.3.7.3.<.r.Y.Y.!.!.A.r.d.d.p.`..XY.!.`.;X`.p.( ..p.j.j.j.d.j.3.r.j.A.Y.!.!.G.G.A.7.D U D ! +.V.r.!.V.3.+.( R U ! <.<.*.p.j.j.j.j.j.<.*.p.G.c.j.c.Y.j.+.<.j.p.<...*...<.r.<.<.<.<.*.3.d.p.7.j.G.!./.`.Y.Y.!.",
"7.+.3.p.<.<.<.r.V.A.j.<.3.<.+.*.7.p.d.7.p.Y.!.j.7.j.j.c.d.<.7.A.A.j.7.d.A.Y.A.d.d.c.V.j.j.j.j.j.7.p.j.V.A.A.Y./.!.A.j.j.j.j.j.j.G.A.c.r.d.d.G./.c.A.V.j.p.p.j.j.&X.X/.!.j.j.G.V.j.A.`./.V.j.j.<.<.3.j.`.&X/.!.c.( <.d.V.V.;X!.<.( !./.A.p.j.V.G.Y.#X;X!.j.j.c.j.c.!.!.V.j.j.d.r.} ..<.A.!.!..X;X.X#X/.!.!.!./.G.j.j.#X!.c.!.Y.V.V.!.&X#Xj.<...+.<.A.G.r.3.j.j.r.<.j.j.h.3.+.*.<.p.j.3.7.r.<.3.3.c.j.j.A.!./.`./.!..X.X!.!.#X#X/.A.7.<.j./.V.j.!.#X;X;XV.d.d.3.V.`.<.! +.r.c.A.c.Y.*.p.!.;X;X.X7.j.G.!./.`.!.p...r.j.j.V.A.c.A.Y.d.d.j.A.c.3.<.j.d.7.<.<.3.j.V.7.3.p.p.j.p.c.j.p.<...7.r.V.j.d.j.3.p.3.!.&Xp.! 3.p.3.d.p.r.<.j.V.G.j.d.c.d.r.V.!.d.A.V.A.!.Y.!.!.!.`./.!.Y.A.V.V.!.A.j.j.j.V.V.j.c.G.j.c.G.d.3.r.<.j.A.3.+.7.j.j.V.!.!.Y.j.7.j.G.G.!.!.j.j.A.G.G.Y.r.<.<.d./.&XY.c.j.p.3.*.*.<.( } 3.j.j.j.j.c.3.( } <.j.p.<.d.V.*.+.r.G.G.G.G.V.j.c.j.p.7.<.<.p.A.j.j.V.j.Y.j.p.d.d.V.c.V.!.V.r.j.j.d.<.} ( <.d.c.A.A.c.j.r.<.<.<.d.j.3.<.<.+.<.c.*.J v N +.<.! ..7.<.*.p.p.p.d.r.7.j.7.<.*.! *.<...! U R +.p.7.<.....<.<.<.7.p.G..X/.!.V.r.<.<.d.r.<.<.r.p.p.r...<.d.j.j.A.G.j.j.3.7.j.<.j.d.j.A.j.*.*.j./.`./.!.j.3.d.Y.G.<.! j..X!.G.G.+.! 3.p.!.G.3.p.j.p.G.G.G.G.c.!.Y.G.j.p.c.j.p.<.<.j.j...3.*.+.<.p.c.V.r.r.<.<.<.p.j.<.p.3.p.G.G.d.d.c.j.d.3.<.j.Y.`..X!.r.3.p.j./.!.<.! j.&X!.<.} 3.j.j.r.p.7.j.7.3.j.!.!.!.`.!.!.A.<.N D D ! 7.!.N +.`.V.<.! ! ! +.3.7.<.3.p.p.7.<.<...*.c.!.j.j.c.j.<.*.p.j.<.*.7.d.<.3.p.p.3...! ..<.p.j.p.d.G.!..X!.A.!.!.",
"<.R +.p.<.*.<.j.j.c.r.<.3.3.<.<.<.3.7.<.r.V.Y.j.j.j.p.c.j.*.<.c.A.j.j.G.!.A.7.*.<.d.c.j.j.F.!.Y.j.p.j.V.j.j.G.G.!.G.c.j.j.j.j.j.j.j.j.7.d.j.Y..XA.G.A.j.3.7.j.j.!..X`.!.j.V.!.G.j.j.!.`.G.j.d.<.<.<.<.A.!...( !.j.<.7.!.!..X;X;X!.`./.!.j.G.!.Y.Y.!.!.A.c.V.G.c.d.A.G.c.j.j.7.*.+.<.p.G.!./.#X#X/.!.!..X!.!.!.V.7.j.#X;X.X#X.XG.A.!.;X#XG.j.d.7.d.c.d.<.r.j.j.r.3.j.c.V.r.*.<.<.d.j.j.j.j.3.7.7.j.j.j.V.Y.!.!.!.!././.!./.#X&X;XY.r.*.j.#XY.j.!.!.!..XA.c.!.G.!.c.} } j.!.!.!.c.!.!./.5XqXY.V.d.j.Y.!.!./.`.A.r.*.<.<.r.c.j.j.j.7.j.G.!.Y.<.+.j.7.<.<.<.<.r.c.r.3.7.p.j.3.p.d.j.<.*.3.r.j.p.7.p.r.3.! G.&XR s 7.r.<.r.j.A.d.j.A.V.7.<.d.p.r.c.G.c.Y.V.A.Y.V.A.G.A.Y.!.!.!.!.!.A.!.G.j.r.d.c.V.j.G.!.c.V.!.G.j.j.p.p.p.*.+.3.j.A.A.!././.Y.V.G.G.A.G.A.c.V.!./..XG.j.j.j.V.!./.Y.p.c.j.p.d.d.3.} <.7.j.Y.V.7.3.<.! ! ..r.r.<.p.d.<.( *.j.j.j.j.d.j.d.7.r.j.7.<.7.V.A.V.V.V.A.<.7.c.V.V.c.!..XA.j.j.j.7...! ! ( <.j.c.A.V.j.r.r.p.c.G.V.7.3.<...<.c.( B ( R D +.! <.j.d.d.j.p.3.3.<.<.p.3.p.d.} <.<.+.! ! ..p.V.j...} <.r.<.*.<.3.j.!.!.G.j.<.3.j.7.<.3.d.p.7.d.r.3.j.G.V.d.j.V.V.p.<.7.j.d.A.j.j.A.V.p.<.j.G.!.!.V.3.<.p.V.A.p...*.Y.G.V.j.+.*.V.j.A.j.+.*.r.j.Y.!.!./.!.!.G.V.p.r.j.d.3.<.p.V.c.3.<.} *.<.r.j.d.3.7.<.3.<.3.j.<.p.j.j.j.r.+.3.c.j.j.7.+.<.Y./.!.!.r.<.j.j.d.j.( D j.#X!.r.3.p.p.<.r.!.Y.A.<.*.j.!.!.!.`..X`.G.<.D U ! ( r.c.7 z .X!.p.} ( <.7.3.3.<...<.3.<.<.<.<.*.7.j.t.j.j.<.! *.p.p.<.7.c.d.d.p.7.<.r.<.! <.j.r.d.3.<.V..X&X!.A.!.!.",
"<.R <.j.p.<.<.j.<.p.r.<.3.3.<.<.7.<.<.r.j.j.c.V.!.c.<.d.j.<.r.A.!.A.A.!./.Y.p.p.r.d.V.j.p.A.Y.V.Y.d.d.c.p.p.A.j.A.A.j.p.p.j.j.j.j.j.j.d.c.j.Y./.G.A.V.p.<.3.j.j.j.!./.!.G.Y./.!.A.j.Y.!.A.j.r.<.<.*.+.A.Y.h e j.!.V.G.!.!.`.`..X!./.!..XY.Y.V.V.!.!.G.G.!.G.A.c.j.G.!.Y.j.j.p.<.j.G.Y.!.!./..X!.!.c.c..X!.Y.G.j.c.G.G.#X;X/.!.j.j.V.!./.Y.!.!.V.c.j.<.<.d.c.j.p.p.d.p.j.r.<.7.<.j.j.j.j.d.<.1.d.j.c.A.A.G.Y.G.V.!./.`.`.`.`..X;X.XV.3.c..XG.p.A./.!.!.j.p.c.j.p.*.+.r.Y.G.j.V.c.Y.`..X,XG.N ..Y.!..X`.G.!.!.V.c.*.+.} 3.j.d.<.7.*.7.j.A.j.*.*.c.r.7.3.p.<.<.j.3.<.<.<.j.7.p.p.j.<.+.<.7.d.j.j.j.7.V.<.j.`.<.R c.<.*.3.j.!.p.d.!.A.r.<.p.j.d.j.j.G.G.A.!.!.A.A.V.j.G.!.!.!./.!.G.!.Y.c.p.p.c.Y.!.G.!.A.V.!.!.V.j.p.3.<.*.<.r.V./.G.G.G.!.!.`.!.!.j.d.d.p.7.j.G.A.Y.V.p.j.j.j.d.p.7.c.c.c.c.j.3.! <.<.3.Y.Y.3.<.j.<.+.} <.j.V.j.<.7.+.<.p.j.j.j.r.j.3.3.c.G.p.*.<.j.V.p.7.j.p.! <.V.V.j.j./..XV.c.c.V.j.<.*.( ..7.j.j.A.A.j.j.c.A.!.!.c.7.r.<.( +.d.<.( j.7.( +.! <.j.j.g.j.r.3.<.3.<.3.3.j.V.3.j.j.j.<.+.<.p.V.j.....r.V.j.7.<.<.d.G.G.V.c.3.7.j.( ! *.d.d.3.7.r.j.j.V.j.7.p.c.c.r.3.d.c.A.c.a.r.j.j.7.<.7.j.V.G.r.<.7.c.G.Y.c.7.( 7.j.A.A.j.j.G.3.7.<.( ( 7.j.!.!.V.G.V.G.j.V.V.p.d.p.7.r.j.G.V.j.<...<.<.7.j.<.*.<.7.r.<.<.7.r.7.j.p.3.<.*.7.j.j.c.j.<.+.V.c.<.+.} +.c.j.<.!.!.j.`.&X!.A.j.j.d.<.7.!.Y.j.<.<.A.!./.!.!..X!.j.<.3.*.*.! *.j.r ! A.!.j.<...3.j.7.3.<.<.r.d.<.<.r.r.} ..<.<.r.d.*.<.7.3.+...r.j.<.<.p.<.! ..<.*.j.!.p.j.7.<.Y..X`.`.!.!.!.",
"<.( <.p.r.7.3.A.*.p.p.<.7.p.r.p.r.*.+.j.!.Y.G.G.!.Y.7.d.c.p.j.!.!.V.c.c.Y.Y.j.c.V.j.G.A.j.G.!.Y.!.j.r.j.j.j.V.j.j.j.d.3.3.p.j.j.j.j.c.j.A.c.G.!.V.c.j.j.r.d.j.d.j.!./.!.!.Y.!./.!.G.G.Y.V.c.j.3.3.<.3.A.!.J f d.!.#X&XY.!.;X/.Y.!.!.!.`.G.!.!.!.Y.!.V.V.Y.c.j.j.!.Y.`.!.j.p.j.j.A.`..X`.!.!./.!.Y.A.A.#X/.!.Y.j.!.Y.j.Y.#X!.A.r.d.j.A.Y.Y./..XY.c.j.<.<.d.c.A.j.j.j.7.j.r.<.j.<.3.*.<.p.7.*.+.r.j.G.!.!.Y.Y.V.j.G.!./..X.X`././..XY.j.c.!.j.3.j.j.Y.!.j.r.j.V.c.p.j.A.`.V.3.j.!./.5X;XG.v 7 } !.&X;X!.j.j.7.} <.d.<.<.p.c.r.*.<.*.<.3.r.7.*.3.G.j.r.3.j.7.<.j.3.<.+.*.p.<.p.d.j.7.*.<.7.p.c.j.p.7.Y.A.V.!.!.G.A.<.<.p.j.c.r.c./.Y.c.r.j.c.j.j.j.c.j.j.!.!.G.!.A.c.!.!.A.!./.!.Y.!.!.A.j.j.Y.`..X!././.Y.A.A.j.p.j.j.j.p.7.p.A./.A.A.A.A.!.!.!.A.j.r.p.3.+.7.j.7.j.7.! <.3.r.j.G.j.V.Y.G.r.<.<.! <.*.*.j.Y.j.j.G.j.p.} ! +.j.Y.p.j.3.r.j.p.d.j.d.d.<.3.c.V.7.*.*.c.j.<.*.d.j.( p.!.A.c.c.!.!.c.c.j.j.p.7.3...} 7.j.j.V.G.V.V.Y.!.!.Y.j.3.p.3.} <.<.3.<.V.A.r.! N 7.r.r.j.j.j.j.d.<.*.<.r.j.j.3.j.G.G.p.*.+.*.7.p.<.<.d.G.c.d.7.+.r.j.j.d.j.<.r.j.<.*.<.r.j.<...p.V.j.j.j.r.p.j.j.r.j.c.j.Y.7.3.3.j.p.<.+.<.r.j.A.r.7.j.G.!.!.A.j.7.3.j.!.!.G.V.c.j.j.j.d.j.j.j.A.A.p.p.p.d.r.G.`.j.d.7.r.j.j.j.A.j.r.<.<.<.3.p.<.3.p.j.d.r.3.3.d.d.j.j.<.3.j.c.G.Y.!.!.j.<.j.<.R +.+.r.G.j.( j.Y.!.&X.X!.G.j.7.j.p.<.c.j.j.p.j.!.!.`.!.!./.j.<.3.r.<.*.} <.Y.! j.r.A.G.d.*.<.j.r.r.<.3.V.j.<.r.j.<.! } <.<.3.7.*.d.d.<.<.3.d.j.*.*.d.p.( ! ( ..p.G.p.j.j.j./././..X/.Y.G.",
"j.<.7.<.*.<.<.A.j.V.p...+.<.<.<.l.3.<.j.!.!.V.j.G.!.j.c.A.j.G.!.G.V.V.c.!.!.j.j.Y.j.V.V.j.j.c.A./.c.r.c.G.j.j.d.d.j.d.<.<.7.p.r.j.j.c.j.A.j.V.A.V.j.V.A.A.G.V.d.V..X/.!.!.c.c.!.`.!.G.G.A.!.!.j.r.7.r.r.!.!.d.!.!.&X;XG.!.`.G./.!.Y.`.#XV./..XA.G.`.A.j.A.j.c.!.!.A.!.!.3.<.j.j.A.!./..X`.!.!.Y.d.Y.!.#X!./.Y.d.V.A.j.!.&X/.G.V.A.c.G.!.Y.!.!.V.j.j.*.+.r.c.Y.A.d.r.3.d.<.*.p.<.<...3.j.j.7.*.p.r.V.!./.!.!.Y.V.V.G.!.!.!./.!.!.A.c.j.c.G.d.<.p.j.`.`.G.G.!.!.!.G.j.V.&X!.3.c.&X#X#X;X&Xv 2 <.;X.X.X!.V.G.3.! r.A.p.7.j.c.<.} <.<.<.3.7.7.<.7.A.j.<.*.j.r.<.c.j.7.3.7.p...<.d.V.j.3.r.p.r.c.j.<.*.*.j.!./..X;X!.7.r.j.p.7.p.!.!.!.!.c.j.j.p.j.Y.j.7.j.!.!.G.!.V.c..X!.j.Y./.!.!.#X`.Y.j.V.!..X`.Y./.`.V.r.r.7.<.d.c.c.j.7.7.j.Y.Y.!.!.Y.G.A.c.j.j.d.j.p.*.j.!.r.G.j...<.( } p.!.Y.A.!.!.<.+.p.<.3.r.<.<.A.!./.!.V.V.<.U J <.G.j.Y.j.d.p.<.3.j.j.<.*.<.r.7.3.7.3.j.3...<.j.V.+.d.G.j.j.c.A.G.j.j.j.r.<.<.<.( ! *.d.p.c.G.V.A.!.!.!.!.c.r.j.r.*.p.<.&.} r.Y.c.! <.r.<.<.j.d.p.p.<.*.} <.p.j.<.<.j.c.G.j.7.*.( *.r.d.p.V.!.V.j.d.<.3.j.s.<.<.} p.!.^.A.r.r.V.<.! d.V.d.j.V.j.j.j.p.p.j.A.j.G.+.<.7.r.p.d.7.<.3.j.!.j.j.j.A.`.!.V.j.7.*.V./.A.A.!.`.G.A.j.7.r.r.3.j.c.3.r.d.d.3.V.`.A.7.+.<.j.j.j.A.d.j.<.<.3.p.d.<.r.d.j.d.c.Y.c.G.G.!.!.j.d.j.A./.#X/./.Y.r.j.*.U <...d.A.j.! } <.r.!.`.!.Y.p.<.r.r.*.V.G.Y.D.A.!..X&X!./.!.<.! 3.<...} *.7.!.<...<.V.!.A.<.*.j.p.r.*.r./.G.7.r.7...! } *.<.p.r...3.r.7.j.Y.A.j.<.<.r.d.<.+.+.+.<.d.7.j.j.V.!.!.`././.V.V.",
"7.5.<.0.7.<.j.!.!.j.j.5.<.<.} <.j.r.*.p.!.Y.c.j.Y./.Y.c.G.Y.G.!.!.V.r.3.j.A.c.d.A.V.j.d.j.c.A.V.c.Y.j.V.A.j.c.3.r.j.j.j.p.r.7.3.7.p.j.j.c.G.Y.G.!.G.A.A.G.`.&Xc.j..XY.!.!.A.p.p.V.V.!.`.!.!.c.c.j.j.G.G.!.`.!.A.`.;X#X#X!.;X`.;X#X!.!.`.`.`.#X!.!.!.A.A.!.Y.c.!.!.<.A.V.<.<.3.G.!.G.V.A.Y.!.Y.A.j.j.d.!.#X.XY.3.j.A./.#X;X!.`.#X!.A.!.!.A.A.V.A.!.j.r.<.r.A.j.p.<.<.<.7.<.! <.d.*.+.<.<.<.r.p.d.d.A.!.#X.X!./.A.c.V.!.!.A.!.;XG.V.c.V.G.c.7.r.V.c.Y.,X#XY.!.Y.`..X!.V..X#X!.;X5X;X.Xj.,X<.q c.;X/..X`.j.Y.&Xc.j.j.r.j.r.j.c.<.<.<.<.d.c.c.p.7.Y.d.<.<.7.1.+.A.V.3.j.c.7.<.p.d.3.j.7.j.j.p.j.j.d.r.7.j.Y.`./.!.!.r.} <.<.+.p.A.V.Y.!.V.j.A.A.j.d.7.r.j.Y.c.A.`.V.Y.!.`.j.!.Y./.!.&X!.!.Y.G.!.G.G.A.c.G.j.j.d.<.7.d.!.c.j.Y.c.3.3.j.c.j.Y.j.7.p.c.G.c.j.r.7.j.G.!.G.V.j.j.*.( j.!.Y.j.j.r.<.3.p.<.3.3.j.A.!..X!.A.V.7.<.<.*.d.!.G.j.j.7.r.<.<.p.7.<.<.d.j.*.<.d.j.p.*.( +.7.7.<.p.c.d.3.d.c.j.j.j.d...N ! R C ....7.p.c.A.c.V.Y.Y.V.c.Y.Y.r.+.+.<.3.! C ! d.d.r.<.<.*.7.G.3.( ..<.<.<.<.3.3.<.7.A.A.j.j.r.r.3.*.7.j.r.j.G.c.p.d.j.r.d.j.<.*.d.Y.Y./.`.j.d.c.3.3.G.j.j.c.V.V.j.r.<.Y.A.!.j...D } r.7.d.V.3.<.p.j.!.G.A.Y.c.A.!.j.j.<.+.d.!.j.3.V.!.V.d.<.<.<.*.d.A.j.r.d.r.7.p.j.!.V.3...3.V.c.j.j.<.<.+.*.d.V.j.7.<.p.r.d.c.A.!..X!.Y..X!.d.V.`..X&X#X#X!.A.j.+.+...! r.Y.A.<.<.! <.;X3.! j.<.<.3.j.j.!.!.A.`..Xj.!.#X/.#X;Xj...7.1.<.3.<.c.~.<.<.!.;X!.r.3.<.*.<.+.C r.#XY.7.+.*...<.p.r.r.p.<.<.<.p.j.G.Y.j.p.p.7.7.p.<.<.<.! <.r.r.j.r.c.!.c.Y.!.G.j.V.",
"p.5.<.0.g.j.L.!.!.V.N.0.5.5.o.<.d.r.<.p.c.c.c.j.c..X/.j.j.G.!.!.c.j.r.3.3.r.p.7.A.V.j.j.p.p.r.7.V.A.V.!.Y.d.d.7.p.d.d.p.7.3.<.<.7.p.j.j.A.!.!.!.!.!.V.c.V./.,X#Xd.!.Y.!.G.j.<.3.j.G.!.`.!./.j.j.V.c.!.`.!.!.V.j.!.#X`.G.7.`.#X`.`.!.G.!.!.`.#X!.G.!.G.A.!.!.A.V.v.<.j.j.7.j.j.!..XY.j.j.Y.!.!.A.j.3.7.V.!./.!.j.c.A.&X;X;X!.`.;X!.A.!.!.!.G.c.A..X#X!.3.<.c.j.7.<.<.7.j.p.d.A.j.3.*.<.3.d.C.V.L./.!.G.!.!.A.Y.G.Y.G.Y.!.V.j.j.G.G.j.j.c.j.r.d.G.j.j./.!.V.A.Y..X.X/.c.!.#X`.;X&X;XG.+.!.G.! &X#XY.Y.!.j.V.!.G..X!.j.j.p.j.V.<.+.+.7.j.j.d.p.<.r.<.<.p.c.d...d.j.p.Y.#X`.!.!.G.3.<.3.A.A.7.<.<.p.j.d.j.A.!./.!.!.7.} <.7.<.j.V.j.A./.V.d.j.j.j.j.j.r.p.A.c.p.j.j.G.Y.`.A.G.j.!.!.!.A.A.A.c.V.c.c.j.j.G.Y.!.!.p.j.!.!.j.V..XG.<.*.7.<.*.p.3.<.p.A.Y.c.d.<.<.7.d.c.<.3.j.c.r.3.d.G.V.j.j.p.<.<.<.+...+.p.V.Y.G.p.7.p.<.<.7.<.7.j.c.c.j.d.p.r.d.j.r.3.3.p.r.*.<.p.d.7.+...*.7.r.<.p.7.<.} <.r.7.r.3.<.( N U N N <.<.j.j.V.!.G.A.A.A.j.j.c.j.<.} *.7.p.<.<.<.j.d.c.j.p.r.*.r.3.<.<.7.V.j.7.<.3.3.r.j.j.p.7.3.p.3...<.j.d.c.G.p.*.<.j.7.j.V.A.V.Y.!.V.D.^.j.d.j.3.<.d.j.j.j.j.j.p.7.3.V.c.j.r.7.( *.j.j.j.j.<.<.<.<.V.j.j.G.G.!.G.<...r.7.d.c.j.j.!.G.M.c.p.r.<.<.p.d.<.3.j.A.c.j.r.j.j.7.<.p.A.A.c.A.d.p.<.<.p.V.A.V.d.c.j.j.V.A.!.`.Y.V.!.!.A.`.!.<.+.j./.!.j.3.+.3.<.<.r.d.j.j.j.*.c.;X+.N j.d.3.7.p.j.!.!.A.!.Y.3.d.`./.!.`.Y.p.p.<.#.r.r.G.!.j.A.!.`.Y.j.7.<.} ( +.} d.V.r.<.....j.A.A.j.j.j.<.+.<.j.V.j.p.d.d.d.7.p.j.<.( ! ! p.A.d.p.<.j.!.G.!.!.!.V.V.",
"j.0.1.p.a.N.#X;X!.C.j.<.>.<.<.0.r.d.d.j.j.d.d.<.} j.A.j.j.V.c.j.d.d.j.d.3.7.d.r.c.j.j.j.j.p.r.p.c.j.c./.!.j.j.j.j.j.d.d.d.d.p.r.3.r.j.j.A.!././.!.!.j.j.j.A.&X;X3.j.c.G.A.V.<.<.p.Y.`.`./.`.j.d.j.d.Y.;X.X!.A.p.j.!.j.! N p.#X!.V.V.G.!.!.`.`.`.G.!.!.A.G.!.G.j.c.j.Y.Y.G.!.!.!.&X!.G.G.!.!.!.A.j.r.7.7.j.G.Y.!.!.!.;X&X&X/./.;X!.c.j.A.!.!.V.G.#X5X;Xd...3.r.3.j.r.d.j.j.!.#XA.j.r.p.p.r.r.j././.A.c.!.!.A.Y.Y.G.#X,X&X!.3.! d.j.7.7.j.c.d.p.j.j.p.v.Y.c.V.`.;X;X;XY.!.;X#X!.d.!.d.n } /.`.5X;XG.j.G.A.V.Y.Y.;X;X!.V.p.d.j.*.! } d.V.6.<.7.3.<.....<.j.c.<.j.A.Y.`.&X/.!.!.A.<.<.<.j.c.r.<.<.3.p.7.7.j.Y././.!.A.7.p.r.<.p.j.r.j.!.V.d.j.j.j.A.j.j.j.!.!.j.d.j.G.Y..X!.!.j.!./.G.V.c.A.c.j.A.V.A.j.V.!.`.Y.7.j.V.r...7.V.p.<.<.r.<.*.d.p.r.j.Y.j.p.<.+.*.<.<.d.3.r.G.Y.A.V.j.A.c.j.j.p.<.<.<.<.<.<.j.A.A.j.3.<.3.*.<.3.3.<.<.<.y.r.r.<.7.V.c.p.<.3.7.3.7.d.j.j.p.<.<.<.<.3.<.<.*.} } 3.3.<.*.! +.....3.} ! p.3.j.j.G.`.`.!.G.c.j.d.7.<.+.! ( <.r.r.d.r.d.j.!.c.d.j.( } d.j.<.<.j.j.r.7.j.V.j.j.d.r.7.p.c.p.<.3.<.<.p.j.3.*.r.A.j.c.A.Y.Y.Y.V.d.j.G.j.r.d.<.+.<.j.r.<.<.<.<.3.r.3.3...( d.7.d.`.!.G.j.<.<...! 3.<.7.Y././.A.<...3.r.r.j.j.c.V.d.j.A.j.r.<.<.3.<.3.<.r.j.c.d.<.<.7.p.d.j.c.j.j.j.r.p.3.<.j.Y.!.Y.c.!.V.j.V.j.c.Y.j.d.G.G.V.!.3.y 7 h } <.<.<...*.<.d.d.<.j.!.`.j.j.&Xj.+.c.d.7.3.<.d.Y.G.p.p.d.<.j.!.`.!.!.j.<.<.( Y <.d.c.j.0.c.c.V.V.c.j.7.*.} +.p.j.7.<.<.*.*.p.c.c.j.j.j.V.G.j.!.A.<.*.3.j.j.d.V.A.r.( ( r.G.`.V.V.j.j.!.Y.Y.!./.Y.A.",
"j.7.<.p.p.j.!.`.C.C.V.p.p.a.7.p.7.j.j.V.j.d.d.*.! <.p.j.c.j.p.7.7.3.d.j.<.r.j.r.j.j.j.c.j.j.j.j.r.r.c.G.V.j.j.V.A.G.A.c.c.V.V.c.7.r.p.j.j.A.!.!.!.!.c.j.j.j.G.!.7.3.d.A.G.!.7.+.3.V.!.!././.c.A./.!.`.,X.X!.!.d.7.j.+.U N +.j.j.j.G.!.!.!.!.`.#X!.!.!.G.V.Y.V.r.7.V.!.!.!.G.A.G./..X&X&X`.!.G.G.j.c.d.<.d.c.c.;X&X!.#X!..X`.!..X/.j.p.c.!.!.V.A.`.;X;XV.*.( ..<.c.j.d.r.7.V./.!.Y.V.d.7.*.! *.G.G.j.V.!.!.c.j.c.!.#X;XG././.<.*.A.j.p.j.G.j.<.r.p.<.3.j.j.c..X`.;X&Xc.j.!.!.c.7.G.V.C N V.Y.j.!.j...<.j.G./.!././.G.G.j.d.r...! ( p.G.c.d.j.r.<.;.+.<.d.V.3.j./.&X;X.XA.G.!.j.<.p.+.<.d.d.r.r.r.d.j.d.j.V.Y.Y.j.j.<.7.r.3.j.c.r.d.!.V.j.j.7.<.7.r.j.V.V.j.j.d.r.j.A.Y.A.!.j.V.A.A.c.j.V.V.c.!.G.V.d.p.j.G.j.r.!.V.p.<.3.3.} +.3.r.r.r.j.j.d.j.G.h.<.<.*.*.<.<.p.<.<.p.j.A.A.G./.A.V.V.c.d.d.j.d.7.r.j.p.7.7.3.r.3.<.+.*.7.7.*.<.j.d.j.7.r.V.j.p.*.r.r.p.j.Z.V.c.7.*.<.<.<.3.7.<.7.<.*.<.*...<.<.<...} <.( } p.*.7.j.!.`./.G.j.3.<.3.<.+.+.( } 7.j.r.r.r.p.r.V.<.j.V.( ! j.Y.3.} ( ..<.r.A.Y.A.A.j.r.p.j.c.d.7.p.p.7.r.j.d.d.V./.!.Y.A.V.c.c.j.j.r.d.<.<.p.7.<.3.7.r.d.j.j.7.<.<.<.<...+.V.j.A.&X!.c.d.<.<.+.! *.<.d./.|.A.7.+.<.r.p.r.d.j.j.j.p.d.j.j.7.7.p.d.7.j.r.7.p.d.7.<.3.3.j.c.j.j.d.r.7.<.d.p.<.d.Y.G.j.d.A.j.j.c.d.d.j.j.j.!./.!..Xj.N N U } <.r.j.r.<.} r.3...d.Y.`.A.j.V.V.r.p.d.c.7.*.c.!.d.} *.j.V.j.p.7.3.c.G.<.( U n ! <.r.<.<.0.j.j.c.V.j.r.<...+.c.c.7.7.r.<.<.d.3.<.j.!.`./.c.j.G.j.<.<.r.d.j.p.V.A.d.+.3.!.Y.+.( r.c.A.!.!.Y.G.c.r.p.",
"W.7.#.p.j.7.0.<.j.V.l.p.i.p.7.0.j.j.j.j.j.j.j.7.3.p.d.j.j.j.j.j.j.d.j.j.3.p.A.A.V.j.j.j.d.r.r.d.3.d.V.A.j.j.j.Y.Y.!.!.c.j.V.A.j.p.p.p.d.j.j.A.!.!.!.G.A.V.j.V.A.j.7.p.V.V.Y.3.+.<.p.c.j.Y.G.V.!.;X;X&X.XA.Y.&X!.j.V.j.V.p.+.} <.j.!.`.!.!.!.!.`./.!.Y.V.j.j.j.7.j.!.!.!./.G.V.G.!..X;X&X!.G.G.!.j.d.j.j.V.G.V.!.!.j.!.G.!.!.Y./.;X!.V.G.A.j.V.A.`..X.X/.c.<.+...<.<.<.*.*.3.j.!..XG.1.<.<.( ! 1.G.V.!.`.!.G.Y.!.`.&X.X<.p..Xj.*..X.Xc.j.Y.p...3.r.<.*.7.j.G.#XY.!.!.j.d.A.V.d.r.j.Y.7.} p.<.! j.p.! ! <.c.!.j.7.7.p.G.Y.j.r.<.*.} <.j.c.j.7.7.e.<.p.j.j.j.*.d.`.`.,X`.G..X!.7...d.<.<.j.d.p.j.j.d.j.j.j.j.V.A.r.3.*.*.<.<.d.G.j.j.G.V.c.V.d.r.7.p.j.G.p.+.3.j.p.j.Y.j.j.`.!.V.j.G.j.p.j.j.j.Y.A.G.j.j.j.j.7.r./.Y.c.r.7.<.+.<.3.<.r.c.j.j.j.V.G.V.<.<.7.*.<.7.r.A.G.p.c.A.d.V.Y.c.j.V.V.c.j.j.d.r.p.r.+.( <.7.d.3.<.<...7.d.*.+.3.<.7.<.3.p.r.j.3.j.p.j.Y.A.A.A.r.<.<.*.+.<.3.<.7.<.<.<...( <.p.r.+.! } ! } r.<.<.c.!.!.Y.A.j.3.+.r.7.<.+.! ( r.c.p.7.j.V.j.V.<.j.j.} +.p.j.<.<.! ( *.7.j.j.V./.A.3.7.j.d.3.7.7.j.d.r.p.d.j.G./.#X!.V.j.p.d.j.A.j.r.<.<.j.p.<.<.3.p.l.G.c.7.+.( ( <.3.p.G.j.c.G.3.3.d.p.*.+.<.<.<.p.Y.A.3.....7.c.c.r.3.d.c.G.V.V.j.d.d.j.j.r.<.j.c.j.c.j.7.<.p.3.j.c.j.j.d.7.<.3.A.V.<.<.j.d.<.<.d.p.j.c.j.j.j.j.3.j.A.j.V.A.p.!.A.j.j.c.A.j.7...*.( ! r.j.c.d.p.<.7.3.d.A.Y.*.7.!.!.<.! 3.!.;XG.j.p...<.V.7.! N c ~ a.L.j.p.<.+.*.<.<...<.3.<.+.d.p.7.j.j.7.7.j.A.Y.7.} j..XV.7.j.j.7.7.7.<.<.j.G.V.r.( <.c.<.N c ! p.A./..X!.j.<...7.",
"!.N.0.j.g.<.<.1.j.j.i.<.>.<.<.7.c.j.j.V.c.j.j.7.p.j.j.p.7.p.j.j.j.j.j.r...<.j.G.!.Y.A.j.j.p.r.p.V.V.j.A./.!.Y.!.G.!.Y.j.j.A.G.j.j.j.j.j.j.j.V.Y.!.!.A.G.A.c.A.c.j.d.d.c.j.j.r.7.3.p.j.d.j.j.j.Y./.&X;X`.j.j.!.G.j.j.p.G.j.U v ! V.`.!.j.j.!.!.!.!.Y.V.j.j.j.d.d.A.Y.c.c.Y.G.A.Y.!.!.!.G.c.V.!./.V.<.j.`.!./.Y.3.p.r.G.A.Y.A.G..X#X.X/.!.A.j.A./.#X#X.X;X%XY.d.+.U ! +.+.+...<.j./.!.7.3.j.<.( #..X/.;X;X`.G.V.G./.&X5Xj.<.G.j.<.G.`.A.j.G.p...3.p.r.<.7.j.!.`.G.Y.!.!.!.!.A.j.j.j.c.!.Y.p.3.<.V.j.+.} +.r.c.r.+.<.7.c.V.r.<.p.j.<.*.<.j.p.<.7.j.r.p.p.<.3.<.j.!./.;X!.c./.!.<.! d.3.r.c.j.p.j.d.<.<.<.7.r.j.!.j.r.7.7.7.<.d.G.j.p.j.d.j.A.V.A.j.p.j.!.j.<.r.V.G.!.`.c.c.;X&X/.Y.!.V.j.c.c.c.A.c.j.j.j.c.j.<.r.!.V.j.+.( +.<.3.<.+.p.!.!.!.V.c.c.j...r.j.3.7.p.<.j.Y.r.j.A.3.j.j.c.j.j.j.j.d.d.d.j.j.j.+.( <.3.p.*.<.7.<.d.V.r.7.j.p.p.p.r.3.7.c.c.j.3.j.Y.j.c.V.d.3.<.+...*.+.*.*.<.<.<.+.! ( *.<.} ( <.*.+.7.3.7.V.G.c.j.d.r.3.r.r.<.( } ! R } <...+.p.j.<.d.<.<.<.( <.3.} ! <.<.<.7.j.j.j.A.&X!.3.<.j.p.<.3.<.r.r.3.<.3.r.j.!.!.A.7.} ( ..3.j.7.+...<.d.d.<.<.<.7.p.p.7.<.<.*.} 3.r.r.j.<.j.d.! +.c.c.+.( <.<.<.3.j.d.<.*.<.r.j.j.3.<.d.!.!.j.3.*.<.p.j.c.r.7.c.c.d.c.G.j.7.7.7.d.j.j.r.7.<...<.A.!.p.<.<.<.<.<.p.r.d.j.j.j.j.d.<.d.c.d.p.d.j.j.V.G.G.j.7.d.d.d.<.! ! 7.7.p.3.3.p.j.r.j.c.c.3.p.Y.j.} ..j./.;XG.j./.j...*.! ! J B ..j.[.G.C.7.( ! ! R R *.d.d.p.j.p.p.c.j.d.r.j./.Y.z 0 ! Y.d.<.j.j.3.<.r.7.3.7.j.j.p.<.p.!.j.<.! ( r.V./..X!.V.3.*.j.",
"!.[.!.C.j.<.1.j.7.p.p.i.0.<.<.7.j.j.d.G.Y.j.r.7.d.j.j.j.d.r.p.j.A.Y.Y.j.r.d.A.!.`.`.!.!.G.A.c.j.!./.d.j.&X;X#X!.V.j.j.j.j.A.A.c.c.c.V.A.V.c.A.!.A.A.A.A.j.j.V.j.d.c.j.G.V.j.d.d.p.j.G.j.j.d.j.V.j.!.;X.XY.!.!.!.!.j.p.V.G.<.! <.j.!.G.7.j.!.!.!.!.!.V.c.G.G.A.G.Y.!.V.d.c.!.!./.!.Y.V.j.j.j.Y./.!.d.c.#X.X`.!.7.j.j.!.!.!.c.!.#X!.#X!.!.`.G.G..X/..X/..X#X!.G.j.! ( <.+.} ( ! <.j.Y.j.r.j.<.*.7.V.j.!.&X`.G.c.Y.!.!.;X/.G.#XA.*.3.A.G.c.V.j.7.p.d.p.<.3.d.j.c.j.Y././.!.G.Y.!..X!.G./.#Xj.d.j.j.7.*.+...<.p.p.r.r.7.d.d.<.<.p.d.<.<.p.!.Y.d.j.c.p.7.<.( <.p.V.c.!.!.A.j.!.!.p...p.7.p.V.c.d.d.<.<.<...<.7.j.G.3.*.r.j.A.j.j.G.j.p.7.7.j.d.j.c.r.<.j.!.A.j.c.A.!.!.!.p.j.Y.Y.!.Y.V.j.A.Y.A.V.j.j.j.j.A.V.7.*.<.d.G.A.<.! ( ..<.<.+.7./.`.!.j.r.p.3.} p.V.p.r.<.( p.!.V.V.G.j.c.V.c.V.A.A.j.p.s.j.j.d.p.<.*.<.<.p.V.j.A.j.c.A.1.*.<.<.*.<.<.*.7.V.p...U p.!.V.Y.!.<.*.+.} *.<.*.<.<.<.+.+.+.! ! +.+.! U +.<.} <.r.j.j.j.7.<...! ( r.<.( ! } } ! ! <.3.3.j.j...7.<...<.( <.3.+.! <.3.r.a.d.j.j.V.!./.p.*.j.j.3.<.+.d.l.j.r.7.3.p.V.j.d.+.U U ! ..<.} ! ( +.r.j.7.3...<.d.d.r.7.3.<.j.A.j.<.7.<.j.p.! <.c.Y.3.} *.<.p.p.d.d.7.3.3.<.<.7.<.<.p.G.G.<.<.<.r.d.j.j.<.<.j.j.3.d.G.j.p.r.p.j.V.c.p.7.7.<.<.j.V.j.7.<.<.<.j.j.r.p.p.d.c.j.<.<.j.V.j.d.7.d.Y.!.!.~.j.3.j.G.c.r.+.( <.<.p.3.7.V.V.r.r.3.j.j.r.j.<.! <.j.A.!.d.! c.G.<.} C R ..R ! #.j.7.c.c.<.+.( ! } <.d.j.7.p.3.7.j.G.!.A.A.G.j.D J G.V...<.7.<.<.3.d.j.c.p.p.j.A.j.j.Y.A.r.+.+.p.V.Y././.!.j.3.j.",
"D.;X=X!.V.5.>.<.<.5.5.0.i.1.5.a.r.7.3.c.Y.d.p.c./.c.j.G.G.j.p.j.Y.!.!.Y.Y.!.!.!..X#X#X`./.!.G.j.!.;Xj.<.G.`.`.Y.V.p.<.r.j.j.j.d.j.c.A.Y.G.A.A.!.G.G.!.Y.d.p.j.7.j.Y.V./.!.A.d.r.3.j.!.c.V.V.Y.G.c.V./.!.!.!.A.G.`.j.j.G.`.!.<.} <.!.G.7.j.`.`.`.G.!.Y.A./..X/..X!.`.Y.3.<.d.d.d.!.Y.A.j.j.j.V.!./.Y.j.!.#X`..X!./.!.`.!.!.V.!.#XA.&XA.G.;X/.c.!.G.!.Y.!.A.j.!./.p.<.3.+.! ! ! ! <.c.p.3.d.3.7.c.j.3.c..X#X!.Y.#X.X`.;X/.Y.#XY.<.r.V.!.A.j.j.V.V.V.c.d.r.d.r.r.j.Y./..XY.j.c.G.!.!.!.!.#XY.j.r.7.<.+...( } 4.<.p.<.*.7.j.r.<.3.*.} *.r.!.Y.j.x.j.j.j.j.<.p.j.j.7.3.7.j.A.!.`.c.} <.7.d.A.j.7.r.<.r.3.*.r.j.V.Y.<.<.p.j.j.3.r.A.c.d.7.p.V.j.j.G.d.3.G.`.V.c.Y.G.!.!.j.<.r.7.7.A.V.r.r.G.!.V.j.d.j.j.j.V.c.3.<.d.j.c.!.j.<...! ..<.r.7.Y.!.Y.p.r.V.d.<.r.p.<.<.+.! 3.!.Y.d.j.d.p.j.<.p.G.!.c.7.<.3.p.<.3.r.p.p.d.G.j.<.p.d.c.A.<.+.<.<.} +.<.*.r.c.c.} D p.!.j.d.p.<.+.} } <.<.+.<...<...<.r.*...<.3.} ! 7.j.7.7.c.d.p.7.r.r.<.} <.7.7.<.*.} ! ! ( ..3.<.p.p.( <.<.<.c...! r.j.3.7.<.3.<.+.<.7.d.j.!.d.( r.Y.r...( d.j.j.r.r.7.r.j.<.3.*...*.<.*.*.r.<.7.<.<.p.<.+...3.p.7.<.<.<.*.j.G.r.+.r.r.V.j.+.<.j.Y.j.<.<.7.7.r.p.d.r.p.d.<.<.<.<.<.3.p.j.3.j.j.V.c.j.j.<.*.r.j.d.j.A.d.d.V.j.c.!.!.c.j.V.c.d.d.r.7.3.*.+.<.j.p.<.3.3.d.G.A.<.j.Y.G.A.c.d.j.V.j.j.Y.A.j.G.Y.r.p.3.} ..+.p.3.3.r.r.r.p.r.c.*.r.j.<.} 7.j.d.A.c.*.!.G.*.( C D ! C J ( r.( p.l...R D ! +.<.<.3.p.j.p.<.<.j.!.p.h R G.A.c.c.*.3.p.<.+.<.p.3.<.7.j.<.d.!.Y.j.p.r.....<.c.G.G.!.#X/.Y.p.7.",
"j.!.!.$X!.V.<.~ o.7.1.p.j.7.0.a.j.d.d.j.c.d.p.c.`..X!.!.Y.V.d.A.!.`.`././..X!.V.G.G..X&X#X!.!.!.A..XA.p.j.V.G.c.p.A.j.j.j.d.j.d.j.V.Y.!.!.G.A.A.V.!./.Y.j.r.r.r.j.A.!.!.G.c.d.p.r.7.c.c.V.Y.!.!.!.!.A.c.Y.G.c.c.A.j.<.j.Y.c.j.<.3.!.!.c.j.j.A.!.!..X`.!./.`.#X,X/./.!.j.j.<.+.j.!./.!.V.j.c.A.j.Y.#X~.!.!.!.#X.X#X!.!..X&X!.!.;X!..XR w !.`.j./.j.V.p.V./.V.c.Y.3.R <.! U ! ! ..<.<.<.! 7.j.p.r.c.j.V.!.!.!./.`.#X/.`.!.!.`.Y.r.j.Y.!.j.<.j.c.!.A.r.7.<.p.d.j.j.Y.!./.G.j.j.G./.`.Y.Y.`.#XA.r.j.d.+.+.( U } <.<.} } *.r.p.<.<.<.<.*.7.A.n.V.G.Y.j.r.r.j.<.<.<.j.r.! 7.!././.c.<.r.3.<.A.j.3.r.r.d.3.+.<.r.A.Y.<.<.*.3.<.<.<.j.c.j.3.d.c.V.!..X!.c.A.Y.G.j.d.c.G.!.j.3.3.<.<.p.r.<.j.V.c.V.A.j.r.j.j.V.c.p.r.j.V.!.^.V.3.<.*.*.<.j.j.c.A.c.V.A.j.7.3.<.*.7.r.*.....Y.A.j.j.p.j.r.( <.d.G.j.3.r.7.j.d.j.j.7.r.r.r.3.*.<.3.*.*.<.<.7.<.<.<.+.+.3.p.d.<.+.<.r.p.3.<.! +.<.*.<.7.<.3.( *.+.} <.<.+.! ....+.j.!.c.M.A.j.d.j.r.d.j.<.<.r.r.<.<.<.+.( ..} ..*.*.r.7...<.j.<.<.} c.V.<.7.p.d.<.J +.j.p.V.!.G.3.<.j.j.} <.j.V.j.r.j.7.*.p.+.r.r.p.*.<.<.<.f.7.3.p.7.<.7.<.} 3.j.j.<.<.j.j.V.G.c.7.p.p.V.j.3.j.V.!.!.d.<.7.d.*.+.<.r.d.<.<.<.<.d.d.<.<.<.<.7.<.j.j.7.p.j.<.7.r.p.A.V.p.c.^.A.c.Y.V.j.V.G.G.j.d.j.d.j.j.7.<.j.p.r.j.c.j.A.j.V.j.G.!.!.!.V.j.j.j.d.j.<.<.V.j.<.<.r.<.! ( *.3.<.+.<.+.p.j.<.<.V.j.7.p.j.d.d.A.!.Y.c.j.*.! N ! U n J 3.7.<.r.j...N N J ..<.<.p.7.<.! n h c n h N <.c.c.p.3.<.R U ! <.3.7.p.d.j.A.d.G.`./.!.G.c.d.r.j.!.Y.!..X!.A.V.j.r.",
"j.C.N.!.`.!.j.<.+.5.1.j.G.j.j.j.A.c.j.d.j.j.j.V.`.#X/.`.!.Y.j.V.!.!.!.!./.!.c.7.j.c.!././.Y.!.!.j.V.j.j.j.<.<.3.r.A.V.c.c.b.A.V.j.V.Y.!.!.!.!.Y.c.A.A.j.d.d.j.j.c.j.j.A.!.!.!.A.p.3.d.j.c.!./.`.V.c.j.j.V.G.c.p.7.3.<.p.j.r.j.p.j.Y.j.d.j.j.V.!..X#X`.!.!..X&X.X&X`.Y.A./.A.r.A.!.!./..XY.A.!.j.!.!..X#X!.G.!.G.!.Y.!.&X,X&X!.!.#X;X! % f 7.c.!.A.A.p.j.!.V.j.c.*.N ( ( ..*.<.7.<...<...7.r.r.p.A.V.c.A.!./.;X5X`.c.p.3.p.V.V.c.A.!.!.j.<.d.j.Y.c.3.3.*.3.<.<.<.j.A.!.G.V.A.Y.!.`.!.!.!.!.G.j.j.7.+.+...} <.3.<.<.<.r.j.j.r.<.+.+.*.7.j.j.c.V.j.j.<.<.j.r.<.+.d.j.t.c.!.!.!.c.d.A.r.} p.j.c.j.j.p.d.p.7.*.3.c.j.*.r.d.<.3.<.7.j.V.<.<.d.j.Y.#X`.A.G.c.7...+.7.j./.U.j.j.d.j.j.r.r.j.j.r.d.V.c.7.r.j.V.V.j.j.V.G.G.G.d.<.+.<.<.3.c.A.V.j.j.j.c.r.<.<.3.3.p.c.j.<.7.!.G.j.j.j.j.<.! *.d.Y.Y.j.j.d.j.j.V.j.7.<.<.7.j.j.p.7.<.<.3.j.j.j.d.7.<.....+.*.<.<.<.<.3.<.*.*.*.*.+.3.d.3.<.<.<...! ! R U ! R ( 7.r.! ( j.d.d.7.7...*.3.+.<.3.7.<.*.*.*.+.*...+.} ..7.3.<.d.j.! ! ( j.A.p.r.d.d.3.! <.c.7.p.+.*.<.r.7.p.<.3.Y.A.p.3.p.p.3.3.j.j.p.j.3.<.<.<.*.3.3.7.r.j.A.d.d.c.V.V.d.r.j.j.d.A.!.j.p.<.j.j.7.x.Y.!.!.j.<.3.<.*.<.<.d.j.3.<.3.3.j.j.<.<.<.r.d.r.j.c.r.d.j.3...*.<.j.d.3.j.!.!.G.!.Y.c.G.Y.A.G.c.j.j.j.j.7.<.<.r.j.j.p.d.j.j.j./.!.j.3.r.p.<.r.j.j.V.7.<.A.j.7.r.j.7.} } *.r.3.<.r.3.j.p.7.7.G.c.j.A.A.r.<.r.j.7.<.<.} U v D } U ! 3.d.p.p.r.( C D ( <.<.<.7.j.3.( N n C ! ! *.r.p.j.d.7.*.R D U ..*.<.3.r.c.V.j.!..X/./.!.!.G.j.c.!.!.Y./.A.<.r.d.d.",
"l.!.G.!.`.#XW.g.p.p.<.u.C.N.j.V.A.V.p.<.7.j.V.V.Y.!.Y.!.!.Y.j.c.!.!.!./.!.Y.j.7.c.A.`.`.!.c.A.V.!.Y.j.V.V.<.*.<.p.G.G.j.j.c.G.G.j.j.A.!.!.!.Y.G.j.c.j.j.j.j.A.Y.c.j.r.p.c.Y.!.G.p.<.r.j.!.&X;X#Xj.<.3.c.!.!.A.r.3.d.p.j.r.<.j.G.Y.!.j.r.j.j.Y./..X/./.!.Y./.`.A.G.!.A.j.G.!.c.j.p.j.G./.c.j.&X.X.X!.#X/.j.!..XY.!.Y.G.!.&X&X!.!.j.;X`.s e ! j.&X&X!.j.d.Y.!.j.j.3.U ! ..<.*.<.3.*.! *.<.r.7.d.c.Y.A.j.c.!./.`.;XY.j.7.3.r.r.p.Y.^.G.j.7...7.j.V.G.j.j.<.r.7.7.r.j.V.G.Y.Y.!.!.!.!.Y.Y.G.Y.A.d.j.*.( ( ! +.<.+.+.d.j.j.c.V.c.7.....<.3.3.r.j.j.d.r.+.3.G.j.p.*.<.A.G.Y.c.V.Y.V.j./.j.} 7.A.!.j.j.d.A.!.Y.3.*.d.c.+.c.V.r.j.r.7.c.c.( ! <.<.r.A.A.A.Y.V.<.! +.p.V.A.G.V.c.j.c.c.p.d.j.d.r.p.j.d.<.<.p.j.p.r.j.j.A.G.Y.A.j.r.p.d.r.j.d.r.d.d.p.d.3.p.d.j.j.j.c.j.*.c./.V.j.A.G.j.<.*.*.<.r.c.A.j.7.d.d.j.j.3.+.<.r.3.j.7.<.<.*.} <.<.p.d.d.j.p.*...+.<.<.*.+.*.*...*.( ! ( p.c.r.<.<.<.( ! ! R ! } ! ..d.<.n N <.<.j.<.} ! <.p.*.+.3.p.7.<.<.<.*.*.} *.( +.<.*...p.d.R ! +.d.G.V.r.d.p.r.<.p.V.r.<.f U r.j.p.j.r.7.A.d.<.<.d.j.j.7.c.c.r.d.p.7.3.<...p.d.7.p.Y.!.j.p.j.j.A.j.r.r.<.*.j.!.Y.p.+.7.<...p.j.c.c.j.7.3.j.j.7.*.<.p.r.j.d.r.j.j.7.<.3.j.j.j.V.A.j.j.j.3.*.3.p.j.j.p.c.!.!.G.!.!.C.G.A.j.!.A.j.7.r.j.j.p.*.3.p.3.7.j.j.d.!.`...f k ! <.<.<.r.d.j.<.<.j.d.p.j.c.p.<.*.<.r.j.j.j.j.V.d.V.G.G.d.j.A.A.d.3.<.<.} ! +.+.! N D J J ! 3.j.A.j.7.*.! ! ..<.*.+.3.r.r.3.<.<.*...} <.7.p.V.A.d.<.} <.+.<.*.*.*.<.r.j.j.!.!.!.`.!.!.!.c.j.Y.G.c.c.7.<.7.j.V.",
"j.!.C.l.!.$X!.g.i.i.+.+.j.j.a.j.j.c.r.*.7.V.G.V.A.!.c.j.j.j.<.r.!./.`.`.!.G.V.V.c.c.!.Y.!.j.c.c.Y.!.A.j.j.7.3.p.j.Y.G.d.7.j.!.!.j.c.V.G.!.Y.A.j.c.V.c.j.j.V.Y.!.`.!.V.V.Y.!.`..Xj.d.c.Y.!.;X7X,X/.<.*.V.Y.V.j.7.r.j.j.r...! 7.A.A./.A.r.7.j.!./.!.!./.!.A.V.c.p.*.3.V.G.c.G.Y.j.c.A.j.V.d.<.!././.!..Xc.d.#X;X!.!.G.V.V.Y.!.!./.A.!.;XA.! <.j.7X,X`.G.j.Y./.d.r.<.! ! ..3.*.<.<.} ! <.<.d.p.j././.!.c.c.!.!.V.V.V.V.G.!.A.<.*.G.`.j.r.<...3.r.7.Y.A.A.r.d.p.j.Y.d.A.G.V.j.j.A.!.!.j.j.V.A.j.<.p.3.7.<.+.<.7.+.<.j.j.j.d.j.G.j.<.<.<.<.*.<.p.d.j.<.*.r.c.r.r.*.} !.!.Y.j.V.!.!.j.!.G.p.j.G.G.p.j.c.G.!.Y.7.} <.p.3.c.!.A.c.j.j.Y.Y...! r.r.7.j.j.j.A.A.3.*.7.j.V.d.c.A.V.j.j.j.j.j.p.d.V.j.7.<.<.<.r.<.*.<.d.j.V.Y.!./.Y.c.V.V.j.j.<.*.j.j.<.*.+.j.j.A.!.A.p.7.<.A.Y.j.j.!.!.A.p.3.<.7.3.r.G.A.r.j.7.<.3.<...<.3.<.j.r.*.<.<...} *.<.3.r.G.G.3.*.<.3.<.*...+.*.+.p.<...<.A.!.r.*.<.<.....<.<.<.3.*.<.<.<...! *.<.<.} ! ! p.A.d.7.j.c.j.7.<.<.+.( ;.<.*.p.<.} ( *.<.} <.<.<.j.j.<.3.<.<.+.<.j.j.j.w ! j.d.j.V.3.<.p.3.<.r.j.j.p.7.V.A.p.7.p.j.d.+.*.j.j.7.r.G.Y.7.j.j.j.V.j.p.p.<...7.!.!.j.*.<.! } r.j.j.j.j.j.d.d.j.j.j.V.A.A.!.c.d.j.j.p.r.7.j.V.V.Y.!.A.A.c.r.r.j.j.c.j.j.j.V./.A.!.!.!.!.!.A.!.G.c.d.p.j.7.3.p.p.r.<.3.d.<.3.!.A.N c <.c.Y.A.j.j.j.d.<.7.V.j.7.d.j.r.<.<...*.d.j.7.7.j.7.Y./.c.7.d.G.!.!.d.} } ! ..*.+.! N n N D ! ( <.d.7.+.*.} } +.+...+.3.<.7.7.7.p.r.<.*.<.r.d.j.j.7.p.j.7.<.<.<.<.3.<.3.d.j.Y.!.!.!.j.p.j.r.r.c.c.p.7.+.r.j.j.c.",
"a.N.7.>.j.~.D.} ! #.<.>.7.0.<.1.j.c.j.7.j.G.G.V.j.A.j.7.j.d.7.j.!.!.`./.!.Y.G.Y.j.p.j.A./.V.7.} ! p.!.G.d.2.3.j.G././.j.3.j.G.Y.A.A.A.G.Y.G.A.c.V.G.Y.G.V.V.G.!.Y.V.j.c.G.!././.V.A.!.Y.j.j.#X,X&X<.( 7.j.j.c.j.j.j.p.<.! R <.j.G.`.!.j.j.c.!.!.G./.#X`.!.j.p.j.! N d.7X!.h.G.A.`.&XG.G.!.7.j.d.V.!.!.j.A.;X#XY.V.j.j.G.!.Y.Y.!.!.j.c..Xj.d.c.;X`.G.V.p.A.!.<.} +.} ! ! <.<.7.3.! ..<...r.r.j.#X;X#X!.A.Y.A.c.G.!.!..X&X!.<...G./.j.<.*.<.r.<.( d.j.Y.d.p.<.r.V.d.Y.!.V.p.7.G./.Y.r.p.p.p.r.<.p.d.j.7.+.3.r.<.7.7.*.<.p.j.c.3.<.3.<.<.*.3.r.3.j.p.3.r.7.! <.<.*.Y.G.c.j.j.G.G.7.V.Y.Y.Y.V.c.<.p.G.V.d.7...! <.p.3.<.V.!.j.c.!..X.Xr.<.c.j.p.j.j.c.A.A.r.3.j.j.c.j.j.c.V.j.j.j.V.V.j.j.G.j.3.<.3.7.p.<.<.d.A.G.G.Y.!.Y.A.A.Y.G.j.V.r.<.j.V.<.} ( <.c.G.!.!.j.r.p.j.d.r.V./.!.!.G.<.<.d.j.r.j.Y.j.j.r.*.*.....3.3...<.<.} ( <.<.+.2.<.<.*.j.G.d.d.<.<.*.*...} <.7.j.r.r.j.!.!.r.*.<.<.*.+.*.3.<.+.<.3.*.3.d.<.<.7.7.<.*.+.<.r.7.d.Y.!.A.r.<.<.+.( 3.3.<.j.*.( ..*...<.r.<...<.<...3.*...! ! <.r.j.i ! r.7.c.c.<.<.3.7.r.j.j.<.+.7.!.Y.d.7.d.j.j.<.<.j.j.7.r.j.b.3.!.G.j.d.3.<.r.7.<.r.G.A.r...<.( *.j.Y.A.j.j.j.3.! } <.j.G.V.c.Y.V.c.c.j.r.u.3.d.V.V.A.V.V.V.c.d.c.c.c.j.j.V.V.V.G.j.A.!.!.`.!.Y.V.j.G.Y.G.j.3.<.7.3.7.<.7.p.<.r.<.<.N ! G.G.G.!.Y.G.V.j.r.p.j.d.<.<.7.<.<.7.<.<.7.r.*.<.d.r.!./.!.j.j.c.V.!.j.+.<.r.j.7.+.! C N D ! +.U J *.<.*.R ! } *.*.+.<.r.q.7.<...<.p.d.7.<.r.d.d.r.3.d.d.<.<.<.+.<.d.7.<.d.V.!.!.G.j.<.} <.3.3.d.p.<.<.*.3.V.c.p.",
"<.j.0.<.j.!.G.<.Y o.p.i.<.| | <.j.c.V.j.j.j.j.j.j.V.j.d.Y.A.V.!..X`././.`./.!.V.c.r.r.j.`.A.<.D U <.Y.!.c.7.<.7.V.!.#XA.p.j.j.c.c.V.A.A.A.A.A.A.A.Y.!.!.G.c.V.G.V.j.j.c.!./.!.Y.j.G..X!.3.<.A./.!.d.+.<.j.!.!.A.c.j.7.*.} ..7.j.!.G.j.c.V.j.A.A.j.!.#X.X/.G.A.!.<.J 3.;X!.j.G.c.!.;X/.G.`.j.j.r.A.!.!.Y..X&X!.G.c.d.j.!././.!.A.j.j.j.G.d.G.!.`.!.j.d.<.p.c.<...*.<.*.! <.<.r.7.+.<.<.! <.<.p.`.;X;X&X.X!.G.!.#X.X/.`.&X&XV.r.Y.Y.r.*.! *.r.<...7.V..XG.c.7.<.d.G.!.A.G.G.Y./.!.A.p.j.<...3.3.j.A.G.j.<.d.c.d.V.<.! <.j.V.7.! ..3.<.<.<.p.r.*.j.V.d.j.d.( r.V.V.c.j.j.j.r.7.p.*.c.c.!.!.j.c.<.<.j.j.r.<.! ! <.d.3.! j./.d.c.!./.;XV.<.d.d.<.j.c.Y.V.j.3.<.j.j.A.d.7.7.d.V.A.c.G.A.V.V.j.7.r.d.r.3.r.7.p.A.!.!.Y.!.!.V.c.!.!.j.<.p.p.<.r.j.r.3.<.+.!.!.!.!.j.r.<.r.<.3.A..X!.Y.Y.j.<.<.j.j.j.A.d.r.p.<.+.} <.j.j...<.p.3.+.<.p.3.<.*.<.<.d.A.j.V.<.*.*.*.( ! +.p.7.r.j.c.Y.A.3.*.*.<.<.+.} *.<.} <.r.7.3.<...<.<.p.3.+.( *.7.j.Y.!.Y.j.3.+.<.<.*.<.<.+.7.! ! +.3.<.<.3.r.<.<.*.<.3.<.<.<.*.*.<.7.N U 7.j.Y.A.d.7.<.3.r.j.j.3.<.j.!.j.3.3.j.p.j.j.r.j.p.r.p.p.p.<.A.V.d.3.+.+.<.<.<.p.c.d.+.R *.*.+.d.!.!.V.j.7.} +.+.<.p.j.j.c.V.j.V.A.p.<.<.<.r.V.V.j.d.d.j.j.j.A.c.j.p.d.c.V.A.j.3.j.Y.!.!.!.Y.j.j.G.!.Y.A.d.d.7.<.<.3.j.j.7.7.<.3.} <.j.j.j.A.j.v.G.V.7.<.<.<.r.7.p.7.3.j.c.j.7.d.3.r.G.V./.!.Y.j.j.3.<.c.j.r.<.r.j.<.! J J C D ! 3.} R <.<.+.R ! ( +.+.+.3.d.j.j.p.<.<.d.c.d.3.p.r.p.j.j.j.3.<.<.<.*.<.p.<.+.+.p.G.Y.!.A.r.7.7.j.p.7.<.+.<.*...Y.!.j.",
"#.a.V.N.!.G.!.!.<.#.j.D.5.] } 7.j.V.A.A.j.7.7.c.Y.!.V.d.Y.c.c./.;X#X/.!.!./.Y.j.V.p.<.<.c.j.7.<.<.7.A.Y.A.j.3.<.r.c.`.!.j.V.c.c.j.c.V.V.c.c.A.Y.Y.Y.!.!.!.A.A.Y.j.j.j.V.Y.!.A.j.j.G..X;XG.c./.!.`.!.r.<.j.!.Y.V.j.p.<.+.+.<.r.d.j.7.*.r.j.d.d.j.d.G./.!.!././.!.!.d.} <.j.V.A.c.Y.`.!.d.Y.j.j.<.V.`./..X;X.X!.!.Y.V.G.!.!.`.!.A.V.G.A.j.d.&X.X!.Y.j.3...<.d.3.2.<.3.<...p.j.j.j.j.j.d.*.r.7.j..X.X`.;X;X`.!.#X;X.X!.!.#X,X;XY.!.A.j.<.! <.p.p.r.c./.;X/./.V.j.A.!.!.c.G.!.!.!.j.j.d.!.d.+.<.3.V.Y.A.r.*.r.c.p.j.7.*.d.j.j.7.! ! <.<.<.<.p.r...r.!.A.!.V.<.!.;X#X!.!.G.!.A.p.p.d.V.p.!.!.j.A.<.! ..p.j.3.! ! +.<.d.<.j.!.r.r.<.7.&XY.<.<.3.<.V.!.G.d.d.<.+.3.7.A.7.<.<.3.c.!.c.V.V.j.j.d.3.j.j.r.<.3.j.A.!.!.!.Y.Y.!.A.c.!.G.3.} <.r.7.7.r.r.j.j.p..X!.V.c.d.3.} <.*.3.G..X!.V.j.A.p.+.j.Y.V.A.r.*.7.*...+.p.!.j.<...<.p.<.*.*.+.<.+.<.7.j.A.p.p...+.<.<...( +.3.r.j.Y.A.V.j.<.+.*.<.<.<.*.<.7.<.r.j.j.7.! ! <.<.c.p.+.} <.7.j.Y.Y.j.r.<.+.<.<.<.*.<...+.U ! ( r.j.7.<.r.3.p.p.r.} *.<.p.j.7.3.p...+.d.c.!.G.j.j.7.3.3.p.j.c.c.V.j.7.<.r.j.r.j.V.d.j.r.r.d.r.r.7.j.j.d.7.<.<.7.+.+.r.j.r.*.R *.<.7.j.!.`.V.j.r.<...} ( +.<.r.c.p.d.j.j.<.+.<.<.3.A.G.z.r.p.j.j.V.j.d.j.p.r.j.j.c.j.3.j.!.Y.Y.G.G.A.Y.!.j.p.j.d.j.V.j.7.r.j.j.j.<.( <.r.c.!.!.V.j.p.j.Y.Y.d.*...+.j.j.V.j.<.p.j.d.<.d.d.j.Y.V.G.j.r.<.r.7.r.V.j.j.j.d.c.<...! } ..D ! j.p.<.r.+.N ! ..} +.+.*.r.j.!.A.A.d.<.7.c.j.d.d.3.<.3.p.j.j.3.<.7.3.<.<.<.<.p.j.j.j.V.j.*...3.j.p.<...( ....! c.A.c.",
"g.l.W.!.!.j.j.D.p.| j.+XC.<.+.7.A.A.Y.!.c.<.7.!.!.!.j.3.c.r.d.!.#X.X!.A.V.G.A.j.7.r.d.7.p.*.*.<.j.c.!.!.!.!.V.j.j.Y.;X.XA.V.j.j.c.G.Y.G.V.V.Y.!.!.!.!.!.!.!.!.!.r.j.V.G.G.V.j.j.c.j.c.`.#X;X,X!.&X.X7.( r.V.V.Y.j.r.<.*.<.7.7.7.p.<.*.7.j.V.G.V.j.G.!.c.j.!./.j.`.j.n n r.d.3.j.!.j.r.+.G.!.G.+.7.!..X&X;X`.!.Y.!./..X/.!././.G.!.Y..XG.j..X!.!.j.p.<.*.<.p.3.3.3.7.r.<.c.G.V.V.`.!.A.d.j.j.G.;X`.!.`.&X/./.&X.X/.A.A.!.;X5X.X/.!.!.G.<.j.j.d.a.!..X;X!.`.!.!..X!.&X`.`.Y.j.G.V.3.r.#X/.p.<.<.A.&X!.j.<.j.G.d.r.j.c.!.j.7.d.*.} <.<.<...7.7.} r..X`.`.j...`.qX&X#X.X!..X.Xj.j.Y.A.3.!./.j.G.<.N ..c.!.j.*.( *.*.<.<.p.j.3.<.R ! Y.c.( ( <.3.!.,X!.j.c.p.<.<.3.A.7.7.r.7.j.Y.j.j.j.r.d.j.d.j.j.<.3.7.V.!.!.!.!.!.c.!.A.j.V.j.<.*.7.j.c.j.d.<.d.G.V.!.j.d.p.3.7...*.*.r.G.`./.j.<...d.*.p.G.j.c.<...3...( <.j.!.7.Y.<.<.j.d.<...+.p.} *.7.V.!.j.7.( ..*.<.<.<.<.<.<.d.V.j.p.r.*.+.! R ! } ..*.<...r.c.j.7.*...r.j.p.r.<.<.<.<.d.G.j.r.<.<.*.<.<.*.*.7.<.<.( *.! r.j.p.<.3.<.j.V.d.+.*.*.<.r.<.<.r.7.j.j.<.j.c.j.A.Y.j.p.d.j.T.G.7.7.r.j.j.A.j.V.j.p.d.7.r.j.p.d.j.j.c.d.3.<.7.r...} r.c.j.p.+.3.p.V.V.!.!.j.r.p.r.<.+.! ! ! 3.V.3.r.r.<.! ..r.<.<.A.!.V.j.j.j.j.V.7.r.V.c.c.V.j.G.d.<.j.G.c.j.j.j.c.!.!.7.<.p.d.p.c.V.j.j.d.j.!.j...<.j.A.!./.!.j.r.p.V.Y.j.<.} ..<.<.j.d...<.p.3.<.d.j.j.A.j.j.<.3...3.d.c.!.V.Y.Y.j.c.r.<.} +.*.( } G.!.j.A.<.n ! ..+.<.<.<.d.d.j.j.G.A.<.<.p.7.<.r.7.3.+.} 3.j.d.7.p.7.*.( ( <.Y.j.<.<.j.p.! D ( r.<.} ! ! } ( R <.3.j.",
"L.G.l.)._.p.0.D.l.Y ! j.N.p.<.i.V.A.A.Y.G.c.V.j.p.r.j.j.d.Y.V.3.d./.!.V.V.A.G.V.d.<.V.r.7.V.p.r.c.!.!.!.Y.Y.Y.!.G.G.Y.Y.c.d.j.A.Y.!.G.Y.V.V.!.Y.!.!.!.!..X#X/.!.c.p.j.!./.G.j.r.c.j.A./.!./.&X!..X.Xc...! 3.V.G.Y.j...*.r.7.p.p.7.<.7.p.<.d.!.!.V.Y.c.d.j.c.Y.!.V.j.7...7.r.p.d.G.V.<.r.G.#X.Xr.j.!.j.j.&X,X.XG.Y..X/.!.!.!..X#X.X.X#X.XA.!.Y.Y.j.<.<.7.p.p.<.<.3.3.7.<.7.!.!.j./.G..X#XY.!.#X5X;X.X.X;X.X/.&X#X!.c.j.!.;X;X.XY.`.;X`.j.j.A.d.<.<.G.&XV.j.`..X;X.X`.`.;XG.j.!.V.<.*.c.G.*.<.3.d.!.A.j.7.j.Y.j.V.!.j...p.j.3.! ! *...+.<.r.<.<.j.`.Y.c.3.N <..X#X&X!.!./.;X/.A.A.c.r.A./.j.<.N ! +.V.G.+.! ( *.N } *.j.!.7.3.<.p.!.Y.r.<.<.p.!./.G.!.!.A.V.c.c.V.c.V.G.A.j.<.7.p.j.j.d.<.3.3.+.j.7.j.V..XY.G./.!.j.j.j.6.j.V.G.7.7.7.3.r.<...} p.A.Y.j.r.r.7.<.+.<.<.+.r.A.Y.G.p.! 7.3.7.3.<.3.3.<.<.p.G.c.j.j.+.<.7...<.d...( ..p.} *.<.c.G.<.3.! ( } +.<.<.*.} ..7.j.7.p.7.r.p.r.( U ..+.<.*.<.d.p.V.d.<.<.<.*.*.( +.<.3.7.j.G.c.3.! ( <...<.+...7.<.<.<.( +.7.3.7.<.p.j.<.+.j.j.7.r.r.<.r.d.<.7.j.j.<.c.Y.d././.j.A.G.j.c.V.V.d.j.7.j.j.r.j.d.<.V.p.*.p.j.r.j.d.j.j.7.<.7.3.( ..3.G.Y.!.3.3.V.A.Y.!.j.<.*.<.p.p.3.<.<...<.j.<.<.p.7.<.p.j.p.<.j.Y.Y.j.j.j.j.3.*.r.Y.j.7.d.j.G.3.*.7.V.c.d.d.j.A.c.j.j.7.<.3.r.A.Y.j.d.j.V.!.!.3.*.7.j.!.!.c.c.j.s.c.A.p.<.! ! *...7.c.j.3.3.<.c.j.G.d.j.j.j.c.r.<.3.d.G.c.N Y.!.7.7.<.r.r.<...<.+.j.!.G.j.j...! <.r.j.j.j.c.7.<...<.c.G.j.7.<.7.d.j.r.*.+.<.<.7.p.c.V.d.<.*.<.p.3.( ! <.3.( ! 3.+.<.} D ! +.*.U ( <.<.",
"!.G.j.L.~.j.i.j.j.~ } <.+.1.j.D.!./.!.!.!.A.c.d.<.3.j.r.7.G.Y.j.V.`.Y.c.Y.!./.!.c.} 7.c.j.A.V.j.V.!./.Y.G.Y.Y.!./.c.p.j.c.V.c.V.G.!.!.!.A.c.!.!..X!.Y.!..X#X`.!.V.d.p.V.Y.V.j.j.j.p.G.#XA.j.#X;X;X,X/.3.*.r.j.A.!.p.} *.p.d.j.j.7.+.<.r.7.j.G.c.V.Y.c.3.7.j.j.j.<.r.r.! ( 7.c.c.c.G.V.!.!./..XA./.`.j.A.;X/.j.j.V./.!.A.G.!.#X&X&X#X.X&X`..XV.c.<.<.r.p.j.r.<.d.r.<.3.<.<.j.c.A./.!.`..X`.#X;X9X.Xj.<.j.`.;X;X`.!.Y.A.G.`.&X!.j.V.`./.G.!.!.c.p.<.r.V.d.j.#X#X!.qX;XY.#X;XA.j.j.*.a.!.!.d.j.j.j.j.7.3.p.V.A.V.!.d.J z <.d.<.! ..*.+.<.*.<.d.d.c.`.V.j.p.! <.G.!.Y.c.j.!.#X/.A.G.G.j.Y.!.d.<.( 7.c.!.!.7...( *.U R ..r.g.d.c.j.j.G./.j.*.<.3.r.j.V.Y.V.p.d.j.j.p.j.A.j.3.d.7.r.7.p.7.d.r.7.<.} j.G.G.G.!.c.c.j.V.7.3.r.<.7.j.j.<...+.*.j.d.3...<.c.!.G.j.j.7.<...r.p.<.3.j.c.j.7.! <.<.3.<.*.p.j.+.3.!.Y.d.j.j.7.<.3.*.3.7.( ( ..7.<.7.3.p.j...*.! ..*.<.<.<.*.} <.3.7.<.d.c.!.!.c.r.*.r.d.j.p.j.<.<.p.r.*.<.<.<.! ! ( ! ! *.d.j.7...U J ( ( 3.3.+.<...+...! <.p.<.j.j.j.j.*.( <.r.r.7.<.*.p.j.<.*.<.p.d.!.!.j./.G.A./.!.j.j.j.c.j.V.p.d.d.7.d.j.j.G.j.7.j.j.r.j.7.r.r.<.<.7.p.<.! 3.G.`.`.d.<.j.c.Y.!.j.<.<.3.d.c.d.3.*.! <.c.d.3.<.7.r.r.p.r.<.c.!.G.d.3.p.d.7.<.3.j.j.r.j.j.j.3.r.j.V.j.r.j.V.j.d.d.j.j.p.p.d.j.j.p.d.j.G.Y.c.j.7.p.c.G.A.d.p.j.j.c.j.7.*.! ! } <.j.V.j.p.p.d.j.j.c.<.7.V.V.j.j.r.7.r.j.3.h <.c.<.<.<.d.d.7.*.r.+.j.Y.j.7.j.3.} 3.j.!.Y.G.G.j...+.<.d.V.A.c.j.j.j.V.j.*...<.<.3.j.V.j.7.*.*.<.7.7.<.*.<.*.! ! R D ..+.R ! ( J c ( <.*.",
"!.G.g.j.D.j.g.j.j.<.<.<.~ 1.l.j.c././.!.`.!.!.V.3.3.p.<.<.A.!.V.!./.A.c.!..X#X`.Y.! ! /.A.A.G.j.j.!.!.V.c.V.A.G.;XV.<.<.j.Y.!.!.Y.!.!./.Y.V.!.!.#X!.A.Y.!././.(.Y.j.7.p.c.j.j.V.A.j.Y./.7.<./.;X!.;X;XA.d.c.c.G.!.<.( *.r.j.j.j.d.<.3.j.j.A.!.Y.Y.Y.V.3.7.j.7.j.D R +.U ! j.!.V.j.c.j.G.!..X`.p./.`.G.!.`.<.! j.j.G.A.V.A.G.!.!..X&X.X`.!.V.<.7.7.V.V.j.G.c.3.d.j.7.<.*.} *.r.j.`..X.X/.&X,X&X#X&XA.3.j.#X;X&X`.G.!.!.Y./.;X/.j.j.`.`.G.!.Y.V.Y.c.7.7.<.7./.j.y V.wX;XY.!.Y.A.c.3.c.V.G.V.A.c.j.j.3.} <.Y.`./.c.!.} n <.p.<.+.7.j.<.<.+.r.!.c.j.Y.j.d.j.<.r.j.c.d.7.7.A.!.V.r.<.j.V.!.!.c.G.A.#X!.&X;XG.3.! <.<.! <.p.3.V.!.G.j.p.V.j.<.<.7.3.r.p.p.<.<.r.d.p.r.G.!.d.*.j.V.V.7.<...<.7.d.3.*.c.A.Y..X#X!.A.3.j.<.+.*.+.<.7.p.<.! ..+.p.p.7.<.7.j.A.c.j.p.3.r.7.3.j.7.+.,.<.<.7.7.p.3.d.7.*.d.c.<.r.!.d.<.A.j.<.! *.*.<.<.} <.*.! ! <.+.<.j.7.r.( ..+.+.+.+...} <.<.<.! <.r.c.V.G.G.j.V.G.V.j.G.*.+.d.d.} } <.3.<...+.<.....<.r...+.<.} *.+.3.3.7.<.} ....( <.d.<.c.V.j.j.r.*.<.<.p.d.3.<.r.3.*.<.<.j.V.G.V.d.A.7.c.!.G.j.d.d.j.p.j.c.j.d.3.<.<.<.3.d.d.c.j.<.3.7.3.7.<.+.7.p.<.} <.p.!.!.j.p.V.c.!.!.j.<.3.3.7.j.d.7.<.! } d.r.3.+.r.c.p.r.j.j.j.Y.A.3.*.3.p.3.<.3.j.d.p.j.j.p.j.V.V.d.7.7.j.A.A.j.p.j.c.j.j.j.j.j.r.r.p.j.Y.Y.c.j.A.!.!.V.<.....*.3.7.p.r.<.3...7.j.p.7.<.<.7.j.j.c...<.V.V.p.7.3.r.d.j.d.N *.<.<.7.<.p.7.3.3.r.+.j.!.Y.7.7.<.! <.V.`.!.V.V.j.7.d.r.7.r.r.r.j.j.j.j.r.+...<.<.<.c.A.p.<...} *.<.+.*.*.} R U ! R N ..<.! ..} N N <.j.<.",
"j.G.j.1.i.j.V.G.p.<.a.j.5.a.j.<.<.!..X/..X/.!.!.d.<.<.<.r.Y.!.!.`.`.G.V.!.#X#X.X.X! x Y.G.G.Y.j.c.Y.G.j.j.V.G.!.;X!.j.j.A.A.A.!.!.!.!./.!.!.!.#XG.A.j.j.A.!..X.X/.G.r.3.j.j.d.A.!.!.!.!.p.j.!.!.p.j./.!.A.!.A.j.j.<.<.3.d.c.j.j.A.j.j.G.A.!..X.X`.Y.V.p.j.d.<.c.3.! <.*.d./.;X!.c.Y.V.V.Y.#X.X3.j.7.} <.j.<.<.`././.!.!./.!.!.`.Y./..X.X!.A.r.d.j./.G.p.c.A.d.d.c.p.<...} <.p.j.!.!.!.Y.`.;X!.j.#X;X#X&X;X;X#X.XG.!.!.!./..X!.j.j..X.XY.G.j.j.`.G.<.<.3.3.!.V.y ; N 3.r.V.!.!.c.c.V.p.B.Y.V.c.d.V.d.*.3.V.c.V.<.&XA.} *.<.r.j.!.`.<.<.<.A.;XV.d.j.p.j.j.c.!.!.!.j.7.<.p.j.r.<.} d.V.!.`.Y.!.!..X!..X&X!.d.( *.<.7.d.j.r./.`.Y.G.d.3.j.7.} 7.d.+.r.<.*.r.c.j.j.A.Y.V.r.*.d.j.V.r.j.j.r.r.j.3...c.j.Y./.`.A.p.<.V.7.<.<.<.r.j.j.7.( 3.<.3.<.3.3.j.V.G.c.j.r.7.p.r.p.Y.d.( ( ....<.<.<.*.<.+.! <.3.<.d.`.Y.A..Xj.! U ..*.*...<.7.+.( ..<.+.3.A.d.7.<.3.3.<.*.<.r.z.+.<.<.! } ..<.<.<.j.r.c.!.V.p.G.3.r.Y.c.( ! <.<.p.<.*.<.<.<.7.<.! 3.G.j.7.<.<.<.j.j.*...3.3.r.j.A./.Y.V.!.!.c.d.+.p.j.c.j.3...+.<.7.c.c.p.7.d.V.<.j.G.j.j.c.d.j.d.j.V.j.d.p.<.<.+.<.V.A.G.A.3.7.7.7.r.<.<.j.j.<.*.+.! p.j.A.A.!.`.#X.Xj.r.j.j.r.r.7.d.r.+.<.p.<.<...7.j.r.r.c.I.j.A.j.<.+.<.7.<.<.r.j.j.r.j.j.j.V.!.V.r.p.j.j.j.!.j.p.j.A.c.j.j.j.j.j.p.<.7.Y.`.!.Y.V.j.j.*.U N ! } <.3.j.j.3.3.r.j.p.3.r.3.<.p.j.j.j.! ..d.j.<.3.p.d.r.j.!.r.j.+.<.r.<.r.<.<.7.3.<.c.!./.j.<.+.( <.c./.!.j.j.j.<.7.3.<.<.! ! p.j.3.<.*.( ( ..( ..j.j.<.+.} ( ( ( ! ! ( R N N U <.*.7.r.+.*.*.! J <.r.+.",
"<.V.j.} } 0.j.j.p.+.7.G.j.g.l.a.<.Y.!.!.!.!.!.!.A.r.7.p.j.G.Y.!.&X#X!.V.G./..X&X;X*.k p.c.Y.!.Y.!./.!.c.c.Y.!.!.!..X#X#X/.c.r.p.V.j.j.V.G.G.A.G.j.G.G.j.c.!.#X.X.X!.d.7.j.d.p.c.G.!.!.#X!..X`.A.7.} p.V.V.!.j.R <.<.j.j.j.Y.V.j.Y.V.G.!.!.!./.!..X!.G.j.j.j.<.j.j.+.<.+.7.!.`.!.j.j.d.c.G./.!.<.r.7.} ( 7.r.d./.;X;X/.!..X.X#X.Xc.A.!.`.!.!.V.j.j.c.d.3.r.j.c.V.d.3.<.<.<.r.V.G.`.Y.G.c.V.!.c.;.A.#X&X;X5X,X;X/.!.!.!.!.!.!.j.r.j./..X!.!.c.d.V.j.<.<.j.d.j.!.Y.k a h ! 7.V..X#X!.Y.d.V.G.j.Y.j.j.G.!.`.c.! <...A.!.<...*.7.r.V.Y.*.+.<.A.;Xj.3.r.7.d.d.V.!.G.V.j.d.<.*.<.r.j.d.c.G.Y..X!.!.!.!.`.!.Y.c.c.<.+.! <.<.3.<.G.j.d.c.j.*.j.d.} p.j.+.<.*.*.7.j.p.r.j.!.j.d.j.j.d.G.j.G.&X!.j.c.<.( c.c./.Y.!.j.*...r.7.<.<.r.j.c.d.<.+.j.p.7.<.3.7.d.A.G.A.G.G.V.j.7.<.c.d.*.d.c.<.} r.p.<.<...! *.....j.#X#X/./.j.! ! *.<...( <.7.! *.<.r.7.j.!.j.7...*.<.+.} ..<.j...<.3...<.<.<.} N <.*.j.!.V.p.G.j.A.`.G...W *.....3.*.! } j.G.<.! p.!.d.<.*.<.*.<.j.<.+.j.V.V.!.Y.!.j.p.G.!.d.<.<.j.j.j.A.r...+.<.p.c.j.<.3.c.j.7.j.V.j.A.Y.j.c.V.j.d.<.<.d.7.j.j.j.!.c.c.!.j.d.<.3.p.*.3.!.G.7.<.*.! <.<.V.!.#X#X#XY.<.*.p.r.<.+...3.r.<.7.p.<.<.*.*.<.3.p.j.c.j.j.p.*.+.3.7.<.<.r.j.j.7.p.j.j.G.!.V.r.d.V.c.j.A.j.p.j.A.c.d.j.d.j.j.j.p.d.A.A.!.A.3.( ! ! ! ! ! ! +.<.j.c.3.<.3.r.4.<.7...! 7.j.j.d.( } <.p.7.r.V.V.d.d.!.j.7.3.3.<.<.p.<.<.3.j.V.Y.c.!.j.<.<.<.<.p.A.G.c.j.p.*.<.<.r.p.+.! <.7.+.+.*.! ! ! U ( <.<.} ( } } ( } ! ! } ! C N C ! ..3.r.<.*...! R <.7.*.",
">.j.j.+.<.j.l.V.j.>.5.!.C.p.N.G.j.Y.V.j.V.c.A.G.A.j.c.G.G.A.A.!.`.`.!.d.r.V.!..X!.c.*.j.j.j.G.`.`..X!.V.G.!.!.!.A.`.#X/.!.A.r.3.r.3.7.r.j.V.d.r.V.!.!.V.V./.#X.X`.!.j.d.j.j.p.j.V.Y.Y..XG.!.!.A.Y.<.<.j.V.!.j.c ! 3.j.j.j.A.c.j.A.c.G.!./././.!..X&X#XV.j.A.j.j.7.r.A.<.r.!..X.XV.j.j.`.#X`..XV.!.#X.XA.A.c.r.p.V./.!.Y./..X/.V.c.c.Y.!.d.c.V.G.G.p.7.V.Y.V.A.A.<.+.+.3.3.<.j.Y.#XG.G.V.V.!.Y.7.j.!.!./.&X;X&X!.!.!.!.`..X!.Y.A.G./.`././.A.r.3.c.V.p.j.!.j.p./.9X!.!..XV.G.&X`.`.!.j.p.d.p.!.!.r.A.#X/.V.<.j.<.*.d.>.<.p.p.<.<.3.<.<.+.d.G.3.+.3.<.j.j.G.c.7.3.r.j.3.+.*.d.!.j.A.G.c.!.!.!./.#X!.!.G.V.!.j.r.+.+.! +.<.7.+...3.3.+.3.r.3.j.j.p.p.j.j.p.d.j.d.p.d.*.7.j.7.<.j.p.c.&X!.j.A.p.+.j.!.#Xc.V.d.*...*.3.7.7.d.d.c.7.( ..Y.V.j.*...3.V.A.V.c.Y.!.!.V.3.<.j.d.*.p.Y.p.+.j.V.7.<.<...<.*.<.c.!.!.!.!.c...} <.<...} 3.3.! ( ..p.j.j.c.p.3.} *.<.3.<.<.<.7.<.3.<.} <.<.+.U D 3.<.c.!.j.3.j.j.Y.!.G.<.+.*.! J *.( ! ( <.r.+.} j.A.3.*.*.<...+.p.*.<.V.Y.G.!.Y.!.j.d.G.A.d.p.d.j.r.7.V.c.<.<.r.d.d.d.3.j.Y.7.+.7.j.j.G.Y.V.!.!.A.c.d.j.j.7.7.V.A.c.3.j.!.j.<.*.r.p...7./.G.d.j.p.+.*.%.d.`.#X/./.A.*...p.r.<.( R ..<.*.7.p.3.<.<.} ( r.V.c.j.j.j.3.+.*.3.7.<.+.3.r.r.7.p.j.d.j.V.d.+.+.r.c.G.!.Y.j.d.c.j.j.V.j.j.p.j.j.A.A.3.j.V.3.( ! ! ( ( N N U ( 3.d.7.r.r.d.7.r.7.D v ( 7.r.d.<.<.*.*...*.j.V.j.j.V.p.! r.3.3.7.j.<.p.j.!.!.!.j.A.j.3.r.7.<...<.d.j.d.+.7.7.<.7.j.j.7.3.+.! +.<.} ! ! ! +.*...! ! ( ( ! ..! ! +.+.R N n v ( 7.j.p.+.! D N } <.*.",
"+.7.j.j.!.`.!.#XG.p.i.!.!.l.D.W..X!.c.j.p.3.p.j.j.j.L.!./.!.Y.!.Y.!.Y.7.<.j.Y./.Y.!.!.Y.j.c.Y.#X`..X!.G.!.`./.!.!./.A.j.V.Y.V.j.j.j.d.p.V.!.j.j.c.A.V.c.V.!..X.X!.A.j.j.j.j.d.j.G.Y.Y.Y.+.j./.Y.!.j.r.A.A.A.j.J ! p.j.p.j.j.j.j.V.c.G.!.!.!.!.!.`.;X;X!.c.!.!.j.+.j./.3.j..X/.`.j.j.!.;XG.3.A.!.;X;X;X`..X&XA.r.3.V.Y.!.`.!.!.V.!.!.!.!.d.d.A.5X#XV.j.!..XY.V.d.<...} <.3.<.d.j.A.j.V.G./.;X&X!.!.`.!./.!.`.#X!.Y.!.!.#X;X;X#X.X`.`.`./.!.G.j.3.d.A.c.j.`./.d.c.c./.wX;Xj.c.Y.j.G.V.7.<.j.d.!.;XA.j.V.j.j.3.j.! <.r.3.c.j.r...! *.3.3.*.r.d.*.<.<.<.V.c.A.c.d.p.<.G.A.p.<.j.E.<.j.A.d.V.j.d.A.G.c.Y.!.!.#XG.c.d.<.+.7.d.<.<.*.*.<.<.<.d.j.3.7.j.p.c.j.<.<.d.d.7.p.3.j.c.j.j.!.j.G.`.A.j.!.A.7.p.!.Y.r.<.*.<.*.<.j.V.j.d.3.j.r.....V.j.j.<.! <.!.!.A.j.G.!.Y.j.<.j.Y.j.! ! d.d.3.V.A.3.7.j.d.j.G.V.A.!.Y.!..Xc.} } ..+.*.<.3.<.*.<.*.p.j.p.<...+.<.*.<.<.7.3.<.+.1.3.<.! *.<.} D ..j.p.A.!.j.<.7.d.V.Y.!.j.*.<.<.<.7.+.r.j.<.<.7.<.j.r.+.<.r.j.<.<.<.*.3.c.c.A.Y.V.j.r.d.A.j.p.c.V.V.d.d.G.G.p.3.3.7.<.p.d.c.Y.<.R ! 7.c.Y.Y.A.!.`.`.`./.!.A.7.<.A.!.j.r.A.`.c.*.<.d.p.( <.V.j.j.c.j.r.<.<.r.!.j.N ! <...<.c.A.j.+.! <.<.*.3.p.7.<.r.<...p.G.A.V.j.d.7.<.<.<.<.<.*.7.p.p.7.r.j.3.3.3.<.} ! <.c.!.!.!.j.p.j.z.j.A.A.c.j.j.j.Y.Y.3.! j.p.<.*.+...! N N R } *.<.7.j.7.r.3.r.<.n s N ( +.7.r.d.*.( J <.j.r.<.3.p.j.<.p.r.j.c.j.<.j.!.3.R <.p.V.c.d.p.7.<.+.+.<.d.p.( 7.<.*.7.A.!.A.j.*.R ( <.+...<.+.*.} ....! ( } ! } } } *.<.! N C } r.j.j.7.( U N D +.7.<.",
"+.<.j.!.!.V.0.V.`.V.i.D.).!.~.!..X!.j.j.7.<.p.j.V.G./.`..X/.c.j.A.!.!.j.r.A.!.`./.A.G.j.V./..X&X/.`.!.!.#X;X#X/..X.Xj.<.j.!.!.A.A.V.j.r.j.!.V.j.!.V.j.j.j.j.c.c.A.j.j.c.c.j.j.j.G.!.!.A.J j.;X!.d.c.j.Y.A.j.j.<.<.V.j.d.c.j.j.V.A.A.!.Y.c.j.A.!.!.#X&X!.V.G.!.c.! r.j.} j.;X`.#X`.!.`.&Xd.^ u.d.!./.;X&X/.!.j.<.r.j.c.!.!.V.G./.;X&X#X;X!.j.j.;X&X!.j.c.c.d.j.p.<.*.} <.r.h.V.d.p.p.c.!.#X;X/.!.,X#X/.`./.`.;X.X/./.`.#X&X&X.X!.!.!..X.X!.!.V.j.p.r.G.V.j.c.V.`.`.!./..X!.G.G.G.j.7.*.r.`.A.G.;XA.+.7.V.A.+.3.<.<.<.<.V.d.r.7.<.<.3.<.<.j.p.<.j.7.7.V.<.*.r.d.p.<..X#XV.r.c.A.! p.A.j.c.r.7.j.j.d.j.G./.;XY.j.7.<.<.d.j...r.3.+.<.<.3.j.j.*.<.d.3.r.<.} <.p.j.j.p.j.A.c.G.!.#XV.!.`.!.!.`.!.G.G.j.j.d.7.<.d.<.3.j.G.j.<.! 3.3...+.p.<.j.j.<.<.c.!.A.c.!./.!.A.3.<.c.V.*.<.A.j.<.d.p.! } r.<.p.Y./.G.Y.d.j./.d.....( ..<.3.<.<.7.<.( <.j.d.<.<.d.p.*.! } <.<...! <.3.<.! <.3.<...+.j.7.V.!.c.p.j.<.j.Y.`.V.+.<.j.<.<.! <.j.<.+.r.7.r.( R <.c.`.j.<...+.p.j.d.A.Y.!.j.3.d.Y.j.d.!.G.G.A.!.`.A.p.d.r.r.<.d.p.r.j.} R R <.G.!.!.A.!.`.`.!.Y.A.d.7.p.!.#XY.c./.#XA.3.<.p.7.! +.p.3.A.j.j.d.r.j.j.A.! h U r.p.d.c.d.3.+.! <.3.+.<.<...<.j.p.<.3.j.j.V.p.p.p.r.3.<.<.<.<.j.j.j.r.3.r.<.( } <.7.<.p.V.G.<.j.j.d.j.j.p.j.j.G.!.G.j.A.!.d.<.!.A.3.<.<.<.} ! R *.7.<.<.r.c.3.<.<.p.p.! N ! ( ..3.d.V.j.r.*.r.j.<.<.7.r.V.c.j.r.j.G.V.7.G.`.h 2 i ( j.A.V.j.d.c.j.7.3.j.c.<.p.<.r.!.#X`.!.Y.p.! R +.*.<.3.*.! R } <.*.+.<...( *.*.*.<.! U ( <.3.<.+.! H ! R R ..<.<.",
"+.*.j.!.j.*.*.<.!.G.j.j.Y.!.!.Y.!.3.7.j.V.<.<.j.V.!..X#X`.A.p.7.V.!.`.!.c.A.!./.!.!.G.r.j..X`.`.!.G.!..X#X&X#X!.!.#X!.V.Y.!.A.A.Y.V.V.j.d.c.!.Y.!.V.V.A.c.d.r.r.d.j.G.Y.j.p.j.j.!./.`.!.7.V.`.`.Y.d.r.j.c.V.j.7.c.c.3.j.j.j.A.G./.!.!.!.d.3.!..XN.A.!.`.c.j.Y.c.N J ..7.c..X!..X.X5X.Xp.p.j.!.<.j.c./.;X!.j.j.r.p.j.!.!.!.!.!.;X;XV.p.Y.j.<.<.} N N v R d.V.j.7.3.<.3.p.p.Y.A.G.V.j.j.p.Y.G.( *..X&X!.$X;X#X;X#X#X;X;X;X;X!.!.`./.!.;X;X!.!.`.!.j.j.j.3.p.c./.!.`.#X!.!.!.V.A.G.j.*.+.d.;X;X#X#XY.*.*.d.p.<.<.d.} 7.7.j.d.*.<.<.3.r.3.r.3.p.j.!.!.j.D.<.| i.5.a.j.0.7./.<.<.!.7.<.r.d.d.p.r.r.p.r.7.j.G.!.V.d.j.<.3.<...! ( *.<.+.<.j.r.<.<.( <.*.7.d.d.r.<.r.c.c.j.d.3.j.c.!.!.Y.A.c.A.!..X#X!.d.3.<.p.7.7.j.3.7.d.p.} *.p.<.<.<.j.p.G.c.+.<.p.j.c.Y.Y.!.&X!.r.<.7.r.3.p.A.j.*.+.+.! n D ( *.V.!./.V.G.7.<.d.<...+.! *.3.*.<.7.+.! } r.*.} j.d.3.! ! <.3.( *.! *.<.*.! D <.j.! J *.7.c.!.G.G.!.j.d.G.!.j.<.<.3.+...U ! } ( <.p.d.7.! J <.j.!.V.d.<...r.j.j.c.j.V.j.+.} <.<.d.Y.A.!.A.c..XY.V.d.V.c.3.<.j.r.<.! +.c.c.V.G.!.A.Y.!.A.!.!.3.j.!.r.G.A.<.r.Y..XA.j.<.<.d.*.<.7.j.j.j.p.V.j.p.<.7.j.p.j.!.Y.j.d.d.<.} *.r.<...<.<.} 3.d.3.<.j.7.p.j.d.p.r.7.<.+.<.p.d.p.d.d.p.j.d.<.( ..<.*.r.3.c.3.c ( 3.j.j.r.p.j.<.j.G.j.<.<.7.j.V.!.d.p.^ ! <.! D U U <.Y.c.V..XY.j.c.G.c.r.*.<.<.r.!.Y.c.A.j.+.*.<.p.7.3.j.j.<.<.<.p.!.G.7.p.G.} 7 1 R j.V.r.3.A.A.G.G.V.c.j.j.r.3.p.!.!.`.&Xd.+.! ! +.+.3.7.} ( +.} p.7.<.3.*.} ..*.<.*.! ! *.3.R R ! J ! +.R ! } *.<.",
"+.<.j.V.p.7.j.c.!.Y.j.V.Y.!.!.A.p.<.r.c.A.r.7.r.j.Y././.!.Y.A.Y./.`..X!.!./..X/.`.`.Y.j.V./..X;X!.Y./.&X#X/.!.G.G..X&X.X`.!.G.!.!.!.!.!.c.V.Y.A.!.c.j.V.Y.j.3.<.c.j.V.G.j.r.p.p.V.!.&X&XG./..X.XG.j.p.j.j.j.j.d.j.c.j.c.j.V.c.A.!.!.!.`.c.<.c.`.V.A.!.`.c.j.G.A.R J U <.p.j.d.G.`..Xj.! <.V.;X#X! h p.5Xj.<.p.+.*.s.Y.A.V.A.A.!.#Xj.3.<.! 3.c.N e k D <.c.j.7.<.<.3.r.j.r.G.!.!.G.j.G.!.;X5Xj.<./.;X.X!.`.;X5X!.`.;X;X;X#X#X#X#X`.#X&X`./.;X5X#X`..X`.A.Y.A.G.G.p.!.!.!./././.Y.A.<.<.d..X#X.X!.`.V.7.<.<.<.<.+.r.j.3.r.3.( <.r.j.j.<.<.+.<.r.V.j.1.V.l.a.a.<.j.C...C C.C.<.r.*.U ;.p.j.j.j.j.r.4.p.r.7.c.c.j.G.j.j.7.<.*.+.*.<.! <.j.3.<.7.+.+...3.r.p.j.7.<.d.j.<.p.j.c.j.c.Y.j.j.c.!.`.#X#X!.!.d.<.7.r.d.j.7.3.7.3.+.3.j.r.j.G.!.A.Y.j...+.<.V.G.G.A.!..X`.V.3.<.<.+.} <.<.*.*.3.*.R ! } +.p.;X!.j.j.<...7.3.( } ! *.r.<.#.! ! ! ( +...! <.r.<.*.r.r.3.} ! ! <.<.*.R J 3.c.<.U p.c.c.A.G.G.V.j.j.A.!.j.7.3.<.<.<...+.+.( ....p.3.*.( *.<.j.d.G.j.<.r.j.j.j.3.j.c.<...<.7.d.j.V.Y.j.p.!.!.Y.A.Y.j.d.r.c.r.*...j././.!.j.V.G.!.Y.j.A.j.<.j..XA.A.j.+.<.c./.G.Y.p.r.c.r.<.3.r.r.<.d.Y.j.d.3.d.A.c.d.<.7.j.<.( *.<.<.3...( <.<.( } <.<.<.j.<.<.d.j.j.j.j.d.p.p.d.p.r.p.d.r.p.j.j.<.<.d.7.d.<.p.<.h ! <.j.j.7.p.j.7.p.c.d.*.<.j.7.c.A.3.+.U U } *.! C J r..X.X/.,X!.c.V.j.<.<.<.r.3.r.j.d.7.j.d...} d.c.<.<.r.7.r.d.7.j.V.j.r.7.Y..XD h <.j.j.<.<.V.A.A.V.V.c.j.c.G.j.7.c.!.#X;XV.! ( *...} d.j.} *.r.+.3.<.<.<.<.( } +.<.+.R U +.<.( R U ! *.<.! +.<.<.<.",
"..<.j.d.7.j.G.A.!.G.j.V.Y.Y.!.A.c.j.A.G.Y.c.c.j.j.G.!.!.!.!./.&X&X`.!.!.!.#X#X!.!.Y.j.j.G.!..X&X&X/.Y.!.`./.!.Y.V.Y./.&X#X!.G.Y.^.!./.`.!.Y.!.Y.A.j.3.p.A.V.j.j.j.r.j.V.d.<.<.r.j.G.!./.!.`.#X&X!.j.<.7.j.j.j.j.d.j.Y.!.G.G.3.p.7.A.!.#X!.j.A.`.!.!..X!.c.A.!./.r.<.( c.G.d.r.j././.c.} 7.Y.&X5X! 4 ! `.<.*.<.! ! r.V.p.7.j.Y.#X;X.X!.d.<.!.9X3.V.;X5X5X.Xd.<.<.<.<.<.d.7.A..X#X!.!.,X&X;X9X;X,X!.;X&X&X.X&X,X!.`.;X;X`.`.;X;X#X/..X!.&X;Xd.d.&X&X;X#X`.;X!.d.3.p.!.!.!.`.#X;X#XG.3.*.<.G.!./.G.!.!.7.+.<.p.j.d.j.j.*.<.p.+.+.3.j.j.<.*.<.7.<.*.0.+.j.!.~.G.p.j.C.j.! p.Y.r.<.| D +.d.V.G.G.j.<.<.r.<.<.j.j.j.c.j.j.j.7.<.<.<.<.( 7.d.<.<.3.*.} <.p.r.p.c.r.+.<.A.c.A.j.p.V.j.j.j.j.c.`.&X&X;X/.!.j.<.7.p.j.V.j.c.j.j.<.3.j.j.Y.`./.!.Y.c.r.r.j.G.A.j.r.j.A.A.c.<.+.<.<.( ! ( } r.V.p.*.*.+.<.7.#XG.r.p.} ( <.} R ! ! <.d.p.<.( ( ! } ( ( ..*.7.<.3.d.*.*.*.! } 3.7.3.} ! 7.d.3.3.A.Y.!.!.Y.V.j.c.j.j.V.c.c.j.7.j.r.<.*...( ..} ..<.3.+.! R r.c.A.Y.j.r.j.c.c.j.V.A.j.7.r.j.c.p.j.c.d.3.V.V.G.Y.G.3.j.j.G.j.+.3.j.!.!.Y.p.V.Y.!.A.p.j.p.<.j./.A.A.j.p.j.!..Xc.V.c.r.p.7.p.r.3.*.<.V.!.V.j.<.<.7.p.<.! <.z.r.<.j.d.d.7...+.d.r...} *.<.<.j...+.3.7.d.j.d.j.c.c.j.p.d.c.A.j.p.d.j.3.<.7.<.<.} 3.<.} <.7.j.7.<.7.p.A.j.j.p.*.d.V.*.3.3.} N N R R *.! N U j.;X#XV..X#X!.V.r.<.3.7.p.d.j.Y.j.3.d.d.<.r.!.!.7.7.j.r.p.j.d.A.c.c.c.p.!..X*.R 3.d.r.+.<.j.j.p.r.j.c.V.!.!.Y.d.c.!.!.!.j.<.3.7.+.+.c.V...7.A.p.j.j.r.<.<.+.+.*.<.*.! R } } +.R N D U J J R } } R ",
"..7.c.j.j.j.A.V.A.A.j.c.G.G.!.G.G.V.G.V.A.V.F.c.j.Y.!.!.!.!./..X/.Y.A.G.!.#X`.V.V.c.p.V.!./..X!.`..XG.j.!.`.!.!.Y.j.j.!.`.!.Y.A.G.A.!.`.!.Y.!.!.G.V.p.7.j.p.r.V.d.<.p.V.j.<.3.j.j.j.d.j.Y./.`.#X/.j.<.<.d.j.j.c.p.<.j.A.Y.V.! J <.G./..X`.!.!.!.A.Y..X!.G./.G.d.+.r.*.!.;XY.A.j.j.j.!.j.G./.!..XG.n <.!.j.<.! } ..j.V.d.r.j.G.#X,X7X#X!.!.!.,X!.!.;X5X;X!.d.d.A.<.} ..<.3.j.d.A.`.;X5X`.!.;X;X;X;X!.!.;X;X/.#X.X`.;X#X!.!.`.`.^.!./.c.;X`.h h !.,X;X;X.X,X`.G.c.Y.!.G.!.!.A./.;X!.j.<...j.Y.!.!.!.Y.<.<.7.<.d.j.7.j.3.p.c.3...<.<.3.<.<.d.c.3.! 1.#.i.V.~.`.V.j.d./.j.a.A.d.<.#.} <.d.j.A.!.A.7.<.<.3.A.Y.A.A.d.j.c.V.j.r.<.+.+.<.j.d.<.*...<.+.<.3.3.r.j.p.<.3.G.A.j.V.p.Y.!.j.c.c.V.`.#X!.`.!.G.j.r.d.r.7.r.7.A.c.V.7.<.c.!.`..X/./.Y.c.j.j.A.G.Y.c.j.c.j.r.3.<.<.d.V.7.+.*.+.d.Y.d.*.*.*.7.j.V.c.c.j.<.<.<.U ! } +.7.r.3.7.<.<.! +.} ! 3.7.3.j.d...D } <.! } r.r.p.*.+.3.3.r.G.j.p.!.;X!.V.Y.V.p.r.j.c.V.V.j.c.p.<.3.7.+.! ! ! 3.c.r.! } c.!.G.!.j.<.3.7.p.j.V.j.p.j.p.d.c.j.j.G.Y.j.c.j.V.Y.d.<.d.j.!.A.r.7.j.V.A.c.d.A.A.G.V.j.c.A.j.Y..X!.`.!.!.A.Y.!.3.<.Y.j.p.p.V.c.r.3.d.Y.Y.Y.Y.r.+...*.*.} +.3.j.c.p.p.j.r.+.<.c.j.3.*.*.*.*.j.<.<.7.j.V.j.7.7.j.j.d.r.d.j.j.d.7.3.3.3.+.<.*.<.} <.<.7.+.*.<.<.7.c.c.V.p.p.<.*.j.c.! R R ! z v ..R ! ! U } j.;Xj.N r.;X!.V.7.<.p.j.j.j.j.A.d.<.<.<.+.j.!.!.j.r.j.j.r.7.j.A.V.G.A.d.c.V.3.7.j.j.p...<.c.V.d.d.A.Y.!.&X!.!.G.!.G.7.<.<.*.<.7.<.*.r.d...} 3.<.d.c.p.+.+.3.r.<.<.*...} ( ! <.} J ! J N ! D R ! J ",
"d.G.!.G.c.j.j.j.V.V.j.j.c.V.Y.G.j.j.A.A.Y.G.!.V.j.G.!.!././.!.!.!.A.V.Y.!.`.!.j.V.A.j.G.!././.c.j.`.`.V.G.!.!.!.!.d.p.!..X`.!.A.V.V.!./.!.V.c.j.V.Y.V.h.j.r.<.p.d.3.r.c.j.p.d.c.j.r.7.d.Y.!.!.!.V.j.r.r.p.7.p.Y.c.} 7.j.!.!.<.! V.!.!.!.!./.&X`.A.G.`.!./.`...r z <.r.`.;X`.`.Y.7.*.c.j.A.!.V.j.G.j.A.!.c.+.U ! } 7.p.j.V.c.V.!.#X;XY.V.!.p.c.j.r.!.&X.XY.7.<.r.} ! +.7.j.j.D C /.;X&X!..X;X.X!.7XY.j..X&X!./..X;X#X`.`.!.!.!.!.!./.G.#XA.C ( ;X;X;X;X`..X/.#X`..X!.A./.`.A.!.;X#X/.j.*.j.V.!.!.!.G.<.r.j.<.*.<.<.c.j.d.j.7.*.<.*.7.7.<.d.c.d.<.>.1.<.#.p.!.W.a.<.c.j.j.A.r.<.3.<.<.<.3.d.Y.!.c.<...<.!.`.V.j.p.j.3.3.j.p.+.( <.+.p.r.7.*.! *.3.<.<.3.p.d.p.7.3.c.r.+.G.j.d.j.d.A.G.A.`.`.V.A.j.d.7.p.j.p.3.3.7.j.r.C.j.<.j.!.!.!.!.!.A.c.A.j.c.j.c.V.A.Y.j.<.( <.<.7.p.<.<.<.<.3.V.7.*.<.<.r.j.<.p.Y.j.<.+.} R } } +.3.<.*.r.p.<.! +.( } d.r.<.V.r.C C *.3.<.<.7.7.7.*.*.r.d.A.!.d.<.V.`.A.j.j.j.7.r.j.d.7.p.d.p.<.<.j.G.<.J J ..7.c.d.+.<.j.G.!.V.<.( *.<.*.r.G.j.j.j.p.d.V.j.p.c.!.j.j.p.j.j.<.<.3.d.!.!.Y.<.j.V.c.j.j.!.c.A.G.A.!./.Y.!.!.c.!.!.`.c.j.j.} U A.!.j.j.A.j.r.V./.`.!.!.`.c.<.<.<.( R ! *.p.3.( <.7.<.( *.j.A.j.p.<.+.( V.p.r.r.V.V.d.<.<.d.j.d.j.j.d.3.<.r.r.7.*...<.r.j.3.*...<.( <.r.3.p.j.p.d.r.7.<.3.c.j.! n n } D J *.! J ! <.7.j.!.U q +.;X!.V.r.<.7.j.Y.Y.j.r.3.3.7.} U 7.p.c.j.*.3.c.d.7.A.A.!.!.V.j.r.p.r.V.V.V.j.<.r.A.G.c.c.!.G.A./..X!./..Xj.( ! <.+.<.j.j.+.} ..! U U J <.d.r.*.*.3.j.p.<.+.<.7.*.D ! ! ( 3.+.U ( ! ! ! ! ",
"A.!.!.Z.j.p.r.j.V.V.j.j.j.j.G.G.G.c.Y.!./.!./.Y.c.A.V.V.!.`.{././.!.!.!.`.`.Y.j.V.!.!.A.c.A.G.j.j.#X&XG.Y.`.`./.!.j.j.!.`./.!.c.j.c.Y.!.!.V.j.p.j.A.V.j.V.V.j.j.j.7.3.d.j.d.7.7.d.3.<.3.j.c.c.j.d.j.d.d.j.r.r.G.j.+.j.V.!.&X&X`.#X!.!./.!./..X`.!.A.!./.&X&X} 5 f r.!.#X#X&X&X#Xc.<.d.d.V.Y.j.<.+.r.p.j.r.<...R ! } ! <.A.c.j.A.!.&X!.V.j.<.A.d.7.`.;X.X!.j.j.c.<.*.<.<.j.!.+.! /.;X`.!.;X#Xc.<.!..X&X#X`..X.X.X;X`.`.`.!.!.!.!./.!.!..XV.j.;X5X;X/.!.G.!.~./.A.G.Y.!.;X7X;X&X;X;X;X!.r.p.p.j.A.V.c.3.j.!.j.3.*.<.j.r.+.3.d.7.<.*.d.c.r.p.d.j.p.+.j.p.} +.j.G.j.#.3.r.r.p.<.r.c.r.+...*.<.d.G.Y.p.7.+.d./.c.<.d.7.<.*.<.3.r.7.<.! +.<.r.<.! +.r.7.3.d.V.j.j.d.7.!.c.7.Y.c.r.j.r.c.G.A..X`.G.!.j.3.*.<.p.j.j.p.j.j.*.j.j.<.p.j.j.A.G.!.G.G.!.Y.A.<.r.p.p.r.3.*...<.*.*...} *.<...<.j.j.r.p.<.<.7.*.r.!.j.<.} } <...! ! +...+.r.3.<.*.+.! <.j.<.3.A.p.! *.7.<.<.*.<.3.7.<.3.p.j.G.V.j.7.p.j.c.j.p.j.j.V.G.d.+.<.j.d.*...7.j.<.! ..r.<.<.*.} <.3.j.!.j.<.*.<.<.*.d.Y.Y.V.j.p.j.A.j.3.r.j.3.7.r.p.3.*.p.<.3.A.!..X<.<.j.G.Y.A.G.7.p.!.Y.!.!.Y.c.j.p.A.!.&XG.A.A.3.! j.!.j.j.A.c.j.!.;X.X!.Y.Y.A.p.c.d...! <.G.Y.+.! 3.d.<.} +.7.j.j.7.*.X.U c.V.c.j.d.d.7.<.<.p.j.c.A.Y.j.3.7.j.d.7.} } <.p.V.j.<.+.<.<.j.j.7.7.7.3.d.j.d.r.j.c.7.! N n <.<.*...! ! ( j.c.3.<.h q r.;X!.G.j.p.d.d.j.c.p.7.3.r.d...C 3.<.3.7.} <.j.3.7.j.j.G.G.j.c.r.<.<.A.c.V.c.j.Y.!.Y.j.j.j.j.c.!.;X/./.#XA.+.( <.( ( <.<.+.<.p.<.( ! R 3.j.d.<.<.*.j.d.<.} <.c.d.+.( ! 7.Y.j...R ( R R ! ",
"p.Y.!.c.j.j.j.A.c.V.j.c.j.j.G.Y.!.!.!.Y.!.!./.V.V.G.V.j.A.!./.`.`.!.!./..X`.Y.j.j.V.!.c.d.c.A.c.!.#X/.V.G.`..X`.!.A.A.!./.!.V.d.c.A.G.Y.Y.G.c.j.c.G.A.j.c.!.!.G.j.j.p.r.r.3.<.+.<.+.<.*.<.<.d.7.j.j.r.r.c.j.p.A.d.<.j.c.c./.9X!.;X#X`././.!.G.!.!.V.Y.#X&X;X!.U h 7.!././.#X/.&X!.j.c.V./..X!.j.+.<.7.p.3.j.V.;.} ..! +.d.7.3.j.A.`.&X!.j.<.!.j.A.,X,X.X!.!.`.&X!.G.p.<.3..X`.c.!..X/.&X,X#Xj.! +.`.wX,X#X#X.X.X#X`.!.!.G.!.`.`..X!.!.!.V.G..X!.,X!.V.c./.!.G.c.d.j.V..X7X,X;X#X&X;X;XA.7.<.d.d.c.V.d.p.c.V.d.<.3.j.r.*.7.V.j.r.<.j.V.r.d.p.j.p.<.j.j.7.5.0.j.j.*.<.r.1.<.<.j.!.j.<.3.d.<.<.j.G.j.V.7.3.!.!.d.j.p.j.d.<.<.j.j.<.R ( ..r.d.<.*.<.p.t.d.c.A.V.j.j.Y.Y.!.Y.Y.G.G.V.j.A.j.!./.Y./.j.r.*.<.r.j.j.r.d.j.} <.7.3.d.r.r.A.Y.!.!.Y./.!.j.7.d.j.3...+.7.d.7.p.3.*.<.<.*.( +.r.j.j.j.r.*.3.r.j.G.p.j.j.r.j.r.<...} ! +.7...+.+...! <.r.<.7.7.<.*.d.<.+.+.<.3.7.r.r.3.<.7.3.<.7.<.3.p.j.G.c.c.A.!.!.j.<.r.A.c.*.+.*.+.+.+.<.p.7.*.} ( *.<.A./.V.j.d.p.7.3.j.G.G.c.j.r.7.j.j.j.d.V.p.d.j.j.<.} 3...+.7.p.!.7.<.p.!.!.j.d.} ( j.c.G.!.!.G.G.Y.!..X&X!.!.!.Y.j.V.Y.j.V.Y.!.!.).!.A.c.p.r.Y.j.G.G.r.V.A./..X3.<.V.!.j.3.<.3.d.d...} +.J c.!.!.G.j.d.r.3.3.p.j.G.A.G.j.3.7.p.7.<.<.<.7.7.j.V.p.r.<.3.j.p.<.r.j.A.p.p.r.d.j.j.<.R ! D ..3.r...( +.+.j.A.( h e f j..X!.Y.A.A.Y.j.<.<.<.*.R ( 3...C ( <.+...+.<.<...r.3.<.j.j.p.j.d.r.3.!.Y.!.Y.A./.#X!.V.j.d.j.A..X`.!.!.!.!.p...+.( R ! ( ( 3.j.<.3.7...<.7.7.} +.+.p.7.<.*.r.!.c.3.( } 3.p.7.} N ! J J ! ",
"p./..XG.V.j.j.j.j.c.c.V.V.V.!.!.!.!.`.!./..X/.j.G.!.G.j.c.Y.!././.Y.G.!.`./.Y.d.j.j.G.V.c.!.!.!.G.!.!.c.j.G.!.`./.!.Y.!./.!.c.r.!.!.Y.A.A.Y.G.V.c.Y.Y.c.c.!.#X!.j.G.G.j.3.<.<.<.! ! <.<.*.*.p.3.d.c.p.3.j.d.j.!.Y.p.d.j.c.!.&XR `.&X!.V.!.!.!.`..X!.#X,X/..X,XG.U r.Y.!.!./.j.A.&X!./.!.&X&X.X/.r.p.A.V.3.j.Y.3.! *...<.7.*.<.j.A.!./.#X/.3.A.7.c.&X&X!./..X&X#X.X&X/..XA./..X3.d.V.G.A.<.! ..! U V.;X;X;X&X/..X`.`.!.V.j.!.#X`.!.;X#XG.G.!.!.&X!.!.!.!.#Xc.p.j.c.j.j.!.;X;X;X;X/.`.7X.Xr.<.j.d.!.!.G.d.d.V.V.A.7.Y.`.G.c.G.G.c.d.j.d.<.d.j.j.d.<.p.p.V.l.<.1.p.*.! *.r.j.3.d.Y.V.d.V.!.a.*.r.G.7.j.7.+.c.#XA.j.<.3.r.r.<.*.<.r.<.+.+.7.j.p.*.*.j.j.7.r.j.j.7.7.<.<.!.V.Y.j.7.j.j.V.d.V.A.j.Y.p.3...<.p.j.j.r.j.j.<...} 3.c.p.3.j.V.Y.A.V.!.G.7.7.c.!.j.} ..r.j.d.j.r.<.<.*.! ! D ! <.3.j.d.<.j.3.7.p...V./.j.7.j.p.<.} R <.j.*.! U ! ! ! *.<.<.*.! 3.d.! ! ! <.p.p.3.1...( <...<.*...3.r.3.d.j.A.A.A.c.j.j.c.Y.c.<.r.3.! ! ( ! ..r.r.+.! +...j.A.r.r.j.c.G.j.j.Y.A.c.G.j.<.r.c.c.j.!.j.j.j.d.<.! +.! ! ( } A.j.<.<.V.V.<.p.<.+.3.p.j.A.Y.G.G.!.G.!.#X/..X!.!.j.j.G.c.Y.j.V.!.!.!.c.j.<.*.G.d.d.j.p.;XV.<.!.V.d.G.!.V.j.j.r.p.3.*.3.d.! j.A.I.j.7.<.<.<.<.3.j.!.Y.G.j.3.7.r.p.j.j.c.c.p.j.G.j.j.j.j.j.<.( <.r.j.p.3.r.c.G.c.7.} } ! R } p.*.*.*.*.r.c.C 3 4 v r.c.c.A.j.j.Y.V.r.<.+.D s c <.<.J N r.7.<.r.7.3.r.A.r.d.c.j.j.V.c.r.<.!.!./.!.V.Y.#X!.Y.A.j.p.j.Y.Y.!.c.j.A.d.} ..! ! <.3...*.d.d.j.G.<.! +.<...7.<.7.<.<.7.j.!.V.3...<.7...*.<.! D N D ! ",
"c.Y./.Y.A.Y.c.j.j.j.c.A.j.j.A.!.Y.G.!././.^.!.V.A.Y.c.A.c.!.!.!.V.A.!.!.!.!.!.j.j.V.7.p.!.!.G.A.Y.A.!.G.<.Y.!.`.G.j.Y.V.j.j.V.j.!.Y.!.!.!.A.V.V.V.G.!.d.r.G.!.A.Y.Y.A.c.j.7.<.3.3.+.} *.<.<.3.<.j.A.j.3.d.p.7.!.#Xj.c.j.A..X;Xc R /.!.p.!.!.!.!.#XA./.&X;X#X;X/.c.Y.;X`.`.;X!.!.&X/.#X.X;X5X;X;X.X`.G.V.!.p.7.7.! *.*.! *.<.*.j.!.!./.&X#XY.!.d.V.&X;X;X#X#X;X!.} G.&X!.G.c.!.!.!.A.M N r h } ! N d.!.;X#X!.!./.!.G.j.V.Y.!.!..X/.!.`.!.A.A.!.&Xc.Y.`.`.,X.Xr.j.Y./.d.d.#X;X;X9X;X!.;X,Xr.+.<.c.c.V.d.j.!.c.A.A.r.`.c.j.!.A.V.c.G.d.<.j.A.j.j.j.7.<.<.3.d.0.a.} ! <.! r.V.j.`.C.3.G./..X`.j.d..Xd.j.!.j.d.!.!.c.c...7.j.3.<.<.7.p.3.<.3.U +.p.+.3.j.d.c.j.<.r.j.3.<.*.<.Y.c.j.c.A.!.p.d.c.V.j.j.<.<...2.r.j.<...*.<.*.<.d.j.j.j.j.j.G.!.G.j.Y.d.V.!.c.j.<.3.j.Y.G.j.3.>.<.p.+.n N ( <...r.d.7.*.<.<...*.j.Y.p.*.r.j.3...! <.r.+.<.<...U ! <.<.<.} +.j.d.....<.*.r.7.<.r.<.} *.! r.d.*...7.p.p.r.p.3.p.j.p.j.!.!.<...} *.! } ! ! ! <.3.<.<.3.p.V.j.<.3.j.V.V.V.V.V.V.A.G.A.p.<.7.j.7.G.!.V.d.+.<.+.} +.! +.3.j.c.<.7.V.j.<.d.c...<.+.<.I.#XG.j.!.`..X/.!.!.!.j.( j.V.!.A.3.<.d..XG.<.j.j.<.7.A.<.r.r.Y.V.+.j.Y.`.!.Y.A.Y.Y.G.A.j.j.!.7.+.p.p.3.r.j.j.j.j.7.p.Y.c./.`.Y.p.d.c.j.j.7.p.#XY.<.r.7.7.d.Y.V.<...<.7.d.3.7.p.j.j.j.j.<.+.<.( R ..<.<.<.+.<.;X! * 7 } <.*.+.<.7.j.!.A.j.7.<.! h D *.*.C ! 3.d.<.<.3.p.j.p.7.j.c.p.p.V.V.p.p.Y.!.G.p.V.!./.Y.A.A.c.c.V.A.j.V.V.V.Y.j.<.*...r.j.j.7.<.d.d.j.j.3.*.3.3.7.V.j.d.d.3.<.A./.j.} C r.p.! } ^ ! J U R ! ",
"j.A.!.j.j.G.V.j.j.G./.!.j.j.G.!.G.Y./.`.!.G.G.A.c.V.j.A.!..X!.V.V.G.!.!.!.!.Y.j.V.c.( J 3.G.A.j.A.!.A.Y.j.A.V..X!.V.`.!.A.p.d.j.j.j.V.!.P.j.j.A.c.j.!.Y.j.j.V.V.j.V.c.j.j.j.d.j.j.r.7.p.7.3.<.<.r.c.j.<.p.<...j.Y.G./.V.c./.;X! r <.5X#X!.!./.Y.G.d.Y.`.`..X5X&XA.G.`.!.!.;X.X&X#X.X`.&X;X#X!.V.!.G.A.!.Y.} ! <...<.<.( 3.c.j.j.!.!.!.#X;X/.;XY.!.;X;X,X,X;X;XG.! p.c.p.p.3.G.#X5XV.D } J <.7.j.p.`.`.;X&X#X/.`.Y.j.j.!.!.A.A.!..X/././.!.!..X&X/.!.!.!.;X!.<.r.A.Y.G.r.+.A.7X`.!.A.&X;Xj.j.j.j.j.V.j.p.c.j.j.j.V./.3...j.c.j.c./.!.G.Y.Y.j.d.c.a.3.3.#.3.d.j.3.<.3.<.A./.!.[.a.d.G.G.!.!.j.d.A.p.r.G.A.V./.!.Y.V.<.r.r.7.p.<.r.3.d.r.j.<.<.<.} 7.j.j.j.7...<.<.j.d.7.7.Y.j.d.z.G.!.p.j.G.!.!.Y.A.j.7.r.7.c.d.<.<.<.<.p.V.Y.Y.!.Y.j.j.c.A.c.G.p.j.7.r.c.<.<.j.j.j.j.c.j.j.j.<.D U *.<.! *.7.r.} <.3.<.3.j.j.p.<.*.+.} *.+...+.( ..<...! } <.( J ( <.j.d.+.<.3...j.r.3.p.<.( +.R ..*.} *.3.*.*.<.} *.d.c.j.j.G.G.<.( ! <.*.<.+.! J +.<.<.<.3.r.V.c.j.j.c.j.j.c.j.A.A.A.G.G.d.<.<.3.7.Y.Y.c.g.*.} ! *.<.! <.c.G.p.} <.r.3.<.*.+.} } ..<.j.G.p.3.V./..X!.j.p.j.3.! 3.j.V.p.<.<.<.r.! N *.} h c p.A.c.<.j.!.A./.!.#X#X.X!.!.!.!.!.G.G.c.p.<...r.A.j.j.j.A.j.r.p.j.G.Y.G.V.r.d.A.c.j.3.3.!.A.<.3.j.c.A.Y.j.3.3.j.c.j.j.j.r.r.<.3.j.3.p.j.<.! ! ! } ..<.r.} R 7 0 +.<.! } <.3.j.!.A.j.d.<.! N ! ..*.} <.p.p.3.7.j.c.A.r.d.G.!.c.j.j.d.d.j.!.A.j.<.j.!.!.!.!.!.`.!.A.c.j.j.j.j.j.p.3.3.3.c.c.j.<.} <.7.d.j.p.<.<.3.j.G.A.j.V.c.d.V.A.3...U 3.3.( ..R R ! U ! ! ",
"7.j.G.j.d.V.c.j.d.A.!.G.j.j.Y.!.V.V.!./.V.j.c.j.j.j.j.c.!.#X!.V.c.A.A.A.Y.Y.A.j.j.V.*.D ( r.j.d.c.!.d.Y.G.A.G.!..X!.#X`.Y.p.p.A.d.*.<.V.!.Y.!.!.`.A.!./.V.c.A.V.c.A.j.r.r.d.j.j.A.j.d.p.3.<.+.} <.j.j.d.V.d.<.G.c.j.j.p.A.!.!.D % 5 p.&X#X;X&X/./.G..X.X!.!.;X#XG.c.Y.G.Y././.;X&X;X!.#X&X!.!.G.A.j.V.c.r.R R <.*.<...U <.!./.Y.!.!.Y.!.!.Y.#X!.`.;X`..X&X;X;X`.Y.#X!.} D <.Y.j.`.`.<.A.r.d.! ! 3.!.j.r.j.!.!././.Y.!.;X.Xc.d.j./.`.!..X/.!.#X&X;X`.G.j.A.j.*.j.7.p.j.d.<.} ..! z z 7.;X!.j.7.3.<.j.c.3.<.+.3.V.V./.d.*.j.j.p.G.A.!.!.Y.!.A.j.!.!.G.c.+.*.7.<.<.j.j.j.!.!.!.!.7.j.V.c.A.V.p.j.j.d.j.j.d.G.!.c.Y.G.j.r.<.p.j.3.<.j.G.3.j..X`.p.<.j.V.j.d.3.<.3.*.<.d.j.j.c.r.7.V.Y.V.3.7.r.G.!.`.#Xj.j.p.<.j.j.<.<.r.j.V.!.!.G.G.!.Y.c.j.G.j.j.<.r.<.p.V.<.<.d.p.<.d.V.j.j.j.7.R } 7.7.} ..3.j.! +.p.3.<.+...<.<.<.<.+.*.<.r.r...! ( ! ! ( ( R D U +.r.+.J ( 3.*.r.<.*.3.+.( <.! <.3.3.p.7.+...+.} <.j.V.A.A.A.V.3.! ! <.*.<.} U ! <.3.<.7.r.r.j.c.c.A.A.c.j.j.j.A.G.G.Y.!.V.r.<.3.p.Y.A.j.j.<.} } <.r.( <.A.A.<.....+.+.( R ! <.7.p.r.j.j.+.R *.c.!.A.<.<.p.r...p.d.d.<.+.<.+.} D N ..! h h <.#X.Xj.j.!./.!.d.j.!.!.!.G.!.`..X`.A.7.d.7.+.c./.j.p.j.G.d.3.7.3.j.V.V.V.p.r.c.c.j.d.7.j.j.} ..c.!.j.V.A.c.j.V.A.c.!.j.7.<.} <.j.j.j.A.j.r.<.+.+.+.7.*.r N f h ..} ! *.<.<.j.Y.j.j.c.p...C ! +.j.A.!.Y.j.7.p.j.j.j.3.j.!.!.V.j.r.3.<.d.!.G.j.p.V.G.A.G.A.!.#X!.j.7.d.p.j.c.j.j.p.3.<.V.G.V.p.+.*.r.j.j.j.r.*.r.G.G.Y.j.c.V.M.c.j.*.( ! +.! ! } D C R ! ! } ",
"..7.A.c.j.j.j.j.r.p.d.d.j.A.A.j.j.j.G.!.c.d.d.p.7.7.j.j.G..X`.!.A.Y.A.j.c.j.j.j.j.A.j.<.<.<.j.A.G.G.3.Y.!.!.&X!./.!.!.!.Y.j.j.!.Y.<.<.A././././.#XY.V.A.A.!.Y.j.V.A.j.p.7.r.d.d.V.j.d.p.7.<.3.7.j.j.V.A.G.c.j.!.G.j.p.7.j.j.G.p.N r ! V.`.;X;X`.;X;X,X!.A.c.!./.G.A.!.G.G.!.Y.!.`..X/.#X.XY.!.!.!.!.!.7.} ! ! ( ....} ! <.!.;X/./.!.A.j.j.j.`.!./.#X/.#X;X.X;X#X/.&X;X3.N p.Y.N D !.7.!.<.<...! d.#Xj.U D 3.c.!./.`.#X!.j.p.3.<.A.!.Y.#X.XG.`..X;X`.c.<.<.+.<.!.d.j.} ! *.+.} *.U f C Y.`.Y.j.r.+.<.d.d.d.d.7.j.j.!.V.d.A.j.<.Y.A.A.!.A.G.Y.V.G..X`.V.<.....( ( p.j.c.j.j.j.j.j.S.j.j.d.p.d.p.r.r.G.r.( p.p.} 7.j.R.V.<.d.j.<.<.V.G.+.r.;X5Xj.3.j.j.7.3.<.<.3...<.j.V.j.c.d.p.!.&XY.j.p.<.j.A.!..Xj.j.3.( <.*...<.j.!./.`.!.!.`.`.`.Y.j.A.d.3.<.j.V.j.j.r.3.7.3.r.p.j.p.j.V.j.} ( <.<.*.<.<.j...<.V.j.d.<.+.j.j.<.<.*.<.7.j.j...! ! ! ( ! R ( *.*.p.d.+.J ! 3.+...} +.p.3.3.j.<.p.j.j.d.3.<.<.+.<.*.<.7.c.A.j.d.p.} ! <.( ! J N +.3.*.+.7.p.<.<.d.j.G.A.V.V.V.c.V.Y.!.!./.!.A.j.j.j.Y.c.j.j.p.3.3.3.p.<.7.r.r.<.<...<.<.! R +.<.r.p.7.d.V.7.! } j.!.Y.r.<.r.3.+.A.j.j.7.<.<.*.<.( ..<.<.<.R N <./.!.!././.!.p.p.`.!.!.!.!./.`.!.j.r.j.j.j./.!.3.d.j.j.7.3.d.d.p.d.d.j.7.<.r.d.j.c.j.r.3.! U j.&X/.!.!.!.j.j.G.G.j.<...( ! *.j.c.c.V.c.!.!.V.c.d.j.c w J ! ! ! } ! ..*.<.j.Y.c.G.G.7.<.+.*.<.A.G.Y.!.G.c.A.A.d.<.3.c.!.Y.A.c.j.p.*.<.c.V.c.p.j.d.j.A.j.V..X`.V.j.j.r.j.Y.G.V.j.7.3.c.A.V.j.*...3.d.r.7.*.} p.Y.V.A.d.7.r.d.j.d.+.} <.*.J ! ..U J ! +.+.! ",
"} <.c.V.j.j.j.Y.j.p.3.p.A.Y.c.r.p.d.A.!.V.p.p.j.<.*.d.j.Y.&X;X&X!.!.G.j.p.3.<.p.Y.Y.j.j.j.j.V.Y.!.G.<.A.!.G.`..XA.c.V.G.Y.!.c.A.G.3.r.!.`./.`..X/.!.j.j.!./.Y.V.c.j.j.c.j.j.j.j.j.j.j.j.3.<.7.j.Y.j.j.j.d.j.G.`.Y.Y.V.j.G.V.!.;X;Xj.j.c./.#X#X/.#X;X&Xc.c.j.G..X!./..X!.!.!.G.c.A.A.`.;X&XA.<.r.`./.G.3.*.<.} ( ! ! *.d.G.&X;X/.!.!.!.j.V.Y.;X.X`.&X`.;X5X#X&X#X!.!.;X!.<.A.Q.R N 3.<.c.n ..A.j.G.5X`.3.! *.7.!./.#X&Xj.<.j.c.j.j.c.j.!.!.c.!.!..XG.p.<.<.<.j.#X!.`.j.! ! j.#XY.3.! +.V././.!.j.+.<.r.r.r.j.d.p.Y.V.j.V.#X^.r.!.!.G.!.!.V.!.G.j.l.C.<.*.+.~ *.<.+.j.A.j.j.j.r.Y.c.<.3.3.j.!.j.p.j.Y.j.<.p.<.! <.*.!.!.7.7.d.7.d.<.j.3.j..X&XV.j.d.p.3.<.<.<.3.<.V.c.d.r.j.j.r.c.Y.<.3.V.j.j.d.Y.!.j.j.7.} ! U ( <.r.V.!.j.} <.`.#X`.G.p.j.r.7.c.!.G.j.j.j.r.7.<.7.<.<...0.j.j.*.R R ! <.<.+.j.<.<.j.j.j.3.} <.<.<.*.<.j.j.7.3.*.<.3.*...! ! <.3.3.d.j.d.<.<.r...! +.7.A.A.c.A.r.<.<.<.<.*.+.<.*.<...! <.j.c.j.j.3.! U ..! ( ( ! ( <.+...d.j.<.*.p.j.c.c.c.V.V.c.A.!.!.!.!.!.!.G.Y.V.G.V.c.V.c.j.j.7.j.j.d.*.+.7.*.3.j.d.<.<.<.<.j.j.j.A./.A.3.*.d.V.A.j.p.3.*.*.<.<.<.<.*.*.} +.<.<.<.3.j.<.C U G.#X&X&X#X;X!./..Xj.A.!.Y.!.!.Y.G.c.A.j.A.`.V.<.d.j.r.7.3.j.!.p.<.<.3.*.+.7.p.j.j.c.7.<.} J 7.&X;X.X`.`.!.!././.3.( ( +.<.r.c.c.Y.A.j.!.`.#X#Xj.v , s ! 7.*.( *.! +.<.r.A.G.j.A.G.*.<.j.j.7.G.j.j.!.!.c.V.Y.V.j.l.Y.!.c.c.Y.!.G.<.+.r.j.c.d.j.p.A.!.j.p.Y.!.A.Y.j.7.j.Y.G.Y.!.c.3.p.7.3.7.<...3.A.j.<.( ..d.c.j.j.j.p.3.3.p.7...+.d.,.N H ( U D } <...L ",
"<.3.j.j.r.7.d.Y.!.G.j.V.!.Y.j.r.7.j.Y.!.A.r.p.G.p.+.7.d.Y..X.X`.Y.!.G.j.3.*.<.j.!.!.V.j.j.j.V.j.c.V.*.r.A.<.7.#X!.V.V.G.G.!.G.G.A.7.d.!..X&X;X#X&X.Xj.j.!.G.G./.!.V.V.A.c.j.A.Y.p.j.V.j.7.<.3.c.A.3.<.<.3.A..X;X/..X!.A..X.X!..X;X`.!./.;X!..X;X.X;X#Xc.A.j.G..X/..X.X!.!.!.Y.c.c.j./.;X;XV.( +..XA.7.r.j.j.r.V.p.<.r.!.&X#X/.c.V.!..X!.`.#X`.j.c./.!.&X;X&X&X#X/.`.`.A.r.A.G.j.j.U 7.j.h +.j.d.7.j.j.p.} ! ! d.d.V.!.d.*.d.j.7.j.j.7.p.j.c.G.A.j.7.<.<.j.A.Y.!.`.;X;X!.3.*.j.c.s z ! d.c.r.j.c.7.j.j.<.! 3.j.d.c.r.r.V..X!.d.!.!.G./.!.c.G.!.j.0.d.( *...~ r.d.( j.c.j.!.C.<.a.p.<.p.p.c.!.V.V.3.*.7.j.3.} ( +.r.Y.j.} <.l.!./.d.G.c.Y.Y.!.G.A.j.j.j.7.<.<.3.d.j.j.d.r.j.j.*.3.<.c C j.c.j.<.Y.Y.V.Y.j.7.} ! <.<.<.j.G...s c j./.!.A.d.V.r.p.!.p...3.c.7.! <.<.p.p.j.7.j.A.!.j...! +.7.3.} r.3.r.d.d.j.p.*.*.} *.7.j.j.p.3.p.3.V.G.7.! N R <.*.( 3.j.V.r.<.7.<.} 3.r.c.j.p.j.7.<...! *.<.} +.<.7.*.*.r.j.d.j.j.3.U N ! R ..<.+.( 7.<.<.j.j.<.<.j.c.j.d.d.j.j.c.!././.!.!.Y.A.A.!.c.c.A.A.V.c.j.d.r.c.j.j.<.*.3.! d.j.r.j.j.r.d.A.A.G.Y.!.A.d.<.3.r.r.p.p.<.*.3.*.*.<.<.r.j.d.7.+...<.p.<.<.<.+.j./..X#X`..X!.#X!.<.r.A.Y.!.!.G.!.A.G.j.j.!.!.A.V.!.j.c.r.p./.j.7.7.3.<.7.j.j.j.c.A.p.r.3.( <.Y././.#X&X`.!.!.!.<.( *.p.j.A.G.A.Y.!.j.c.Y.#X.X} q y p.d.j.7.j.( <.<.7.7.j.j.p.j.V.3.r.j.j.c.!.} <.j.V.j.j.V.G.G.!.!.c.<.<.G.#X`.7.<.p.j.V.p.7.<.j.A.r.*.p.j.j.c.d.<.7.A.!.`.!.j.<.*.*.*.3.3...+.V.j.<.! +.r.r.3.7.c.A.j.7.<.*.( <.d.+.N C R J N ! ! ! R ",
"3.r.j.r.3.r.r.p.G.!.Y.A.G.A.j.r.7.j.G.!.G.r.7.!.j.( <.p.G.!.V.d.j.c.G.c.<.} 3.c.G.G.j.j.d.j.V.r.p.c.3.*.7.} ( !..X!.!.!.V.Y.Y.!.!.d.j.A.!..X;X/.#X&XV.r.d.d.A./..X!.Y.V.j.j.G.Y.d.j.j.j.j.j.j.Y.G.j.r.r.V.`..X#X;X,X.X!..X!.Y.#X;X.X&X#X#X!.`.;X#X;X;X/./.Y.!./.`..X`././.!.!.G.!.!./.;X&Xj.<.j.#X/.p.j.!.Y.V.#X#XY.A.#X.XA.j.p.j.!.&X!.;X#Xd.N U c.!.!././.#X/..X;X`.V.A.;X`..XG.! j.V.! j.p.<...! ( } D N N *.3.j.!.j.*.p.7.+.3.c.j.<.3.j.A.j.<.<.<.7.j.c.c.j./.&X.X&X!.} R d.....( <.d.<.d.Y.!.Y.j.p.<.j.j.3.<.<.7.j.V.j.p.V./.!.!.!.V.A.!.j.c.C.3.r.<.<.d.j.<.j.0.3.Y.A.*.#.V.Y.Y.P.j.p.j.V.7.} <.p.<.( <.7.Y.Y.r.( <.!.;X#X!.!.G.!.c.d.p.r.d.A.j.<.<.3.<.p.r.j.V.c.c.j.} <.3.N R 3.r.<.! j.A.Y.!.A.A.d.j.c.V.c.!.`.j.U ! A.Y.A.!.A.V.<.3.!.} N ! r.*.C ( ..<.3.j.7.c.A./.c.3.3.j.d.r.<.r.3.3.+.<.j.j.7.<.<.+.p.d.3.<.p.j.3.A.Y.3.R N U 3.<...j.V.V.3.( <...} r.<.<.<.+.<.<.<.<...<.3...+.7.r.*.7.c.d.<.7.j.V.*.! ( D ! *.} *.d.3.+.r.p.<.<.p.j.j.d.p.r.d.V.!.!.!.G.Y.A.c.c.G.j.d.j.j.c.j.d.r.3.d.3.p.7.<.*.( p.p.r.V.V.j.G.p.r.p.p.p.j.A.j.d.p.3.3.r.*.( <.<.<.7.d.j.V.j.r.( ! <.j.} ( 3...3.Y.!./.Y.T.G.!.!.<.<.r.I..XY.Y.G.A.V.c.c.!.#X`./..X!./.A.d.G.c.j.V.c.d.j.V.j.A.G.c.d.j.j.r.7.p.G.!./.!.G.j.d.j.3.( <.j.c.G.L.Y.G.!.A.Y.Y././.U 0 } `.A.d.r.j.} <.<.<.+.<.j.j.A.c.j.j.j.V.A.V.C R <.c.G.G.V.V.G.!.Y.j.+.*.G..XG.<.3.j.j.7.( ! U <.r.<.+.r.j.d.p.3.*.7.A.!.!.Y.j.p.7.r.r.j.j.*.! ..*.} ! ..<.3.<.3.c.G.c.d.3.*.+.p.r.} ! ! ! ( ! D ! ( ( ",
"..<.p.3.r.j.r.*.p.V.V.j.j.j.d.3.r.j.j.V.G.p.3.Y.} N <.j.!.G.3.( j.c.!.G.<.! <.j.c.d.<.7.d.A.!.A.d.V.c.*.*.<.*.V.!.G.!.#Xc.j.j.Y.V.p.p.p.r.A.&X.X!.&XY.p.r.V.`.!.!.!.!.G.j.c.V.j.Y.j.<.3.j.c.j.p.A.A.c.V.;X5X`.!..X#X!./.#XY.j.!.!.`.7X.X!..X;X/./.!.;X;X&X`.&X`.&X.X.X;X;X`.!.!.`.;X#X;X.Xp.j.;X!.,XY.Y..X&X!..X/.!.Y.&X.XA.Y.!.c.!.#X!.;X.X..e c V.`.c.p.j..X&X;X#XY.A.!.;X`./.!.!.`.V.c.!.p...( ( <.3.( ! R +.3.j.Y.<.R <.<.( } G.!.<.*.j.c.d.<.r.p.r.<.+.<.<.Y.,X;X&X;X!.7.( r.j.*.U *.<.j.V.&XY.d.V.r.p.j.j.p.j.j.j.j.j.V.Y.!.!.G.!.!.!..XG.!.!.A.C.0.j.l.j.A.G.r.3.!.`.c.j.!.&XG.G.j.<.j.G.d.3.} ( } ( <.j.A.Y.V.p.d.!.;X!.V.j.V.&XG.r.7.7.c.!.j.+.r.j.p.p.j.j.j.p.d.j.! ..p.*.3.<.} ..D *.j.G.!.G.!.!..X/.#X.X`.!.!.c.V./.!.!..XY.d.! +./.j.*.} 3.j.*.+.} ! ..r.<.j.c.!.j.*.t.A.p.r.d.j.7.3.} <.c.V.p.*.} <.<.<.r.j.j.j.<.d.j.3.<.! ! d.c.<.j.d.j.7.+...D U 3.<.<.<.} } ..<.7.*.+.<.+.*.7.j.<.d.!.j.3.d.G.A.3.<.<.J } 7.r.d.V.3.} r.j.7.r.<.d.z.j.d.r.d.A.!.!.A.A.!.Y.V.V.V.d.3.7.p.j.j.7.p.<.<.} 3.r.<.} <.<.p.V.G.V.j.c.Y.j.j.r.<.j.Y.j.V.c.r.7.r.*.! +.<.<.j.!.!.j.<.<.<...( d...*.j.p.<.!.#X.XA.G.G.!.c.+.! ! V.#XG.!.c.!.c.A.`././.!.G.A.V.!.A.7.3.j.p.Y.!.j.c.j.p.Y.!.d.r.j.V.A.c.r.r.j.c.G.!.A.7.<.p.+.7.j.c.G.!.`.!.Y.G..X!.!.`.+.n j././.c.<...r.<.<.3.} ..d.j.j.G.3...p.Y.c.A.3.7.j.!.!.G.j.j.!.j.j.j.p.d././.3.( <.j.<.( U } } *.7.3.<.r.p.*.! <.7.c.Y.c.j.V.!.A.j.j.j.V.!.j.<.} <.3.<.*.<.<.<.7.d.d.d.j.p.3.r.d.<.! ..*...<...! *.<.+.",
"*.<.<.*.<.j.r.<.+.*.} r.Y.A.j.j.V.!.j.j.c.j.7.j.<...<.j.V.Y.G.Y./.!.G.G.j.7.j.!.!.j.+.<.c.V.G.!.!.A.<.+.r.j.j.!.!.<.7.G.!.!.!.!.Y.c.c.V.<.( V.&XG.A.A.A.c.c.A.A.Y.Y.G.A.A.V.V.A.!.j.7.D ! 3.p.j./.!.!.!.Y.`.;X/.#X#X!.G.A.V.!.`..X!./.;X;X;X#XV.7.j.!.!.A.;X;X!.&X;X`.#X#X`.;X&X#X;X,X;X&Xp.j.7X;X;X;X#X/..X/.A.!.A.V.!..X.X!.Y.c.j.Y.!.Y.A.j.<.c.!.!.j.r.A.&X&X,X`.Y.Y.`.;X#X/.!.`./.G.G.`.!.3.! ! Y.Y.! ! <.r.j.j.j.+.R ! ! ..+.c.A.<.p.j.3.V.j.c.G.p.<.} } ! 7.3X8X`.;X:XV.<.N.C.p.! +.p.j.V.~.C.<.j.l.j.g.7.3.j.j.p.j.c.c.G.Y.j.Y.#X`.!.!.!.Y.c.G.!.c.c.!..X#XA.r.j.!.!.Y.!.&X`.7.3.c.A.!.Y.A.j.} ! +.*.+.+.} <.d.p.j.!.#XA.j.<.r.c.<.3.d.c.c.V.j.r.j.d.<.r.<.! ..<.7.r.*.*.+...<...} ..R ! j.!.!.V.Y.!..X#X!..X!.&X#X!./.!.Y.!./.j.d.r.<.!.!.j.*.<.j.3.+.7.<.<.3.*.+.<.<.j.r.j.d.*...G.A.p.<.+.*.j.!.j.r.<.<.*.<.j.j.j.3.<.j.*.+.+.U J <.j.c.!.c.j.*.} 7...+.r.3.<.*.3.*.....r.7.! <.} +.p.j.*.+.3.p.j.j.A.j.<.*...( *.j.A.j.j.<.+.r.V.j.d.r.d.d.3.7.j.A.G.G./.V.c.j.A.G.Y.G.7.r.j.7.j.j.+.3.j.7...<.r.7.<.j.7.d.Y.Y.j.j.A.G.V.j.7.3.d.j.j.V.j.d.d.7.<.<.<.<.p.j.j.V.j...+.<.*...+.<.<.7.r.3.c.`.!.c.A.G.p.3.3.! ! G.&X!.!.c.p.G.!.A.!.!.G.A.Y.Y.A.j.p.d.d.d.A.A.j.+.7.j.Y.!.j.c.j.d.A.Y.j.<.<.<.*.<.<.! ! ..*.3.j.c.G.c.!.!.!.!.j.!.!.A.j.7.V.!.A.G.A.3.+.( ..*.....<.r.3.j.d.<.j.j.j.j.c.A.V.!.A.j.3.<.7.p.c.d.<.p.!.A.<.+.3.a.| #.<.<.<.*.<.p.<.<.r...R +.r.c.c.+.R 3.G.Y.V.d.j.j.G.d.d.r.3.3.7.3.<...} ..<.3.7.<.<.7.p.j.r.+.} 3.j.j.<...j.j.G.",
"<.*.*...<.d.r.<.( ! ! <.j.j.A.c.V.A.j.j.d.j.r.d.p.3.p.c.!.!.Y.!..X!.!.!.G.V.Y.`.!.A.<.<.j.c.V.j.Y.V.<.*.j.V.j.G.!.p.j.A.A.A.G.!.Y.V.Y.`.j.*.j.!.!.j.d.V.V.V.C.j.G.G.G.A.G.Y.Y.Y.!.j.j.+.} *.p.Y./.#X;X#X!./..X`.G.A.c.j.p.j.!.!./.!.V.!./.!./.!.!.7.d.j.+.j.!.G.&X#XA.c.j.j.!.`.!./.#X&X,XY.Y.;X;X;X#X!.Y.!.!.A.A.A.Y.!..X`./.!.j.d.c.A.j.A..X;X;X&X&X.X/..X&X.X/..X!.`.;X;X#X!.!.;X#XA.G.G.V.A.3.J ..+.D U ..3.p.3.3.R N J U ( <.p.j.3.7.p.<.d.c.G.G.d.p.<.<...!.;X;X#X$XG.<.} i.j.N.p.G.W.C.V.V.C.0.V.D.G.C.g.j.c.j.p.j.A.Y./.!.c.Y..X`./.`./.Y.V.Y.!.A.A./.&Xj.r.d.!..X!.A.!..X.XG.Y.c.d.Y.!.c.A.<.} <.3.3.+.U } r.d.r.G..X!.j.7.<.p.<.<.p.c.j.j.r.<.r.r.*.<.<.*.j.j.j.A.j.j.<.( <.<.*.<.<.<.G.!./.A.j.!.`.`.c.Y.Y.&X;X.X#X!.!.!.`.V.j.!.G.!.&X!.d.7.r.<...<.3.*.<.+.} ..3.A.A.V.d.<.*.c.j.r.3.*.} <.j.j.p.<.<.j.j.j.7.d.3.+.y...} ..( ..<.<.j.Y.j.j.<.( p.c.j.j.<.! U ( ! ( ! <.<.( *.! ( 3.j.<.+.3.7.<.p.j.j.3...! } d.Y.!.p.d.r.7.j.c.j.d.r.r.3.<.<.p.j.j.c.Y.j.j.d.V.Y.~.c.3.r.j.r.<.<.*.d.d.r.7.d.j.j.d.r.<.7.V.A.j.j.A.V.j.j.7.7.j.j.A.A.j.j.j.p.<.<.p.<.3.d.d.j.j.<.p.<.+.( } } } ..+.} r.!.!.G.G.j.*.<.3.} ..G.#X!.!.d.7.Y./.A.G.!.c.j.!./.Y.c.j.j.j.d.A.A.j.+.r.j.j.A.!..X!.j.j.A.r.( } U N R ! R ! ! } <.r.<.d.j.!./.c.p.<.c.!.G.j.V.!.`././.!.j.3.<.<.<.+.( <.r.r.!.A.r.j.r.7.j.G.c.d.G.!.G.<...<.7.d.r.<.p.V.j.p.j.j.j.<.+.( ~ ( *.<.j.j.p.7.} ( *.j.!.!.p.*.7.d.V.d.r.c.!./.j.d.p.3.<.<.3.<...! ! +.7.r.<.+.<.d.V.j.<.} <.d.3.+.7.A.A.Y.",
"<...+...*.r.3.} <.} } <.<.3.c.j.j.j.c.j.3.j.d.j.c.j.d.j.!.!.Y././.!.!.!.!.!.!././.Y.p.r.j.V.V.j.!.!.j.d.!./.Y.Y.Y.c.j.j.V.G.V.Y.G.j.G..XA.7.j./.&Xp.3.c.j.j.A.j.j.j.j.j.V.Y.Y.A.c.r.c.d.r.7.j.!./.&X;X#X`.!.!..XV.j.j.<.U U <.3.!.&X!.d.d.V..X;X,XV.j.G.<.r.j.V.!.Y.7.<.7.j.!.`.j.A.`.&X5X#X/.!.;X;X.XY.c.A.A.j.<.r.A./.`.`..X;X!.!..X&X!.!.#X5X;X;X;X;X;X;X#X/./.`.c.!.;X.X.XG.G.&X#XY.c.p.p.Y.j.! R ! R ! ! } *.( ! N n U ! <.<.<.j.j.j.G.j.3.p.j.c.p.j.j.j.d.!.+X;X+XG.>.Y | 0.p.V.j.!.!.D.G.l.!.j.D.V.W.!.V.c.d.7.j.V.A.G.!.!.G.!.#X.X#X#X`.!.A.A.G.c.A..X,XA.j.c.Y.V.d.j.G.G.G.!.&XY.r.j.j.j.G.7.( ..r.j.<.! ..d.j.<.<.j.j.j.d.<.r.7.3.p.j.j.c.p.3.j.j.*.+.3.j./.V.A.!.j.c.V.<.3.3.*.7.p.j.3.<.G.Y.j.!.`./.r.j.j.Y.`.`.#X!.!.Y./.G.V..X`.A.!.G.j.r.<.<.<.<.3.} ....! } d./.V.j.j.j.c.G.p.*.<.<.} +.7.d.r.! *.j.A.c.d.j.<.( 7.<.+.( *.j.d.+.j.d.} <.r.<.p.p...<.} ( ! +.} ..<.r.<.<.3.*.} r.j.7.*.p.r.*.7.d.r.r.<.( ..j.!.G.c.V.A.V.j.j.d.7.7.<.*.+.<.3.p.d.c.Y.c.V.j.c.V.Y.j.d.j.V.j.7.<.<.r.<.<.j.V.j.j.j.p.<.<.j.j.d.j.A.G.V.A.j.j.c.V.!.V.p.j.j.j.d.r.V...*.p.j.j.d.7.d.+.....<.<.+.+.<.! *.j.!.Y.Y.j...+.3...} j.`.`.&Xd.<.d.j.d.c.V.j.7.!.#X!.A.c.j.j.c.G.V.d.+.j.!.c.j.G.Y.G.j.c.A.<.! ( D N ..<.} ! ..<.<.3.*.p.j.Y.G.j.d.7.j.G.!.Y.!.!.`..X!.G.j.d.j.j.j.<.( *.r.d.Y.j.<.p.j.c.A.!.A.d.V.Y.Y.3.} +.r.j.j.j.d.7.p.c.G.d.d.<.<.*...( *.<.j.d.r.3...*.j.^.!.A.3.<.j.j.j.c.c.G.Y.!.j.p.j.7.<.<.p.d.<.} ( *.r.j.d.<.<.7.j.V.p.<.p.j.<.! r.A.G.Y.",
"*.( *.<.+.<.<.! <.} <.r.+.*.j.c.3.r.!.A.<.j.j.G.V.p.7.r.c.Y.!./.!././.!.!.!.!.!.`.Y.j.j.j.A.Y.A./..X!.!..X#X!.!.!.Y.c.j.!.`.A.c.G.c.V.Y.c.d.V./..Xj.d.V.j.j.A.A.j.j.j.j.j.G.Y.c.*.} j.V.A.c.Y.!.`..X/.!..X.X!.`.!.Y.j.<.( } p.j.!.9X&Xr.( U +.j.;X`.!.Y.j.j.j.G./.!.d.j.V.Y.`.`.!.!.`./.;X;X;X!.<.j.!.^.G.A.j.3.<.7.A..X.X!.!.&X;X&X&X&X.X`.&X;X&X;X#X#X;X,X;X&X;X/.Y.#X.XY.!.A.V.G.!.!.j.<.<.r.<...+.} } *.( ! ! R U N N ! ..7.<.<.d.p.A.;X/.p.<.r.j.d.j.j.G.G.[.;X6X=XC.<.! <.7.1.j.7.j.j.j.G.j.G.j.j.p.l.G.G.c.7.<.j.G.A.V.G./.!./.#X.X#X#X!.!.A.V.V.j.V.`.;X.XY.c.r.*.<.j.A.c.j.j.!.!.c.d.7.c.V.<.( ..r.V.j.<.+.j.j...! ..+.<.c.3.d.p.7.<.+.7.j.d.p.!./.j.j.j.!./.j.!.!.*.7.G.p.r.<.+.r.V.!.r.<.V.#X/.!.`.!.j.c.j.p.p.c./.!./.!..X.X/.;X#X!.j.c.c.j.r.p.d.r.j.<.3.<.! } j.!.#XY.c.j.j.j.<.( <.7.<.<.7.r.7.( *.d.j.Y.G.V.*.U +.<.+.! +.G.!.p.c.p.( *.j.V.c.<.} +.!  .} <.+.<.+.*.R *.3.7.*.j.c.d.<.d.p.+.<.7.} <.3.<.3.c.A.j.G.G.G.c.r.r.r.<.<.*.....*.3.j.V.A.!.c.V.j.j.d.j.V.j.V.A.c.j.j.<.r.<.p.Y.!.V.c.c.A.d.p.j.j.p.d.c.A.A.!.V.j.j.j.!.!.p.j.j.c.j.<.d.*.<.r.j.d.7.<.<.+.....+...! ! } ! } r.G.!.V.p.<.} <.*.+.j.!.!./.Y.7...( <.j.j.j.<.A./.G.c.j.7.j.!.Y.c.d.<./.&XV.G.!.V.A.V.V.V.} U ! N v ! *.! R <.7.d.d.3.j.j.j.c.G./.A.j.A.!.!./.!.#X&XY.j.V.Y.A.Y.G.d.*.<.p.j.!.j.<.r.d.j.r.d.p.<.j.V.!.c.d.r.d.V.!.!.V.d.j./.A.j.l.<.<.3.3.#...3.V.j.p.d.*.} A.!.!.p.( ( d.c.c.!.Y.V.j.G.d.p.j.<.+.3.d.p.<.+.} ..<.l.V.3.! ! ..j.r.<.j.A.p.<.7.A.!.!.",
"+.( <.<.} *.*...*.! 3.j.+.} r.c.7.p.!.V.*.j.c.!.j.<.<.7.p.G.!.!.!..X#X`./././.!.`.G.A.Y.Y.Y.!.!.!..X/.!.#X#X!.!.!.!.A.j..X;XG.c.c.V.V.c.c.V.G.!.Y.G.V.c.V.c.c.A.V.j.c.c.c.A.G.j.U ! d.V.!.!.`..X&X#X`.!.&X#XY./.:X;XY.Y.#X;X;X;X!.&X`.G.<.z c +.j.G.!.`.Y.G.V.Y.`.`.G.A.A.c.j.j.!.Y.!.Y..X;X;Xj.! r.Y.G.j.j.d.r.A.7.d.!./.G.j.!..X.X!.Y.!.#X;X;X;X;X.X`.&X&X`..XA.7.!.;X!.c.j.c.V.c.G.!.V.p.<.*.! } +.! ! +...( ! ! ! U J ! } *.<.<.*.( 3.!.G.p.p.p.V.c.G.G.`.!.#X;X;X;X[.V.>.+.} +.j.7.i.g.j.j.j.V.j.N.j.N.G.!.Y.j.7.j.Y.I.G.!.!.G.G.!.Y./.`.Y.G.A.G.!.Y.!./.`.&X!.c.p.<.3.j.j.V.c.d.d.G.G.7.<.j.d.<.<.r.j.Y.!.*.! 3.j.<...} ..r./.c.V.A.V.d.<.7.d.p.r.!.`.G.`.G.V.A.j.!.!.*.<.j.d.3.} ..p.c.A.!.j.3.`.&XG.!.G.!..X!.r...7.!..X#X!./.&X;X;X`.`.j.j.j.r.<.7.r.7.<.*.<.+.J ( c.Y./.Y.j.<.<.<.*.*.<.r.j.V.j.d.j.r.3.p.p.A.A.V.*.R } +.} ! <.V.G.j.j.7.*.7.r.j.V.7.<.<...*.<.7.*.*.( } ! <.r.p.<.V.c.j.<.j.d.+.<.<.! ( ..*.r.d.<.R j.j.j.7.<.7.7...+.+.*.+...<.j.!.A.G.d.j.r.7.3.7.c.j.c.A.j.j.j.3.3.3.j.!.Y.A.A.V.!.G.V.G.V.j.d.j.G.Y./.!.V.V.A.!.!.7.p.j.G.A.3.r.d.7.2.<.<.*.<.<...*...} } ! } <.*...7.G.Y.j.p.p.p.d.<...j.!.`.;X!.j.} R r.G.j.j.3.j.V.j.d.<.<.A./.G.j.d.p.#X.Xp.G.`.!.`.!.j.j.*.R ..! D R } ..*.( 7.A.A.r.j.d.r.Y..X&XG.j.!.!.!.#X/..X#XG.j.!..XY.!.`.G.d.p.j.j.!.A.r.3.<.*.} <.<.+.d.V./.G.j.j.j.A.Y.Y.V.d.p.c.<.p.j...| 3.a.1...*.r.<.<.p.<.+.c.G.G.j.<...7.d.V.A.j.j.j.Y.j.j.c.r.3.d.j.3.+.+.<.<.7.c.A.<.U C <.j.p.+.3.d.<.<.3.V.!./.",
"3.<.<.*.! ( ..<.} ! <.7.} ! *.d.j.j.V.j.<.d.j.A.d.+.<.p.d.Y./.Y.!./.`.!.!./.`././.G.G.!./.!.A.Y.!.!.!.!.#X&X!.!.!./.!.G.#X&XG.G.V.G.A.j.c.!.!..X!.!.c.p.j.V.V.A.A.j.j.c.j.c.V.j.} +.r.d.!..X&X.X.X&X;X!./.!.c.Y.#X&X!..X,X#X!.!.Y.Y.Y.!.A.<.7.V.+.<.V.;X!.Y.!.Y.Y.!.Y.c.j.r.7.j.A.G./.Y.!.`./.7.d.Y.!.j.3.<.p.c./.<.<.V.`.!.c.!.`.;X#X/.#X;X&X.X#X;X;X;X/.d.r.!.d.! j./.Y.V.r.7.A.!.A.V.!.G.r.3.+.} ! ! ! ( } } R } <...} +.<.<.*.*.( ! ..<.<.<.r.r.j.V.!..X;X;X;X;X5X8X0X`.<.| ! } l.g.g.j.j.j.j.j.j.G.V.V.j.j.G.V.j.c.!.Y.V.!.!.j.j.j.j.Y.!.Y.G.Y.!.!.!./..X`..XA.j.A.V.d.p.j.p.A.G.j.V.j.+.+.<.<.+.r.G.V.V.Y...! 3.d.3.<.*.<.!.5X!.!.!.`.!.V.j.A.c.j././.V.`.!.r.p.d.d.j.7.<.3.r.<.! ..r.p.7.!.j.! A.#Xj.A.d.Y..X/.r.! <.!.#X;X`.!..X;X#X!.!.j.j.p.3.<.+.*.<.! ! ( ! D ..A.!.+.<.7...} +.<.p...<.c.#X/.V.V.j.3.p.p.d.7.c.d.*.+...} <.j.V.j.c.j.! C ( ..*.p.<...<.*.7.j.V.7.*.J ! ( <.7.<.*.d.A.V.p.j.d.<.<.<.<.<.<.3.d.7.} J j.j.j.r.7.3.+.U ..<.3.<.} *.d.G.c.G.j.c.j.d.<.( j.3.j.G.d.7.j.d...<.j.A.G.!.!.!.!.!.!./.!.V.j.c.!.!.`.!.!.).!.!.c.3.p.V.!.Y.d.d.j.d.<.+.+.*.<.<...7.j.j.V.V.A.!.A.d.d.A.A.j.V.!.!.V.*.! *.d.A.`.<.d.<.! j.!.j.c.V.j.j.j.r.<.*.G.!.j.<.<.<.!.!.p.V.`..X#X!.j.r.+.U ! ( ! ( <.p.d.<.d.G.A.d.G.d...j.&X;XA.j.!./.`.;X`.!.!.!.Y.`.#X!.`.#X!.V.c.V.j.G.j.<.+...<.<.j.p.+.7.j.G.p.7.j.A.G.c.j.j.p.<...( <.r.~ *.d.j.a.+.! ( ( *.7.<.d.V.j.p.d.3.<.p.d.V.j.d.j.j.c.d.A.G.V.j.j.d.<.+.+.j.j.j.V.c.<.R ! r.A.j.*.*.*.! R <.p.j.j.",
"j.3.<.+.! ( ..<.} ! ....( } *.d.j.A.c.j.d.j.p.c.j.<.3.p.j.!./.!.G.Y.G.A.Y.!./.!.!.A.j.c.!.!.j.j.!.!.!.`.;X&X`./.!.!.!.!.`./.A.!.!.!.A.r.j.Y.!.#X.X/.V.d.j.A.G.G.V.d.j.V.j.j.c.j.p.y.3.3.!.`.`.!.!..X;X!.Y.!.c.!.&X#X/.;X,X.X!..X!.!.Y.G.V.!.`.V.<.<.p.!.G.c.G.!.Y.!.G.j.g.j.V.`.`./..XY.!.!.G.<.7.c.G.V.j.d.j.G.!.7.d.!.&X.XG.`.;X,X;X#X;X;X.X`.#X;X5X7X#Xp.7.`.#XV.A.Y.G.V.r.<.V./.!.c.Y.Y.j.r.d.<.( R ! ..+.! U <.p.3.<.<.3.<.+.*...+.<.<.*...+.7.d.r.V.V.!.;X9X;X~.j.L.V.+.<.<.~ g.7.7.a.i.a.g.i.<.p.p.a.<.<.j.G.c.j.G.V.j.V.Y.j.j.c.A.!.!.G.A.!.!.A.Y..X;X#XG.j.j.Y.!.j.r.j.*.j.!.G.G.V.*.*.+.7.*.3.G.A.d.d.<.<.c.j.r.3.<.p.#X&XV.V.Y.!.j.j.j.A.V.A.;X#XA..X.Xd.*.*.<.7.p.7.+.<.<.+...<.d.r.!.Y.r./.#Xj.V.p.d.G.!.7.! 7.Y.Y..X#X`..X;X;X!.A.j.j.z.A.c.<...r.*.*.+...R } c.Y.! ( *.! } } *.r.+.+.p./.!.c.j.7.<.p.j.p.<.V.Y.p...<.*.<.c.Y.G.!.!.} N R } *.3.<.<.<.+.<.d.G.d.<.U } <.3.c.j.j.c.j.j.j.r.3.<.<.7.j.j.j.j.V.A.j.p.A.V.j.c.c.7.( U *.r.j.3...+.3.j.j.Y.c.!.!.G.3.! <.<.r.c.j.p.j.c...3.d.c.!./././.G.Y.!./.!.G.A.Y.!.Y.G.A.!.#XY.j.j.j.V.!.Y.j.<.<.3.d.<.*.<.<.3.3.<.A.`.`.#X.X/.`.#X!.V.V.A.A.!..X!.V.3.....! ! } } 7.3.( 3.A.c.V.!.j.V.V.j.<.+.j.G.p.} ( ..c.Y.V.!.#X`.Y.c.p.*.! ..( } <.r.A.!.A.V.V.V.j.p.!.j.! 7.#X;XV.7.j.j.!.#X`.A.A.!./.#X#X!.!./.!.c.c.c.j.c.j.<.<.3.j.r.A.j.*.3.r.d.<.7.Y.G.Y.V.c.V.j.p.3.p.j.j.*.7.<.*.3.} ! +.<.<.7.*.<.r.<.} } } +.p.j.G.Y.V.j.r.d.7.j.j.c.c.r.<.3.<.<.r.j.c.c.j.<.( *.<.j.j.<.<.*.} ! ..<.<.+.",
"r.<.<.....*.<.d.r.7.<.! ( +...3.r.Y.G.Y.A.j.r.c.A.p.7.7.j.!.!./.Y.A.c.c.G.!.!.!.!.A.p.7.Y./.j.d.V.G.!..X&X.X`.&X!.!.!.!./.!.V.!.Y.Y.c.r.c.!.!.&X`.!.!.Y.V.G.Y.V.A.j.j.G.c.j.A.A.j.j.r.7.Y.G.Y.!.!./.;X!.G./.!.#X&Xc.7.V.`.`.#X.X#X!.!.!.j.c.V...r.c.j.!.!.G.j.A./.!.j.r.j.A.Y..X`.Y.Y.Y.#X/.<.h ! <.d.c.A.c.j.A.*...j.!./.!.V.`.;X;X`..X;X.XV.j.&X;X&X;X,X!.A..X;X,X.XY.c.j.j.j.j.!..XA.d.j.j.<.c.p.} D J <.3.( ! r.c.r.+.....! *.+...*.r.j.d.*.! d.j.+.<.! <.!.!.7.h 7 p U W <.j.! <.#.+.<.+.<.j.i.#.<.<.j.0.7.j.!.c.r.j.j.d.G.Y.j.c.!.!./.!.V.j.Y.!.V.Y.&X;X`.A.G.G.Y.V.3.+.<.<.r.!.Y.!./.j.j.7.V.3.*.c.A.p.<.<.p.!.V.p.7.<.A.V.d.<.d.Y.!.j.j.A.G.j.c.&X.XV..X;XG.( R <.p.d.j.<.r.j.r.! } p.d.A.!./.;X/.j.!.Y.p.A.!.r.} 7.c.r.3.G.`./.`.&X/.j.<.p.G.;X#X3.! 3.3.<...} U R r.c...! } ( <.+.} +.p.+.+.d.j.r.7.*.7.p.j.j.3.G.!.r.<.j.d.+.3.c.V.V./.c.<.+...+.7.d.<.3.} +.r.G.j.<.( ..<.*.V.A.c.d.<.7.7.*.} } +.r.V.j.7.3.c.!.V.p.j.d.d.A.Y.p...+.<.j.V.p.<.*.<.7.j.V.d.V.!.!.j.+.! ..<.7.j.c.j.j.<.7.7.p.A.Y.A.V.G.Y.!.!.G.A.!./.#X!.V.j.!.#Xc.+.7.j.!./.c.<.+.*.*.j.3.*.<.<.7.p.d./.&X/.`.`./.`.!.!.Y.A.Y.!.G.V.Y.G.j.j.p...R ! r.j.p.! ( j.A.V.!.j.Y.!.A.r.( *.Y.j.+.+.+.j.V.G.j.Y.V.<.} +.( ! } } r.G.!.!.!.p.A.A.c.7.<.G.j...d.;X.Xp.( } ! r.A.!.j.j.V.Y.!.!.G.Y.G.j.p.j.j.p.p.j.j.j.j.c.d.!.j.3.d.r.7.*.3.c.V.Y.G.V.j.d.r.d.r.j.j.<.( k j ( } } <.} ! ! N N } ....*.+.<.j.j.!.`.G.r.<.j.r.<.<.c.c.3.<.j.V.d.<.j.V.V.V.p.3.d.p.c.j.3.*.*.*.+.<.<.<.} ",
"7.*.<.j.j.p.r.r.p.d.j.<.( ..+.<.p.d.V./.`.Y.j.d.c.j.d.c.V.A././.A.d.j.A.G.Y.!.Y.!.G.c.j.c.G.G.c.j.G.!..X`.!..X`.G.G.G.`.`.`.V.j.j.V.Y.c.Y.Y.j././.!.!..X!./.!.Y.A.j.c.G.!.G.c.j.c.j.r.j.c.j.c.!.!.`..X/.!./..X#X!.7.*.j./..X`.#X/.!.!.A.j.Y.Y.+.r.c.G.G.#X#Xj.j.G.V.<...r.G.!.!.!.j.V.!.#X/.3.R 7.j.j.j.c.j.p.d.} ! r./.!.A.!.#X.X`.`.#X9X5X!..X9X;X;X;X&X/.`.&X.X.X#XV.d.A.V.j.p.V.!.j.3.p.r.7.j.j.r.2.} } 3.*...j.j...! ( ! ! <.<.<.<.j.0.G.d.<.j.r.( } N ..`.!.1.} ] } +.+.#.G.7.! ! #.<.<.<...*.<.( 3.j.j.a.V..Xd.} *.<.r.V.j.A.A.Y.`..X/.V.c.!.!.G.!.!.!./.!..X/.Y.j.<.} ( } +.V.d.V.G.c./.G.G.p.7.V.V.r.7.r.c.c.j.d.7.j.!.j.d.j.G.;X.Xc.!./.!.!.!././.!.Y.;X/.( ! r.p.d.p.*.3.d.j.3.( +.j.A.#X.X`.c.G.!./.Y.V.c.r.*.<.7.+.<.j.Y.&X.X&X.XG.<.p.d.V.A.j.7.U *.V.<.( ..( +...! ( *.<.d.<.} +...<.<.! ! ( ( } p.c.!.!.A.j.7.3...V.A.*.<.Y.A.j.A.c.A.d.} } <.} ....} <.j.Y.j.d.r.*.*.3.j.j.<.| ( ( *.! ( 3.*.<.j.r.3.p.V.G.j.p.7.7.j.Y.c.r.3.<.2.c.V.V.d.<.3.r.c.A.c.Y.`.`.G.<.R } r.<.<.d.7.<.7.p.p.7.j.V.j.A.Y.Y.A.V.!./.!..X.X/.!.G.!.!.!.G.r.j.Y.!.j.<.+.<.! 3.d.r.V.A.j.!./.;X&X&X#XY.G.!.!.!.!./.Y.Y.!.V.j.G.c.d.+.<.B.j.j.j.j.<.! ..p.c.A.A.Y.A.c.<.<.3.V.d.! <.c.G.V.A.<.! ( <.*...<.} ..<.j.G.`.`.c.j.!.j.d.p.<.*.r.j.V.&Xj.*.r.<.( ( +.<.<.3.j.V.G.!.c.c.V.p.j.G.j.c.!.!.V.j.c.j.G.!.j.r.c.7.r.r.7.d.j./.`.G.j.r.7.j.3.r.j.7.v r N +.( ..*...! ..U D U ! ..3.<.3.c.G./.`.!.d.<.j.<.<.7.j.d.p.<.7.V.c.V.j.c.j.G.c.V.V.j.c.r.*.( ( +.( 3.j.p.*.",
"3...3.Y.!.j.3.<.<.7.j.y.+.} ..7.d.r.d.!..XY.d.r.d.d.d.c.c.V.!.!.c.r.r.j.G.!./.!.!.A.V.A.G.G.c.j.d.l.!.!.j.A.`.Y.!.!.Y.`././.c.d.d.A.`.!.!.j.+.7.!.!.!.;X;X;X/.A.Y.V.j.V.!.!.G.c.c.c.j.V.!.!.!.`./.`.`././..X.X`.!.c.d.c.Y.!.!..X&XY.G.!.!.!.#X`.j.V.!.!.;X&X!.!.!.G.j.j.Y.!.!.G.G.A.!.!..X&X#X;X;X`.G.j.j.j.d.d.r.<.j.!.!.Y./.;X!.;X;X`.#X&X.X7X5X;X&X;X;X#X.X&X#X!./.!.c.V.V.j.7.d.G.j.3.7.d.j.3.<.p.G.j.<.<.*...r.p.+.( } | | #.<.1.<.d.r.!.j.3.l.3...r.*.d.:X`.} ! 5.<.} ! ! 1.<.0.<.<.V.C.j.+.0.G.6.<.*.<.1.j.!.j.<.<.<.3.j.j.G.G.!.!.`.#X!.!.!.G.A.!.`.!.!.Y.`.#X.XV.*.! } ! ! r.<.j.V.j.!.j.G.j.j.G.A.p.r.A.c.d.c.Y.A.G.Y.G.j.p.G.&X`.!.!.!.!.!.!./.`./.!.G.j...<.j.r.3.<.! ..<.7.p.7.r.c.!..X!.!.c.A.Y.!.A.j.p.<...+.*.! 3.7.3.!..X#X`.Y.A.r.<.j.!.j.<.! j.V.<...<...<.<.d.<.<.3.p.<.3.7.+.<.<.*.} } ....<.<.r.j.j.d...! J r.A.7.r.G.Y.!.A.j.j.7.<.7.<.( ! U ..V.A.Y.G.!.j.<.*.<.7.d.<.+...} <...+.j.d.3.j.j.j.j.c.j.<.} 3.<.r.V.j.<.<.3.r.G.!.!.V.r.d.j.V.!.!.!.!.!.Y.j.} <.3.*.3.j.<.r.j.j.j.p.c.!.Y.!.!.!.!.Y.!.`./.#X.X`.!.!.!.`.`./.c.j.V.c.d.j.A.d.<.j.A.G.!.!.A..X!.#XY.G.`.!.Y.!.!./.`./.!.!.!.j.p.j.j.j.r.r.c.7.+.p.V.p.} ( <.d.V.A.G.j.c.7.r.p.j.Y.V.c.c.c.j.`.G.3...*.+.<.d.<.3.p.c.A.!.!.A.!.j.j.p.r.7.$.+.j.Y.!.<.+.p.<...*.*...} +.7.j.A.!.d.p.V.j.j.!./.#X!.!.G.Y.!.!.!.!.!.j.d.<.r.j.d.j.G.!.Y.V.G.A.c.V.p.p.p.<.N h J ( *.<.3.<.! } U U U ! } 3.3.7.V.Y.Y.!.!.j.7.g.*.} p.p.7.p.d.j.Y.A.j.d.r.d.!.c.c.!.j.r.} ! ! ( <.<.p.j.7.*.",
"*.( 3.!.!.3.( ( ! ( <.<.*...*.d.j.r.7.c.!.j.<.<.r.p.j.c.j.c.!./.j.r.p.V.!././.!.c.j.j.G.!.A.j.j.j.V./.G.r.p.j.j.A.j.c.`.`.`.G.j.d.G..X!.G.d...3.A.A.G.#X;X7X/.j.d.j.G.Y.!.!.!.!.Y.Y.c.j.Y.#X;X;X`.!.Y.G.!.`.#X.X`.!.!.A.c.c.A.G.`.!.A.Y.!.A.G./.c.j.!..X&X%X_.#X;X/.!..X&X&X/.V.j.V.Y.!..X.X!.`..X!.A.j.j.c.A.V./.Y.Y./.!.Y.!.;X`.&X`.A.G..X&X;X;X&X&X;X;X;X#X.X#XA.c.!.Y.A.!.Y.V.7.j.j.r.r.j.j.7...7.!.Y.d.p.7.j.V.j.<...*.<.*.....*.| <.0./.A.j.Y.d.3.j.<.<.G.G.! } <.| ! ! A +.<.!.a.+.V.!.N.+.j.0X!.+.R ~ <.j.!.!.j.j.j.j.A.j.V.A.G.A.Y..X!./.Y.c.V./.#X!.Y.A.A.!.!.V.*.R ! ! ! 3.<.j.c.j.V.j.G.A.c.Y.A.j.d.V.G.A.!./.Y.!.!.`.!.j.V.!.!.#X!.Y.Y.G.Y.!.!.A.d.<...! <.d.r.<.<.! +.<.3.7.<.3.r.A.G.j.c.j.c.c.V.j.7.3.r.p.d.7.+...3.+.<.<.!.;Xj.j.*.( 3.G.A.7.7.V.3.} ..+.} +.7.A.3.d.j.d.3.j.7.( <.r.p.7.<.<.` *.! ( +.7.d.+.N ! 7.j.r.r.j.j.c.c.V.j.p.r.j.d.3.<.( *.c.3.<.3.j.A.3.*...*.3.3.<...<.j.3.} r.d.3.Y.!.Y.G.c.j.3.+.3.p.j.p.7.p.d.7.7.V.!./.!.j.j.c.!.!.!.!.!.!.!.V.+.*.*.} p.j.<.d.V.A.j.r.j.!.!.`.!.Y.!.!.!.`.`.`.!.!.!.!.!.`.#X&Xc.7.j.I.j.C.`./.c.V.G.V.Y..X.X#X#X`.<...j.V.!./.!.#X#X!.V.c.Y.V.j.c.c.Y.A.c.c.<.U 3.j.<...+.<.7.c.G.Y.j.j.p.d.j.A..X`.A.j.j.<.!.!.j.7.<.*.<.p.*.<.r.A.!.!.!.G.!.c.V.j.j.d.+...j.!.r.U ! 3.*...<.*...+.<.<.p.V.Y.p.7.j.j.d.!./.`.Y.!.!./.&X.X/.!.!.p.7.<.p.j.j.j.c.j.r.d.A.!.A.j.d.j.j.r.} ! +...<.<.<.<.*.<.} ( ! ! ..3.3.3.d.p.r.j.c.p.r.V.<.*.<.<.<.r.r.p.c.V.r.7.3.d.Y.7.<.j.r.*.R ! } } +.*.p.3.<.*.",
"+...y.Y.c.*.! ..( ! } *.<.7.d.c.j.d.7.7.j.3.+.*.<.3.r.j.j.c.!./.c.j.j.!.`./.Y.V.j.j.j.j.V.V.j.j.j.A.!.c.j.<...d.c.j.d.!.!..X!.V.c.!..X!.!.A.j.Y.!.G.G./..X,X!.j.+.r.V.V.j.c.G.Y.!.!.c.d.V..X;X.X`.!.Y.G.!..X&X#X.X#X.XY.A.Y.!.c.V.!.Y.j.V.A.V.G.G.j.Y.&X&X#X;X;X#X!.!..X#X;X;X!.c.A.G.V.!.!.c.V.r.p.c.V.j.G.`.`.;X&X/./.`.!.!.&XqX;X!.d.<.c.#X.Xj.A.!.#X;X;X;X;X;X!.7.d.A.Y.`.`.!.d.c.c.j.j.V.j.A.r.j.!./.!.!.Y..X`.A.<.| <.7.<.~ ! } ! ..3.Y.d.1.j.j.l.c.<...3.5.! o.<.+.<.>.W V.G.!.j.>.i.G.!.! J j.r.<.1.r.j.j.c.G.j.d.V.j.c.j.j.V.A.j.V.!.Y.Y.V.c.!.#X&X`.!.G.c.A.Y.c.7.+.<.*.*.j.d.c.j.j.A.c.Y.G.c.V.V.j.j.G.!.Y.A.p.<.c./.Y.!.G.V.j.Y.#X!.!.!.V.A.!.Y.j.*.7.} ( ..<.r.*.} ..<.p.3.*...+.*.V.j.<.j.j.j.p.d.<.+.<.j.Y.Y.j.<.d.!.j.D r r.7Xd.<.*.+.} j.!.j.j.j.! } <.! ! } +.+.( 3.j.r.<.7.} ! *.<.3.p.7.<.*.3.+.} ! <.V.d.! +.r.j.p.3.<.*.<.p.j.d.<.3.p.p.p.<.r.j.G.d.r.p.d.!.c.j.r.<.<.3.<.! <.j.7.+.7.j.j.V.Y.Y.!.V.V.d.<.p.j.j.3.3.j.A.j.p.c.G.!.G.j.j.G.Y.Y.Y.!.`.!.A.j.( ( ( ( d.G.j.Y.!./.!.j.j.!.!..XG.j.Y.!.Y./..X/.!.!.!.!.!.!.#X;Xc.<.p.A.c.c.!.#XY.V.j.<.<.G.&X&X`.!.<.7.A.Y..X/./.`.!.j.j.p.j.j.Y.!.Y.Y.A.V.j.! ! 7.3.+.3.j.d.r.j.A.Y.j.p.7.7.j.`.!.j.d.j.j.r.c.p.j.j.j.7.r.j.<...<.j.!.!.!.G.G.V.j.G.G.d.2.r.V.A.*.C R +.+.*.*.! *.d.j.r.j.Y.Y.d.d.j.j.j.!.!.!.!.!.!..X;X.XY.j.d.7.p.p.j.A.j.j.j.d.d.j.G.!.G.j.r.j.Y.G.j.p.j.r.p.<.+.r.j.A.p.<.+.} ..*.<.3.r.+.*.p.d.<.<.j.p.p.<.+.*.3.<.+.<.7.<.3.p.A.!.7...r.j.<.( *.3.+.} *.<.*.*.+.",
"} ..<.r.7.+.} *.*.+.} ..<.d.j.j.3.r.<.<.p.j.7.<.*.<.<.p.j.A.!.!.c.j.c.G.!.!.V.j.c.V.j.d.d.j.j.d.j.c.A.c.c.7.U U !.A.j.A.A./.`.Y.j.Y.!.!.!.Y.j.V./.!./..X`.&XA.d.j.A.G.V.V.G.!.!.V.G.A.c.Y.#X#X!.!.`.#X#X&X;X&X.X`.&X&X!.G.`.#X!.A.!.G.j.j.j.c.Y.G.d.c..X`.`.&X#X!.G.Y.G.A..X;X!.d.G.!.j.d.c.j.c.r.d.V.A.V.!..X.X;X;X.X.X;X#X`.;X`.G.!.j.!  .j.j.3.c./.;X,X7X7X5X,X&X3.( r.Y.`.`.G.j.`.!.j.<.3.*.Y.Y.`././.;X#X`.&X;X~.3.! ..0.3.! ! ..+.<.3.a.( U ( <.V.j.1.<.<.<.+.g.N.j.p.5.<.#X!.<.7.g.<.j.!.*.c ! ~ +.r.c.!.A.j.j.d.j.G.c.j.j.c.V.G.A.G.!.G.c.j.G./.!.c.j.j.<.<.r.3.*.+.+.<.p.p.V.j.j.p.V.!.V.Y.A.j.j.c.j.d.Y.d.} ..! R p.!.!.j.G.V.j.Y.!.!.#X#XG.V.V.d.<.} 7.+.*.} <.j.r.<.} <.3.3.<.3.7.<.7.3...r.j.j.j.j.d.3.3.V..X`.V.p.3.j.A.*.r <.;X7.p.<.+.! p.!.c.A.c.! r.j.! ! +.! ..<.r.r.r.<.<.! ( <.} ( 3.3.+.<.d.r.7.<.3.G.V.3.+.d.j.3...} <.p.r.r.+.} 7.j.7.<.<.A.A.!.G.G.!..Xr.p.j.d.<.<.7.3.! ..*.! } <.3.j.j.j.p.j.p.V.V.j.c.d.7.r.d.j.V.!.A.Y.G.V.j.j.V./.Y.G.G.G.G.G.A.A.7.<.<.} <.Y.!./.!.#X&X!.A.!.!.#Xc.p.A.!.Y.`.#X`.!.!././.!./..X;XG.j.3.3.d.Y.`.`.Y.j.p.} J <.!..XG.V.j.!.#X/.#X!.!.j.<.<.c.j.j.r.Y./.!.j.d.j.d.( ! <.+.! <.7.<.*.d.j.j.j.p.r.<.j.!.p.U +.7.j.c.r.7.j.j.j.7.j.V.7.<.<.<.7.j.c.V.c.3.7.V.j.d.j.j.c.j.<.! ( ..<.3.+.} p.!.A.p.j.j.7.p.c.V.j.j.j.d.c.Y.!.Y.`.;X/.V.p.7.r.j.G.!.!.V.j.V.V.G.G.A.V.V.c.p.j.!./.!.G.V.c.c.p.<.p.j.A.p.<.3.<.<...*.j.c.3.3.j.r.+.! 3.7.j.<...<.7.<...+.3.*.<.<.j.c.d.7.j.p...R ! } ! U ..<.3.r.<.",
"} ( ! ( <.<.*.+.} *.*.*.<.r.j.d.*.<.*.<.j.!.G.r.<.<.<.j.G.!..X!.c.j.d.j.V.V.j.j.G.Y.V.d.j.A.A.j.V.V.!.G.j.j...k d.c.r.j.c.!.!.G.j.V.I.Y.!.Y.j.j.!.!..X;X!.!.d.3.V.Y.!.G.c.j.c.V.V.G.Y.Y.!.#X#X!./.&X;X;X&X#X#X`.`.&X;X!.j.G.`.!.!.c.j.c.j.7.r.A.G.j.j.!.!.!.#X/.!.!.!.V.j.!.`.V.3.j.V.7.<.<.<.+.r.j.V.Y.!.`./.Y.#X&X#X&X;X&X`.`.Y.j.!.;XY.G.!.r.d.Y.#X;X;X5X5X;X&X&Xr.R <.G./.!.j.j..X!.A.7.*.U ! <.c.p.V.;X#X;X:X7X:Xj.R R *.*.! ! ..+.<.3.<.! ( } <.A.C.j.d.r.! j.#XW.<.<.j.D.[.V.U <.N.o.<.a.r.Y <.<.#.+.r.Y.j.7.3.7.j.G.V.d.j.j.c.G.!.Y.Y.V.d.d.G./.A.<.<.r.<.*.7.3.3.d.p.j.j.j.V.j.j.7.V.!.j.A.G.c.j.l.j.r.!.d.+.j.c.7.A.!.3.U +.j.c.G.A.G.j.G.j.j.r.} ! ! 3.7.r.*.+.3.<.*.( ( +.3.j.G.V.r.p.p.*.7.3.<...<.d.<.+.7.G.Y.d.3.<.<.p.<.s r.&XV.V.<.+...<.7.<.G.V.} j.V.( ..r.*.3.7.*.! ..( <.( +.r.<.*.d.j.<.<.j.j.c.j.c.c.j.j.p.c.j.3.*.*.7.d.3.<.} ..r.d.<.*.j.!.j.A.V.j.c./.C } <.7.3.<.r.p.3.r.*.! ! ! } 3.c.j.d.V.p.V.V.V.!.A.j.j.j.j.j.A.A.Y.!.A.j.j.j.A.!.A.c.j.V.Y.V.j.V.d.j.+.! j.!.!.Y.`.;X}.Y.!.!.&Xj.r.j.V.V.!./.!.!.!./.`./.!./.`.j.p.3.r.j.c.!.;X/.p.7.<.( <.j.V.G.V.A.`.#X`.`.!.Y.3.( ! <.<.j.j.Y./.!.j.d.V.A.p.<.j.j.<.<.<.<.7.7.<.3.r.d.j.7.j.j.<.J <.2.d.G.r.j.V.j.r.3.d.j.<.<.*.( ( ..3.j.r.} p.c.p.j.j.3.j.p.7.<.<.+.<.7.+.( p.A.j.j.c.c.3.<.c.j.p.d.7.<.j.G.Y.A.!.`.!.Z.j.d.p.p.c.Y.!.V.j.d.c.V.c.d.r.j.Y.c.j.A.!./.!.j.j.c.V.p.j.p.j.r.<.p.7.j.d.r.V.A.p.j.c.7...! +.<.p.} } r.j.<.( +.j.j.3.+.<.<.r.p.j.d.<.} } *.( ! <.<.r.d.+.",
"r.<.( ( <.r.<.+...<.<.3.7.7.j.j.<.+.+.<.j.!.Y.7.7.7.r.c.Y.`.&X!.A.V.d.r.d.j.j.c.A.G.A.c.A.Y.V.p.d.c.Y.G.j.A.V.( +.j.r.d.j.Y.!.A.A.!.!.!././.!.Y.!.G./.#XY.G.7.7.c.G.!./.Y.c.j.V.!.G.G.V.c.!.`.`.`.#X#X.X`..X.X.X`.&X;X!.d.j.A.A.A.p.d.j.p.r.j.A.A.c.c.G.V.G.`.!.V.G.!.A.V.!.`.Y.p.<.<.+.} <.<.( +.r.A./.;X;X!.V./..X#X#X#X`.!.A.Y.j.j.!.`.#X#XV.j.!.`./.#X;X;X`.A.Y.j.<.<.c.G.A.j.p.!.!.#X!.A.7.! *.7...d.!.r.j.&X&X;X!.#.! ( ! ~ } ( ! } #.+...r.r.3.G.~.!.A.Y.! j.+Xj.! >.j.D.D.i.! i.p.} <.#.| J *.7.7.<.p.c.G.c.d.j.G.`..X!.j.G.A.Y.!.G.c.j.<.<.j.!.G.r.p.A.d.*.3.r.j.G.j.V.V.j.c.A.Y.j.A.j.p.c.!.A.j.j.j.r.d.c.d.A.j.7.p.} z a N p.Y.A.j.d...3.*.<.<.! ! } <.r.7.*...*.....( } <.d.j.V.j.3.3.p.<.<.*.( } 7.j.7.+.<.A.Y.j.d.7.r.d.p...!.j.j.+.! ( +.<.r.j.&XV.*.3.7.! +.j.j.j.7.( ! <.<.j.p.<.d.j.j.j.A.j.p.c.c.A.Y.!.c.d.Z.A.G.j.j.p.3.3.<.*...} +.*.*.<.<.G.G.r.G.Y.j.d.d.! 7.d.j.j.p.p.j.c.G.z.<.<.<.3.r.*.<.d./.c.Y.G.Y.!.`.Y.j.j.j.p.<.r.c.!.A.c.j.7.3.V.c.A.G.!.!.3.! 3.7.V.7.+.j.!.!.Y.!.&X#X/.!.!.&XY.j.j.j.j.G.Y.G.!.!.!.`.`.!.!.!.r.<.r.V.p.<.p.Y..Xc.j.d.<.j.V.j.Y.!.!.!.;X&XV.j.!.p.<.U D N p.G.!././.Y.G.!./.!.c.Y.G.j.d.3.<.r.<.<.7.r.p.V.d.c.j.V.7.j.d.V.!.j.j.V.j.p.3.d.j.<.<.p.r.3.<.p.V.d.<.j.A.r.7.7...3.p.7.7.a.<.<.3.<.7.V.Y.c.c.c.g.7.<.p.7.7.j.j.c.!.G.Y.c.V.G.V.c.j.j.7.*.5.j.G.j.d.j.V.c.j.d.r.d.G.A.j.V.Y.!.!.d.3.c.!.A.V.r.p.j.c.r.7.G.Y.d.d.j.d.c.c.7.<.<.3.<.r.+.<.j.j.<.( ..p.A.c.3.<.<.7.3.j.d.3.*.+.<.*.! *.! *.7.! ",
"A.d.+.( *.*.} ( <.<.+.<.<.*.7.p.p.<.<.<.3.j.j.<.r.r.7.d.c.!..X!.!.!.j.r.p.d.j.c.G.G.G.!.!.A.d.<.<.V.G.j.7.p.Y.A.p./.j.r.d.C.Y.G.G.!.!.!.!.!.!.!.`.G.!./.V.A.p.j.V.c.V.Y.!.Y.G.A.!.A.c.j.p.j.Y.!./..X#X#X&X;X&X.X`.#X;X#Xc.j.G.V.c.r.r.<.( r.Y.j.p.d.r.r.<.7.V.j.j.c.A.V.z.G.!.G.d...+.+.} <.<...} d.!..X;X;X!.G.Y.!./.!.!.!.A.j.j.Y.V.j.j.j.Y./..X;X;X.X&X5X;X/.j.j.!.j.3.d.d.p.V.p.A.j.!.G.!.!.3.3.7.<.!./.} ( c.a.C.!.a.<.+.! } *...! ! ! R ~ 0.j.<.j.Y.A.j.Y.j.0.N.j.| #.<.o.<.+.<.i.! ! 5.} ! ! 0.p.3.*.j.G.`.!.j.j.Y.!.#X/.V.`.!.!.`.G.j.c.3.+.7.A.j.<.<.d.r.} <.7.r.j.d.A.G.c.V./.&XY.A.3.r.c.!.A.p.d.j.j.3.Y.j.*.( <.d.U ! U ! d.V.j.A.d.j.j.*.<.<.! +.<.c.j.3.+...( ! ( ! <.j.V.p.<.<.*.<.j.7.r.<.+.1.V.d.r.+.<.V.Y.j.j.d.p.<.j.G./.! d.+.+.<.<.7.A.!.Y.!.3.+...! } j.!.!.p.} <.j.p.c.7.<.p.V.j.r.V.!.V.A.Y.G.A.!.Y.c.!./.!.j.p.<.*.d.c.<.+...*.+.+.3.j..XA.*.j.!.!.c.<.r.G.c.c.G.j.j.j.A.A.j.p.j.c.j.+.<.<.3.V.<.3.r.j.Y.G.c.j.j.p.<.+.3.j.G.j.j.j.3.3.j.A.!.G.c.d.( C ..7.`.!.d.c.c.j.V.A.!.`.!.!.G.!.#XG.c.j.j.A.G.G.!.!./.#X&X`.!.!.d.3.d.j.+.! } ! !./.#Xc.<.c.!.A.G..X!.c..X.X<...c.7.<.J n n j.!.!.!././.`.`./.`.!.!.!.`.`.V.7.<.<.p.j.p.<.c.d.A.j.G.j.d.p.Y.Y.j.A.!.!.j.7.r.j.r.j.!..X!.V.Y.&X/.r.r.A.r.} } } <.j.r.d.A.j.<.7.p.c./.`.!.G.j.d.j.7.<...*.d.A.!.!.!.!.j.j.j.p.p.r.j.7...<.r.V.V.j.G.Y.j.d.j.7.<.r.c.j.G.Y.!.Y.r.<.j.!.V.j.*.<.j.V.r.<.V.G.<.+.3.c.A.V.p.j.j.j.7.7.<...3.j.j.d.7.p.<.j.r.d.p.<.+.j.G.j.3.*.3.<.! ..! <.j.+.",
"j.d.....7.<...} ( } ..} ....<.d.r.( ( <.<.<.3.*.*.<.r.d.j.A.!.!.!.!.Y.j.7.j.c.d.c.A.Y.!.!.A.r...+.p.Y.A.d.Y.#X!.d.V.G.A.c.c.A.G.!.`.!.Y.Y.Y.!./.`.G.G.!..XA.<.r.A.j.j.Y./.!.!.!.G.j.j.`.#X!.!.!.!.#X.X#X#X`.&X&X#X&X#X.X/.Y.G.Y.Y.!.j.! k +./.<.) ! } } J } c.j.j.r.<.3.d.j.c.c.V.<.} <.<.<.d.p.<.j.Y./.;X&X`.`.Y.Y.G.Y.!.V.j.V.j.Y.#X`./.!.c.c.`.,X;X&X;X;X.X#X&X&X/.!.G.c.j.j.c.j.!.G.A.N <.G.j.<.( <.G.;X.Xj.1.! <.!.j.>.>.! ] <.<.} ! ! ! <.j.V.7.j.`.j.] ! o.~ >.j.5.} I W +.! <.<...Y ( 7.+.<.V.!.r.} 7.Y.&Xc.A.!.A.A.A.G.c.#X#X`.Y.p.j.`.!.c.3.( ..<.*.r.j.+...<.p.j.c.G.!.Y.c.Y.`.!.c.7.r.V.c.7.<.r.p.<.p.Y.c.p.A.*.! *.r.<.+.<.*.<.A.d.7.r.p.y.....j.c.A.!.<.7.<.c.<.r...! G.A.3.( ! +.<.d.p.<.( ( <.7.} 7.d.3.p.V.j.j.7.<.*.j.!.A.+.r.<.A.`.V.!.j.d.<.Y..Xj.7.r.<.j.G.!.j.d.V.G.<.*.*.<.7.j.j.G.G.!.A.c.j.!.A.A.A.Y.!.!.`.V.r.<...p.!.G.p...! } 3.p.r.A.j.p.G.j.d.Y.7.r.V.c.A.!.A.c.j.j.V.c.r.7.V.A.7.d.p.j.d.*...<.7.j.c.3.r.j.<.} >.7.j.j.V..X!.3.p.Y.Y.j.G.G.d.e.( *.d.G.!.Y.Y.G.G.V.V.G.!.!.c.j.Y..X/.Y.j.j.A.Y.V.Y.!..X#X#X`.!.G.d.p.r.r.<.+.3.*.!.Y./.!.j.Y.#X!.!.!.G.!..XG.! ! j.j.7.! +.r.Y.!.A.`.&X!.A.!.!.V.r.A.V.G.c.7.p.<.*.7.r.7.<.<.r.d.3.3.p.A.j.V.G.A.!.#Xc.A.Y.j.;X`.U ..3.c.!.j.V.j.C <./.A...( *.<.d.p.j.V.d.<.r.j.A.Y.Y.c.d.r.d.V.j.*.( <.3.7.V.`.!.c.j.j.p.3.<.+.3.+.! ! <.j.c.j.A.c.A.c.d.<.<.r.j.G.!.Y.Y.j.+.<.p.G.Y.d.<.r.V.j.7.d.j.d.*.} 3.V.G.G.j.j.d.Y.j.*.+.<.3.7.p.d.3.7.<.<.3.<.....<.p.j.!.j.3.r.<.! ( ! <.r.j.",
"j.3.! } p.p.<.*.R ! ( ..*.+...<.p.<.*.+.<.d.j.j.j.p.r.j.A.!.Y.A.G.!.Y.j.p.j.A.c.A.V.V.A.G.V.d.3.3.d.c.j.j.!.;X`.r.d.j.j.j.j.V.A.!.`.!.A.V.A.G.!./.A.z.G.`.!.d.j.G.c.j.G.!.!.!./.!.G.V..X;X.X/.!.!.!.G.!.&X&X&X.X;X.X#X;X&XY.c.V.!.!.p.} J <.!.3...! ( ! ! j.`..X!.<.! +.r.j.c.G.V.r.<.7.<.<.d.p.<.d.c.A.!.#X;X;XY.Y.V.j.V.A.j.d.j./.7X,X#X`.c.<.`.,X5X;X;X#X.X.X&X;X;X&X!.j.p.V.j.j.A.j.7.c } c.<.} <.j.G.#X;X!.7.<.g.G.<.! 5.<.1.<.<.>.+.~ ! } j.W.D.!.!.<.! ! t N +.<.! } ~ Y #.! *.<.3.#.<.3.3.<.p.j.3.( <.A.Y.j.A.Y.A.V.j.j.G..X.X/.V.7.j.`.`.G.3.! ( ..( <.+.! } 7.j.c.j.j.j.j.r.j.!.Y.V.A.p.p.7.<.<.7.7.<.r.A.Y.j.c.R N <.3.<.} ..+.3.c.r.<.d.d.p.7.j.G.7.<.7.4.c.V.&X!.!.<.} V.Y.d.} ( ..<.p.7.<.( R ..3.j.G.!.r.*.7.r.7.*.<.<.j.Y.!.A./.V./.&X`..Xd.p.<.!..X!.!.G.j.j.j.p.<.j.!.!.d.p.<.d.j.V.j.!.!./.!.V.j.Y.V.Y.!.!.!.c.G.j.p.<.#.<.p.r.3.<.<.<.+.+.<.r.7.7.G.A.j.A.3.3.c.V.!./.A.j.c.j.r.r.d.j.c.A.A.A.V.c.c.V.V.p...3.j.<.<.d.p.7.3.r.j.j.j.G.j...<.A.c.7.p.p.*...! ! <.j.V.c.j.j.c.c.c.V.!.!.c.j.G.!.G.A.V.V.Y.!.G.A.!.`./.!.!.!.V.3.<.<.3.<.<.d.j.j.j.!./.!./.&X.X.X&X!.!./.G.*.3.!.!.!.j.c.Y..X`./.!.`..XA.3.<.<.p.j.p.3.<.<.r.<.*.3.3.<.*.*.<.*.r.3.7.j.3.7.7.7.!..XA.A.j.<.G...4 7 q N p.*.+...N 3.`.A.+.} +...<.*.<.j.d.<.r.j.V.j.d.r.p.j.G.!.j.( N J +.p.V.G.d.3.<.<.+.......3.( ! +.d.j.j.j.c.j.j.j.j.p.<.*.3.j.G.A.A.d.} ..7.d.p.+.( 7.j.p.j.V.G.j.r.7.p.j.A.!.V.j.7.j.j.3.*.*.p.j.3.<.3.7.<.<.<.+.} ( } ..7.c.p...+.*...*.( ..<.G.",
"G.7.U ! <.<.<.+.! +.*...( ! } <.d.j.r.*.3.V.!.`.!.c.p.j.G.!.G.c.V.G.Y.A.j.j.A.A.G.V.c.V.G.G.A.c.j.j.d.7.d.Y.!.G.c.c.j.j.j.j.d.p.Y.`./.G.V.G.G.G.!.Y.A.G./.!.G.!.!.Y.G.Y.!./.`./././.Y.`.;X#X!.!.#X#XY.Z./.&X#X!./.!.`.;X.XY.c.d.c.Y.j.<.+.7.A.p.<.+.+.! <..X;X;X&Xr.! +.r.p.d.c.V.r.+.<.<.3.j.j.p.j.j.j.j.!.#X.X`./.A.r.3.j.c.j.V.!.&X&X!..X.Xj..X;X5X&X;X#X;X,X;X&X;X;X!.3.<.V.j.j.p.j.r.R *.j.3.+.j.!.Y.!.&X`.G.G.).+X<.| j.7.j.7.+.] | <.<.+.p.V.!.[.j.! ! <.h D ] +.! | <.<.1.| <.1.3.*.*.<.<.*.+.3.<.! ! c.j.j.A.A.A.c.p.p.V.!.!.V.j.j.!.!.#X`.j.<.3.3.+.3.+.! <.j.Y.!.V.j.d.j.7.j.!.G.j.V.j.p.d.d.p.j.j.j.!.Y.!.j.3.k r ( ..r.j.j.c.c.j.<.j.j.3.+.<.c.Y.r.*.<.*.j.c.;X;X&XY.j.A.A.j.<.<.*.7.V.c.j.7...<.j.f.c.Y.p.+.*.<.3.d.d.j.V.G./.!./..X&X.X!.Y.<.j.j.Y.!.!.!.c.j.!.Y.d.<.j.c.j.j.c.j.c.A.Y.j.j.j.j.j.c.j.V.j.J.Y.!.A.j.3.( ! ! ! *.d.d.d.p.p.3.( ! <.+.<.3.Y.!.j.j.<.+.j.V.!.`.j.7.d.7.<.3.j.j.r.j.Y.V.Y.A.j.A.Y.j.<.d.p.+.} <.j.V.c.7.p.7.<.j.r...7.c.j.r.r.p.<...3.3.j.V.A.j.r.p.j.c.c.c.Y.!.A.V.!.Y.V.V.G.G.!.!.Y.G.!./.!.Y.!.Y.c.p.3.+.<.r.7.p.j.p.d.d.c.!./.V.3.7.Y.!./.`..XA.!.!.`./.A.Y.!.&X#X!.A.!.;X!.<.*.r.p.j.r.<.<.p.p.<.d.j.r.<.<.3.r.<.3.<.3.j.<.} ! ( 7.d.d.j.7.! R 1 $ % = r +...! R v 3.!.j.! ! } ( *.! } p.r.*.r.P.Y.j.r.r.d.A.!.Y.j.+.R R } r.d.<.....<.<...( +.<.<.+.<.j.G.A.c.c.d.p.j.A.V.p...! +.<.p.d.j.d.+...<.p.V.<.} <.7.r.j.c.V.c.c.j.j.p.j.G.c.G.p.3.<...+.+.A.!.r.<.r.r.+.+.+.+.+...! ! <.j.p...( +.*.<.! ..*.r.",
"!.p.! ! +.+.+.+.<.7.<.*...! +.3.3.p.p.<.<.j.!./.!.c.j.j.A.A.V.V.c.V.A.A.c.j.j.c.j.c.V.V.V.G.G.A.j.c.d.7.j.c.j.r.V.V.V.A.G.A.j.p.G./.`.!.!.!.Y.j.j.G.!.Y.!.!.!.#X`.`./.!./..X`.!./.#X!.!.`.!.G.!.`.;X.XV.A.`.#X`.c.V./..XY.c.j.*.( V.A.r.<.r.V.V.<.<.3.<.c.;X,X&X!.j.3.p.j.r.3.7.7.<.<.7.r.3.d.d.d.j.j.j.p.A.!.V.!.`.!.j.<.r.G.Y.V.j.c.G.p.j.;X;X#X!.`.!.;X.X`.;X;X#X#X#XA.<.*.d.V.j.r.`.`.j.<.p.<...j..X/.!.;X,X!.G.!.`.p.7.~.j.<.+.| +.p.~.=X!.>.<.D.=Xl.| <.i.>.! D } ~ } #.5.7.*.<.*.( ! | <.*.( ( p.p.<.<.Y.j.V.V.c.G.V.r.3.G.G.c.j.c.!..X!./.`.c.r.V.A.j.!.G.j.c.G.Y.G.j.j.7.3.+.r.Y.V.j.j.j.j.G.j.r.j.j.d.j.! p.A.p.h , h +.c./.`..X!.r.*.p.p.j.V.A.!.!.j.d.j.7.r.d./.!.!.!.G.j.r.7.<.p...3.c.Y.G.d.<.p.c.c.V.G.j.3.<.<.r.V.j.p.p.V.`./.!.G.`.!.!.j.3.A.V.!.G./.&Xd.<.!.`.G.d.j.3.<.7.j.A.A.c.G.d.j.c.c.V.j.d.j.7.j.c.A.c.p.<.( +.<.} ..j.d.p.<.<.3.} ! +.+.7.p.G.Y.r.r.p.<.d.j.G.!.j.3.j.7.3.d.j.r.7.j.c.G.!.G.V.A.V.c.A.A.<.! ! } *.7.r.<.*.( } d.j.7.c.A.V.c.c.V.p.<.V.G.G.V.j.<.} *.7.c.j.j.A.!.G.G.!.!.c.c.Y.Y.Y.!.!.G.Y.G.c.c.Y.G.j.*.} J ( c.!.!.!.j.3...<.V.!.7.N n <.j.Y.!.;X`./.!./.!.V.c.A.!.Y.Y.G.!./.A.7.3.d.7.3.3.3.j.A.j.r.j.j.d.d.d.p.d.r.*.} 2.j.1.( ! ! ! ..<.p.r.<.<.a r f a k ! } ! J N +.r.<.! ! ..! ..! ! p.p.+.<.j.c.d.j.j.j.j.c.r.*.<.<...! <.<...( *.d.j.r.<.<.<.<.j./..X!.Y.!.!.j.7.j.!.c.+.R ( *.+...+.<.3.*.( ! <.c.<.R ! R ! 3.p.j.V.A.c.p.7.j.j.3.V.c.p.*.R 7.7.!.!.<.<.<.<.<.<.<.<.<.<...( } *.<.<.<.<.7.d.<.3.<.<.",
"c.p.<.<.<.+.3.7.3.7.*.<.j.j.p.<...} <.<.*.3.j.V.A.j.p.j.j.c.c.c.d.d.j.c.G.A.c.c.3.j.A.j.d.j.j.j.j.c.j.p.j.c.d.p.c.c.V.Y.!.!.G.j.A.!.!.G.G.!.A.p.<.j.c.V.Y.!./.!.!.`.#X.X.X#X`.!./.#X/.U.!.!.Y./.Y..X.XY.A.!.`.;XA.Y.#X&XY.c.j.<.! j.G.j.j.j.c.G.<.d.r.c.Y.`.5X;Xj.r.p.V.V.p.<.3...<.j.!.G.7.3.p.V.A.Y.V.j.!.`.Y.p.V./.!.j.j.Y.!.G.f.p.j...! G.5X;X!./.A.#X;X!.!.&X&X;X#XV.3.<.7.A.j.j.,X;X!.r.j.j.7.j.`./.A.!.;X+XL.V.W.j.j.$X!.+.! ! o.i.!.;X;X} ! p.`.V.<.<.<.<.] D ! ! | +.| <.+.#.( U ! ..1.3.( ..Y.G.c.c.`.<.<.<.a.A.Y.Y.A./.j.p.j.V.!.`..X#X!.7...r.j.A..X;X!.!.G.V.A.V.V.j.3...<.p.j.G.Y.G.Y.!.V.c.!.G.p.} z *.!.!.+.r a } j.G.G.`./.j.j.c.j.G.!.G.j.j.j.j.A.j.j.Y.Y.j.A.j.j.p.<.p.p.j.+.<.d.V.c.r.7.A.G.!.!.V.7.p.d.3.d.j.r.<.<.G.#X.X.X!./.A.Y.V.j.!.Y.V.c.!.`.<.D d.!.V.A.!.p.p.7.7.j.!.j.A.j.A.!.!.G.d.3.<.*.d.c.G.j.<.<.+.*.p.+.! <.7.3.<.<.7.<...+.<.j.j.c.j.<.p.A.j.d.d.c.!.A.V.`.c.j.d.r.r.j.A.c.G.j.r.V.`.Y.j.G.j.! J ! } ..<.<...! J ! j.A.j.A.j.j.A.A.G.j.3.A.c.j.7.<.! U ..<.c.c.j.V.G.V.A.!.Y.j.c.!.!.!.!.!.V.j.j.p.j.Y.Y.d.<.<.! } G.;X/.!.d.*.} <.d.c.j.+.N ! ! ( <.A./..X!..X/.!.A.A.V.j.j.A.A.j.r.<.*.<.j.3.<.<.r.j.r.3.p.j.c.!.Y.d.p.r...! *.p.7.} ( ....<.7.3.*.} j.3.J Q U ! ( ! } *.R ! ( ! ! ....! ! U ..j.j.*.+.<.*.<.j.A.d.7.<.! ! ( <.! J *.7.<.+.7.G.!.j.<.<.<.j.Y.&X;X`.!.!.!.c.3.d.j.7.! R ..7.<.*.+.+.<.<...<.<.p.} ! *.! ! *.3.j.A.G.d.<.7.V.d.*.j.A.V.r.+.d.j.V.p.<.7.j.j.r.p.7.<.<.*...*.3.+.+.p.j.7.3.j.3.+.! *.",
"j.p.3.<.( ! 3.p.*.<.*.7.c.c.V.j...! ..<.*.<.j.c.c.d.7.r.j.V.j.d.<.3.r.j.Y.!.A.V.3.c.G.j.j.j.j.r.p.j.j.r.j.j.j.j.A.c.c.G.!.!.A.c.V.A.A.j.j.c.j.r.3.p.r.j.!..X`.G.A.!.`..X.X.X`.~.`..X/.!.#X;X`..X/.!./.!.!.V.c.!./.G.Y.!.A.j.A.!.j.Y.Y.Y.!.G.j.j.j.Y.j.!.!.j./.&Xj.<.<.j.V.3.<.r.r.p.7.j.c.d.d.j.V.G.A.j.d.V.!.Y.7.j.!.!.V.c.G.!..Xp.<.r...U <.!.;X!.`.j.d.&X!.j.!.;X7X;XY.j.j.p.V.c.p.V.3.<.<.!.V.j.c.!.!.d.j..X9X;X$X`.V.V.~.G.i.~ U ! } } 5.V.0.| o.i.<.o.o.! ! ] ! +.! ! | +.*.} } ~ ! +.+.*.<...3./.j.r.p.!.d.<.<.r.p.j.V.j.j.j.p.+.<.G.`..X#XG.*.( <.3.j.Y./.Y.Y.A.c.Y.!.!.Y.c.d.p.7.p.!.!.`.!.Y.c.!.#Xj.<.<.3.A.G.!.&X..h W j.!./..X!.A.Y.`.Y.c.3.....<.p.j.j.j.V.`.c.r.Y.V.j.7.<.d.r.j.7.<.p.d.j.7.p.!.`.!.!.c.3.j.G.j.p.d.s.p.r./.;X`.!.A.p...p.j.V.j.j.( *.7.j.<.R p./.c./.#XV.c.7.<.r.c.3.!.V.j.Y.Y.G.d.<.( ..c.Y.!.G.p.d.+.J } *.*.j.d.7.<.<.<.<.<.<.<.j.j.d.p.<.j.!.r.<.p.V.!.!.!.;X!.j.<.<.r.G.!.A.j.*...j..X!.G.!.j.} ! ! ! *.3.3.! D D } c.G.j.V.j.j.A.c.V.j.<.p.7.p.<.<...! <.7.j.c.c.c.j.j.j.Y.Y.c.V.!.!.!.Y.!.c.j.p.f.j.!./.V.7.d.7.<.G.&X/.Y.3.*.3.d.<...d.!.7.} N ! ( d.!.`.!.`./.!.!.!.!.!.V.V.j.j.p.<.....j.3.*.<.7.3.<.+.7.d.c.!.G.r.r.d.<...<.7.r.+.<.3.<.7.3.+.! n R } ..U D *...R ! r.+.} +.R n C ! ( ! ! *.j.p.+.+.+.! <.A.Y.d.<.+.! ..( <.! R 7.r.+.+.<.j.A.j.3.3.3.A.j.V.`.#X`.!.A.j.3.p.d.7.3.+.! *.<.<.<...*.7.<.....+.! ..<.( U ! *.p.V.c.<.*.p.j.p.<.j.G.!.j.j.p.d.p.*.<.r.7.p.r.p.<.} } } +.3.G.r.<.j.A.j.p.A.c.d.<.<.",
"7.3.<.*.! ! <.<.*.p.<.<.<.<.d.j.*.} +.<.<.3.d.j.j.d.r.r.j.G.c.p.*.<.7.d.V.V.j.d.r.j.A.G.G.V.j.j.r.j.j.r.p.c.G.A.A.c.c.G.!.!.!.!.G.Y.Y.V.d.d.j.d.c.j.<.r.G..X.XV.A.!./..X#X.X.X`.`.!./.!.`.&X.X&X&X`.!.!.Y.V.d.V.!.j.j.V.c.j.G.&X&X.X/.!.!.!.A.c.!.;X!.&X`...( c.j.<.<.j.j.<.<.r.!.Y.7.*.7.d.j.c.A.!.!.G.A.A.Y.!.V.A.V.j.j.j.G.`..Xj.+.*.<.+.<.Y.`.p.j.! a ..7.<.G.`.;X#X!.Y.A.d.j.j.<.( N U ..c.p.<.r.G.A.j.A.;X;X;X:X!.V.L.W.C.<.| ~ #.#.! } i.!.g.o.] ! ! ~ ! ! ] ! <.! F ~ >.+.( ~ ( ~ <...! } +.7./.j.<.*.V.j...*.d.<.<.V.j.<.j.j.! +.Y././.!.j.*.3.j.j.c.V.c.j.G.c.j.c.V.A.j.V.c.c.j.j.!.!./.A.c.d.j.3.J U <.!.!.c.A.`.+.i ( G..X&X.XA.j.c.3.j.G.j.<.<.<.r.V.c.j.d.A.r.r.Y.G.V.r.+.<.<.r.p.<.3.<.7.j.r.c.#X/.G.V.j.j.A.V.d.7.7.p.3.A..X/.V.( ! N +.r.c.+...J +.+.d.Y.j.V.!.A.`..XA.j.<.3.p.r.} !.Y.j.G.!.Y.p.<.} <.A.G./.!.p.<.! N R *.<.j.j.<.+.<.*.*.<.<.*.r.7.3.3.7.j.!.<.+.d.A.A.Y.!.!.!.j.<.+.<.j.A.j.p.<.r.V.G.G.!./.j.<.*.! R } } ! R U ! *.j.j.d.A.!.!.Y.j.j.j.7.<.3.j.r.p.3.<.r.7.p.j.A.V.j.d.j.G.!.A.G.!.!.Y.G.G.V.j.j.j.j.Y./.Y.j.j.j.r.V./.Y.V.r.7.r.3.( R <.G.c.r.<.j.V.!.!.j.j.A.A.!.!.`.`..X`.Y.c.V.c.<.} +.<.3.<.p.j.r.7.*.<.p.d.j.p.3.d.j.j.3.r.p.j.3.r.d.7.<.*.+...D R ! ! C n ! +.} } j.! } j.! f v ! 3.3.3.<.7.<.+.<.<.+.p.V.c.p.3.<.+.3.<.r.<...j.d.+.*.<.p.j.p.r.j.j.V.p.j.!.`./.!.c.r.<.3.r.p.j.<.R J R ! ( ! } <.} J ! ....<.<.! N J +.p.j.j.<.<.j.G.G.G.V.j.j.} ! ( ! ( } <.3.*.<.<.3.*.( +.+.*.7.`.!.d.r.j.j.p.j.A.G.p.*.",
"! ( <.3.<.<.r.*.3.j.7.<...! +.+.*.*.*.<.7.3.3.7.d.d.d.d.c.Y.A.d.+.3.7.7.d.p.<.<.3.7.j.!.`.!.c.j.7.j.j.d.j.!.`./.Y.G.G.!./././.`.!./..X!.j.d.j.j.!.c.<.<.j.!.!.c.!.!.`.#X#X#X#X&X/.!./.!.G.!.!.&X#X`.!.c.V.!.G.!./.!.!.`.&X/.!.`..X#X;X!.A.!.#X!.!.5X;X;X;XU s +.d.r.r.j.d.7.7.p.!.;X!.j.r.7.r.r.3.c.G.G.G.j.j.j.Y.!.V.r.p.j.!.;XV.j.7.<.7.7.7./.`.( *.N % r U } V.G.!.!.Y.!.Y.p.<.p.3.+.*.j.A.!.V.<.7.P.j.p.c.!.#X;X;XN.g.!.!.W.} o.} } +.+.<.j.+X!.0.+.o.| #.o.~ <.+.p.<.+.<.} ~ ! ! ( ! 1.+.! ( +.<.`./.G.r.G.j.! +.c.<.<.Y.V.j.c.j.<.j.!.Y..X.Xz.3.c.G.j.j.d.j.j.!.G.j.V.G.Y.c.!.Y.G.!.!././.!.V.Y.G.j.! N <.! <.<.V.G.<.n c } r.3.j.!.A.Y.V.R <.!./.c.3.<.j.Y.!.V.<.r.3.j.A.A.Y.c.<.3.r.j.d.*.3.+.r.Y.p.p.#X/.3.7.p.<.r.c.A.r.<.+.D } V.!.p.} +.! *.p.!.<.<.7.j.+.<.(.!.c.j.V.!.!.j.3...j.j.j.R V.V.d.Y.V.7.3.<.<.7.A.j.!.`.A.<...*.<.3.7.j.p.! ..p.p.7.7.<.} <.<.<.<.r.j.A.f.<.j.V.d.j.A.Y.Y.Y.c.3.*.p.j.7.3.d.A.V.p.p.j.j.p.<.3.<.+.*.! R } ..*.<.r.7.7.Y.G.Y.V.j.j.A.A.p.j.G.c.V.j.d.c.d.7.j.Y.Y.V.j.j.!.!.A.V.Y.Y.Y.!.!.c.j.j.j.r.j.G.A.j.d.p.7.c.!.A.V.j.j.<.! ^ +.*.3.3.3.<.j.A.&X`.3.<.j.c.!.!.`.!.!./.A.d.j.j.7.+.<.<.d.r.j.j.r.r.} <.d.j.j.j.j.G.G.V.j.j.c.Y.j.j.j.<.*.7.p.3.R J C ! ..J C ! <...<.C R V.<.N ! 3.j.c.c.d.7.<.*.7.7.<.p.d.7.3.r.r.p.<.*.j.3.+.j.c.j.r.7.p.j.p.d.V.G.V.V.!.`.!.G.G.j.7.} ..*.<.7.<.! ! R R ! ( *.<.! D ( ..*.3.<.U z ! 7.c.c.j.3.<.j.j.V.G.j.7.r.D N +.! ( <.7.3.*.<.<.7.<.*.3.<.*.<.j.G.r...r.j.j.j.p.r.<.*.",
"U ! *.7.<.<.d.7.p.j.<.+...! *.3.<.<.7.d.3.<.3.d.j.j.G.j.G.!.!.c.3.j.c.p.d.j.r.<.<.*.p.!.#X!.V.j.3.r.7.<.d.!.#X.X!.!.V.d.V.!..X;X/.&X;X.XY.j.j.c.V.!.c.<.7.V.G.G.!.#X`././.!./././.`..X.X!.V.!.#X#X!.c.j.j.A./.!.`.;X;X`./.;X;X`.;X.X.X/.A.Y..X!.V./.!./.!.r.<.!.c.7.d.d.r.p.j.A.j..X&X!.j.<.<.+.*.<.j.Y.V.d.j.V.!.&X!.d.7.j.A.A.<.r.j.7...+.r.!.!.!.,Xc.q 7 D A..X!.c.*.7..X`.j.j.A.d.<.c.!.A./.r.} <.d.c.*.( <.!./.j.j.;X;X;X.X<.<.<.7.<.+.d.!.;X#XY.3.! ( ..! ! <.<.Y.c.<.*...( } *.<.+.<.p.} *.<.+.<.r.j.!.;Xj.3.<.p.j.j.j.c.Y.c.j.!.;X`.!.#X;Xj.<.j.V.j.j.j.j.p.j.d.j.!.`.Y.G.G.!.#X`.`.&X;X!.j.c./.<.3.G.c.j.3.j.3.<...k D <.j.c f A.!.A.!.<.d.j./.!.!.!./.!.A.j.7.7.d.j.c.!.A.j.c.<.! <.j.<.j.7.3.c.r...7.7.j.3...7.j.j.A.r.<.3.<.} j.!.r.! C <.<.c 3.J p.c.A.*.<.A.c.G.!.A.<.d.p.<.7.r.j.j.! <.j.r.j.r.7.<.<.j.j.A.V.!./.j.j.3.<.! ! <.3.r.+.<.A.r.7.7.7.<.r.3...3.c.j.V.p.p.r.*.<.<.j.d.A.!.G.<...<.<.*.3.*.*.r.7.3.p.3.<.<.<.<.<.} U ! <.<.! ! <.<.3.c.j.j.7.7.V.!.V.j.7.! ! r.d.r.c.G.c.j.V.Y.c.j.V.A.Y.c.j.Y./.!.V.j.r.<.d.<.<.d.A.A.j.j.V.A.d.A.c.3.j.c.7.<.j.p.<.r.! } 3.p.A.G.G.7.7.3.j.j.V.!.!.!.`.A.p.p.j.r.*.<.r.p.7.7.j.c.j.j.7.j.A.j.A.!.Y.!.A.d.Y.Y.#X!./.j.+.<.p.V.j.3...N ! N N ! N ! R } U N j.j.<.j.p.c.G.G.c.c.c.c.d.<.+.<.p.3.<.j.G.r.7.p.V.p.3.G.!.c.j.<.<.d.r.d.A.d.p.d.G.j.7.j.j.7.p.7.<.*.7.<.! +.( ! } ! ! ( +.J R ! ..+.+.7.p.<.p.p.<.p.d.*.7.G.d.p.p.<.<.7.<.<.7.3.*.<.d.r.*.*.r.p.j.p.<.<.*.<.j.j.<...r.V.c.j.r.7.<.! ",
"..} +.<.+.*.d.j.j.j.7.7.<.} <.r.d.3.r.j.j.j.j.j.G.!.!.c.G.Y.!.c.d.V.Y.j.p.d.j.A.j.r.d.Y.!.A.c.j.j.j.p.3.d.Y.`./.`./.A.j.V.j.p.j.!.!.#X.X!.Y.Y.!.!.!.V.d.j.c.A./.Y.`.!.!.!.!.!.!././..X;X&X/./.&X/.L.j.j.j.c.`.#X&X&X.X#X&X#X&X;X;X&X.X/.!.`.;X;Xc.r.! ! <.p.`.#Xp.r.c.j.<.<.3.j.A.!.!.!.V.j.j.r.<.3.j.Y.j.p.j.Y./.#X!.j.d.d.r.3.7.j.c.<.( +.<.<.<.G.7X!.n J d.j.3.Y.r.j.`./.G.r.A.j.<.+.V.!.G.`.c.<.3.c.Y.7.<.<.!.!.*.*.&X5XqX,X!.j.3.f.7.+.7.!.c.c.j.*.! ..<.<.! ! R j.j.*.*.<.U ! V.A.! *.Y.j.7.<.+.3.<.*.j.!./.c.V.A.j.j.c.p.7.d.A.!.`.`.!.!.`.j.3.j.c.j.V.A.V.j.r.7.c.!.A.c.j.j.Y./.`..X#X#X#X!.V.G.J ( c.!.A.7.r.<.<.<.C ( <.Y.} N A.`.Y.A.3.d.r.c.!.#X.X!.c.c.G.!.A.7.<.7.V.Y.V.V.p.7.j.d.p.d.3.<.3.<...<.7.p.<.*.d.j.r.d.<.( } ..*.j.A.<.R N <.( r } ! 7.G.!.<.*.j.c.G.Y.G.r.A.G.j.V.V.V.p.<.j.G.j.7.<.r.( +.7.r.V.G.!.Y.p.j.p.7.3.....<.G.7.<.j.<.<.3.r.j.j.7.*.7.j.3.<.A.d.7.*.<.<.r.d.r.j.c.p.7.r.<.<.r.7.7.p.7.r.j.7...( ( <.<.*...<.<.r.+.! ( ..<.j.*.<.3.3.j.c.j.7.j.<.d.j.3.<.j.!.!.j.r.d.d.j.Y.G.!.c.j.V.G.j.p.3.r.7.j.j.c.c.G.!.G.Y.A.j.<.p.j.7.j.A.V.A.!.c.r.p.<.U <.V.!.j.3.j.j.3.3.r.c.!.!./.;X!.A.G.Y.j.r.r.<.7.7.r.c.A.j.j.j.V.G.j.V.Y.V.A.j.<.V.Y.!.c.G.j.<.d.c.Y.V.p.<.U } ! J ! N ! J ! ! ! j.c.j.A.j.j.G.G.G.G.G.V.j.3.} <.r.3.<.V.!.G.c.j.A.j.7.c.A.d.<...+.<.*.3.Y.Y.j.7.d.7.+.*.<.<.r.7.3.3.7.<.! ! +.! ( R ! ! +.( ..! ! ! ( <.r.<.7.7.+.7.p.+.<.j.j.7.+.( <.V.Y.V.V.j.3.<.d.p.7.r.p.p.j.p.r.d.p.j.r.j.3.+.7.j.c.G.d.r.<.R ",
"*.} } 3.7.7.j.c.A.c.A.G.d.3.j.j.j.3.<.7.j.A.V.d.j.!.Y.p.c.V.V.d.r.j.A.V.j.r.r.Y.!.c.c.!.!.Y.j.7.p.j.j.j.j.G.!.!.!.G.c.G.!.j.<.7.j.j.G.!.!.!./..X!.!.V.V.A.j.A.&X/.&X`.`..X!.!.!.`..X#X;X,X;X.X;X.X!.A.V.j.j.!.#X.X.X!.&X;X.X.X&X#X#X#X.X&X;X&X;X;XY.R R +.r.!.c.<.<.p.j.p.d.j.V.!.V.G.!.c.j.!.!.j.j.G.G.d.3.j.!.!.!.V.p.p.p.<.*.7.j.c.<.*.r.<.} ..G.;XY.7.`..X} N <.N <.;X!.Y.A.G.d.*.*.c.Y.V.!.`.!.Y.Y.j...<.r..X5X/...! ! #X,X&Xj.*.r.p.+.} j.j.j.j.<.+.<.r.3.! ! ( !.!.<...} N ! `..X..<./.Y.j.3.<.r.<.+.c.#X/.j.V.!.j.V..X/.G.!.;X^.V./.#X&X.Xc.7.j.V.V.!.!.Y.V.p.p.!./.j.j.!.!.`.&X;X;X`.G..X!.d.3.a h N ! 3.<.<.3.j.3.R ! *.c.j.<.j.G.V.j.r.V.r.p.A.;X&X!.j.p.j.!.j.<.7.j.j.!.V.p.7.j.!.V.p.7.r.p.7.3.7.3.<.<.*.<.d.r.<.r.7.<.<.3.p.V.A.p.! N *.! r 3.j.Y.!./.r.<.G.Y.Y.G.V.<.j.G.j.V.j.p.7.c.!.!.j.<.+.7.*.<.3.<.c.!./.G.p.c.d.7.c.j.*.7.A.7.<.j.<.<.3.r.7.p.r.+...7.7.3.j.<.<.*.7.7.<.j.! ..<.<.<.<...*.j.d.<.+.( <.p.*...R R <.......*.7.7.+.U U ( <.p.p.j.j.p.7.j.c.j.C.V.`.A.<.3.c.!.!.d.<.7.7.r.A.A.!.G.A.A.c.j.d.j.j.j.!./..XA.j.c.c.V.c.j.r.V.Y.G.!.!.!.!./.!.j.d.r.( p.j.A.j.+.+.3...+.<.j.!.!.c..XY.A.!.!.G.V.c.j.c.c.c.Y.!.G.j.c.!.!.A.j.j.j.c.r.+.j.G.G.p.V.c.p.V.!..X/.c.<.D ( ( U R R <.+.<.r.7.j.j.A.Y.j.d.A.A.Y.G.j.p.<...<.r.p.<.*.r.V.A.!.G.!.c.<.j.V.r.p.<.<.7.3.j.!.!.V.r.r.<.! ! ..r.7.3.3.<.*.*.} ....! ! U ! R <.r.<.} ! ( ( <.7.<.p.r...<.r.*.<.j.j.7.<.*.<.j.!.G.V.d.<.*.=.*.3.j.c.j.d.<.<.r.r.p.d.j.j.7.r.d.c.!.!.c.7.! ",
"r.*.} 3.d.j.j.3.V.A.!.!.c.j.V.V.j.<.} +.r.c.j.<.j.Y.j.<.c.A.V.r.3.3.p.j.G.j.r.j.!.`.#X`.!.!.A.r.+.3.d.d.r.3.r.j.j.p.p.j.G.j.d.j.j.j.j.Y.!.!.`.`.Y.G.V.A.G.A.!.&X;X;X#X&X;X.X.X.X&X;X;X#X;X;X.X#X.X!.Y.Y.c.j.V.!.!.&X!.`.;X;X;X&X!.G.!.#X&X#X!.A.;X`.<.3.j.7.j.j.j.p.7.7.r.d.j.j.Y.V.G.!.j.j.Y.!.G.G.!.G.d.3.j./.Y.!.V.r.p.j.7.<.<.p.d.<.<.j.p.*.3./.;X/.!.5X,X<.U 3.! 7.#X/.A.c.A.c.d.d.j.j.j.G..X;X#X!.r.J *.7..XwXwX( 0 r #X;X5X!.j.j.d.3.+.j.Y.G.A.c.j.j.7.( C U } !.A.<.+.( U *.A.c.<.p.A.V.7.3.<.3.3.<.j.;X/.r.j.!.V.V.&X;X.X.X&Xj.+.j.!..X;XA.<.r.V.Y.!.!.A.c.j.V..X!.d.j.#X.X&X;X;X;X!.j.Y.Y.p.d.N Z c N } } } *.p.3.+.+.( ..d.p.j.j.d.r.<.!.j.<.7.!.#X.XA.7.r.j.r.p.A.c.A.#X!.d.3.r.V.j.r.3.r.p.3.<.<.*.<.<.<.<.3.<...7.j.j.j.p.d.j.A.G.+.N ! ( N A.!..XY.Y.7.<.j.p.j.Y.A.<.r.j.d.j.r.} 7.`.!.c.d.*.+.<.j.r.r.<.p.j.A.p...d.d.<.j.c.<.r.A.p.7.j.3.<.....7.j.c.<.( 7.V.V.7.*.+.*.r.d.} 3.<.3.p.<.+.+.+.<.j.d.r.<.+.<.7.*.<...( <.<.<.<.7.d.<.} ! +.7.p.j.j.G.!.c.r.j.V.j.!./.#Xj.*.3.7.j.A.r.7.j.p.<.d.c.A.G.G.V.g.r.j.A.j.d.j.j.G.p.<.7.3.3.3.j.j.!./.!.&X.X/.~.!.!.c.7.<.p.j.<...j.j.p.d.*.<.p.r.V.!.j.d.3.p.V.V.V.!.!./.`.!.Y.!..X`.!.G./.#X!.V.r.7.c.j.*.p.c.V.j.G.V.7.c.!.`./.V.<.N *...R ! +.j.p.j.A.V.j.p.c.G.j.j.j.V.!.V.7.<.<.<.7.j.p.*.} <.j.G./.`.!.d.*.r.c.j.d.d.j.V.c.V.A.j.3.3.j.j.<.! ! <.<.+.<.+.( +.<.<.+.! ! ! ! D } r.<...+.*.....<.<.p.7.! ..<.*.<.p.j.p.<.<...+.j.V.d.7.<.+.( ! <.j.Y.c.p.*.} +.<.<.j.c.V.A.V.c.Y..X!.j.3.} ",
"r.<.( ..3.j.c.r.3.j.G.c.j.j.j.d.j.r.*.+.7.j.p.<.j.V.r.<.V.A.c.3.<.*.+.<.c.A.d.j.!.;X;Xj.<.p.j.p...<.<.3.<.<.3.p.j.j.j.j.j.j.j.c.A.c.j.V.A.G.`./.!.!.Y.V.Y.!.!.!.#X#X/.`..X!.!.`.&X;X,X.X`.;X.X/.!.Y.c.A.c.p.j.c./.;X#X/.#X;X;X&XA.d.!.;X#X#X!.c.j.r.<.<.r.7.j./.!.c.3.<.*.<.r.j.Y.Y.!.Y.Y.V.j.j.Y.!.!.Y.c.d.j.Y.A.!.!.j.j.c.p.7.<.<.<.} ..7.3.<.j.G.!.`..X#X#XV.r.c.A.A.G.&X!.Y.j.A.c.d.7.3.r.p.c.G.A.c.j.} <.*.7./.&XN 4 h 7X&X5X;Xc.<...j.j.Y.`.!.!.!.Y.c.<.C ( ( ! <.( +.3.<...<.<.+.+.<.7.7.<.3.<.<.j.<.<.!.&Xj.j././.!.!./.`.!.#XY.p.A..X&X;XY.7.p.A.Y.Y.A.j.p.j.Y.!.G.j.A..X`..X.X#X;X&X!././.c.G.+.<.R U ..<...+.3.7.d.j.d...3.p.c.j.3.*.<.V.7.} *.A.`.&X!.j.3.p.j.j.c.j.Y.&X/.!.A.7.7.3.r.7.3.<.3.3.<.<.r.j.j.p.r.7.<.j.j.G.V.p.p.V.!..XP.3.<.<.r.`.Y..X&X#Xc.<.d.3.j..X!.r.d.A.G.G.r.! <.#X!.j.p.3.3.p.r.} *.<.3.r.j.<.J p.A.7.d.j.3.7.A.j.7.p.<.<.} } 7.p.r.<.} <.j.c.7.<.( } <.j...<.j.j.A.p.<.3.p.j.p.p.d.j.<.*.7.7.<.1.} +.<.3.*.7.j.<.<.3.j.G.j.x.j.A.Y.c.p.j.j.p.j.Y.!.<.<.p.<.d.d.<.d.G.d.+.<.d.d.j.j.j.p.3.r.j.<...( U +.<.<.7.d.p.7.j.d.G.G.G./.!./.`.`./.c.<.<.V.A.p...<.Y.!.V.<.j.!.7.*.d.r.7.<.p.j.d.j.Y.`.`.`.!.!.!.#X&X`.!./..X&X!.d.r.c.A.5.r.d.V.A.A.p.<.c.!./.!.j.<.! *.} ! ..r.A.j.G.V.V.d.p.V.G.V.Y.V.!.!.j.<.<.7.j.c.c.d.<...*.d.!.!.!.j.<.<.3.r.j.d.V./.`.!.j.p.3.*.3.c.V.j.<.! ..} } <.*.! ..+.....( ......U } r.+.! } <... ...( <.<.! ! +.( } +.7.<...<.<.*.p.j.p.<.*.*.+.( +.d.j.j.p.<.+.*.<.3.3.7.j.!.!.!.!.`.V.7.<.*.",
"<.<.*.*.3.j.!.Y.*.r.j.r.7.d.r.3.j.d.3.<.7.p.7.3.7.r.*.<.Y.G.G.d.3.<.<.3.A.!.V.!./..XY.<.! <.r.+...*.<.r.j.j.j.j.A.G.G.c.j.d.p.p.j.j.3.d.j.V.#X`.!..X!.A.Y.`.!.V././.Y.!./.G.!./.`.`.,X;X`.&X`.!.!.!.V.A.c.d.j.j.j.G.`.#X&X;X;X&XY.7.Y.&X.X;X&X!.j.*.+.<.+.3.G./.!.j.<.<.p.j.G./.!././.G.A.A.j.j.V.Y.!.!.!.V.c.Y.Y.Y.G.r.r.j.p.d.j.3.*.( ^ +.<.7.V.j.j.Y.`.V.j.d.d.j.!.j.( A.A.!.d.j.p.<...<.j.j.3.3.<.7.j.7.d.3.! j.A.J f ..7X/.Y.j.} N D Y./.!.#X/.!.Y.V.j.7.} 3.<.} ..! <.d.<.( *.*.*.} ( +.! <.<.( ..j.3.} A.,X/.G.!./.!.G.V.V.c.!./.G.G././.&X/.V.Y./.!.!.Y.j.p.A.!.V.V.L.!./.!.!.!.!.#X;X;X/.!.c.j.<.d.7.r.d.Y.j.r.p.j.j.j.Y.j.j.p.j.j.7.<.d.c.<...<.c.!..X!./.j.G..XY.A.Y.&X;X!././.d.3.7.p.j.p.p.j.j.p.r.<.7.j.d.d.j.r.V.V.Y.V.j.A.`.;X;X#X.XG.j.!.;X/.;X#X/.j.+.j.j.c.V.A.j.c.!..X/.j.} <.!.Y.j.j.p.j.c.<.! +.<.3.p.G.j.*.j.c.7.j.A.s.<.r.d.7.r.3.d.7.7.j.j.j.j.d.<.3.c.3.p.<.*.} d.<.d.<.7.j.p.<.r.r.r.j.<.<.r.<.+.<.<.3.d.<.7.j.j.<.j.j.7.r.j.A.j.3.j.V.A.A.j.d.d.d.7.<.c.G.r.j.j.7.V.<.} r.j.<...( <.r.p.j.c.V.j.j.j.r.<.+.R +.3.p.p.j.c.c.A.j.j.j.A.V.G.!.`.`.!.V.p.r.V.j.Y.j.r.c.j.j.*.j.#Xp.! *.7.A.A.Y.G.j.j.A././.!.!.!./..X.X!..X`.!.&X;XY.j.j.A.j.7.3.j.A.j.*.<.V.!./.A.<.} ! ! ! ( <.j.G.V.!.c.j.j.A.Y.G.V.Y.A.!.!.<.( <.<.j.!.A.d.3.+.+.7.j.G.j...<.j.<.+.r.j.j.Y.!.!.V.7.3.j.V.!.!.!.V.<.*.<.<.7.*.! ! ( } ( ( <.<.<.} <.p.*.! ! ..*.<.*.! } <.+.<.<.! ! R ( } +.7.p.7.r.p.j.3...<.r.<.} <.3.p.r.7.<.<.3.3...+.p.Y.!.Y.A.j.7.*.<.<.",
"<.7.3.7.r.j.Y.!.3.<.p.p.7.p.r.<.7.r.<.<.<.3.<.7.<.<.*.j.`.!.`.Y.*.<.<.<.j.j.3.j..X/.V.7.3.j.r.! ( *.7.d.j.j.j.j.c.j.j.d.r.3.3.<.r.7.*.<.7.c.&X/.!.!.!.Y.!./.!.G.!.!.!.`..XY.!.`.!.c.#X;X`..X!.G.!.`.!.!.G.j.d.j...<.!.;X;X,X;X,X!.p.A./.!.#X.X.X.X3...d.r.r.Y.!.`.G.d.A..X`.#X;X/.!.!.G.V.G.V.A.j.G.!.!.!.Y.!.`.`.j.7...<.j.r.j.c.r.3.<.*.<.<.7.c.V.A.j.V.3.*.<.<.c.Y.j.! +.*.<.j.j.7.<.} 7.!.!.7.<.<.<.d.p.j.j.<.7.p.<...!.qX#Xc.j.+.D C !.&X.X!.G.Y.!.!.!.c.3.( ! ..p.<.7.p.+.! ....7.<.! +.T } <.! R d.j.*.p.&X`.!.A.j.j.j.V.A.c.c.!.!.V././.#X/.Y./.&X`./.`.A.j.Y.!.A.A.!./.Y.Y.!.!.A.V.!././.!./.A.d.V.Y.!..X5X!.7.3.j.A.V.p.j.j.7.c.j.j.j.j.j.<.3.<.r.V./.!.&X;X,X/.G.#X/./.&XY.!./.d.<.7.j.j.j.j.c.j.3.+.+.+.p.p.r.3.<.A.A.V.c.A./.&X&X.X`.&X`.A.V.!.`.&X!.!.A.r.`.!.V.j.V.A.A.!..X/.V.d.j.V.j.d.j.p.7.p.3.<.r.<.7.r.A.G.d.c.3.<.j.j.3.+.<.j.j.j.j.A.j.d.A.Y.V.Y.V.<.+.3.3.c.j.j.( <.*.p.<.<.7.p.r.r.<.*.j.*...p.p.<.<.} *.<...p.j.d.<.c.j.d.j.d.j.p...7.j.c.c.c.j.p.<.<.<.c.!.G.c.r.<.d.( ! j.7...<.} *.j.j.A.Y.Y.G.V.V.c.j.j.3.r.j.j.j.d.j.j.c.p.d.j.A.c.A.G.!.!.G.j.j.j.j.<.j.c.V.j.<.r.3.7.V.d.+.3.j.!././.!.!.A.G.!..X/./.`./.!.!.G.`.#X/.#X;X`.!.c.c.j.<.*.p.j.r.<.j./..X.XG.3.+.+.} +.7.r.7.j.j.A.A.r.V.!.A.V.c.V.V.!.j.! ! 7.<.j.!.j.r.r.<.<.p.j.V.j...<.j.<...<.7.*.<.3.c.c.7.p.!.!..X&X;X!.7.<.p.7.r.*.! ! ( *.<.+.3.<.*.} <.<...U R ..<.3.<.! } d.p.j.d.*.} ! } 3.r.<.<.3.<.p.d.3.} <.j.<.! *.7.d.7.3.<.<.<.+.} } p.!.Y.V.j.<.3.<.<.*.",
"+.<.+.<.7.d.A.!.j.+.r.j.7.r.r.<.<.3.<.<.<.<.<.r.<...+.j./.A.!.Y.j.j.p.d.V.j.<.j.G.G.G.j.p.p.3.} ! <.p.d.d.j.G.!.c.d.r.r.r.7.7.r.j.d.<.<.3.j.#X!.c.c.A.!.!.!.!.!.!./.!.&X;X!.!.#X!.7.!.;X!.!.G.A.V.`..X`.Y.j.p.d.d.j.;X;X`.;X;X;X;XG.^.#X#X;X.X;X;Xd.! j.!.r.V.!.`..X/.,X7X.X#X,X!.j.A.!.!.`.Y.j.c.Y.!.!.!.!.`.5X,Xj.<.+.d.c.7.d.c.d.p.r.7.<.+.*.j.j.r.( r.p.*.} +.V.j.!.d.<.<.r.j.p.<...U ..A.Y.j.3.r.r.c.j.j.j.<.} 7.j.+.Y.5X,X#X&X`.3.N d.!.;XA.A.!.;X;X!.3.C ! ! <.L.r.<.<.+.( <.! <.7...<.( ! 7.<.} V.#Xd.+.d.j.!.Y.7.+.p.!.Y.G.j.Y.I.j.`.#X.X!.j.!.&X.X`..XA.j.G.!.Y.G.V.A.Y.!.;X;XW.j.j.V.A.G.&X!.G.!.!.!.&X7X!.<.<.c.Y.G.3.d.<.<.G.j.3.7.<.<.<.d.+.( p..X#X.X5X`.J ( &XV.! j.V.`.;XA.r.3.c.j.p.r.d.j.7.+.d.d.!.G.d.<.<.!.Y.V.G..X;X&X/.!..X/.`.G.r.p.G.Y.d.Y..XV.!.3.7.G.!..X!.!.`./.!.`..Xj.3.7.p.<.....( 3.p.<.7.r.j.V.r.V.7.r.V.r.*.<.<.c.j.j.j.!.A.c.!.!.V.G.`.G.d.<.*.d.7.A.<.d.<.1.<.! ..r.j.j.r.3.<.} ..3.<.+.r.p.r.<.<.V.c.7.<.j.j.c.j.r.j.d...7.j.c.j.d.j.d.r.j.<.d.Y.!.j.+...+.! +./.j.<.j.<.<.j.A.!.A.j.d.j.V.j.7.j.3.<.p.V.G.!.G.j.j.r.j.c.!.V.V.c.G.!.V.r.7.j.3.<.j.j.j.*.! } 7.<.<.p.r.7.7.G.!.!.!.`.!.!.`..X!.!.!.!.G.G.V.!.;X#X.X#X.X/.A.j.j.<.} 3.p.r.j.A.G.j.p.3.....<.<.r.V.r.+.3.j.G.Y.<.j.G.j.j.V.G.`.;XG.! *.c.r.j.!.p.p.j.j.d.c.c.c.A.7.3.p.<.<.<.j.7.<.<.p.7.*.p.Y.!./.!.!.j.<.7.7.7.p.<.+.} } <.<.+.<.*.} ( <.<.R C U } +.<.<.! ( j.c.A.c.3.<.+.+.j.j.<.<.7.+.*.....! } 1.! N } j.j.7.<.<.<.<.} } } d.!.!.A.j.<.j.j.j.*.",
"*.<.j.j.<.<.d.j.7.<.<.3.<.<.3.3.p.r.7.3.<.<.7.p.j.7.<.7.j.j.d.c.G.!.A.j.c.j.3.r.d.c.A.j.<.r.c.<.( <.j.V.p.j.Y.!.j.7.3.3.d.d.r.c.r.7.p.r.r.j.Y.Y.j.*.<.c.G.A.V.!.!.!.!.`..X!.Y././.d.Y.A.j./.!.!.!.!.!.!.G.j.r.7.V.#X;X&X;X;X;X#X&XY.c.;X;X.XG.#X!.A.j.!.&XA.V.!.#X#X5X;X;X#X#X#Xc.r.p.!.`.`.&X!.A.!.!.!.V.G.&X#X#X!.j.j.!.!.j.p.j.j.j.V.Y.j.<.<.p.3.3.r.3.+.( ( <.c.<.A..X3.j.#X/.!.p.7.! ! <.V.c.!.c.j.G.Y.c.j.c.+.7.j.<.p.#X.X&XA.r.<.J R A..Xp.!.;X;X7X/.+.! ! +.c.!.! 3.! R ..<.! <.} ( <.X...d.G.j.Y.;X!.3.<...j.!.Y.A.j.!.G.r.d.!..X!.G.;X`.V.A.Y.!.!.Y.!.j.d.!..X!.!.!.G.j.;X#X`.!.j.Y.A.A.!./.d.p.!.!.G..X;X/.3.d.j.j.j.j.r.r.<.j.d.p.d.7.<.j.j.<.*.<.A.&X7.! f : 7 h r , * i A.;X!.d.<.p.j.d.7.<.3.} d.&XG.!.;XA.+.d.`.!.!.!.!.;X;X!.&X#X/.!.!.A.V.A.j.r.!.;X/.G.G.A.Y.&X&X;X.X`./.!..X#Xc.p.j.j.d.p.*.r.3.r.d.j.j.r.p.j.c.7.( <.7...+...p.j.j.Y.!.G.G.Y./.A.V.#X/.d.3.3.7.r.j.7.3.*.<...+.3.<.3.r.*.r.d.<.3.<...*.<.*.<.! +.d.j.j.d.j.G.d.<.3.r.<.*.<.j.A.A.d.j.A.j.j.<.d.p.d.j.j.p.+.*.V.`.Y.V.G.j.<.p.<.j.c.V.j.c.V.d.r.d.d.d.j.j.Y.!./.Y.V.d.r.j.V.j.j.V.Y.V.A.7.3.<.3.j.j.c.d.! N ..d.*.+.+.*.<.<.j.`.p.&Xj.V.#X.X/..X.X!.G.c.V.!.A.#X;X,X!././.Y.r.3.r.<.d.r.y.<.A.`.} U ! U D ! <.<.<.7.3.<.7.j.r.r.p.c.!.j.V.G..X/.!.r.3.V.c.7.j.c.G.Y.j.d.j.c.j.V.c.c.<.r.r.7.j...} *.! <.3.G.!.V.!./.!.d.+.r.+.r.d.} *.j.j.j.p.} ! ! } } <.*.! ! R ! ! ! ..! } j.A.G.j.d.j.<.r.7.<.<.<.p.*.+.J R ..R ! ! J r.!.c.r.7.p.<.} ....! <.G.!.!.c.<.7.j.V.3.",
"*.7.V.c.<.<.7.7.j.p.r.3.<.<.d.j.r.j.j.3.*.+.<.<.r.p.r.3.7.7.d.c.!.;X#XA.j.d.7.3.r.d.j.r.<.p.!.j.7.p.j.j.3.r.j.d.7.p.p.<.7.j.j.V.d.r.7.3.3.j.Y.Y.Y.p.j.A.G.G.A.Y.G.G.Y.!./.!.A.Y.`.!.G.+.<.Y.!.!.!.G.A.V.V.A.V.j.G.;X;X.X#X;X;X#X`.V.p.`.;X/.j.Y.!.G.!.,X5X.X!.`.;X5X9X`.`.;X9X#XY.!.`.&XG.j.!.Y.j.Y.!.A.r.A..Xc.N *.p.j.!.#X!.V.d.j.j.V.Y.A.j.d.d.7.7.p.p.<.} ! *.r.+.c.Y.7.A.!.A.!.c.j...! ! <.c.Y.G.A.Y.A.r.<.r.3.r.+.J *.G./.`.c.*.} ( +.j.p.7.!.;X;X;XG...} ( j.#XV.n <...N ! ..R *.( ( 3.<.} c..X/.`.#X!.A.j.<.j.!.`.`.Y.!.j.7.j.Y./.!.A.Y./.Y.!.!.!.G.j.G./.c.A.!./.#X#X`.!.!.3.j.!.V.G.Y.#X&X&Xc.d.Y.c.j.r.j.c.<.7.r.j.3.<.<.<.<.p.3.p.j.j.<.7.d.7.<.3.V.!.7.r * ; , e ..r.r.A.;X;X.XV.} } 3.c.j.7.<...j.;XG.V./.V.3.j.!.G.!.!.!.&X&X!..XG.`..X!.G./._.G.Y.`.&X/.`.;X#X&X!.!.`.!.`.#X!.!.V.j.V.c.d.j.j.p.<.<.j.Y.Y.A.A./.c.!.V.3.p.j.<.<.7.j.j.j.!.`.!.!.c.G.j.j.!.Y.d.r.<.+.+.7.+.} +.j.3.*.<.*.<.3.+.3.j.<.<.*.} *.*.} <.( +.3.p.j.j.A.V.j.<.<.d.j.j.j.d.c.j.7.j.j.3.<.7.V.V.j.c.A.j.} <.c././.!.Y.V.j.p.<.j.A.G.V.c.j.j.j.j.j.j.c.c.A..X&X!.A.r.+.<.r.j.j.j.j.p.j.<.<.<.<.7.r.7.<.} ! 7.p.<.*.( 3.r.<.j.d.! !.d.<.Y.`./..X&X`.A.j.A.`..X#X/.;X#X`.!./.<.*.3.<.3.3.p.<.p.A.j.p.} ! *.j.3.<.<.3.<.*.3.p.r.d.j.j.G.p.j.c.Y.G.G.j.p.p.7.p.j.A.Y.V.j.j.j.p.V.c.j.j.3.7.3.3.j.! U ( ! <.j.Y.Y.Y.!..X!.r.} ..7.j.<.U } A.!.!.V.3...U R ! *.! ..} ! R N N ( <.<.G.A.j.r.7.j.<.} <.r.7.+.<.<.r.! ! ..( ! ! ! j.A.j.7.7.r.<.*.*.<...<.j.c.V.j.7.<.j.Y.j.",
"<.<.7.r.3.r.r.*.p.d.j.3...} +.} +.r.j.3.*.<.3.3...r.j.d.d.j.c.j.!.;X,X!.d.r.r.<.<.<.7.p.<.p.G.j.r.p.j.p.<.r.j.7.j.!.!.d.3.p.7.<.7.7.r.p.j.G.!.Y.!.c.c.V.V.V.c.V.c.c.V.!..X/.!.!.!.#X;Xd.3.!.!.!.A.c.V.V.A.!./.G.Y.;X;X`.`.;X;X#X.X!.j.A.!.c.<.3.V.j.!.&X&X;X;X;X5X;X5XY.( J j.,X;X;X;X.X} k ( j.j.V.!.G.p.A.`.p.a } j.V.#X;X!.A.d.V.A.c.Y./.!.Y.G.V.A.!.!.V.p.<.<.*...d.j.j.!.j.} d.p.r.<.*.<.7.p.j.A.c.j.p.<.( ( <.+.N N <.j.!./.c.<.r.d.<.d.V.+.j.Y.G.V.7.} <.p.!.&X3.h p.j.U <.*.! } D R <.<.<.c.V.G.#X;X`./.!.V.Y.;X5X;X.X!.V.c.G.Y.!.&X.X`./.A.A.G.!.Y.V.V.;XG.7.j.`.;X;X`..Xj.D <.!./.L.!.`..X#XG.V.!.V.j.<.<.r.*...<.V.d.3.p.p.j.c.d.G.!.V.d.p.j.j.3.r.c.Y./...r h *.c.;XqX#X!.#X/.j.j.d.0.p.V.j.3.3.<.c.!.c.j.!.Y.j.A.Y.G.`.;X#X;X;X!.!./.#X.XY.c.V.!.&X`.`.!.G.!.&X.X.X!.^.!.A.!.&X!.!.<.3.c.p.<.7.3.3.*...j./.Y.c.V.`.p.c.G.j.d.j.<.+.3.d.d.d.Y.!.G.G.A.G.V.j.j.j.r.<.+...*.j.7.3.d.!.*.! +.+.+.<.<.r.r.<.7.<.*.<.<.+.*.*.3.p.j.j.7.r.r.p.7.7.c.Y.G.A.d.c.d.<.j.j.*.+.r.V.V.j.j.j.r.! r.c./.#X!.j.j.c.c.j.Y.G.!.!.!.Y.A.j.j.j.A.!.A.j.c.!.A.c.p.*.<.j.A.A.j.j.r.d.<.+.r.*.3.d.d.p.3.*.7.+.<.r.} p.j.r.d.! D !.G.} j.`.Y.!..X.X!.V.!.#X;X`.j.Y..X!.A.!.<.<.d.p.<.d.Y.j.7.r.d.d.<.3.p.j.d.3.<.3.<.*.r.j.j.j.j.j.c.j.Y.!.G.d.r.r.<.*.<.c.A.!.G.p.7.j.V.j.V.A.j.c.j.j.j.c.j.*.<.j.3.p.j.V.V.Y./.`.c.<.*.*.p.c.7.( <.A.!.j.r.+.} ! } +.<.*.+.( ( R N N J ! d.#XG.d.7.<.d.<.<.j.!.G.3.7.<.3.7.<.<.<...! *.j.7.<.<.<.<.*.*...<.*.3.j.V.V.d.+.<.p.j.r.",
"7.+.} *.3.p.p.<.*.r.A.V.3.} ! J ..7.j.d.r.p.j.j.<.j.j.j.A.!.Y.j.Y.#X;X!.p.r.d.r.7.d.j.c.j.c.!.A.3.7.p.<.+.p.A.c.j./.&XV.r.j.7.*.<.<.r.j.G././.!.G.j.V.V.j.j.j.A.j.j.j.V.!.!.Y.!.G.G.&X!.p.j.G.!.G.G.!.V.d.A./.G.!.;X;X#X`.#X;X&X;X&X!.L.A.G.c.j.U.V.!.&X;X;X&X&X5X;X5Xj.a 3 N c.p.j.Y.<.c R Y.#X!.c.A.!.A.!./.V.+.d.d.c.#X!.d.d.G.!.!.A.!.&X&X`.#X.X&X,X,X;X/.!.!.p.d.#X.XA.A.7.<.j.3.<.<.j.j.c.j.j.V.j.3.3.<.<.7.p.*.C ! 7.<.<.r.,.} p.p...d..Xj.r.r.s.7.<.( R +.!.;Xr.s ! d.3.j.j.3.7.! <.A.j.c.!.j.V.;X,X;X&X;X;X#X;X,X;X;X&X!.!./.!.!.;X,X;X;XA.7.r.V.Y.j.<.!.Y.d.j.G.J.!.#X#XV.N ! j.!.Y.!././..XY.A.A.d.7.!.c.V.p.7.d.Y.V.j.p.! ..d.j.G.V.j.j.d.A.Y.j.j.d.d.c.&X!.A.;X;XG./.!.Y.!.!.c.A.A.V.d.j.j.j.p.3.r.7.d.A..X`.!.!.!.G.`.&X.X#X/.p.! ;X;X#X!.!.!.!.;X`..X`.Y.!.`.!.`..X!.G.j.V./.!.!.<.<.j.7.d.j.j.j.r.<.p.A.p.p.d.A.<.<.7.3.<.<.+.} <.j.V.V.Y.Y.A.Y.!./.`.!.c.A.V.d.<.<...7.7.j.Y./.( ..p.7.+.*.*.*.<.<.<.} ! +.7.7.<.3.7.3.r.3.*.7.r.j.d.j.G.!.V.V.A.!.d.3.c.j.+.+.r.j.V.G.A.j.p.<.j.A./..XY.d.p.j.A.!.`.!..X#X.X!.d.3.p.j.c.A.j.j.A.!.A.A.A.d.j.V.Y.!.A.V.d.j.<...3...3.j.j.d.p.<...U d.!.<.3.<.3.c.+.+.`.#X} 3./.A.A.!..X/.!.!./.#X!.7.d.c.r.3.3.<.<.c.j.<.p.Y.d.<.<.<.} <.d.<.( 7.<.<.r.3.<.r.r.j.c.A.c.!.Y.!.!.!.3.*.<.<.7.j.!.!./.Y.j.p.d.j.j.j.A.c.A.A.!.!.#XG.r.d.j.<.3.j.j.Y.!.Y.A.*.R +.<.3.V.j.d.j.V.A.d.j.<.<.X...! ! ! D U +...! R D D 3.!.j.7.r.<.7.<.*.r.V.G.j.j.<.} <.*...+.! U *.7.<.<.<.<.<.<.3.<.3.<.7.j.j.j.p.*.*.3.3.*.",
"7.*.<.7.r.3.3.7.! <.c.Y.d.*.( ! 7.d.c.V.c.j.j.c.!.G.c.j.V.!.!.G.G.!.`.!.r.<.7.<.3.j.j.j.p.A..X!.j.d.r.*...d.!.!.c.!.!.j.r.j.d.3.7.r.d.j.G.!.!.!.j.p.c.A.c.d.j.!.c.j.j.j.Y.!.Y.!.Y.3.+...( +.r.V.!././.j.*.r.Y.!./.&X;X;X.X`.;X;X#X.X#X/.!.#X;X&X!.!./.#X;X.X!.&X`.!.;XY.*.*.Y.`.z h +.<.<.#X5X&X;XA.j.j.G.!.!.!.`.!.j.V.`.V.7.c.&X&X/.!.#X,X;X;X;X;X;X;X;X;X;X5X9XY.!.,X;XA.A.!.!./.d.<.p.Y.j.j.Y.V.c.p.7.d.p.d.r.<.+.! *.<.} ( } ..( *.} ! <.j.!.3...<.*.<.+.C R Y.wX#X....V./.&X;X#X.Xj.Y.`.c.Y.5X&X`.;X#X!.Y.!.;X&X;X;X#X;X;X!.!.;X&X.X;X;X;X9X/.d.r.V.!.c.<.j.A.j.c.G.c.!.#X`.&X3.<.p.Y.Y.Y.`.`.`.Y.V.c.d.7.<.*.3.7.j.c.Y.A.j.} h v <.V.!.j.3.7.7.j.A.A.V.7.j.V././.!./.Y.A.A.!.`.Y.c.G.!.A.j.r.d.j.d.7.3.7.<.j.!.&X#X`.#X/.!.`..X/.!.A.! y ..j..X.X/..X!.Y.!.!./.!.!.`.!.`.!.A.j.d.j.G.G.!.j.<.r.<.j.j.d.j.A.p.p.j.<.d.j.j.3.+.*.<.<.<.<.r.3.c.A.V.G.G.G./.!.!./.Y.j.c.V.r.r.<.} <.<.d.j.j.U *.j.r.*.3.3.*.<.<.<.} ! +.7.7.3.<.3.3.<.*.+.d.j.V.j.c.!.G.c.G.!.!.j.p.!.A.<.<.<.j.V.Y.A.j.c.V.A.!.`./.A.j.j.c.!.!.!.G.;X`.!.!.j.j.G.!.A.V.V.!.!.!.j.j.A.V.c.c.A.!.V.j.r.d.<.+.+...p.V.<.+.3.3.<.} j.!.<.<.*.p.!.d.p.G.&X<.j.;XY.G.!..X`././.!..X/.c.j.r.! ! ! *.<.V.V.<.p.c.<.} +.<.( ( <.+.( +.} *.j.p.<.<.+.r.d.j.j.!././.!.c.*.*.<.<.j.!.A.G.A.j.d.p.7.r.c.G.`.!.!.!..XG.c.#XV.c.V.j.j.Y.V.A.j.r.r.( C ..3.r.c.j.j.r.<.p.j.p.<.<.} } ! ! ( v C ( U N D R ! 7.A.3.3.d.+.+...+.<.r.j.7.j.<.} <.<.+...U U <.<.3.<.3.r.3.7.p.3.<.<.3.p.d.d.r.<.<.3.7.<.",
"<.*.<.j.c.d.3.<.+.<.p.j.<.! ( ..r.d.j.A.Y.G.G.Y.Y.V.j.j.c.!.`.`.!.!.!.!.d.<.<.<.j.L.Y.A.c.!.&X!.V.j.p.3.3.V.!.Y.!.G.V.3.<.p.d.p.j.V.Y.!.!.!.G.V.<.<.d.c.j.p.d.!.!.!.A.A.Y.G.V.A.Y.7.v z } <.<.7.Y./.#XG.r.j.!..X`..X.X&X.X`.;X;X#X`.&X.X.X#X;X.XG./.!.`..XY.!..XA.} j.`.;X;X5XqXj.n U p.`.9X;X;X&XA.3.<.d.G.!.!.`.&X!.A.!.G.A.#X7X,X&X#X,X7X7X7X;X&X.X!.!./.;XwX;X,X,X!.V.!.!.!./.!.j.r.j.Y.d.3.j.3.<.+.7.j.3.<.+...*.<.*.*.<.3.<.<.<.r.*.U ..<.V.7.<.*.! *.j.j.d./.5XwX,X#X5X5X9X5X#X`.j.j.j.<.j.!.A.c.!./.j.+.r.!.`.;X;X;X&X!.G.A.#X&X/.`..X#X;X;X!.V.V.A.V.p.j.j.r.c..X&X.X`.!.7X&XG.V.V.A.j./.`.`.!.!.!.!.!.*.*.<.<.j.p.j.j.G.j.! ( 7.A.A.p.*.<.p.j.3.r.j.7...A.A.p.c.!.A.V.c./.5X!.j.Y.A.d.j.j.j.j.r.*.3.c.A.!.!..X.X.X&X.X#X#X.X.X`.!.*.i 7 s <.G./.#X!.!.G.G.Y.G.!.!.G.!.V.c.V.V.Y.G.c.A.Y.j.c.7.j.p.p.c.d.p.p.j.7.A.j.r.d.3.p.j.j.j.j.A.j.A.j.j.A.Y.!././.Y.!.!.A.A.V.d.c.d.<.j.j.d.d.<.! 3.r.( U *.7.<.<.3.<.<.3.r.p.<.*.*.r.j.j.<...<.d.c.V.A.!.V.j.A.V.A.r.j.`.!.j.p.7.A.!.Y.c.j.G.A.!.!./.G.j.j.j.j.!.!.j.j.;X!.A./.A.d.c.A.j.j.j.j.V.a.<.<.j.A.Y.V.c.!.j.d.<.r.r.<.r.p.G.!.p.+.<.} ..( <.<.( <.<.j.V.p.p.d..XA.G.;XY.Y.`.#X`..X&X/.#X&X`.`.d.N ! ..<.7.j.j.<.j.G.V.p.} <.<.<.7.p.<.<.<.*.p.d.<.<.<.j.j.j.r.A.!.!.!.d.<.7.<...p.j.3.j.d.3.<.3.<.3.j.c.Y.Y./.!.A.} N A.V.!.!.Y.j.V.j.j.3.<.r.3...<.7.j.c.j.d.<.! <.V.j.7.j.<.( ! ! R J U R N n D ! ! <.p.+.<.7...( ..7.7.p.7.( *.<.<.<.<.+...R U +...<.*.<.<.<.<.<.<.<.} } <.j.j.7.+.<.r.7.7.",
"*.+.*.7.j.c.r.*.3.7.d.p.*.} +.<.*.3.d.j.A.!.!.!.j.j.V.A.A.!.!.!./.!.!.!.A.j.j.j.j.A.A.V.j.V.!.A.V.j.j.j.j.Y.!.G.A.c.j.7.<.d.z.j.p.G./.`.`.!.j.j.+.*.r.j.j.j.d.G.`..X/.!.G.j.7.7.A.G.! R c.Y.r.<.j.!.#X/.!.!..XXX!.!.!.#X&X&X;X/.G.#X;X!./././.!.!.&X`.;X;X!./.V.<.h ..V.#X&X/.7X/.j...} G.9X9X;XY.j.3.+.<.V.Y.Y.G..X!.j.c.!..X;X,X7X;X;X;X5X5X7X,X;X&X/.!.`.;X9X;X5X!.n z p.A.j.V.j.j.d.p.j.3.<.r...! R <.j.<.<.j.j.d.p.<.*.p.3.} <.<.j.r.! +.p.j.!.Y.j.r.r.!.5X/.!.`.,X;XY.&X;X;X!.j.j.<.<.<.+.*.+.} <.Y.&Xj.( <.G././..X#X.X!.j.p.V.G.V.Y.!.`.#X&X!.c.j.d.d.<.+.3.c.!.#X;X;X;X`..X.XA.c.<.j.c.!.`..X/.!.!./.!.+.} +.+.3.+.<.r.c.Y.d.r.j.!.A.d.3.<.j.V.<.<.j.j.p.c.c.A.j.j.!.Y.j.!.#X! v r.j.<.d.j.V.j.j.<.3.V.`..X/..X#X.X&X#X#X.X`.`././.c.C 2 , h <.A..XY.c.!.Y.G.A.Y.!.A.!.A.G.!.Y.!.!.V.c.p.d.j.<.j.<.p.c.*.r.d.j.3.c.7.3.r.d.A.Y.!.G.j.V.!.!.V.V.!.!.G.G.p.} +.j.G.j.j.j.A.j.<.j.j.V.A.<.R <.<.J C } 3.7.3.<.} +.<.r.j.r.<.*.r.j.j.j.<.<.*.j.A.A.!.V.d.j.c.j.<.j.`.`.!.A.G..X#X/.G.c.G.A.!.!.!.V.z.j.j.d.V..Xr.../.!.j.G.!.j.j.j.j.G.A.d.j.j.r.d.j.G.!.j.d.A.j.r.<.r.d.r.V.V.!./.j.<.<.! J R ! } } 7.<.3.c.r.j.j.!.Y.G.!.!.!..X.X`.#X.XV.G.;X&X/.j.D } 3.3.7.<.<.<.j.G.!.Y.<.<.3.j.c.A.r.j.p.*.3.d.3.7.j.j.c.Y.j.A.j.7.<.d.d.j.7.<.3.<.<.<.p.7.<.r.r.<...p.p.j.!.G.j...U j.Y.`./.!.j.Z.V.j.r.r.d.j.7.<.7.*.+.*.+.! D U <.j.+.j.r.! N N D ! ! ! +.+...! D ! } ! } <.+.} <.3.<.<.<.R } <.r.<.<.*.<.+.} <.7.<.*.+.<.<.<.<.3.j.*.! <.d.d.<.+.<.3.<.<.",
"} *.*.+.<.d.r.<.( <.d.d.3.3.r.3...3.d.d.j.G.!.Y.!.!.!.!.G.Y.V.7.j.c.V.A.V.j.V.Y.A.A.j.j.d.j.!.!.Y.c.c.j.d.V.!.!.c.V.Y.j.p.j.d.3.<.j.G.Y.G.c.s.d.<.<.p.d.j.V.j.A.Y./.`./.!.A.j.j.A..Xj.d.!.!.V.d.c.!.!.!./.`.!.!.G.G.Y..X;X,X&Xc.U G.!.3.c.!.`.!.`.&X!..X;X;X5XA.z r J C 3.;X!.d.p.j.N s J r.Y.`.j.3.r.3.<.c.Y.G.!.#X!.d.V.;X9X5X;X7X5X&X&X;X;X;X5X5X;X;X&X&X;X;X;X/.j.C J c.A.c.p.r.j.j.r.j.p.j.j.3.+.! <.j.<.d.j.V.<.<.<.7.j.*.! j.7.4.d.<.<.<.<./.`.`.&X!.!.;X;XG.G.;X.Xd.`.&X.XV.3.j.j.7.<.p.d.p.j.c./.#Xj...<.!.;X#X`..X!.!.d.3.j.A.A./.#X#X.X.XA.j.c.A.c.<.R +.G.`.;X,X&X#X`.j.G.G.Y.*.d.A.j.!./.!.A.j.j.r.N C +.r.j.3.r.j.j.j.<...r.`.Y.j.c.+.j.G.j.c.Y.c.3.j.A..X!.j.Y.j.j.<.!.r.! <.<.j.V.j.r.<.d.<.r.G.!..X.X;X;X.X#X&X&X#X.X`.!.`./.<.N N r.A.A.`.!.j.!.G.A.c.V.A.A./.c.A.G.c.!..X!.A.p.c.A.7.j.7.j.c.<.j.d.r...7.<.d.<.j.A.j.j.j.p.j.A.Y.G.Y./.G.r.<.+.n N r.A.r.<.d.*.+.U +.r.!.A.! U p.j.*.! ! } ..<.<...<.3.7.d.p.<.+.3.j.V.Y.j.3.*.V.Y.V.Y.G.c.G.!.A.3.j.!.!.!.G.!.!.!./.Y.j.j.V.Y.Y.G.V.V.A.A.c.Y.,X..i +.c.A.!.j.c.G.j.3.c.G.j.j.j.V.G.c.A.G.7.<.j.p.7.*.7.d.7.p.j.j.j.3.+.<.+.p.3.<.3.<.p.r.d.c.3.V.A.A.Y.!./..X`..X.X`.#XG.+.<..X/.V.d.R <.d.r.j.<.<.<.j.j.G.c.j.d.<.j.j.c.j.j.p.*.3.j.r.r.V.7.p.V.d.j.7.*.+.<.7.p.r.d.3.} +.( r.<.} 7.A.d.+.7...( <.! ! ( <.3.j.j.j.V.p.j.j.<.3.p.7.r.r.<.j.3.<.3.<...! J ....h R +.D h N +.! U J } } ! ..} ..<.7.<.<.<.*.3.7.+.*.<.( *.*.<.*.( } *.+.R ! <.<.*...*.3.<.<.r.p.7.r.j.j.<...+.+.<.+.<.",
"+.<.<...<.p.j.r.<.....d.A.G.A.3.+.j.j.p.j.!.!.Y.Y.`.[.!.A.G.L.V.G.j.g.j.j.j.C.!.V.j.j.j.j.j.G.!.A.r.r.d.7.j.Y.A.Y.Y.!.!.j.r.r.<.<.c.!.G.Y.A.d.r.<.r.p.j.A.Y.A.c.!.!.Y.Y.!././.d.G./.!.A.Y.!.A.V.Y.Y.!.!.!.!.Y.V.G.A.G.&X;X;X&X<.h ( U U /.5X/.;X`.;XY.7.!..X;XwXC : h r a <.} N n r 3 - % r 7.`.A.r.c.j.d.V.G.!.V.Y.A.7.G..XA.&X,X`.!..X#X/.!.!.#X9X/.qX;X;X#X;X,X/.r.<.r.r.7.p.d.<.p.j.j.j.p.r.c.j.<.R R ..! *.j.d.<...<.j.j.<.*.j.d.<.j.j.<.( <.<.G.!.!.!.N.!.&Xj.a.#XA.N 7.7X#Xd.j.p.<.j.c.j.d.p.r.r.j.G.c.3.A.!.!.!.!.!.G.Y.A.j.G.!.A.Y./.Y.!.;XG.j.G.Y.A.r.R *..X&X;X;X#X.X!.j.A.;X!.( j.!.c.Y.V.V.!.G.7.( R ! <.j.d.7.r.7.3.c.r.j.G..X,XV.G.!.!.G.j.c.`.!.c.d.d.V.V.j.j.d.d.<.p.!.c.r.j.A.A.d.r.( +.r.c.G.!.`.`.;X#X!..X;X.X.X`.!.!./.!.Y.A.Y.!.A.V.G.c.c.Y.d.c.!.j.p.j.j.j.d.j.V.!.!..Xj.3.G.#Xl.j.p.d.A.j.r.V.d.3.p.r.c.c.c.V.!.V.j.j.<.<.A.V.!.&XA.!.V.Y.!.j.j.!.j.7.3...7.+.! 7.G.j.R ! <.<.<.d.*.! r.<.r.7.<.<.p.d.7.<.<.r.d.r.A.!.j.*.7.j.j.G.!.G.!..X!.V.G.G.A.A.d.d.A.Y.~.!.l.j.j.Y.!.G.j.V.!.!.!.!.G.Y.<.! 7.V.!.j.!.!.j.3.<.G.V.r.j.!.`.Y.j.j.d.r.j.d.<...+.7.p.r.j.r.<.+.<.! +.A.Y.r.+.+.*.<.<.r.j.c.c.G.!.G.G.!.`.!.`.!.`.#XD ..#X;XA.c.<.! 3.<.d.*.} <.*.<.c.j.j.j.c.j.j.V.d.p.r.<...7.c.c.j.r.r.d.7.<.<.+.<.<.r.r.j.A.j.r.+.*.<...! <.p.<.<.r.7.<.7.( D <.<.} *.p.j.j.p.p.7.<.<.7.d.A.V.p.j.r.7.<.+.( ! U ( *.c U <.! N N ( R ( +...( <.r.j.+.<.r.j.7.<.r.7.3.*...<.3.<.*.! } ( } +.+...} ! } <.<.*.<.+.+.<.<.3.j.j.d.3.! *.*.3.7.<.",
"3.7.<...*.d.V.V.3...} d.G.G.G.c.<.j.j.7.7.j.p.3.j.!.[.G.j.z.L.!.L.V.l.j.a.j.N.V.r.p.j.j.d.j.Y./.c.<.<.r.3.p.c.j.A.G.Y.!.!.V.j.3.<.j.c.j.A.G.j.r.j.j.j.j.V.G.G.G.!.!.!.Y.A.R.!.V.V./.#X`.!.G.A.Y./.Y.G.Y.Y.Y.A.j.G.G.!..X#X&X#Xd.h c J <.!.;X;X!.,X&X/.G.!.!.`.G.!.! ! n n s 8 7 3 r c v c ( Y..X!.j.!.G.j.G.Y./.!.!.A.3.*.! J r.#XG.3.r.<.N ! /.,X!.} `.;X#X#X;X;X;X!.c.d.<.+.7.7.<.r.3.3.j.j.d.j.p.*.( ! <...<.c.j.<.+.*.p.j.7.<.j.l.1.d.j.0...] ! } 7.D.L.!.$X,X5X!.#X!.N ../.!.d.c.j.r.V.A.c.j.<.( ( +.<.7.j.#X#X!.c.j.7.r.Y.!.c.G.!.G.!./.!.Y..X/.!.G.G.V.p...<.#X;X&X.X&X;X#Xj.j.&X`.( 7.!.A.A.A.Y.G.p.<.7.<...<.d.r.r.j.d.3.c.d.G./.A.Y.A.7.V.d.j.V.j.G.Y.j.p.p.r.3.r.j.j.A.3.3.j.d.<.3.p.j.j.d.*.<.d.V.G.!./.`.&X!.j.!.5X`./.!.!..X#X`.!./.G.G.G.!.Y.j.j.c.j.Y.G.p.<.7.d.p.3.j.Y./.!.!.V.7.V..XG.A.d.p.V.p.3.3.<.7.d.<.3.j.V.!.#X/.Y.c.<.<.G.V.V.`.c.c.r.Y.!.!.Y.A.V.V.7.+.r.<.<.G..Xc.! J ! ..p.Y.d.<.p.r.j.A.j.<.<.r.+.<...<.p.p.j.j.r.! 7.A.j.c.Y.Y.!.!.!.G.Y.G.A.G.j.d.j.r.j.A.C.A.C.G.G.c.<.r.!.!.!.A.V..X!.j.j.j.j.c.A.V.p.7.r.Y.G.j.A.!.!.!.V.j.d.G.d.<.<.<.+.<.7.<.r.r.7.<.<.( ..d.V.r.*.*.+.*.*.j.A.j.3.d.G.G.j.j.A.Y.!.G./.`.! *.!./.A.A.3.( 7.<.7.7.d.d.<.r.j.j.j.c.A.j.r.j.j.p.<.<.<.<.j.c.j.p.d.d.3.<.<.<.7.3.7.3.j.!./.c.} 7.<.} } <.*.! <.3.3.d.r.! R ..} ! +.d.j.d.r.7.<.<.*.<.<.d.j.<.<.*.<.*.( ( ! C ! } ( +.! D U N C ! ! ( ! R R ! } ....*.r.3.<.3.3.<.<.<.<.7.7.*.! +.<.7.7.<.*.....! } ..+.<.<.<.3.r.3.p.7.7.r.+.<.3.p.d.p.",
"p.3.+.( +.r.c.V.d.<.} *.7.3.3.3.p.j.j.p.r.r.3.<.p.A.Y.j.3.d.c.c.j.N.N.p.1.p.j.0.<.p.j.j.j.c.G./.!.r.<.r.3.7.p.<.p.j.j.V.Y.A.j.<.r.V.V.j.A.G.j.d.d.j.r.7.j.A.Y.!.!.!.!.Y.V.V.G.V.Y.`.&X&X`.!.!.!.!.j.d.j.A.A.c.d.j.V.G.!.`.;X;X#Xj.} ! p.!.#X&X`./.#X;X!.Y.!.Y.N A.c.z r c q 7 , a 7.7X9X&X`.!.Y.G.j.!.Y.j.A.G.!./.!.V.r.! c c ! c.!.V.V.<.s N #X.X!.<..X#X`.;X5X;X;X&X!.d.+.+.j.<.<.<.<.*.<.7.p.d.<.<.3.<.3.+.+.r.p.7.<.<.r.j.p.7.c.L.r.0.p.p...+.#.! <.V.V.D.).&X5XG.A.j.n U p.d.*.7.3.*.r.d.r.j.<.} <.<.( +.A.9X7X!.j.d.+.*.A.&X!.!./.Y.!.;X;X!./.#X~.G.C.j.p.<.*.!.;X&X#X;X;X`.j.7.!.&X<.<.!.!.Y.!.!.j.( } j.p.<.j.G.j.j.c.j.r.Y.j.V.!.d.*.( d.&Xj.V.Y.C.c.c.j.d.j.r.<.r.j.V.!.d.<.7.3.*.<.r.d.d.j.3.p.j.V.A.A.!. X;X!.j.!.5X.X`.!.!.`..X`.!.#X!.!.!.A.j.r.d.p.A.!.G.V.c.j.j.<.<.j.c.!.!.!.!.<.j.Y.j.c.p.3.3.j.j.<.( +.<.<.j.c.A.!..X/.!.A.3.+.c.j.r.G.j.j.r.!.!.j.*.} 7.d...*.3.*.<.!.;XY.<.J C ( j.!.G.j.p.j.j.`.!.<...<.! ! U ! 7.j.j.j.r.*.j.!.V.G.`.!.!.!.!.A.V.c.G.`.`.c.j.<.7.c.!.`./.A.!.Y.d.p.Y.Y.j.!.j.A.G.j.j.j.j.d.p.j.j.A.A.!.Y.A.!.!.!.`.Y.p.r.Y.7...3.3.*.*.+.*.<.3.<...+.! ( +.7.<.<.<.<.<.d.j.j.7.<.p.G.A.j.<.3.j.V.j.Y.!.<.p.G.Y.Y.!.p.<.d.j.j.c.Y.j.7.j.V.j.c.V.A.j.r.d.d.r.*.7.h.<.7.j.d.3.p.j.r.r.r.<.3.7.3.*.<.V.!.j.! *.....*.<.+.! <.<.3.j.<.! ! ! R ..<.r.7.<.+.*.*.<.*.3.p.j.j.<.} ..<.<.( } U c N R ( ! N N N h k N J ! ( } ! J ! <.+.} <.<...*.*.<.7.<.*.<.3.*.+.<.<.<.<.3.r.3.<.} +.+.*.<.r.d.j.j.r.d.7.<.r.<.<.p.j.j.d.",
"d.<.+.<.<.<.p.j.j.c.7.+.*.<.*.<.j.c.V.j.j.j.p.7.c.!.!.j.p.j.j.p.i.j.j.p.5.a.j.7.<.j.V.A.Y.G.Y.!.A.<...<.3.7.7.<.7.j.7.3.j.j.r.<.<.j.V.j.V.A.c.c.V.V.j.p.j.V.A.!.!.Y.Y.!.!.Y.G.V.!.!..X!.G.G.!.G.j.3.<.p.j.V.j.d.j.j.c.V.!.;X;X5X;XY.*.<.!.V.j.#X/.&X`.j.j./.;X+.*.c.k e N N ! N *.#XqX&X!.c.j.c.A.V.!.!.A.Y.Y.!.!.!.!.G.7.! } <.c..X,X;X`.<.<.7X+.l.c.V.r.j.r.<.r./.;X.Xj.<.<.j.j.<.3.p.3.} ( 3.d.*.<.j.<.<.<.+.*.<.<.3.3.r.j.j.d.A.Y.0.7.0.7.} ~ <.<.1.j.i.#.p.`.!.Y.V.*.N ! <.7.+.3.7.<.r.7.1.7.<.*.p.j.! ! j.5X7X/.G.!.j.r.Y..X!.`.!.A.!.;X;X/.!.`.!.!.!.j.c.j.<.j.Y.#X;X;X#X!.c.c.`.5X!.c..X&X`.#X!.p.! ( j.j.3.V.Y.j.c.Y.G.c.!.<.*.!.`.<.h *.&XA.A.G.!.V.d.<.<.j.j.3.r.7.d.V.j.d.j.j.7.3.j.j.j.j.p.j.c.j.j.j.G..X;X&X/..X;X!.!./.!.!.!.`..X/.!.!.(.j.j.j.Y.j.!.G.Y.`.!.V.p.3.3.j.3.c.Y.c.A.d.c.c.<.j.c.j.<.j.G.r.} ( ..p.!.j.A.!./.!.!.G.p.p.c.A.p.j.r.3.3.V.&X!.%.! ..<.3.+.3.<.p.!.;X/.G.R N ~ j.G.!./.V.7.<.G.!.<.( *.} ! U ! 7.!.!.j.7.<.j.A.j.V.!.V.j.j.V.A.G.A.!..X!.V.j.7.p.C.!.$X.XG.!.!.c.j.!.`.!.Y.<.*.<.r.c.j.r.*.*.7.c.!.!.!.Y.A.Y.c.j.!.j.} ..<.+.*.d.j.3.3.<.3.7.p.<.+.*...*.! ..( *.<.+.3.c.A.c.j.j.V.c.j.p.r.r.j.V.c.!.!.j.V.!.!.!.!.c.j.G.V.j.b.A.p.7.j.d.p.A.G.A.V.A.A.d.r.+.7.j.7.3.d.r.<.p.j.p.j.j.<.*.<.<...<.r.j.d.+.7.j.j.<.<.<.} *.7.j.j.<...! N k R ( ..} ( } <.7.<.<.p.j.j.c.d.*.<.7.<.( ! R n N U ! R D U D z N ! ....*.*.! U ! <.<.+.*.<.+.<.<.<.j.j.<.*.<.<.2.<.*.! R +.7.r.3.+...( ( <.d.c.A.V.j.G.c.7.<.<.r.j.c.V.j.",
"p.<.r.j.r.<.p.V.j.!.Y.d.p.<.+.<.c.V.A.A.V.c.j.p.j.!.!.c.a.j.d.0.<.<.i.p.7.p.p.5.<.j.Y.!.!.G.A.!.A.3.<.p.j.j.r.*.p.c.p.3.7.3.<.*.} p.j.p.j.V.V.A.A.A.j.j.j.c.c.A.c.j.A.!.`./.!.!.#X#X;X!.p.d.Y.G.j.3.<.r.j.c.c.j.V.A.c.c.!..X!.`.&X,X!.!.,XG.7./..X`.j.<.j.!.;X#X!.!...k z C d.c.3.A.G.V.Y.V.j.A.G.V.G.A.c.A.A.G.G.!..X;XA.<.j.G.A.c.#X;X9X`.<.G.s n ..} ! ! r 8 ! !.9X#Xp.( ..j.c.3.p.c.j.<.*.j.V.3.<.d.*.*.7.p.d.r.<.<.*.<.p.7.r.c.l.<.r.r.3...| <.j.j.W.j.~ j.A.p.A.j...*.<.d.j.7.d.j.j.c.j.7.r.3.*.<.r.( ( c.,X5X!.Y.&X`.c.V.!.!.`.!.A.!.`.G.!.!..X!./.!.7.c.!.j.r.7.Y..X&X#X!.Y.!.;X,X;X`.&X;X;X;X!.r.<.<.p.d.<.j.G.j.V.A.j.7.c.<.} j.#X!...N j.j.j.j.j.j.<.7.3.V.!.A.c.j.c.p.j.c.G.!.G.j.A.G.A.j.j.V.c.d.p.p.A.`.&X=X;X.X!./.`..X`.!.Y.G.Y.!.!.`.!.V.G.Y.!.!.!.c.!./.r.+.<.7.<.p.<.c.!.V.Y.G.V.r...p.A.G.r.<.j.<.+.+.<.j.c.r.V.`.#X`.!.A.p.V.j.!.A.j.<.3.7...j.G.p.<.<.<.<...p.A.!.`.#X/.!.r.! <.V.V.Y.`.Y.<.<.d.j.*.! ( ! <.<.3.V.#X.XV.7.<.d.V.j.d.d.7.r.r.j.c.A.G.!.!.j.d.a.0.j.L.!./.!.A.Y.Y.V.V.!.#X&X!.} ! *.d.G.j.<.! *.p.c.c.c.V.!.!.V.p.7.j.<.U } ..+.<.j.A.j.j.j.c.j.c.<.} } ..<.*.*.} <.<.! ( r.j.c.Y.!.G.j.j.j.c.j.V.A.G.!.Y.c.c.!./.`.!.Y.Y.!.G.A.!.!.Y.G.c.d.r.A.!.!.!.!.!.V.d.<.3.d.p.3.<.<.p.d.r.3.j.j.<.*.7.*.<.d.d.<.3.3.j.A.c.<.+.+.( +.<.j.3.r.j.*.J z J ( *.<.p.p.p.j.j.3.<.<.<.d.j.<.3.<.*.! ! ..+.*.U ( +.( } <.} ! +.j.j.c.G.V.p...*.3.*...+.+.*.#.<.j.A.<.! } } <.<.<.! U ! } } ..+...( ! *.p.c.c.j.j.!./.j.<.<.d.j.j.j.j.",
"r.r.c.V.7.<.j.!.Y./..X!.G.3.( <.c.c.A.G.G.A.c.j.p.j.c.d.a.j.a.1.<.<.7.p.p.g.j.i.3.c.!.`.Y.j.j.A.!.j.j.A.Y.G.j.<.G./.!.c.d.p.p.3.3.j.p.<.s.V.V.V.A.A.c.j.c.j.j.j.r.p.c.G.Y.G.V.!.7X/.!.G.r.j..X#X!.c.d.d.j.V.A.j.j.j.p.d.!.`.!.!./.!.`.;X;X!.j.j.!./.G.d.!.!.!.`.5X#X/.7.! ..p.p.r.p.3.p.A.G.j.c.G.A.c.j.d.j.j.c.!.!.!.#XY.p.j.Y.!.p.!.;X;Xj.N ! r r *.j.r.x = 5 7..X;XY.<.! ! <.c.j.j.j.j.r.<.j.!.j.r.j.3.<.3.p.j.j.7.<.*.<.7.<.*.r.r.*.d.d.7.<.<.} i.j.!.j.! !.`.p.7.3.j.;X.X`.Y.j.7.3.p.j.c.j.V.j.<.+.3.<.r.!.,X,X!.c..X&XY.c.!.!.G.d.d.!.!.r.p.G./.Y.!.V.*.j.!.V.j.7.Y.!.#X;X#X!./.;X#X.X`.#X&X;X;Xc.<.7.<.<.p.<.d.j.j.c.r.<.<.7.<.<.<.j././.} j.j.j.j.7.d.r.p.7.j.Y.G.j.c.c.Y.!.A.c.A.A.j.j.!.G.d.c.V.j.7.p.c.!.;X&X&X;X#X/..X`.`..X/.!.c.j.G.!.;X!.j.V.G.V.`.!.j./.!.! ! d.p.<.p.r.Y.!.G.!.!.j.<.} 3.7.p.<.*.r.<.....*.7.3.7.j.!./.!.!.V.j.j.<.V.!.A.p.j.j.j.d.c.j.3.r.3.( <.j.`.!.A.Y.!.!..Xp.j./.Y.c.G.G.A.Y.G.c.j.d.r.<.r.c.!..X&X.XG.j.7.d.j.j.j.c.p.r.p.j.j.c.V.!.!.c.<.<.0.G././.!.A.c.V.j.j.V.Y./..X!.( R 3.j.j.d.<.( p.!.!.j.j.j.!.!.j.p.3.7.<.! <.<.+.} d./.!.!.&X#X!.G.*.D C ! *.3.d.r.j.p.( ( <.V.Y.!.V.r.3.3.<.c.j.V.G.Y.G.j.7.r.A.!./.!.!.Y.!.c.j.V.A.Y.A.r.3.j.G.!./.!.j.j.c.j.d.3.3.p.7.<.<.d.j.p.p.V.c.<.*.<...<.V.j.<.3.3.3.d.j.d.r.<.( <...d.+.3.V.p.<.*.<.r.p.j.!.V.p.j.A.r.} } <.7.r.*...( +.} ..r.j.r.! ( <.<.<.p.d.7.V./.!.`.;X;XG.R *.d.7.3.p.r.p.j.d.A.Y.+.C ! ..3.3.<.! ! +...R J <.<.*...*.7.r.<.<.7.A.`.Y.p.3.p.3.3.<.<.",
"p.j.V.j.<.p.Y.!.!.!.`.`./.V.7.j.c.c.G.Y.G.G.A.j.j.j.j.p.d.j.j.r.p.i.a.j.j.V.D.j.r.j.!.`.Y.j.d.j.c.d.p.j.A.Y.c.7.!.;X&X!.c.j.V.d.j.A.j.<.p.c.V.G..X`.!.Y.G.j.d.j.p.j.V.A.G.V.d.c.!.<.<.V.j.A.#X#X.X!.V.c.A.!.!.j.r.p.+.*.j.!.#X/./.A.A.!.!.!.G.j.!./.#XV.!..X!.!.`./.#X#X#X;X!.<...*.<.r.c.Y.j.<.c.G.G.V.j.j.V.G..X!.G.!.G.j.j.c.j.p.j.j.A.j.<.j.n D .X5X`.N 5 N !.#X!.V.d.<.! ! V.A.c.7.3.r.<.+.c.c.7.c.j.r.<.3.<.7.<.<.<.<.j.r.#.<.3.<.p.r.7.*.p.#.5.g.D.j.<.).;X<.J <.!.5X&X#X#XG.<.} +.7.V.!.Y.V.<...r.j.V.!.#X&XY.c./.;X/.!.!.Y.j.3.7.V.V.3.<.j.A.V.!.G.j.!.G.V.G.Y..X/.#X;X;X#X`.;X#X.X`.#X#X#X;Xd...<.<.3.A.d.j.<.<.7.<.r.V.3.} *.3.d.A.A.j.V.!.j.c.r.j.c.c.V.V.!.!.c.G.c.j.j.d.7.p.j.j.j.j.j.<.j.j.7.<.j./..X;X;X&X;X.X.X/.!.!.!./.!.Y.G.j.!.;X!.j.V.!.Y.!.!.V..X.X7.3.c.V.d.c.j.Y.A.c.G.!.V.p.7.p.<.<.} <.j.d.+...+.<.r.j.j.A.A.Y.!.V.V.V.<.j.!.!.d.j.d.j.7.d.<.} <.j.d.7.j./.V.3.c.!.!./.j.V.!.!.Y.!.!.V.j.j.j.c.c.j.j.r.V..X;X`.Y.c.j.7.r.r.7.j.G.j.3.p.c.V.V.c.G.Y.d.+.<.j.[.&X~.!.Y.G.A.<...j.!.`..Xj.! } j.d.7.r.<.<.A..X`.A.V.d.c.c.r.j.3.+.<.<.6.3.<.! <.`.#X/..X!.!.!.3.R C ! +.*.c.V.j.p.<.<.r.j.j.c.j.3.<.<.<.j.G.L.!.!.c.r.<.7.c.Y.!.!.G.V.!.!.j.c.G.Y.V.p.j.Y.!.Y.Y.j.<.<.d.c.j.3.<.r.j.y.7.p.j.j.V.!.V.<.3.+.( +.p.d.r.j.r.p.j.Y.!.!.p.} <.<.d.3.<.r.7.j.j.j.p.<.p.Y.j.3.p.V.j.<.<.7.<.<.} ( } <.*.<.p.7.*.<.} <.d.j.d.A.!./.<.N <.`.&X!.+.! +...<.j.r.r.j./.!.!.<.J ..3.j.p.*.R ! 3.3.( ! <.<.*.+.+.<.<.+.*.p.A.!.!.j.r.7.3.3.<.<.",
"c.A.V.7.<.A./.j.!.Y.!.Y.!.!.c.A.c.c.A.G.c.c.j.3.d.j.j.r.<.<.r.j.5.5.1.<.7.j.V.j.r.<.j././.Y.V.c.V.j.r.r.j.L.G.j.A.!.!.j.3.r.j.<.p.c.j.<.7.j.A.!..X`.!.Y.G.j.d.j.c.c.Y.!.`.!.j.j.+.N +.#X`.G.!.Y./.!.A.G.!.#X!.j.j.j.( ! <.A.&X`.!..X!.V.A.p.3.c.!.j.!.Y.!.`./.#X!.j.R ( j.Y.!.G.! } ..( +.j.V.<.3.c.Y.G.c.j.V.G.!.#X#X!.V.V.c.j.j.G.3.! +.r.d.r.! 7.7X7X9Xj.( `.,X#XV.d.d.<.+.<.7.j.j.<.r.j.r.<.7.p.*.d.A.j.<.r.r.d.3.+.! ..r.7.<.*.r.0.7.<.1.} ! ! | >.0.0.1.L.Y.! N Y.;X.X;X7X&X!.7.} } <.j.Y.!.G.3.*.j.!.!.!.;X;X#X!.`..X!.G.!./.!.G.A.!.!.c.A.G.G.V.!.!.!.&X`.G.!.#X;X!.&X;X.X&X/.;X.X.X`./.#X`.#Xj.+.3.d.V.A.V.A.7.*.<.<.j.j.p.<.<.p.j.V.j.j.V.!.p.c.<.<.*.j.!.Y./.!.j.c.3.<.r.j.r.<.<.<.*.<.<.} d.d.<.<.Y.&X/..X#X&X#X!.`.&X.X/.!.Y.A.Y.!.`./.&X!.V.!./.Y.!.#X!.`.;X`.A.3.j.j.V.j.c.A.Y.G.j.V.A.j.j.<.<.! <.G.c.<.7.p.r.V.A.j.V.A.!./.Y.Y.!.p.p.G.Y.p.j.r.d.p.r.*.<.r.7.p.p.j.!.j.<.Y.&X!.A.A.G.A.A.`.#X!.Y.r.7.A.G.j.d.j.7.j./.#X!.j.p.3.<.r.d.<.d.A.j.7.c.Y.c.r.<.r.j.<.! *.c.;X#XL.!.!.!.!.<.+.V./.Y.j.<.( <.p.<.<.j.d.j.Y.!.A.j.Y.p.7.r.<.V.j.<.r.d.p.A.!.<.<.!.!.r.*.( <.Y.j.<.! ! ! ! c.G.r.<.<.p.j.G.j.j.V.j.r.<.<.j.G.V.A.A.d.<.<.j.V.A.A.G.c.j.Y.G.r.j.!.!.V.j.G.!./.A.j.j.7.p.j.j.j.3.<.7.j.c.j.j.c.V.A.!.c.3.j.d.r.3.<.+.3.j.<.j.j.G.!.!.p...<.*.7.c.p.<.3.d.j.V.p.*.r.!.c.<.r.j.V.j.j.p.+...+.+.<.<.( <.3.+.} *.+.*.3.p.j.!.#XA.r - N !..X#XA.<.7.<.p.A.r.<.j.!.G.!.7.! *.<.<.p.<.R ! <.<.+.<.<.<.<.<.<.d.j.p.<.V.!.!.!.j.r.3.3.<.<.<.",
"p.A.G.j.p.j.!.A./.#X;X!.c.V.V.A.j.j.c.G.A.c.p.+.( ( } +.+.3.j.<.<.d.r.*.<.p.3.+.*.*.<.c.V.!.V.j.j.c.j.3.p.j.d.j.V.A.p.#.r.A.j.<.r.d.a.0.r.j.!..X`.Y.Y.G.c.j.j.Y.Y.j.j.c.!.!.V.c.+.+.G.!.!.G.!.G.G.G.Y.G.Y..X/.j.j.j.3.r.p.p.!..X`.!.!.c.p.<.( <.G.d.Y.`.G.!.&X#X.XY.3.<.c.G.!.;XA.d.<.*.<.d.c.A.j.j.c.j.<.r.!.Y././.Y.V.p.r.c.c.p.V.r...! *.<.3.<.!.;X;X9X7X!.;X&X5X&X!.p...<.j.p.<.7.j.j.r.r.p.p.....p.!.!.c.j.j.V.j.3.( ! <.d.7.3.<.p.j.<.j.<.....} 7.j.d.c.j.<.D D #X9Xj.Y.#X#X!.j.7.p.A.!.G.!.c.r.r.c.Y.!.#X;Xc.V./.3.j.A.!.#X.X.X.X#X.X!.!.Y.G.A.c.G.!.!.V.!./.`..X#X&X&X.X;X#X&X&X/.&X&X#X#X`.;XY.7.j.A.c.<.<.j.j.A.3.7.c.d.<.3.d.r.c.j.A.A.V.l.c.C...*.j.G.!.Y.~.p.a.G.r.3.d.c.j.<...R ( ( } +.r.j.r.7.A.!.Y.Y./..X/.!..X#X.X.X&X.X!.G.G.!.!..XG.A.!.Y.!.!.`.`.!.`.Y.Y.r.p.j.j.j.j.`.!./.!.!.!.d.*.<.<.+.<.j.c.7.<.3.j.A.V.V.G.!.!.!.V.r.j.p.r.d.c.c.j.r.j.7.7.j.j.j.3.} r.j.d.d.c.A.Y.!.A.V.d.r.j.!.!.!.#XA.j.c.j.j.V.A.p.V.!.!.V.c.V.j.*.G.!.T.Y.A.A.A..X`.c.<.} <.j.V.<.+.c.&X`././.V.Y.!.c.A.!..X`.d.*.d.c.V.j.j.A.G.!.j.v.j.j.j.7.r.c.r.3.<.3.j.j.7.j.j.<.*.G.Y.C w q z 7.7.p.*.! } ! 7.<...j.c.!.A.!./.A.r.} ! <.d.G.!.V.j.j.d.u.<.p.j.c.j.A.!.G.G.G.A.!.!.!.c.p.V.G.!.V.j.c.j.r.3.d.7.3.3.<.7.d.d.j.V.j.d.j.d.p.7.<.r.j.<.( j.r.<.p.j.V.G.j.<.<.r.j.j.j.A.c.<.<.r.c.j.j.V.Y.c.r.r.7.c.Y.!.c.<.<.d.c.p.<.} <.7.<.*.j.<.} <.} ! j.`.7.h h <.G./.#X!.c.V.!.!.A.d.7.7.V.V.!.p.+.*.*.d.V.d.3.3.<.*.*.<.d.p.<.7.j.c.A.7.<.j.!.`.V.r.<.<.<.<.*...",
"p.A.!.Y.r.<.A./.V.!.;X.X!.G.j.j.r.j.c.j.7.p.j.j.+.} ( } } <.d.<.#.r.d.d.j.d.<.( <.<.7.V.j.j.j.j.c.j.j.7.<.d.j.j.j.c.d.1.d.C.j.<.p.l.c.j.j.G./.`.!.A.L.A.C.A.c.C.G.c.c.j.c.j.r.7.j.j.A.c.A.A.A.V.Y.Y.Y.Y.Y.!.!.A.j.c.j.!.Y.j.!.#X`./.!.j.<...! <.!.`.c.j.!.&X5X5X;X&X!.`.!.!.;X.X/..XY.d.r.j.c.7.c.G.c.j.p.d.!.`.G.V.d.r.7.7.j.A.<.7.<.3.<.d.j.V.!.`.;X;X9X5X!.`.;X&X&X;X!.<.<.j.j.d.d.d.7.3.r.p.r...<.j.G.!.G.V.r.j.c.c.3.! *.r.<.<.r.p.p.<.7.<.#.....d.c.d.1.C D } ! !.;X7.A.;X/.j.j.j.j.`.#X/.!.Y.c.c.!.!.!.`.;X<.n ..<.A.!.!.!././.!.!.!.`.&X`..X/.!.!./.`./.#X#X#X`..X#X&X&X.X`.;X;X.X/.#X#X!.!./.V.d.j.p.<.<.<.r.r.r...3.A.j.<.3.p.<.d.j.j.A.j.j.V.l.*.a.!.c./.`.!.0.r.j.<.7.V.j.<.+.<.+.3.r.3.*.<.p.7.p.Y.j.V.!.`./.!.!..X.X/.`.&X#X!.!.!.!.!.#XY.V.Y.j.j.c.Y.!.!.!.c.j.<.*.3.<.r.7.j.V.A.A.A./.A.r.7.3.r.7.j.j.r.*.*.r.A.G.j.A.Y.G.!.Y.p.r.j.c.j.e.3.3.7.j.p.j.A.Y.G.j.<.j.j.j.j.c.V.G.!.7.<.<.j.V.j.c.!.!.G.Y.G.j.A.!.!.d.V.Y.j.3.r.V.Y.j.A.!.!.`.!.c.!.!.!.A.7.<.j.A.G.j.p.j.Y.!.!.!.j.d.j.j./.;X&X.XA.r.G.!.Y.A.G.!.G.V.j.j.<.3.j.7.<.r.<...! <.Y.A.r.d.p.+.! p.p.v 0 q c <.*.<.<.<.A.3.7.<.<.!.G.V.j.A.!.!.A.r.+.3.p.A.Y.V.j.p.3.7.<.j.j.c.j.V.!.V.j.`.!.!.!.!.c.p.j.Y.Y.c.j.c.p.<.<.<.p.p.<.<.j.G.j.V.j.<.r.d.7.7.r...<.c.j.3.z.<.<.d.V.!.G.d.<.<.7.j.j.d.r.<.( *.7.V.A.A.A.c.r.3.j.c.Y././.G.j.j.G.!.c.r.<.7.j.r.r.c.r.*.+.! J <.V.G.r.d.c.p.j.Y.G.A.G.!.!.V.j.j.r.j.j.c.p.r.j.V.!..X!.G.j.*.( *.p.d.<.+.r.j.j.r.<.<.d.G.A.p.<.+.! } *.<.*.",
"3.j.V.A.r.<.Y..XV.!.&X`.G.c.j.c.p.j.c.7.+.<.d.j.V.d.<.<.*.2.j.7.+.<.7.j.A.j.3.*.3.<.7.j.r.7.r.j.V.j.j.d.p.V.A.j.a.j.a.7.p.d.7.<.0.r.d.j.c.L.Y.!.`.!.C.d.j.!././.G.A.Y.Y.Y.G.j.7.Y.G.G.j.A.Y.Y.Y.V.j.j.V.!.Y.V.V.j.j.p.Y.G.d.!.;X;X;X.Xj.<.+.*.<.j./.j.c.`.!..X;X!..X/.;XA.d.#X/.j.#X;X/.!./.c.R } d.j.j.G.j.j.`.!.!.j.d.c.j.c.G.r.<.<.j.j.c.c.G.#XG.!.&X;X;X#X;X;X`./..X!.r.<.j.Y.A.c.p.<.3.j.V.<.<.d.d.<.<.p.j.c.j.j.c.<.! ..p.j.<.<.} <.<.3.<.( ! ( 0.3.*.| h D ( R p.A.3.Y.7X/.d.G.A.c./.!.!.`.`.!.!.#X#X/.!.,X3.h } A.`.!.Y.!.`..X/.G.Y./.&X#X;X#X!.Y.!..X#X;X;X&X.X`..X#X#X#X`.!.!./.V.!.A.j.G.!.A.j.c.j.d.d.3.j.j.p.<.j.!.Y.j.3.3.3.r.3.j.j.1.3.d.d.*.d.Y.<.L./.Y.r.l.j.3.<.V.p.*.+.<...<.<.<.<.7.j.d.p.j.d.G.&X;X&X/./.`..X!.!.#X#X!.!.!..X#X;X!.G.!.c.c.d.V.!.Y.!.V.j.<...<.} 7.p.j.V.v.<.<.V.Y.j.p.<.p.j.j.j.j.p.7.j.!.!.j.G.!.Y.!.!.j.p.A.!.G.p.3.3.7.p.j.V.G.Y.Y.c.7.3.d.j.j.j.V.!.G.<.! <.A.c.3.7.j.Y.G./.!.j.c.!.A.V.!..XY.j.j.!./.Y./.;XG.V.Y.j.!.!./.!.j.d.V.A.j.c.j.<...7.V.V.j.j.d.p.!.&X!././.G.!.!.!././.`.!.A.V.j.*.*.r.<.*.*.<.<.} <.j.V.j.j.j.<.} 7.3.N i h U 3.*.<...} d.r.<.} <.!.!.c.j.V.Y.!.`.!.G.Y.G.A.G.A.V.p.7.d.2.d.j.c.j.c.G.c.c.`.!.!.!.A.V.j.j.G.c.j.j.j.3.+.<.<.r.r.....j.G.d.j.<...r.j.p.c./.p.<.A.j.<.<.} <.c.!.#X!.j.p.p.r.4.r.<.} ! } <.r.r.d.j.A.V.j.j.!.!./.#X.XY.c.c.V.j.r.<.+.3.d.3.<.p.p.<.} ! R <.j.G.V.!.V.7.d.Y.A.j.j.a.3.<.p.j.3.p.r.p.p.c.!.!.!.`.#X`.c.*.! +.r.<.! ( 7.c.j.r.d.V.j.V.G.r...R v J ! } ( ",
"<.j.j.c.r.<.c.j.j.!.#XY.d.j.j.A.c.j.j.7.3.p.j.j.G.j.<.<.<.3.j.p.+.#.<.j.G.G.j.7.7.<.<.r.3.7.p.d.V.p.r.r.j.!.!.A.d.d.a.d.j.c.j.j.7.*.<.0.j.V.c.A.$XY.j.<.3.V.!.~.G.V.Y.!.!.!.A.j././.`.!.Y.!.!.G.j.p.3.j.!.!.c.j.V.p.<.d.j.p.!.5X;X.X!.p.<.7.d.3.A.!.!.G.7.7.`.;X.X&X#X;XG.<.A.;XA.&X;X;X&X&XY.+.<.j.A.!.`.p.+.j./.`.j.p.Y.G.j.d.7.<.7.j.j.Y././.;X!.#X;X;X;X;X,X;X`.!.j.j.d.<.r.G.V.c.d.<.7.c.Y.j.j.A.7.! ! +.d.!.V.d.7.} U ! 3.p.<.+.} 3.p.j.c.d.3.r.G.c.j.c.( ( N R <.3.j.#XwX/.Y.!.Y.j.G.!.`..X;X;X&X;X;X`.!.;XA.+.V.#X#X!.!./..X&X`.!.!.`.#X.X&X#X!.Y.!.`.#X&X&X&X#X.X`./.!..X.Xc.7.G.3.V.j.3.V.!.G.G.G.A.G.j.3.j.V.j.r.c.c.r.j.<.<.d.<.+.V.!.d.<.r.l.7.j.G.<.j.!.Y.L.&X/.!.!.&X!.Y.c.d.<.<.( <.3.d.c.V.c.G.!.!.`.`.!.!.!.&X#X/..X&X&X#X/.`.`.!.`.!.G.G.c.G.V.Y.!.A.!.V.j.3.7.7.<.p.j.V.c.j.} ! <.p.d.p.<.d.V.j.r.d.c.j.j.G.!.V.Y./.!.!.A.p.j.Y.`.!.c.j.j.<.7.j.A.V.j.j.d.7.<.j.A.c.j.!./.A.r.<.d.!.G.A.G.j.V.j.!.!.d.7.j.r.!.`.#X/.Y.Y.!.!.!.&X;X<.<.!.Y.!.Y.!.!.c.j.Y.G.j.j.j.+.! 3.V.V.V.!.A.p.G./.A.!.!.`.G.j.G..X`..X.X!.!.A.<.<.<.*.r.*.<.3.1.<.r.j.!.d.j.3.*.3.<.! U R +.r.7.p.r.<.3.j.V.p.<.!.Y.j.r.r.j.c.!./.!./..XY.G.Y.!.G.A.A.3.d.c.Y.A.V.V.j.c.G.A.!.!.c.V.c.j.c.d.r.j.j.r.3.d.<.<.<.....7.j.j.G.j.r.j.j.1.j.!.j.<.A.c.<.p.3.j.Y..X.XV.p.j.d.<.<.7.<.} *.p.j.d.7.7.d.A.!.G.G.!.!.Y./.`.!.G.G.j.r.<.*.<.j.c.3.*.<.d.7.+.( ! +.7.j.r.j.c.j.A.!.A.r.3.<.+.*.j.V.<.*.<.+.<.p.A.!./.V.!.!.V.7.<.<.<.<.( <.r.r.p.r.d.V.*.<.c.p.+.! J U R ! R ",
"+.7.r.j.j.d.j.<.+.c..XY.j.j.c.V.V.j.r.j.A.G.G.Y.A.j.<.<.<.<.r.3.+.<.d.j.V.A.V.d.r.7.p.r.3.7.d.d.j.p.<.*.d.A.V.A.c.j.d.l.A.A.C.c.p.0.p.7.p.c.A.!.~.A.c.j.d.j.j.C.!.V.Y.G.A.!.Y.Y././.;X;XY.!..X!.V.j.7.3.c.!.Y.Y.c.r.*.<.7.j.Y.`.j.j.j.<.<.p.c.p.A.Y.!.! y D !..X/..X&X,X;Xp.p.qX;X;X,X,X;X;X.X!.G.c.A..X&XV.j.!..X.X7.*.j.G.j.<.<.p.j.V.d.!.;X`..X&X;X;X;X;X.X#X;X#X/.c.c.c.<...p.3.r.d.3.<.r.j.j.V.j.*.} ! ! <.A.j.r.<.} ! ! } <.<.*.<.r.r..X,X[.!.!.;X;X[.!.*.+.J ( 7.<.d.#X;X.X,X`.G.V.V.!.`..X;X;X;X;X;X`.!.`.Y.Y./.!./.Y.!./.!.!.!.!.`.;X;X&X&X#X`./.`.#X#X&X&X&X&X#X`./.!..X;XV.d.Y.! 3.A.r.V.A.A.!.G.j.j.j.3.j.A.G.c.V.r.! <.<.d.V.<.3.`..X!.p.7.A.j.c.!.3.r.d.c.!.,X[.[./.#X.X&XY.!.A.V.d.V.A.j.j.c.G.!.`.!.Y.!.G.c.Y..X#X/.#X.X#X#X/.`.!.A.!.`./.A.j.Y.!.!.Y.d.V.j.p.<.<.<.r.7.3.A.j.c.r.<.<.*.*.3.3.V.Y.G.j.j.A.A.c.c.Y.G.Y.!./.G.j.p.j.V.Y.G.A.Y.c.<.r.j.V.G.j.3.<.p.j.V./.!.Y.!.!.A.j.j.!.!.A.!.!.p.*.*.j.A.j.j.G.j.!.`.`.!.Y.!.!.!.!.!.!.<.7.;X`.!.c.Y.!.V.G././.A.V.Y.j.j.!.`.!.!.#X!.j.Y.`.!.!.Y./.j.<.p.!./.`..X!.!.G.*.( ( } j.*.! ( } +.7.j.A.j.c.p.7.p.r.r.j.*.*.<.3.r.j.j.r.p.A.c.r.!.V.<.} +.r.V.!.Y.j.Y.#X!.!.`.&X`././.j.A.G.!.!.G.A.j.p.c.G..X!.c.j.j.d.j.p.3.r.p.d.j.j.3.<.<.3.7.j.V.A.G.c.j.V.j.7.j.V.j.3.V.d.7.c.c.G.!.`.!.j.d.A.z.+.j.V.c.r.p.G.G.j.j.p.d.G.!.!.Y.G.!.Y.!.!.Y.!.!.V.j.r.3.p.G.Y.3.} ..<.<.} ( } } *.*.<.j.!.!.!./.!.d.3.+.! +.c.A.*.! +.*.<.3.7.p.j.7.j.j.p.3.<.<.<.( ! <.<.<.j.A.j.*.J ! r.<.*.<.<.+.( ! ! ",
"d.<.( 3.j.G.A.d.( j.`.Y.j.j.j.j.G.j.d.j.A.j.j.A.G.c.r.r.3.<.3.<.<.d.c.j.r.l.!.!.V.c.G.j.7.<.7.r.r.d.d.r.j.j.p.j.A.j.j.C.A.c.j.a.d.A.!.d.1.j.A.!.A.j.V.G.A.z.j.Y.j.p.A.Y.c.V.G.Y.!.Y./.;XG.!.;X.X!.!.j.<.3.j.!.`.V.j.<.+.<.j.G.A.3.j.j.r.<.r.j.j.!.!./.<.N ..!..X#X.X/.!.`.<.U !.;X`.;X`.G.!.!.`.;Xc.j.!.!.!.!..X,X;Xd.+.d.A.j.7.3.j.A.c.p.!..XA.c.!..X&X,X5X;X#X;X&X.X!./.!.j.7.j.7.7.p.<...<.7.*.p.3.} ..! N ! d.p.7.+...*.+...<.<.} +.3.<.!.;X&X;X&X,X7X7X:XA.p.j.+.p.A.G.;X#X&X9X!.j.G.A.!.!.`.&X&X#X;X#X!.!.#X!.#X`.Y./.G.V.A.V.G.Y.!..X;X#X&X&X#X#X#X&X#X.X;X&X&X&X#X.X`..X&X#XV.!.;X<.3.G.j.!.A.j.j.d.j.j.A.j.A.G.!.!./.j...( *.c.j.<.c.j.d.C.d.0.L.j.V.[.0.*.*.p.A..XY.!.j.A..X;X/.;X/.Y.j.!.`.!.G.V.V.G.!.!.`.&X.X!.!..X#X.X;X`./..X!.!.#X!.!.#X#X!.Y.`./.!.G.p.c.c.d.7...*.j.7.*.j.3.j.j.V.c.3.;.*.7.V.G.!.!.Y.Y.Y.G.G.!.!.!.!.`.G.j.V.A.A.Y.A.V.!.!.d.j.d.V./.!.r.<.j.A.A.!.&X`.Y.G.Y.j.A.`.`.j.j.c.3.*.7.c.A.A./..XG.G./.`.!.Q.!./.`./.!.Y.V.Y./.!.Y.c.G.!.Y.Y.#X#X/.!.`.!./.&X.X!.!.`./.j.c.!.!.!.G./.G.3.3.A.!.!.Y.!.&X!.*.R ! ! j.3...*.+.*.j.Y.V.A.G.j.c.c.p.7.r.<.<.<.7.3.p.3.<...7.d.d.`.A...! ..7.V.#X.XY.!..X/..X#X;X`./.#X!.Y.A.!.!.!.!.j.7.c.Y..X!.j.j.d.d.V.p.3.7.p.j.c.p.7.<.3.d.j.V.A.c.!.G.c.A.A.c.c.d.<.<.d.<.7.A.!.!.G.V.j.d.j.!.!.p.c.!./.c.d.A.G.c.c.j.j.G.!./.!.Y..XY.c.c.c.G.Y.Y.!.j.r.p.V.V.<.! } ....! ! } ( ..! r.!.`.!..X#X.X`.V.<.( <.V.Y.j.( 3.p.3.<.*...<.p.d.p.<.*.<.r.d.*.} <.<.*.j.j.*.C R <.r.<.<.r.<.<.<.<.<.",
"A.7.<.<.r.V.V.j.3.j.!.A.j.j.j.c.Y.Y.A.c.j.<.<.r.p.7.<.7.7.<.r.p.3.j.j.3.#.r.!.[.G.j.G.V.a.+.<.7.<.r.c.j.j.j.p.j.c.j.c.A.c.l.c.l.d.A..Xc.7.d.j.Y.V.a.a.d.j.j.j.!.3.+.r.c.c.c.j.j.!.j.j.!.V.!.#X/.#X`.Y.j.7.j.!.!.!.!.c.7.p.Y.!.A.j.G.c.j.d.r.j.c.!.`.!.!.G.V.G.!.`.`.A.c.!.j.<.V.&X!.Y.} R j.A.Y..XV.G.Y.c.Y.!./.,X,XG.j.A.A.c.j.j.j.j.j.c.#X#X!.!.`.`..X;X5X,X;X;X;X.X`.#X.X/.!./.!.G.j.<.! } *...3.<.} ( ! ! 7.c.j.p.*...<.<.7.<.*.} <.d.*.3.p.A.#Xj.<.j.&XqX;X!.#Xj.c.;X;X&X;X#X;XY.A././.`././.`.`.`..X!.!.!.;X#X#X#X.X#X!.j.d.j.Y.!.G./.&X`.;X&X#X&X&X&X#X.X;X&X#X#X#X`.`..X/.Y.j.!.;X!.!.G.j.!.G.j.3.<.j.V.j.V.Y.c.V.!.#X!.V.<...3.*.*.G.+.<.j.j.p.A.l.L.~.j.3.1.l.A./.!.!.<.p.!.`.Y.Y.<.+.<.j.!.&X#X/.!.!..X.X.X.X.X`.`.`.!./.;X!.!.&X/./.&X!.A.!./.!.!..X!.!.!.j.G.A.j.d.3.p.V.j.3.r.*.r.d.!./.G.j.3.d.c.c.Y.!.G.G.G.G.!.Y.G.Y.!.!.A.A.!.!.!./.!.!././.c.j.c.A.!.!.c.p.p.c.V.Y.`.`.!.G.!.V.A.`.#XY.G.!.G.V.!..X!.!./.!.j.V.!.!.Y.!.`./././.!.!./.Y.j.j.j.V.G.!.!./..X#X`.`./.!.!.!.!.!.!./.`.j.j.G.A.Y.G.!./.j.d.c.j.p.3.A..X/.3.} ! ! d.+.! <.r.*.r.j.r.A.j.<.r.j.<.*...<.j.p.j.j.d.*.*.p.j.c.j.&XV.( ! ....<.!.&X/.!.!./..X`./.!.!./.!.V.j.Y.!.Y.G.j.d.A.Y.!.j.d.d.r.d.A.r.7.j.V.!.Y.j.d.<.<.p.j.V.A.v.!.Y.V.Y.!.!.G.d.<.j.c.7.d.j.c.j.3.<.<.<.3.j.A.j.d.V.!.V.d.V.G.A.!.Y.Y.!.!./.!.j.A.j.d.j.G.Y.!.!.`.V.p.7.j.j.<.+.<...+...+.<.....<.V.`.!.!././.!.!.c.3.*.<.r.p.p.7.d.d.<.<.<.<.j.V.j.p.<.<.7.j.A.p.3.*.*.<.7.3.( C ..d.j.d.j.j.*.<.7.r.r.",
"<.p.G.p.<.d.j.c.j.d.c.c.c.V.b.Y.A.!.!.A.j.7.<.7.<.<.<.7.r.<.r.j.a.d.d.1.+.1.j.V.j.<.r.j.j.<.3.d.<.<.p.d.7.d.j.j.l.j.j.j.r.0.d.j.j.j.!.Y.j.d.r.G.!.l.p.3.3.p.j.G.V.<.<.j.c.G.A.c.j.<.} j.A./.&X.X&X.X`.!.G.G.!.A.Y.!.Y.j.j.!.!.c.!.!.j.j.j.j.V.Y..X&Xc.c.!.G.!.!.!.`.G.G.`..X`.G..XV.d.h k Y..X!././.;X!.j.Y..X&X&X;X&X;X;X`.!.!./.V.r.V.!.5X;X&X;X#X/.!.!.`.;X;X;X7X.X!.`..X&X`.&X;X;X!.<.! ! R <.<...! ! ..<.Y.!.G.c.<.+.<.3.j.3.+.<.3.p...} 7.~.&X~ p C c.`.A.;X.X&XY./.G.} c.5X;X&X#X;X%X`..X/./././.`.!.G.!./.`.!./.&X#X`.V.r.j.!.Y.j.!.;X;X;X;X;X;X;X;X&X#X&X.X.X#X.X/.!./.!.!.V.A.c.!..Xj.f.c.c.j.p.3.p.7.d.G.!.j.j.G.;X;X;XY.p.<.! ../.p.d.V.j.<.p.a.C.A.c.j.j.!.G.!.!.!.p.d./.#X/.A.! ..d.V./.#X#X`.`..X.X.X!.Y.!.`.!.j.<.p.G.j.j..X`..X!.Y.V.Y.!.!.!.!.!.`.#XA.Y.c.7.7.r.p.j.A.j.j.7.p.d./..X#X!.c.G.Y.Y.!.!.Y.!.Y.G.!.j.d.V.!.G.j.A.!..X/..X#X/.`.!.j.j.!.Y.j.A.!.j.<.c.!.!.!././.!.!.!.Y./..X!.!.`./.A.!.`.`..X|.!.!.!.!.G.V.!.#X.X/.!..Xc.V.j.3.j.<.c.A.Y.!.!.`.`.`./.!././.!..X#X!..X&XA.V.Y.c.c.c.Y.!.V.j.j...R R ..3.p.<.} C v <.*.! d.!.j.j.c.r.!.r.R ! <.3.r.r.7.G.p.r.j.p.! ..G.!.Y.j.!.j.( ....! } j.!.!.!.!.!.`.Y.G.Y.Y.Y.A.j.j.!.!.c.j.j.j.!.Y.c.7.<.3.<.7.A.7.r.A./.&X.XV.j.<.+.7.j.V.Y.!.!.G.V.G.G.V.V.p.7.j.d...*.<.j.c.<...<.<.+.<.d.j.d.j.!.G.c.!.!.G.!.!.!.!.`.&X!.p.j.j.j.G..X!.A.G.G.d.<.<.3.3.*.<.<.! *.3.p.j.p.7.3.A.`.!.!.!.!.!.!.V.7.<.<.<.3.j.d.j.V.r.p.j.<.d.j.3.*...*.3.p.d.d.p.} +.3.<.<.3.*.7.p.r.j.V.d.} <.j.j.d.",
"+.7.j.3.<.r.p.G.p.V.j.j.V.V.j.V.G.!.c.V.Y.j.7.<.<.<.<.<.<.<.r.d.j.V.r.3.7.7.r.3.3.j.j.d.V.j.p.A.G.c.3.<.r.r.<.3.i.j.j.j.<.>.7.j.j.g.j.j.j.l.V.g.l.C.c.j.j.j.d.j.c.} <.<.r.Y.G.V.r.j.*.<.d./.#X/.#X&X.X#X#X.X#X/./.G.j.j.A.G.c.j.!.!.7.*.c.V.d.Y.;X5X!.3.Y.,X7X!.!./.!./.,X;X!.!..XY.<.! <./.Y.Y.#X;X;X!.V.Y.#X&X;X,X;X;X,X5X,X.X#X;XG.A.#X,X;X#X#Xj.3.7.j.!.#X#X;X;X&X,X;X!.#X;X&X;X,X#X<.( R } <.!.V.*.! <.r.!.Y.`.!.j.d.!.r.7.c.V.j.j.c.j.3.<.!.&Xr.U j.&X/.G.;X;X;XqX7X<.h <.;X;X/.`.`.`..X`..X.X!.!.A.j.Y.!.!.`./.!..X&X`.Y.c.p.j.p.p.!..X~.`.;X;X&X;X;X`..X;X.X#X`.#X!././.Y././.G.r.d.!.!.j.A.Y.r.p.A.r.3.j.j.!.!.j.!.;X&X,X`.G.j.....Y..X/.0.0.<.r.l.Y.c.V.G.j.D.G.!.!.[.`.A.!./.&X/.j.j./.!.!.!.!./.`.&X/.!.A.j.!.;XG.3.<.R ! 3.j.!.&X!.#XY.j.!.`.A./.!./.`.Y.j.d.j.A.p.r.d.<.A.d.j.j.p.p.`.!.Y.!.Y.Y.!.!.!./.`.!.G.A.G.j.<.c.!.G.c.j.!.`.&X.X!./.!.G.A.j.Y.!.j.c.!.j.7.A.A.!.A.j.c.A.c.!.!.!.`..X.X`.`.V.!.`.`./.#X#X!.G././.c./..X.XG.Y.A.A.A.V.j.p.p.j.G.!.!././.!./.!./.!.!.`.!.!.!./.`.!.V.c.d.p.c.j.j.j.3.! } J N R ( <.} ! U D j.+.! <.A./.G.r.d.d.*.! +.r.j.j.r.p.j.7.<.<.<.<.<.!.G.j.d.j.p.r.Y.j.} ..<.d.!.A.V././.G.A.G.Y.G.j.G.A.!.A.!.Y.d.!.`././.G.r.3.r.3.j.<.<.G.#X#X`.G.j.j.r.r.d.V.Y.!.!.G.j.V.c.j.c.G.G.j.<.7.r.<.j.!.7.<.<.*...*.<.3.3.r.c.j.p.G.!.G.!.!.!.!.`.`.!.Y.G.!.!.!././.A.c.A.p.! R <.<.+.} <.<.3.j.V.j.p.7.<.j.j.<.d.!.!.Y.j.r...} ( <.j.<.j.r.j.j.!.A.+.*.+.! <.3.<.<.+.d.V.r.*.*.<.} ! ! 7.d.d.j.<.! <.<...3.A.c.",
"} <.p.<.3.j.r.j.V.G.j.p.j.j.j.V.Y.!.G.Y.Y.d.<.<.3.<.<.3...! *.7.j.V.j.7.3.3.r.7.c.j.7.7.c.V.j.p.c.j.3.+.7.p.<...1.j.j.p.<.o.7.j.W.N.j.a.j.N.l.a.j.d.7.3.0.3.3.d.d.! <.p.p.G.!.Y.c.V.p.r.<.j././.!./.!..X.X`.;X;X;X!.c.j.A.G.c.d.c.A.<.! 7.p.<.j.#X;XY.Y.#XY.G.j.*.G.Y.A.&X#XA.Y..X!.j.p.!.!.! ..c.!.;X#X!.#X.X/.;X;X;X;X;X&X;X.X;X;X/..X,X;X;X;X.XG.V.G.!./.#X#X;X5X;X;X&X!.`..X#X&X;X`.d.<.! ! j.&X`.j.<.p.j.!.!.Y.j.p.j.A.<.3./.A.p.p.j.j.p.<.7.j.7.<.Y.,X;X/.;X!.Y.!.7X&Xj.V.#X`.G.A.Y.!..X`.!.[.!.!.!.V.c.V.A.Y.`.#X;XG.<.!.Y.j.j.V.Y.&X&X`.`.#X!.!.`.#X`.#X/..X#X;X#Xj.!.`.Y.!.!.!.j.c.!.Y.Y.A.Y.d.7.j.p.j.c.j.!..Xc.!.5X&X&X#X.XA.<.7./.&X!.<.d.A.!.!.!.Y.#X!.j.j.W.#X#X=XY.j.j.V./..X!.#X`.Y.Y.G.!.!.G.Y.G.j.V.Y.`.&X!.A.c.7.d.A.c.G./.!..X!.c.V.A.!.;X#X!.G.j.j.j.A.!.c.j.j.3.r.<.V.p.<.j.A.Y.!.!.!.G.c.V.!./.!.A.j.c.A.r.<.V.!.G.c.j.!.`..X.X.X`.!.c.j.r.c.Y.A.Y.!.c.d.V.j.c.c.j.c.V.j.`.#X.X!.!./.!.G.Y.!.`.#X.X/.!.A.A.!.!.A././.!.G.G.!./.`.!.A.p.<.7.j.!.`..X!.!.!.`.!.!.!.Y.j.j.G.!.Q.!.G.p.<.p.G.3.j.j.+.N ! ! R ! } <.} ( ..*.c.+.J ! p.!.!.d.7.r.+.} p.j.V.G.p.<.7.<.+.....<.7.!.!.Y.G.Y.A.!.;X/.p.3.<.j..X!.Y.!.G.j.j.A.A.G.V.j.G.`.!.G.V.r.V./.!.G.j.j.j.j.d.d.3.3.c.!.!.!.j.r.a.d.a.j.j.l.!.!.G.j.j.j.j.V.G.c.d.<.p.j.r.c.A.d.<.+.....<.p.p.<.<.j.d.p.A.A.j.!.!.!.Y.!.!.!.Y.A./.`./.!.V.j.j.j.p.! U +.<.<.*.*.<.j.A.j.7.<.( ! <.*.! ..d.A.G.V.p...! ..p.A.j.<.<.r.p.j.j.+.<.<...7.7.3.<.*.p.!.Y.A.p.} R ! ..c.Y.G.Y.7.! +.*.U ..V.Y.",
"<.<.<.*.7.V.j.V.V.!.G.j.V.V.j.j.Y.!.G.!.!.j.p.j.r.3.<.<.+.*.<.<.<.p.p.7.7.p.j.j.j.r.*.*.7.j.p.+.7.d.7.<.3.3.<.<.g.j.j.7.<.#.p.j.E.V.p.5.p.j.p.7.1.<.<.3.d.j.A..XG.*.*.7.*.r.Y.A.j.A.!.!.r.j.!..X/.!.G.Y.!.!.#X;X;X`.Y.G.!.!.G.j.j.A.7...3.7.<.j.#X#XA.!.Y.R n h ! A.G.<.c.!.d.A.#X/.!.A.`.Y.D } /./.;X!.V..X`..X&X;X;X&X&X;X;X!.G.;X,X;X/.G..X`././.#X;X.X/..X#X,X5X;X;X#XY.!.!.!..X#X#XG.j.( ! !.;X!.p.*.<.7.j.7.r.r.d.j.c.<.V..XY.A.c.j.j.j.p.c.j.c.j.3.V.;X5Xc.R ! <.!.&X|.G././.G.V.A.!.!.G.!.`.!.!.`.c.r.d.j.j.!.!.&X7.c V.Y.j.c.!..X;X;X&X#X.XG.j.!..X.X#X!.#X.X;X!.} d.V.j.j.V.G.j.c.!.A./.V.Y.c.p.j.p.d.V.d.c.!.p.j.;X&X`.!.`.c.<.7.c.A.j.( <.j.j.j.j.a.!.!.G.L.!.).!.`.A.j.A.A.!.!.A.!.G.A.Y.A.A.G.A.!.j.p.V.!.!.!.!.!.!.A.!.#XY.V.!.!.`..X/.V.j.!.#X`.!.A.d.j.c.A.!.V.j.j.3.+.! d.+.! p.<.p.V.V.Y.Y.j.d.A.!.!.Y.A.A.Y.r.p.Y.Y.A.Y.G./..X#X;X&X.X!.G.j.j.A.G.Y.!.V.c.V.!.A.j.d.j.j.c.j.`.#X.X!.Y.!.!.Y.&XY.A.!././.!.G.A.V.A.A.`.`.`.!.!.!.!.!././.j.+.7.j.A./..X!.A.G.!.!.!.!.j...+.j.!.A.G.G.7.*.<.r.*.<.<.<.( <.! J ! ! ! R U ! <.7.d...! +.d.V.j.j.j.7.3.A.j.r.V.r...<.<.<.....7.7.p.j.A./..X/.!./.!.j.d.3.r.n.V.V.!.c.3.p.j.j.V.c.<.d.!.A.c.A.V.Y.!.G.j.3.r.j.d.r.j.j.j.j.j.c.c.p.<.7.j.j.j.d.p.Y..X/.G.A.V.c.G.Y.!.V.3.7.7.<.r.3.<.*.*.+.} <.j.G.A.d.j.d.j.Y.!.V.G.!.!.!.!.!.!.A.G.`./.`.!.c.c.V.d.3.U D ..<.3.<.<.<.j.c.j.j.p.( R ( ( R R 3.Y.!.!.V.d.<.<.c.c.p.7.7.p.<.3.7.*.r.j.7.p.r.r.p.p.Y.!.!.!.V.3.<.7.<.j.j.j.V.d.*.+.! ! } j.Y.",
"*...*.} <.j.j.c.G.#X`.G.G.G.j.p.j.V.c.!.!.j.j.A.p.p.3.+.*.d.d.<.! *.<.3.r.j.c.j.j.j.d.3.r.j.p.<.7.7.3.r.r.<.<.p.j.j.<.#.#.<.p.p.j.V.g.7.p.0.<.7.<.1.3.7.r.j.G.`.!.p.*.+.! <.A.c.V.Y././.j.j.!.;X#X!.V.G.`.`.&X;X#X.X#X#X.X#X`.V.j.V.j.0.r.3.3.c.!./.j.d.j.<.*.( 3.Y.!.<.p.!.c.Y././.#X!..X;XG.!.;X`.!.j.d.Y./.;X.X;X&XA.c.Y.`.c.r.Y.!.G.<.! j.A.;X&X;X;X`.!.&X;X;X;X;X;X&X!.!.!.c.!.`.#X/.!.p.r.#X`.d...! ..<.3.<.<.<.p.V./.j.j.!.Y.`./.Y.A.V.V.A.V.!.Y.<.3.(.;X;Xr.c.A.&X.X;X!.G.!.G.G.!.`..XY.!.!.A.G.!.j.r.j.r.p.V.j.!.c.! A.r.r.c.`.;X#X`./.#X&XY.V.!.#X&X&XG.!./.#X!.*.j.A.c.j.c.A.j.d.j.d.V.j.V.Y.!./.Y.Y.A.j.r.j.7.r.`./.&X!.!.A.d.p.r.d.j.+.<.p.3.r.j.7.+.7.l.L.!.~.!.~.A.Y./.!.!.A.j.c.!.!.!.A.G.!.!.`.G.j.!./.G.Y.Y.V.A.A./.#X!.A.Y.G.!./.#X!.V.!.!.!./.A.j.j.j.j.j.d.<.7.<.*.! <...*.*...j.A.V.!.A.j.V.G.A.V.c.j.d.j.V.Y.!.j.j.!.`.`.`.&X;X`.Y./.`.G.!.!.Y.!.!.j.c.!..X!.j.j.j.j.j.j.!./././.!.!.!.`.;XV.r.j.G././.!.!.j.p.V..X#X`.!./.!.G.G.!.!.V.r.7.7.p.c.Y.A.V.Y.!.!.Y.G.V.d.j.!.#XG.c.j.<...*.+.<.! ! r.j.j.<.( ....! ! ! ! <.3.3.<.<.*...*.3.r.j.V.c.!.p...p.<.} +.<.r.*.+.<.*.7.7.r.G..X&X`.V.j.j.c.j.7.r.d.A.!.j.<.<.p.j.c.j.r.d.A.j.d.c.j.r.c.A.d.*.<.p.r.3.7.j.j.p.7.r.j.7.3.<.l.G.c.d.r.A././.Y.G.G.A.Y.A.!.V.7.<.+.*.3.<.} ..<.<.+.<.j.!.!.j.j.d.j.G.G.A.j.c.!./.!.!.Y.c.G.!.V.!./.Y.!.!.j.<.R ! w.j.c.j.<.*.p.j.j.Y.A.*...*.<.} ( j.`./.!.!.`.c.j.A.d.r.p.r.3...*.7.p.A.Y.j.j.d.d.j.c..X!.!.A.j.j.A.A.j.V.j.d.c.c.7.*.R ..} 3.j.",
"! } 3.<.<.7.<.<.!.`.!.G.V.j.p.7.r.p.j.Y.!.j.p.d.j.j.j.r.7.j.V.j.<.<.7.<.7.j.j.d.j.V.j.p.V.!.V.d.c.p.7.j.j.p.<.*.j.p.>.+.<.7.j.j.j.N.g.p.j.g.5.a.a.j.j.0.0.j.c.j.c.j.*.} *.d.!.!.!.!.!.~.V.j.V./.!.!.V.!.;X;X;X;X/..X;X&X!./.`.A.j.j.j.j.p.<.<.j.j.!.!.3.7.!.Y.Y.c.V.!.j.j.`.!.V.`.&X/.V./.;X#X.X#X`.!./.!.c.G.V.Y.`.!.r.7.d.!.!.7.*.<.r.! r n } j.V./.&X.X.X;X;X&X&X#X&X.X/.`..X/./.`.#X.X&X!.!..XA.<.+.*.<.c.j.<.d.j.j.p.!.G.3.c.A..X;X&X!.d.c.d.j.!.`.V.j.j.j.!.V.`.!.#X.X;X!.G.!.Y.Y.!.`.#X!.V.j.c.A.A.j.j.A.j.j.c.j.A.Y.j.j.<.r.G.;X9X;X/.!.`.;X/.!.&X;X;X#Xj.c.!.!.!.j.V.A.A.c.V.!.G.V.V.r.j.j.G.`.#XY.c..XY.Y.j.V.V.j.Y.G.#X!.!.Y.A.V.d.j.r...*.d.r.r.d.0.] } <.i.!.;X`.!.A.!.`./.!.Y.G./.`.!.V.j.!.;X&X#X`.G./..X!.!.!.G.Y.G.!.!.Y.!.!.j.V.V./.!.Y.A.A..XY.V.j.j.d.<.7.<.*.j.3.3.! *.+.+...3.G.A.V.Y.G.Y.!.Y.j.j.p.3.r.A.!.Y.V.p.j.!.!./.!..X.XA.j.Y..X!.!.`.!..X`.c.A.!.!./.G.A.A.d.j.j.G.Y.!.!.!.!.!.`.Y.j.d.j.G./.!.V.G.p.3.c.!./.Y.G.!.Y.Y././.Y.V.V.7.3.<.7.p.r.d.A./.!.j.r.V.`..X/.`.!.j.<.( ! ..<.<.( *.G.G.V.7...+.7.<.<.3.<.<.3...*.<.+.! ( 3.d.p.Y.j.V.d.*.p.7.7.3.p.V.j.d.j.<.<.<.<.j.A.Y.Y.j.3.3.j.j.j.p.p.V.`.G.7.<.3.p.d.3.+.<.j.j.j.c.j.<.3.V.c.<.3.j.j.j.<.j.j.p.r.d.c.j.r.+.d.L.l.d.a.j.j.j.j.c.V.V.A.j.j.j.d.3.+.<.7.<.*.+.<.r.7.r.j.j.j.r.j.j.c.A.j.d.p.p.j.A.Y.!.!.j.A.G.p.c.!.Y././.A.d.*.<.d.d.j.j.*.<.V.Y.j.A.V.*.<.<.r.<.<.A.#X!.<.p./.V.r.d.<.7.7.<...! ..3.j.G.A.A.A.c.j.j.j.!.!.!.A.j.V.A.G.!./.!.A.G.G.j.d.7.j.<.<.7.",
"! ..r.<.+.<.( ! j.j.j.G.V.7.<.7.p.p.p.V.A.j.j.j.Y.7.<.d.j.j.c.A.V.j.j.<.<.d.j.d.p.j.3.3.G./.A.d.j.j.j.j.c.j.7.+.j.j.7.<.<.i.C.G.j.j.7.7.j.j.p.g.j.j.j.r.j.Y.!.j.V.Y.7...<.A..X`.G.V.A.V.!.G.A.!./..X!.!..X.X&X;X;X;X,X`.j.Y.#X!.!.A.A.Y.c.7.r.j.<.V.!.<.<.A.d.j.^.A.!.Y.G.#X/.V.!./.<.} G./..X;X&X;X.X5X;XG.Y.j.<.<.<.7.G.r.7.3.D C ( ! h 5 s R p.j.!.&X&X&X#X.X.X.X.X.X`.`.;X,X;X!.c.A.V.!.!./.!.d.<.<.3.p..X.X+.j.Y.V.<.c.Y.c.d.V.&X,X&Xj.*.j.d.j.G.!.G.j.d.d.c.7.j.c./.!.!.!.V.!.!.!.!.!.!.c.j.j.A.Y.A.V.c.c.7.3.r.j.d.j.V.j.r.d.j.!.;X#X!.G.!.;X!.!.#X&X&X/.d.c.!.!./.G.c.j.j.j.j.!.!./.!.p.j.c.G.!.j.J C j.T.`.Y.Y.!.A.A.A.Y.!.!.V.c.V.j.j.7...#.A.V.7.<.<.<.<.<.<.L.;X$X).G.!./.`.`.!./.;X`./.G.j.!.;X.X.X.Xc.G.`.`.!.!.!.!.G.V.G.!..X/.V.d.j.!..X/.c.j.!.Y.Y.G.A.d.3.7.<.7.Y.r.<.! *.+.R N *.j.j.j.V.A.!.j.A.A.j.j.7.d.!.G.d.<.7.j.A.Y./.!.`./.j.p.A./.!./.#X/./.!.A.A.Y.!.&XY.V.j.3.p.c.p.j.c.j.j.G.!.!.d.A.`.#X.X.X!.j.3.<.<.c.V.A.c.c.Y.d.p.G.!.A.j.V.j.c.j.7.*.! ! <.c.Y.c.r.j.!.!.A.!.c.3.+...} ( ! *.} *.G.!.!.d.! ( j.d.r.d.p.3.+.<.*.( ! R <.A.Y.j.A.7.7.d.7.j.j.3.*.<.d.d.j.j.<.<.p.3.7.3.<.3.<.<.*.+.7.c.V.j.c..X!.j.3.3.r.d.<.<.<.p.d.p.p.r.<.<.j.V.p.r.j.c.j.p.c.c.j.j.j.V.A.r.| <.c.l.p.a.r.7.r.r.j.V.c.c.j.j.c.j.7...<.p.7.7.3.d.j.p.3.3.7.<.<.d.j.A.A.j.r.p.<.7.j.!..X/.j.G.!.c.V.G.A.!.`.G.c.r.r.3.*.<.r.<.3.j.c.j.j.r.( ! ( *.*.<.Y.#XG.n ! Y.G.r.3.*.*.3.*.} ..<.p.j.c.c.A.A.V.A.j.j.!.!././.!.!.!.!.!.!.A.p.p.c.G.G.Y.A.d.r.p.",
"( ! <.} } <.*.+.7.<.7.j.j.<.<.p.d.j.j.A.V.j.V.G.A.} U <.j.d.p.j.!.V.c.3.<.p.j.j.A.c.d.p.j.Y.V.p.j.c.c.j.p.d.d.7.p.j.5.>.+.<.j.j.j.j.7.0.j.j.p.g.j.j.p.3.7.c.A.d.V.G.p.*.<.j.!./.V.p.j.p.j.j.V.G..X;X!.Y./..X&X;X;X#X#XA.<.V.;X;X.XY.A.Y.G.A.c.j.d.G.G.<.<.j.7.d.!.`./.!.`.;X#X.X;X.Xd.*.!././.,X;X;X&X,X;X#X;X`.d.<.<.j.#X<.N v y N ..h 8 7 N d.;X#X&X;X&X.X.X`.!./.$X#X#X&X;X5X/.r.<.3.<.j.G./.!.d.<.r.d.p..X/...<.3.j.j.A.G.!.V.c.&X;X!.<.! d.7.r.j.G.!.c.j.V.`.j.p.V.G.p.r.d.p.c.G.!.Y.V.c.d.j.j.Y.Y.!.!.c.c.r.<.3.j.r.<.<.j.j.r.*.d.Y.j.j.A.!.#XV.j.Y.!.!.c.d.G.`.#X;X!.`.Y.j.j.c.L.A.G.G.7.r.j.V.A.3.N v ( r.Y.!.!.!.!.G.A.Y.!.G.c.V.V.c.j.r.*.! d.a.| Y ~ #.<.j.1.G.;X;X#X!.!.!.`.&X/.!./.`.#X/.c.A.!.G.!.!.c.A.!.`.!.Y.!.!.j.j.Y./.`.!.V.d.c.!.#X!.j.7.j.Y.!.!.G.j.p.j.7.p.A.7.<.} d.7.<.N *.j.G.A.j.j.j.7.V.G.j.j.r.r.j.j.r.<.p.A.G.Y././.!.A.j.j.V.Y.!.`.#X.XG.A.Y.c.j.V.#XG.j.j.3.j.A.7.p.r.<.<.j.Y.!.r.G.&X;X&X.X!.j.<.<.3.j.p.j.j.j.j.<.+.d.V.j.d.V.!.!.G.j.<.! ! ! <.c.G.V.G.!.!.!.V.<...<.*...! R +.J N 7.G.#XY.+...p.j.p.j.c.d...<.*.} } ( <.j.p.j.p.<.3.r.<.j.A.p.<.<.d.c.A.G.j.Y.!.p.7.3.+.<.3.<.<.*.3.V.!.!.Y.!.A.p.7.p.j.A.A.j.7.<.3.7.3.3.3.<.7.d.d.p.d.d.7.d.j.j.j.j.r.p.j.3.<...j.A.p.r.7.d.p.r.j.A.V.A.V.j.j.c.r...<.j.j.7.3.p.d.3.*.<.3.<.<.<.3.d.j.p.7.<.<.7.j.A.!./.A.G.!.!.G.G.G.!./.Y.A.d.7.<.3.d.j.*...<.r.r.7.*.! D U } <.p.Y.`.!.! +.!.`.j.p.7.<.<.*.+.<.d.j.j.V.j.V.j.c.!.Y.Y./.Y.Y./.!.!.`.#XY.c.r...} r.c.c.V.r.7.7.d.",
"..! ..} <.c.j.j.j.p.p.p.<.<.7.p.7.j.G.!.G.j.j.j.Y.*.( r.j.r.r.j.G.V.A.r.<.r.j.j.j.j.c.j.r.j.!.Y.!.V.d.7.7.r.p.p.i.p.<.o.+.1.j.j.l.j.j.j.N.j.j.j.j.j.d.3.*.1.j.j.3.7.r.<.<.d.G.Y.j.<.j.p.7.<.<.( p.V.j.j.!.#X#X`.G.j.d...J 3.`./.!.j.p.j.c.Y.A.r.V.Y.j.<.<.j.3.<.<.!.G.j..X.X!.;X#X`.&X!.;X;X!.!.;X;X;X;X#X;X&X/.5X&XY.A.&X*.J ! i J d.N r q N j.`.`.&X,X;X&X`.!.A.!.;X;X;X;X;X;X&Xj.j.j.<.d.G.`.;XA.j.!.!.j.!.d.( } ..A.!.j.p.`.#Xj.!.#XA.<.( r.j.3.<.V.!.G.j.j.V.j.d.j.p.d.j.p.j.A.A.G.j.r.s.r.r.j.A.A..X&XG.Y.j.p.p.c.c.3.<.Y.G.j.7.V.!.j.j.!.`..Xp.<.d.j.j.3.d.!.!.#X&XG.;X`.j.V.G.A.d.j.A.j.d.V.Y.!.V.3.! U R p./.`.!.`.!.c.!.G.p.j.A.j.c.c.!.C.*.0.r.<...3.<.p.V.<.V.;X#X!.!.A.j.Y..X/.!.!.G.!.Y.j.G.`.!.!.!.!.!.!.`.`.Y.G.A.d.j.!.`.Y.j.j.j.!.!.!.A.j.p.j.j.G.G.j.p.j.c.r.V.V.p.7.<.A.j.!.V.!.!.!.V.r.d.p.7.G.A.d.j.c.V.A.A.A.j.j.A.Y.!.!.`.A.r.7.j.j.c.!.G./..XG.G.!.j.3.<.!.A.G.!.j.A.!.j.p.<.+.*.3.j.Y.p.j.Y.!.!.!.Y.j.d.p.7.d.<.d.p.r.<.<.7.j.d.<.3.V.G.G.j.j.j.p.3.<.j.j.j.j.G.Y.Y.Y.d.! ! <.! ! +.<.+.N c r.!.&XA.( ....<.3.r.c.c.<.7.p.j.j.<.+.3.+.3...<.j.p.<.7.j.j.r.7.c.!.!./.G./.!.p.j.Y.j.r.<.} r.p.r.j.!..X`.!.G.d.d.d.j.A.!.G.7...<.j.r.<.<.3.+.<.j.j.d.p.3.p.d.r.j.c.r.r.j.<.7.} a.!.d.r.r.j.p.7.j.G.A.!.!.j.j.V.j.<.<.r.<.7.+...<.<.<.<.<.3.<.<.<.p.j.r.<...+.3.7.<.d.!.!.c.Y.!.A.G.Y.G.!.`.!.r.*.*.7.d.<.( +.p.A.V.p.<.+.( ( <.p.j.G./..Xj.r.Y.!.7.7.j.p.d.3.<.p.d.p.p.d.j.j.d.c.!.!.A.A.V.j.Y.c.3.G.;X!.<.<...} <.d.j.A.j.p.<.+.",
"<.+.U N N <.G.j.7.j.<.<.7.3.7.3.V.j.V.Y.!.A.j.j.j.j.c.j.d.C.Y.j.r.j.V.V.c.A.c.7.r.j.j.j.r.r.c.!.!.!.c.d.d.r.7.r.j.<.#.<.+.<.p.7.j.j.j.c.j.0.7.l.j.0.a.p.3.<.<.j.d.7.j.r.<.<.*.3.r.<.<.r.A.3.*.N n 3.3.j..X&X;X`.!.<.z a n <.!..Xj.Y.!.p.j.j.c.7.A.G.V.r.7.A.d.V.j.Y.r.<.V.!././.`.7X#X`.;X;X.X/.;X#X;X;X.X;X;X!.,X#X`.#XG.! ( ! N U R h n R z C A.;X,X9X;X;X&X/..X!./..X;X,X;X,X;X&X.X`.!.V.G.`.;X`.#X`..X&XG.p.<.7.!.#X`.!.G.`.`.p.d.V.j.<.*.p.j.A.Y.Y.V.G./.Y.j.j.j.A.A.A.!.G.A.G.G.A.j.Y.j.j.d.A.j.V.!.!.#X!.j.Y.j.j.j.j.p.j.!./.r.c.G.j.`.`.;X7.r.j.<.7.d.<.5.V.!.`.`.!.!.!.!.!.!.!.Y.c.j.j.c.G.c.G.j.d.<.! N *.!.#Xj.d.Y.j.!.c.c.j.V.G.j.j.G.A.d.7.r.<.*.7...<.r.<.!.$X7.! d.d.7.7.c.!.Y.G.V.c.V.A.A.!..X#X.X!.G.G.`..X/.!.G.d.j.!..XA.r.c.G.V.Y.V.j.c.A.A.!.A.V.A.p.j.!.j.A.G.G.Y.<.j.A.!.`.!..X`.j.<.3.j.7.p.p.7.A.#X!.G.!.!.G.j.G.#X.X!.G./.A.*.<.V.G.j.c.Y.A.A.!.Y.c.V.r.j.A.!.G.G.V.j.j.j.p.p.3.<.d.j.j.j.c.G.V.A.!.j.j.j.A.V.d.3.7.c.3.j.j.j.r.<.r.d.j.c.j.G.Y.A.j.A.!..Xc.3.j.!./.!.<.! +.7.<.<.3.+.<.n R j./.;X!.<.*.+.<.<.d.d.V.d.*.j.j.p.7.j.V.( ! +.j.c.r.p.j.7.<.*.<.j.V.V.!..X/.!.j.j.c.d.3.+.*.<.<.A.!.G./.;X!.d.p.c.j.j.c.G.d.<.+.<.d.j.*.*.<.3.7.r.7.3.r.j.j.j.p.*.3.7.j.j.7.<.<.V.!.j.<.j.A.c.r.j.!.Y.Y.G.r.<.d.V.r.( ( +.*.7.r.<.*.3.r.3.j.c.G.j.r.r.<.<.<.r.7.7.j.j.j.A.G.A.G.G.c.j.J.!.!.Y.V.p.<.+.<.7.<.c.A.V.A.j.*.( ! +.3.j.A.A.A.!./.A.A.j.<.p.c.p.3.<.*.<.<.p.3.r.r.7.c./..Xj.! <.j.A.3.*.<.V.c.3.} } } +.j.j.V.d.r.j.<.J ",
"j.<.} +...*.j.j.r.j.7.<.3.7.d.p.j.j.7.3.j.c.V.A.c.j.c.c.c.!.!.j.d.j.G././.!.!.V.j.j.c.c.j.r.d.j.c.A.c.j.j.p.7.r.g.<.<.#.~ o.7.a.j.j.r.0.d.j.d.j.p.7.0.0.7.<.} 3.3.7.A.j.<.<.<.r.7.7.r.<.c.c.A.*.C p.V.!..X.X;X;X.Xj.N h R j./.&XG.`..Xc.c.Y.Y.7.7.p.j.7.r.!.j.d.c.!.j.p.c.A.j.*.G.5XqX;X.X;X5X#X`.!.#X#X;XqX5X.X#X;X;X`.p.D ! J N } } h y a q r D <.!.7X.X;X;X!.#X!.!.!.`.;X;X,X;X;X;X;X&X`..X&X&X.X#X.X&X5X.XV.j.c./..X.X.X`.;X/.d.j.V.j.<.*.r.!.Y.V.A.Y.`.;X!.j.j.j.V.j.c./.`.`.!.Y.Y.G./.A.V.V.Y.A.`.#XY.Y.A.Y.`.c.7.<.j.j.c.!.&XA.Y.V.p.`.&X#X3.<.7.7.j.j.3.r.V.G.!.`./.`..X!.!.!.!.G.j.j.j.j.A.c.A.c.V.7.! } r.c.A.c.A.!.V.#XA.j.j.j.c.c.c.j.c.j.d.p.7.7.d.<.+.*.<.Y.#Xd.<.!.G.V.A.!.G.V.A.!.Y.Y.Y.A.Y././.!.!.G.V.A.G.!./.`.V.j.c.c.r.<.j.c.j.j.p.d.V.G.Y..X!.j.7.*.p.!.c.!.Y.j.j.<.p.j.j.j.A.!.A.j.d.j.j.r.7.r.7.j.!.!.G.V.!.!.G.G.`.&X`..X#Xc.<.3.j.V.j.d.V.G.!./.G.V.!.j.j.A.A.c.c.c.p.j.j.j.V.d.r.c.A.j.V.j.c.!.!.Y.G.j.j.A.c.3.<.7.c.j.c.j.j.p.7.j.c.j.c.d.V.G.A.r.d.G.Y.<.*.j.!./.A.7.*.3.j.j.V.j...*.! <.G..X`.V.<.+.*.j.!.c.} +.<.+.c.c.j.<.<.j.d.<.+.<.7.<.<.<.<.<.j.j.j.j.p.d.j.<.j.j.j.V.G.c.<.<.! ! 3.V.V.V.V.p.3.r.j.p.<.3.d.d.<.<.7.j.j.<.<.+.<.r.r.3.3.j.A.Y.V.r.} <.j.G.A.r.3.p.G.Y.d.3.j.c.G.c.c.V.j.j.j.7.r.j.A.p...} *.<.j.j.7.3.p.p.<.j.G.!.V.r.*...3.3.<.3.d.j.j.j.j.A.Y.!.G.V.A.!..X!./.A.p.<.<.<.p.j.!.G.j.j.r.} ! ..3.j.c.Y.Y.G.G.j.7.p.d.3.p.j.7.3.7.r.r.<.7.3.j.j.j.G.!.A.<.R *.V.V.<.} +.j.V.j.r.3.<.<.j.j.V.d.<.j.3.! ",
"p.7.r.A.V.7.r.j.j.j.p.j.c.b.A.V.c.j.<.+.3.j.c.V.c.j.A.Y.Y.!.Y.j.c.j.Y.`.!.V.G.!.A.c.V.G.c.p.3.7.d.j.c.V.c.p.<.<.p.i.5.>.o.>.0.j.j.j.0.<.7.j.a.3.0.7.<.<.r.<.| 3.7.7.V.j.7.p.p.j.j.j.j.<.3.+.d.j.R r.!.`.#X.X.X&X;X;Xc.<.c..X.X&X#X;X;X!.G.G.G.d.*.*.<.3.p.!.p...j.!.!.j.j.Y.V.+.} d.`.!.V./.`.j...r.!./.#X,X;X&X`.;X#XG.7.*.p.*.} !.!.N r y z ! c.j.A.V.! r.#X`.#X!.!./.#X;X;X;X#X&X&X;X;X;X&X&X;X;X;X#X#X;X;X!.A.!.`.`.`.#X.X#X;XY.Y.!.G.d.3.j.&X.X!.!.!..X&X!.c.V.c.V.j.j.Y.!..X/.!.c.p.j.p.j.Y.!.!.`.G.7.7.3.Y.`.V.<.<.j.d.p.A.#XY.Y.V.j.#X,X7XV.r.3.p.j.j.p.j.V.j.V.Y.Y.!.!.Y.Y.Y.Y.V.j.c.G.J.G.A.c.j.Y.j.<.3.j.j.V.!.Y.V.j./.j.p.p.7.d.Y.Y.j.A.!.Y.c.j.j.j.d.3.<...p.!.p.! p.j.Y.`..X!.A.Y.!.Y.!.!.G.Y.!.!.Y.!.G.V.V.c.A.!.!.c.c.j.d.7.r.!.c.d.7.<.j.G.A.Y.!.!.V.r.7.c.!.V.Y.Y.p.j.r.j.j.j.<.d.j.7.7.d.j.j.V.p.p.p.j.!..X/.c.!.`.!.c.A.Y.j.j.j.<.3.j.V.Y.V.j.A.G.!.!.V.j.!.V.V.A.c.c.V.c.p.j.d.V.G.3.} <.3.+.r.j.!.&X/.Y.G.3.7.V.c.<.} ..3.c.V.V.A.j.j.Y.!.G.A.p.j.A.G.d.j.j.Y.<.<.A..X;X!.d.<.<.7.j.!.V...+.<.j.!.&X!.A.V.<.+.p.V.r.N R <.7.!.!.c.3.( <.p.r.+.! +.3.3.<.<.p.!.A.j.c.j.d.7.<.j.G.Y.V.j.j.<.<.! ! +.7.r.<.<.r.j.V.c.d.3.7.c.j.d.p.j.V.j.r.r.<.p.j.r.<.<.7.d.<.3.3.*.j.G.G.j.3.3.g.Y.c.r.r.j.r.A.!.Y.c.r.r.p.c.G.Y.A.j.<.....<.r.d.p.r.p.7.3.j.G./.!.j...! <.<.( <.j.j.j.j.j.j.G.!.G.A.Y./.`./.#X!.j.7.3.p.j.G.!.G.j.d.3.} ! <.d.c.A.Y.!.A.c.j.<.<.3.<.r.j.j.d.V.Y.c.<.<.<.d.j.j.Y.!.c.<.*.d.Y.Y.d.7.<.r.j.j.c.j.r.3.r.p.c.r.<.j.p...",
"3.p.j.Y.!.j.p.d.V.d.d.G.!.!.Y.A.j.j.r.3.7.j.c.j.d.p.V./.!.A.A.G.G.V.Y.G.p.<.j././.Y.!.!.A.d.3.3.r.d.j.A.V.d.<.<.7.p.7.<.5.7.i.j.d.j.j.7.3.r.r.7.d.j.3.<.0.<.*.j.V.j.j.p.7.d.p.r.p.d.d.+.! N } j.+.7.!.#X;X&Xj.+.j.;X5X/..X#X!..X;XG.Y./.`.`././.d.<.+.<.3.V.3.! 7.`.&XY.G..X/.j.<.} r.j.d.p.<.} } p.!.`.#X.X`.;X.X.X!.V.j.j.V.3.*.!.G...( p.Y.!..X`.!.j.U <.`.;X#X!.!.!..X;X;X;X;X;X&X.X#X;X;X&X;X;X,X&X!.Y.!.`.!.`.&X&XoX/.!.!.&X!.!..X!.j.d.j..X;X;X&X/.!.!.G.!.A.j.V.c.j.j.j.Y.!.!.V.r.7.r.j.G..X#X`.A.j.A.G.!.`.G.p.j.A.p.<.A.!.d.3.<.<.A.`.&XA.j.j.G.c.j.V.A.G.j.j.V.V.A.V.!.G.V.j.j.j.G.`.`./.!.V.7.V.A.c.r.p.p.c.Y.j.j.Y.!.!.j.d.3.7.c.c.d.c./.`.!.!./.A.d.r.<.! } c.<.N <.c.`.&X;X&X`.`.c.j.A.!.Y.!.!.!.A.G.A.G.!.!.V.c.G.c.A.c.p.3.p.!.j.r.<.*.j.!.V.G.Y.!.Y.c.V.A.c.d.j.G.d.c.j.d.r.p.7.j.d.7.r.j.c.Y./.c.j.j.V./.`.`.Y.!.`.!.j.j.d...j.V.d.V.!.A.A.j.j.j.j.V.!.A.c.Y.c.A.G.Y.!.!.G.j.p.r.G.!.<.! ( ( J ( j.`..X!.!.Y.V.G./.A.7.+...j.c.j.V.!.G.G.`././.G.p.j.V.V.j./.!.!.7.j.!.G.Y.Y.d.<.( } 3.c.j.+.p.V.Y./.`.G.G./.A.r.<.7.p.<.j.G.V.!.A.d.<.+.<.<.7.<.....7.p.<.} <.j.d.d.j.d.d.r.3.p.A.!.j.+.<.7.3.<.3.<...+.} *.c.!.G.p.7.3.d.!.!.V.c.V.G.G.c.c.c.Y.!.j.<.<.<.<.*.<.j.d.A.V.j.j.7.7.V.T.p.<.3.r.<.j.A.c.p.3.7.r.j.A.j.p.j.d.*.} <.+.*.r.j.7.3.j.V.j.Y.G.d.*.! ..<.+.<.j.s.r.r.r.p.c.Y.Y.G.G.!.!.#X!.Y.V.j.j.j.j.c.G.A.j.d.r.<.<.7.j.V.V.G.Y.V.j.j.*.+.<.<.<.j.j.j.!.`.A.<.*.*.r.c.j.G.Y.j.<.*.3.j.!.Y.Y.7.<.7.p.c.d.p.7.r.r.c.r.7.G.G.j.",
"r.j.j.j.A.c.p.r.j.j.c.V.j.c.j.p.3.*.<.p.7.d.A.A.j.j.V.!.Y.A.G.!.Y.G.!.G.j.p.V.!./.Y.`.`.G.j.3.3.<.3.p.j.c.j.p.<.5.a.p.7.p.i.7.j.j.j.j.d.0.0.d.j.j.A.a.<.3.<.<.j.j.r.r.3.r.j.j.r.r.j.V.<.+.<.p.j.p.p.G.!.`.`.<.c } !.;X`.#X#X!..X;Xj.p.!.&X;X`..X!.j.3.7.<.r.3.<.d.#X`.j.c./.`..X&Xj.j.Y.G.d.3.c././.`.`..X!.G.#X;X;X&X;X`.A.j.d.G.`.Y.j.G.;X`.r.V.#X&X!.r.j.Y.&X#X!.G.V.Y.#X;X,X,X;X&X/./.#X#X.X#X.X&X&X!.j.V.!..X#X&X;X.XY.G.!././.`.#X`.A.c.V.A.#X;X;X!.V.G.G.!.G.j.V.c.d.j.j.A.Y.!.!.V.p.e.7.j.G.Y.A.V.c.A.A.Y.A.V.j.Y.!.V.A.A.c.*.( ( ..j.!.A.p.j.G.#XA.d.c.A.Y.c.j.A.G.Y.A.!.Y.V.j.d.j.Y.#X&X/.Y.A.r.j.j.G.j.j.V.Y.V.j.c.Y.j..X!.c.j.d.j.c.j.c.!.`.!..X#XY.!.c.r.7.3.!.Y.c.j.!./.!.!.Y.Y.!.!.A.Y.!.!.G.A.V.A.A.c.G.`./.G.V.G.c.A.j.3.<.7.A.7.3.*.<.G.!.c.V.!.G.c.j.j.j.j.j.G.!.c.V.c.d.<.<.j.V.j.p.j.G.G.Y.!.Y.A.c.A.Y.V.Y./.!.!.!.V.c.j.<.j.V.7.j.A.j.j.<...7.d.j.Y.!.A.G.V.G.L.!..X#X!.G.7.<.j.Y.r.*.*.( ! ( 7.A.A.V.A.!.7.j.Y.j.r.*.( j.V.j.j.!.!.!.#X.X/.V.7.j.j.7.r.`.&XY.p./.,XV.7.3.<.} R ! <.p.d.7.A.Y.!./.!.V.!./.j.3.+.*.j.j.!.!.c.j.p.p.7.<.<.! } +.( ! <.<.} ! ..! ( 7.d.p.p.<.3.p.!.#Xc.+.7.A.j.p.j.<.} *.<.r.G.`.c.*.*.3.j.#X.X!.V.A.Y.!.!.!.!.!./.Y.j.j.d.<.<.r.!.Y.A.<.*.p.7.7.V.G.7.<.7.7.<.7.r.<.<.<.r.d.r.j.7.3.V.A.p.7.<.+...7.j.d.p.V.A.d.c.j.<.*.+.( +.*.<.<.3.<.3.j.j.j.A.Y.G.A.Y./.`.p.r.V.c.A.G.p.d.c.V.c.j.j.j.j.d.j.V.c.c.V.c.d.<.( +.7.<.+.<.3.r.A.!.V.<.3.<.r.c.G.!.Y.p.+.} } 7.j.j.c.<.<.3.7.d.r.p.r.j.j.Y.j.j.!.`./.",
"7.r.p.j.A.A.r.7.j.G.!.j.<.p.j.<.<.! } <.<.r.G.!.A.c.j.j.c.!.!.!./.!.`.#X`.!.!.Y.j.p.Y.!.V.j.3.<.*.<.3.p.j.A.A.j.g.j.j.j.j.0.p.C.A.j.d.d.0.7.p.j.r.l.r.<.<.*.<.d.<.3.j.j.j.j.j.p.<.j.!.V.j.G.!.!.G.V.A.c.!.#XV.<.d.!.`.&X;X&X`.G.!.Y.!.!.Y.Y.d.j././.!.!.d.7.<.<.c.!.G.7.j.V.j.A.!.V.c.A.j.3.r.!.,X;X;X&X`.V.p.A.,X;X/.,X,XY.p.G..X;X;X`./.;X&XA.G.#X;X.XA.j.r.!..X!.!.G.!..X.X#X;X;X&X.X/././.!.!.Y.!.&X`.A.A.G.!.Y.G.!.A.d.j.V.!..X#X&X`.G.V.c.c.!.!.!.G.j.V.A.G.Y.Y.!.Y.r.7.j.d.j.c.c.c.j.c.c.V.Y.V.A.!.G.r.3.j.p.j.j.Y.A.j.G.j.p.3.p.p.3.j.!.Y.7.d.c./.V.j.j.j.G.V.c.V.A.Y.Y.Y.A.A.A.A.G.!.&X;X/.j.G.A.V.c.A.A.V.!.(.V.!.!.Y.( G.Y.j.G.A.c.A.!.!././.!.`.#X!.!.!.d.7.<.Y.`..X#X#X.X`.`.!.Y./.`.!.!./.!.Y.G.V.G.G.c.c.G.!.!.!.!.V.G.G.j.r.3.d.j.d.p.j.!.!.j.j.Y.j.j.j.j.j.V.!.Y.Y.j.j.c.A.j.d.j.A.V.j.Y.&X`.V.G.Y.G.j.j.c.V.`./.!.!.!.c.c.V.j.j.j.7.j.!.!.c.<.+.d.j.j.j.c.j.V.Y.Y.G.!..X`.!.!.j.3.j.j.p.7.*.! *.<.3.r.V.j.p.Y.<.p.Y.c.j.3.( j.G.c.j.A././..X`.!.j.3.j.p.*...V.!.Y.j.j.j.j.p.<.<.( U ! ..<.d.V.Y.Y.Y.`.!.V.!.G.d.r.3.7.c.j.Y.!.d.*.<.p.7.<.*.} 3.3.*.( ! R D J ..! *.c.j.7.r.<.3.V.`.;X!.j.A./.!.j.<...+.j.A.j.c.!.j...<.r.j.`.!.Y.V.G.Y.!.`./.Y.Y.!.G.j.c.j.3.! *./.#X!.+.! 3.d.p.V.G.p.<.3.3.<.<.7.7.7.j.j.c.d.c.j.j.Y.G.d.p.7.<.+.<.j.j.d.d.p.r.j.p.*.<.+.! ! ! R ! +.+.<.A.G.V.V.G.G.A.!..XV.<.7.c.j.c.Y.j.j.V.A.A.V.c.c.c.d.j.j.j.d.j.j.r.+.( <.d.7.*.<.<.7.j.A.j.3.d.3.3.p.G.!.Y.p.+.....d.r.*.<...r.j.p.<.<.3.r.V.V.Y.j.j.A.A.A.",
"r.r.j.j.V.G.d.7.c.G./.j.<.j.V.r.<.*.( ( *.p.V.!.c.p.3.p.j.G.!.#X/.!..X;X&X/.!.V.3.<.j.A.V.G.d.<.<.3.r.7.r.V.Y.c.j.j.j.l.j.p.j.W.G.j.p.r.1.<.3.1.*.7.<.+.*.*.3.r.r.V.!.!.A.c.j.r.( <.Y.!.G.!.`./.!.!.!.!.`..X`..X!./.!.;X/.c.c.+.! A.,X.Xj.p.( +.A.`.$X#XG.j.<.<.j.A.Y.V.V.p.( } j.G.G.Y.G.j.A./.&X;X5X,X.Xc.3.3.#XV.<.G.#Xj.+.A..X!.!..X#X;X;X/.j.p.A.#XA.r.3.!./.!..X`..X#X!.A..X;X;X;X&X.X`././.!.!.;X;X.X.X!.A.c.d.j.j.p.j.d.A.`..X.X/.A.c.j.A.Y.c.j.c.j.c.V.A.!.!.#X!.d.r.j.c.j.j.j.c.d.A.A.c.!.j.j./.!.7.<.j.3.p.d.!.c.<.<.j.r.j.!.Y.5.<.j.V.*.3.<.j.j.Y.V.p.A.A.c.c.V.!.!.A.A.Y.!.`..X#X;X;X!.*.j.Y.Y.!.!.Y.j.A.V.j.!..X.X..j.A.j.G.V.7.r.V.A.!.!.!./..X!.!.;X!.j.3.!./.!./.!.!.!..X/.!.!.!.V.V.!.!.!././.Y.Y.V.c.A.!.!..X!.c.Y./.!.c.5.3.j.j.V.A.!.Y.j.j.j.j.G.Y.G.G.V.G.j.d.d.<.r.A.c.c.V.!.!.Y.!.;X;XY.!.G.V.j.j.A.!..X!.!.!.G.V.c.j.j.j.j.p.j.A.j.3...p.V.c.p.p.p.j.A.!.A.j.V.!.Y.G.!.!.V.A.j.p.p.<.+.<.r.p.p.G.V.p.G.j.3.j.<.} ..( p.G.c.r.c..X.X`././.V.r.c.A.j.<.j.V.j.<.n h R <.<.<.*.! ! +.<.p.G./.`.!.#X/.A.G.j.j.j.p.<.p.r.j.c.r.*.+.<.<.<.3.j.j.j.r...! ! ! } J <.V.!.p.+.3.p.7.V.A.A.c.c.!./.!.j.<...<.A.`.V.r.V.d.*.<.7.p.A.j.j.c.G.G.G.`.`.A.c.V.c.j.j.j.7.! <.`.#X!.<...j.A.j.c.V.d.<.<.+.3.<.j.d.d.j.j.V.r.j.j.G.!.c.3.<.7.3...+.d.j.3.<.<.3.p.3.<.<...( ..U J ..<...<.j.Y.A.V.A.G.!./..Xj.j.j.j.p.j.Y.!.A.V.V.A.A.A.c.j.r.p.j.j.d.j.j.j.r.<.7.j.d.3.r.j.d.V.A.j.7.j.<.*.7.Y.!.V.p.*.....j.r.} ..*.A.!.p.*.3.3.7.Y.A.A.j.c.j.j.j.",
"c.c.c.r.p.V.j.p.c.d.A.c.d.G.Y.j.r.p...! 7.j.c.Y.G.7.<.j.j.7.p.!.A.V.!..X!.V.c.V.j.7.A.A.A./.c.r.<.d.j.7.<.j.A.j.i.<.<.g.j.p.j.V.d.r.r.0.<.<.<.*.*.<...} ..#.3.3.d.!.;X;X`.!.!.V.3.j.&X.X!.;X#Xd.j.V.!.#X`.j.<.r./.!.A./.d...r.! h r.;X`.j.r.D J d.!.G.Y.Y.!.j.3.V.j.G.G.j.3...<.j.c.j.G./.`.;X&X.X.X;X#X!.V.<.! j.+.D r.`.j.} !..Xj.c.!.!.&X&X.XG.! +.c.<.( 3.&X/.!..X`.`./.c.d.!./.&X;X#X/././.&X;X#X;X;X;X,X&X!.!.V.A.Y.Y.G.j.j.`..X&X&X!.!.Y.V.V.d.d.j.j.V.V.!.!.A.!.!.j.c.!.A.d.3.p.!.V.V.r.j.`.V.3.Y.!.d.r.r...*.<././.d.7.Y.d.j././.d.<.V.3.! <.+.<.r.G.j.7.G.Y.A.A.G.`.&X!.Y.!..X&X&X&X;XY.j.n R <.r.c.A.!.j.V.Y.A.j.j.A.p.j.A.V.A.j.+.+.7.j.G.Y.A.A.A.A.!..X!..XG.!.A.!././.Y.A.!.#X`.!.&XY.V.G.Y.Y.!.Y.!.!.G.G.!./.!.`.A.7.d.Y.!.!.c.j.r.r.j.c.A.V.d.j...<.G.!.!.!.A.c.j.j.V.3.<.j.j.c.G.!.`./.G.!.`./.!.c.c.j.j.!.Y.j.G.Y.Y.Y.!.G.j.j.j.j.j.d.j.p.r.j.p.j.j.d.j.j.j.Y.Y.j.p.j.A.j.j.!.V.G.!.j.7.r.r.j.<.3.j.j.V.A.V.!.+.C } ! D } <.j.c.j.7.V.;X;X/.!.&X!.j.Y..X#XA.Y.r.D N c h N ! <.3.7.3.<.r.r.p.c.!..X!.&X;X!.!.V.j.V.p.+.3.r.j.3.<.p.j.j.j.7.<.3.c.!.V.+.! ..<.*.! r.c.c.j.j.j.r.Y.!.j.3.7.j.G.!.G.V.r.<.3.A.`.c.7.V.j.7.r.r.7.j.<.p.j.Y.V.V././.A.j.c.c.j.j.A.j...<.`./.G.<.( r.d.7.r.j.j.r.3.<.j.j.V.j.<.<.3.j.<.<.d.!.&X!.d.3.p.<...<.j.j.<...<.3.*.( <.<.+.3.<.J ! d.j.7.p.A.V.A.A.V.G.!./.!.!.!.c.r.j.Y.!.Y.Y.V.j.V.Y.Y.V.d.d.d.c.G.V.G.!.!.j.r.p.j.j.d.d.j.j.A.A.j.r.j.3...p.!.G.V.V.d.r.3.7.<.} *.7./.`.r.<.d.p.p.!.!.A.j.Y.G.G.`.",
"j.c.j.3.....<.d.j.j.d.7.3.j.A.j.c.c.j.+.*.j.j.p.j.c.c.V.j.+.<.Y.V.r.+.V..Xd.<.j.j.p.j.A.V.V.V.j.j.Y.c.V.j.p.j.j.j.i.<.<.7.j.V.V.j.j.j.r.#...*.*.<.<.( | <.#...( 7.Y.#X&X!.!.XX!.`./.;X`.`.`.p.<.p.A.!.c.A.Y.3.<..X#X!.j.r.7././.V.!.&X`.V.+.D ( G.Y.V.!.G.A.j.b.c.r.j.A.c.r.p.+.r.c.G.!.#X;X,X#X/.`.;X#X/.Y.7.*.3.<.! p.!.d.r.j..XG.p.j.p.A..X#X`.<.U <.<.} j.#X.X!.!.;X;Xc.*.+./.&X!./.;X;X#X!.;X,X#X&X/.!.&X!.&Xj.!.;X&X.XG.A.A.!.#X&X`.Y.A.A.V.j.j.A.#X#XY.V.!.!.!.c.j.A.!.A.Y.!.c.<.j.j.j.7.j.`.A.V.#X/.!.7.<.j.7.} d.j.j.p.!.V.e./.wX`.j.d.d.d.7.} *.c.c.d.d.V.j.Y.Y.!.;X&X`.!.!.#X&X/.c.c.*.} ! <.r.*.*.+.j.j.c./.!.Y.j.d.<.c.c.A.G.<...r.r.r.3.j.r.3.G.!.!.!.#X#X/.G.j.V.`./.c.!.#X/.#X`..X!.`././.G.!.!.V.G.G.A.A.Y.!.Y.j.j.A.!./.#X`.A.<.d.p.<.3.j.j.r.p.<.j.A./.!.Y.c.j.V.A.r.<.j.V.Y.G.Y.`.c.p.j.j.!.Y.G.Y.G.c.A.Y.G.!.#X.X[.#X!.d.j.j.j.j.V.A.j.j.A.A.j.c.V.j.d.d.!.c.R <.j.j.G.j.A.A.G.!.d.*.<.p./.<.p.c.A.A.j.p.A.<.! *.} <.! } d.j.c.d.j.!..X/.j..X!.d.!.`.!.<.*.( c ! j.3.+.<.p.V.Y.j.7.<.<.r.G.!.j.!.!.!.A.Y.j.j.r.*.3.p.<.r.V.j.j.A.!.A.7.7.c.Y.G.j.7.*.*.<.3...j.d.3.r.!.!.Y.!..Xj.*.r.!.`.!.G.c.j.7.<.r.j.j.p.p.d.<.3.c.V.V.*.r.c.A.P./..XA.V.p.d.d.r.r.r.j.j.A.j.!./.+.+.*.+.*.<.r.<.<.d.d...p.r.3.3.<.7.3.<.p.V.!.!.c.r.7.d.<.*.<.7.d.7.+.<.7.+.<.7.<.r.j.<.U C ( 7.j.V.c.A.!././.!.V.V.Y.!.`.V.j.c.Y./.!.Y.V.j.c.V.V.j.r.r.d.j.c.A.G.Y.Y.A.V.c.c.G.G.c.j.d.j.j.d.j.c.d.<.j.Y.!.!.j.<.+.<.j.c.7.<.p.Y.!.j.7.j.p.j.Y.A.j.3.V.!.G.!.",
"d.j.j.<.( ( +.<.7.<.<.+.+.3.d.p.7.c.A.<.*.d.r.+.7.G.Y.j.j.j.c.!.j.+.U *.r.<.7.j.d.<.7.c.V.j.j.j.j.V.j.V.V.d.c.j.j.j.p.p.a.j.D.!.c.j.d.p.<.<.*...<.<.| ( ..+.<.*.p.!..X.X!./.;X.X;X;X&XY.Y.A.<.} <.c.!.j.G.;X/.!..X&X;X#Xd.! c.;X;X`.`.`.!.p.*.j.`.!.!./.G.!.A.A.j.p.j.j.A.j.d.*.<.j.!.`.#X,X;X/.!.c.!.#X#X#X/.G.G.d.! 3.!.!.V.j./.A.j.Y.d.p.A.!.`.p.*.p.r.<.j.`..X`./..X/.j.*.( A.;X.X/.;X&X!./.`.!.Y.&X/.j.c.j.V.r.G.`./..X!.!.Y.!..X`.!.Y.!.!.c.j.p.c.`..X`./.#X#X!.j.c.Y.!.V.c.!.!.p.p.r.r.r.d.!.V.c.#X#X;XG.3.3.<.<.G.c.j.d.G.j.d.!..XG.p.+.j.j.d.<.3.A.A.j.c.!.V.A.Y.G.`./.!.`./.`.&X/.d.+.} <.<.3.7...( } d.V.V.!.!.!.A.c.p.j.7.3.d.7.<.7.} <.d.j.3.<.d.!.G.!.&X#X!.Y.A.!.G.j.3.V..X!..X.XG.!.&X!.Y.j.V.c.c.A.Y.G.G.Y.U.G./.`.#X/.G.!.!.c.r.3.<.+.+.7.p.r.j.r.c.j.c.V.G.A.7.j.!.A.j.V.A.!.G.V.!.c.j.c.V.`.;X`.!.A.j.V.!.!./././..X#XY.j.c.c.V.V.V.c.j.j.Y.A.d.j.j.j.7.<.c.*.D <.r.d.A.d.j.j.G.!.c.7.r.j.c.c.j.Y.!.G.j.j.!.V.<.<.( <.} <.j.c.j.j.!.G.j.Y.Y.&X!.A.Y.3.} z v 7.<.G.!.3.} <.p.A.!.A.d.<.3.j.Y.A.V.!.c.3.p.!.G.j.p.<.3.7.r.j.j.c.j.Y..X!.7.3.V.!.G.j.g.7.+.( } <.j.r.<.d.`.!.Y.#X#Xd.! ..A..XY.r.<.7.d.d.j.j.7.} *.d.p.r.c.V.j.<.<.7.r.r.j.A.A.j.r.3.<.<.<.<.r.j.j.<.c./.7.*.! ..<.+...( } <.+.*.3.<.<.p.d.r.<.<.j.V.A.c.p.7.j.p.7.<.<.<.p.7.+.<.j.<.! +.r.A.c.+.R U } r.G.!.Y.Y.Y.Y.G.j.p.j.G.!.`.Y.V.A.A.G.A.Y.V.j.j.A.A.c.j.j.j.V.A.A.A.V.A.V.j.j.j.j.c.c.j.j.j.j.d.j.j.d.<.j.!.Y.V.p...<.c.!.G.d.r.7.r.c.G.c.Y.A.A.G.c.j.d.j.j.<.7.",
"G.Y.c.<.} ..*.*.<.*.+.+.*.3.j.j.*.7.j.7.+.<.3.+.3.!.!.j.j.G.G.V.<.! ! +.! ( d.V.d.3.r.j.j.j.j.d.p.r.<.j.c.j.c.j.j.j.j.j.j.a.N.!.A.j.a.r.<.*.*.<.<.1...( } ..<.r.j.!./.G.j.c.!.G.!.`.#X!..X#XV.V.j.j.V.c.!.#X!.`.!.!.#X;XY.! <.V..X.X;X;X&X!.G.&X`.Y.#X!.j.!.Y.!.V.V.c.d.n.c.j.7.+.p.!.!.!.!.3.R } *.j.!.!.!.!.j.<.r.<.c./.!.!.V.!.A.G.#Xc.3.j.!.#XA.p.p.3.<.p.c.!.!.A.G.A.r.*.R r.!./.!.&X#X/.!.`.G.V.#X.Xc.V.G.G.!.;X/.j.j.j.Y.Y.!.;X;X`./..X`.c.d.j.A.!..X#X#X;X;XY.p.c.!.!.Y.7.G.`.7.<.<.<.7.j.G.p.7.!..X5X`.7.*.<.d.!.d.<.<.j.j.G.!.j.j.c.<.j.j.j.r.3.d.r.3.c.!.j.r.V.j.j.A.!..XG.!.&X!.j.<.<.j.7.*.*...*.7.j./.G.Y.G.Y.V.d.j.V.j.p.j.j.p.+.( <.A.j.7.<.<.G.A.Y..X!.Y.!.!.!.V.j.r.G.!.j.G.`./..X!.7.*.<.c.!.!.!././.!.!.!.!.Y.`.&X!.c.I.!.Y.c.3.<.<.} +.7.<.j.z.A.d.r.p.j.j.r.j.G.j.3.7.j.!.!.A.!.Y.G.Y.G.`.#X`.!.j.p.j.A.V.A.j.G.#X#XG.c.G.j.A.G.A.c.j.G.`.Y.V.V.V.j.<.<.V.*.! <.r.d.j.j.c.V.Y.Y.A.j.j.j.3.j.j.!.`.Y.d.<.r.j.<...R *.+.<.<.*.( <.A.p...3.j.!.A.!.j.! ( ! 3.`.V.j.p.r.j.V.j.G.!.!.j.<.7.j.G.G.Y.!.j.<.j.;X!.d.p.<.*.+.p.G.j.V.j.A./.G.<.<.V.!.c.j.c.j.<.} +.p.V.7.<.c..XA.d.A.A.r.X.} j.!.j.<.+.+.3.j.j.r.<.*.<.j.j.<.p.j.3.( <.r.7.<.<.7.c.c.j.7.<.<.3.<.j.j.A.p.j.V.<.<.} p.c.r.+.+.<.<.! +.<.<.3.r.3.r.r.j.j.j.j.c.c.V.Y.A.c.j.7.<.<.3.+.7.G.3.U ! 3.j.3.*.*.<.<.j.!.!.j.j.3.3.3.*.<.V./.G.!.!.!.Y.V.A.A.G.c.j.j.A.G.V.j.j.c.G.Y.G.V.V.V.c.d.p.d.p.j.c.j.j.d.p.p.p.j.j.7.!.&X!.Y.c.3.c./.!.!.c.d.<.<.p.j.d.A.G.Y.G.j.j.d.<.7.7.c.",
"c.j.7...! ..<.7.<.<.3.r.r.d.V.!.j.7.j.j.<...<.7.j.!.!.Y.Y.G.c.j.j.r.7.<.! } j.G.j.j.c.j.j.j.j.7.3.3.<.d.j.j.V.V.N.l.V.G.l.a.j.C.Y.c.d.0.*...<.j.d.r.*.<.<.<.r.j.G.!.!.j.<.3.d.3.7.A.Y.A..X&X!.`.!.V.A.Y..X;X.X#X#X.X;X5X,XV.j.p.J 7.`.;X;X;X.X`.!.!.!.c.j.!.!.!.!.`./.c.`..XG.c.p.j.!.V.G.!...v +.d.<.+.p.!..X!.j.G.Y..X&X!.!.V.Y.V.G.#XY.r.d.A..X!.V.c.j.r.3.3.V.G.j.c.c.r.<.! 3.d.V.G.!.;X;X`.;X.X!.#X;X.X&X&X&.B.,X,X#X!.j.p.c.Y.;X5X;X;X;X&X!.c.c.G.G.!.`..X#X.XV.r.V.!.A.V.<.j.!.7.<.r.r.j.j.j.<.+.j.!.;X`.3...<.p.c.3.*.<.V.G.#X!.*...7.*.7.j.G.j.p.d.d.c.!.&Xj.3.Y.A.p.V.!.!.p.A..Xc.j.j.<.p.<.( +...*.d.c.`.A.!.!.!.G.d.r.j.j.j.d.j.c.3.+.3.V.j.r.3.<.j.c.A.!.G.V.!.!.!.Y.A.c.!.!.j.A.!./..X!.r.3.r.A..X`.`.`.!.!.!.!.!.A.!.`.!.A.Y.!.!.j.<.p.j...} r.<.<.3.j.d.p.p.j.j.j.c.Y.A.d.r.j.!.G.A.!.Y.Y.Y.c.c.G.!.!.j.j.A.A.j.<.<.d.!.!.j.j.j.d.A.G.G.V.A.!./.G.A.j.j.j.<.*.j.j.7.j.G.G.c.c.!.!.A.j.A.c.j.j.<.<.7.!.#X.X!.d.+.a.<.*...j.j.d.<.+.( <.c.j.+.( ( <.j.&X!.<.r.d.d.V.p.<...7.c.p.*.p.j.A.V.r.3.3.j.!.!..X!.A./.&X!.p.j.r.<.<.j.!.c.c.d.d.V.j.<.<.j.G.c.j.c.j.7.7.j.j.G.d.j.G.Y.3.<.<.+.<.3.*.3.c.j.p.7.} } r.p.<.<.r.<.j.j.+.<.j.7...p.j.r.r.p.7.j.c.V.d.<.3.r.r.A.V..X!.c.7...<.<.<.j.7.*.7.j.7.*.<.p.j.j.r.<.j.A.A.c.d.d.c.G.!.!.!.!.Y.j.<.<.7.<.3.j.r.<.<.<.<.! <.r.j.c.Y.!.G.d.r...3.p.<.r.Y.`.Y.!.!.!.G.c.A.!.A.c.j.j.V.A.c.j.c.A.!.!.A.c.c.V.j.r.r.p.7.j.V.j.j.r.d.j.j.j.j.<.j.A.j.!.!.j.A.j.A.`.!.j.3.d.A.j.r.j.V.Y.!.A.j.d.7.j.j.A.",
"j.p.<.} ! } <.r.7.p.j.c.j.j.j.Y.!.j.j.!.j.3.j.G.c.A.Y.!.`.!.G.Y.!.Y.V.d.7.p.d.d.j.V.c.d.p.j.d.7.r.j.j.j.c.V.Y.A.V.V.G.!.!.N.j.N.Y.V.j.d.7.<.r.C.!.j.3.j.c.a.j.A.G.!.A.j.<.3.d.7.3.j.d.r.G.!.A.!.Y.!.Y.j.c.&X;X&X`.`.`.!.!.A.G.c.R <.A.G.!.&X#X!./.#XA.p.j.A.!.Y.j.A.A.d..X;X!.j.d.j.Y.V.!.;XV.<..X;X<.C p.&X,X;X7X#XG./.&X!.!.A.G.c.c.!.Y.j.j.j.c.j.c.!.`.!.d.3.j.j.j.A.j.3.<.+.<.3.j.j.j.`.;X;X;X;X&X&X;X;X;X&X<.*...<.!.&XY.c.Y.!.&X&X.X#X;X;X&X!.Y.Y.c.c.!..X!.Y.j.d.G.G.7.3.<.j.!.p.r.j.p.j.j.d.3.<.p.j.`.!.r.*.<.+.p.j.p.p.c.V.!.A.3.<.<.<.r.j.!.G.j.j.G.#X#X;XV.r.!.!.j.A./.!.<.j.!.r.3.7.} 3.7.r.d.<.} 7.r.j.7.G.!.!.c.r.j.j.r.3.*.<.j.j.} +.p.j.7.7.j.p.d.j.!.!.A.!.!.!.!.G.V.!..X.X.X!.!.!.!.!.`.!.Y.!..X`.!.!.!.!./.#X!.!.!./.!.!./.!.j.d.c.V.+...r.*.<.3.3.r.7.<.7.j.j.j.V.G.V.j.j.A.c.G.!.!.!.!.V.j.j.!.!.j.j.Y.A.7.} ..3.c.d.7.p.*.<.d.j.c.A.!.`.!.G.V.7.7.j.p.<.p.r.r.V.!.Y.j.p.j.!.j.<.A.!.d.j.<.} <.V.!.!..X!.j.7.<.<.<.V.G.j.<.} +.<.7.c.j.3.<.7.A.;X/.j.j.V.7.r.<.<.<.j.V.3.+.} <.r.j.d.<.! j.!./.#X,X;X`.Y.V.j.A.j.j.V.Y.!.Y.V.j.d.j.d.7.7.p.G.G.V.j.j.j.V.G.p.j.d.V.c.p...<.*.( +.3.*.3.V.d.p.j.*.! 7.3.} <.<.*.d.j.*.<.j.p.j.Y.c.+.3.V.j.d.d.j.j.<.<.3.7.G.!.#XG.j.<.+.*...r.j.d.r.V.Y.j.j.c.c.j.A.V.j.V.G.j.c.j.d.d.j.j.G.G.c.G.G.d.7.d.d.<.3.<.7.p.3.<.<.j.c.G.!./.!.j.r.7.} 3.r.<.d.!..X!.!.!.!.V.j.c.G.Y.A.j.d.V.G.V.V.Y.!.!.Y.V.j.j.j.j.r.p.j.7.d.V.j.d.p.c.Y.c.j.7.( +.+.7.!.!.j.j.*.3.V.Y.j.<.<.p.*.r.r.j.A.!.!.j.r.j.c.d.3.",
"G.V.d.<.*.*.<.3.j.c.G.Y.A.j.r.d.V.j.j.Y.A.c.Y.!.j.j.c.A.!.!.!.!.A.Y.Y.V.A.A.d.d.j.d.r.r.p.p.p.d.j.A.Y.A.c.V.A.c.l.j.l.L.!.L.V.V.G.C.c.C.G.V.l.C./.l.3.c.!.j.j.l.c.A.V.c.d.d.j.p.r.j.j.j./.#X!.G.Y.Y.V.3...r.!.`.`./.!.c.c.d.G.`./.Y.!.A.j.G.!..XG.;XY.r.r.3.V.Z.<.*.*.! j..XG.7.<.p.G.V.!.;X/.A.`.;Xj.<.!.;X.X;X,X`.!.#X`.G.`.`./.Y.V.G./.!.!.c.j.d.j.!.&X&XG.c.A.V.!./.V.3.<.<.( 7.r.<.7.j.j.`.#X&X#X.X.X.X#X;X7Xj.C D p.c.d.c.!.`..X/.!.`..X.X&X`.`.#X!.Y.!.#X!.d.7.p.A.c.<.7.p.c.`.c.j.7.<.<.7.p.j.j.p.*.j.j.c.r.3.} d.A.V.V.j.d.d.j.A.c.3.3.7.j./.!.c.c.G..X/.!.P.d.G.!.j.G.;X`.3.j.Y.d.p.3.7.j.c.c.j.*.} j.+.+.} c.Y.Y.j.7.V.p.7.p.<.<.r.3.! } r.j.<.<.d.<.<.j..X#X!.!./.!.!.!.!./.#X;X;X!.!.G.V./..X`.!.!..X/.!.!.!.!.#X;X`.!.G.!.!././.`.G.Y.Y.A.3.<.j.7.7.<...<.<.<.j.!./.!.A.G.A.c.A.G.j.Y.!.!.!./.!.V.V./.!.d.d.A.V.r.*.<.r.j.7.r.c.3...7.r.j.A.!.`.j.j.Y.j.7.j.7.*.3.d.A..X`.!.!.A.d.c.p.<.G.`.j.d.<.<.3.c.V.j.j.j.j.j.d.<.<.j.j.p.*.! *.+.! <.c.j.c.Y.!.!.c.A.A..X!.j.*.! } p.j.7.7.*.<...*.<.*.R j.!.V.A.;X;X/.j.j.A.!.c.j.G.!.!.`.Y.V.c.c.c.j.p.7.A.G.V.j.c.!.!.G.*.<.<.d.<.( ! 3.p.<.<.7.<.d.G.7.d.j.*.! <.<...7.<.<.3.r.*.<.p.7.j.!.Y.<.*.d.r.j.j.j.j.d.d.j.j.!.`.!.3.+.} +.+.} d.c.c.j.Y.!.V.G.V.j.j.V.A.c.c.d.r.j.d.p.j.j.d.j.d.p.A.!.j.p.d.r.<.<.3.d.j.j.V.G.!.Y.Y.!.!.A.d.7...R <.<.<.j.!.#XY.A.Y.G.c.j.j.c.!.G.j.d.A.Y.G.!.A.Y.Y.G.c.j.j.j.j.d.j.j.7.r.j.j.j.j.c.j.d.d.p.*...+.j./.A.p.7.( f n ..j.3.( +.<.+.+.p.A.!.!.c.r.j.A.j.3.",
"V.G.c.7.<.p.j.p.j.V.A.!.!.A.p.7.j.V.j.j.j.j.V.j.j.c.j.p.j.G.!.!.G.A.A.j.c.A.V.!.c.d.<.3.j.j.j.j.j.A.Y.G.c.c.j.j.j.j.j.l.G.W.W.L.Y.Y.L.!.`.`.!.!.!.c.r.c.!.C.j.d.j.c.V.Y.A.j.j.d.r.V.!.!.!.!.A.j.!.c.j.j.<.<.G.&X/.!.!.j.j.<.d./.`.j.V.Y.j.p.d.c.j..X/.d.<...p.j.7.*.<.! <.Y.!.j.d.c.A.j.x.!.!.G.p.j.Y.!.#X&X&X5X.X`.`.;X!.j./.&X;X`.!.!.;X.X;X.X`.!.G.A.`.;X.X.X&XY././.Y.j.<.<.! 7.r.*.<.*.( p.G./..X.X.X`..X;X;XY.p.Y.&Xd.} p.Y.`.`.!..X&X#X#X!.!./.#X.X!.!.&X#X<.*.p.G.V.3.j.j.A.`.!.A.d.r.<.3.7.G.!.j.} <.p.c.j.j.3.c.c.p.V.A.V.j.p.j.7.} <.d.V././.!.!.!.#X/.Y./.G.c.!.G.!.;X&Xc.V.!.c.A.c.c.j.j.d.<.} ..c.j.r.7.A.j.j.<.( p.3.r.V.V.d.d.3.*.<.c.j.7.r.<.+.<.p.!..X!.`.`.!.!.`.&X#X`.#X.XY.A.j.j.!.!.!.Y.!.!.Y.G.Y.Y.!./.#X.X/.!.Y.Y.Y.!.!.!.!.c.c.j.j.G.c.r.d.<.3.<.<.d.!./.!.A.Y.G.j.j.p.7.c.!.Y.A.A.V.j.A.!.Y.j.V.G.V.j.3.p.d.j.p.d.Y.j.r.V.j.c.A.Y.G...! Y.G.r.3.*.+.7.c.A..X!.j.!.!.j.d.j.r.j.!.Y.c.7.p.c.Y.c.j.d.3.r.j.r.( ( *.+...! U ..*.! } j.!.#XV.!.Y.<.V.!./.G.c.7.3.3.r.r.r.c.r.7.} ! ! <.( c./.d.d.!.Y.Y.V.j.!.!.c.j.c.G.`..XY.A.A.G.V.j.r.p.c.V.j.j.c.!.!.V.<.<.<.7.! R ! <.p.p.j.c.p.j.A.3.j.<.( ( *.*.<.j.p.r.<.<.<.*.<.3.r.c.!.c.r.7.<.j.j.p.j.c.G.Y.G.!.!.V.<.+.! } +.*.D ( <.3.j.j.p.j.j.d.r.j.d.p.d.3.7.p.p.p.j.c.j.p.d.d.G.Y.j.j.j.<...7.G./.`.`.!.!.Y.G.V.G.!.A.d.r.} ! r.d.p.A.Y.!.A.j.V.c.j.j.j.j.A.A.j.j.Y.Y.V.V.j.j.V.A.V.c.c.c.j.j.c.j.r.<.3.7.j.j.j.3.<.d.j.j.<.3.c.A.d.<.} +.k N ..j.p...<.7.} ..d.G.!.!.G.V.Y.!.Y.j.",
"G.!.Y.r.<.j.A.j.d.j.j.G.`.!.j.7.c.A.d.7.3.r.c.c.A.V.j.3.r.A.!.!./.A.V.j.A.!.G.G.Y.c.7.3.V.!.Y.c.j.c.Y.!.Y.A.c.V.G.V.j.j.C.!.!.~.!./.!.!.`..X$X;X!.Y.j.A./.!.V.d.j.j.A./.!.A.V.j.3.G..X!.c.d.j.c.G.c.A.A.j.c./.`./.!.!.j.7.! <.!.!.<.<.d.d.3.+...Y.!.!.j.r.7.d.p.r.3.A.7.<.j.G.j.d.V.A.V.A.G.V.p.<.*.!.;X/.#X;X;X;XY.d.j.p.p./.`.;X`.!.`.;X#X5X5X#X`.!.j.G.#X`..X;Xj.j.j.j.j.} R *.3.d.r.3.*.! } r.!.;X;X&X#X/./.G.j.p.!.`.<.+.&X&X5X&X!.#X&X/.`.V.V.c.V.A.j.A.&X;X<.*.V.`.G.<.r.7.r.j.V.!.c.V.j.7.<.A..XY.<.d.j.3.r.A.c.Y.r...j.j.A.Y.j.7.<.<.!.!.!./.Y.G.!.`.#X;X!.,X`.j.V.A.A.!.`.!..X!.c.A.A.c.d.j.j.r.<.<.d.r.<.<.d.<.3.*.! j.p.p.c.j.d.j.j.p.r.!.A.c.A.<.+.7.3.V.!.!.&X.X!.G.Y./.`.`.&X`.G.j.d.c..X!./.!./.!.!.!.!.!.!.!./.!..X.X!.Y.!.!.!..X`.j.d.j.r.p.3...p.r.j.r.r.j.Y..X`.!./.!.A.V.j.3.c.!.!.A.j.p.7.p.j.j.V.Y.A.j.j.7.d.p.j.p.7.c.p.d.Y.A.A.Y.!.!.+.n V.!.d.d.r.s.c.A.j./.G.j.I.G.j.p.G.j.3.A./.!.j.3.c.G.p.d.V.j.p.V.j.<.<.3.*.*.+.+.<.d.*.! <.c./.!.#XY.v } A.G.V.j.<.<.<.<.<.7.c.<.<.....} j.<.j.`.j.V.!.3.d.G.j.!.!.Y.Y.G.!.#X!.A.j.c.A.j.7.7.j.j.V.c.j.d.j.c.j.A.j.j.j.! ! ..+.7.p.A.!.j.r.c.j.p.! ! <.*.+.3.d.3.7...<.p.7.7.p.p.7.G.!.!.j.*.d.<.+.<.j.G.!.G.!.A.j.3.r.<.*...+.h D <.3.p.j.7.3.c.d.<.7.r.p.j.3.<.d.j.j.j.d.r.r.j.j.G.V.p.j.j.<.! <.V.!.!.!.Y.!.!.!.A.V.Y.V.7.<.<...3.<.*.j.G.!.!.c.c.j.r.d.r.7.j.c.j.c.!.G.d.r.d.j.c.V.V.c.j.j.j.c.V.j.7.<.+.<.p.j.j.<.<.s.j.j.p.d.c.d.r.<.} r.r.p.d.j.3.7.c.j.*.+.p.d.r.j.V.!.!.!.!.I.",
"G.Y.c.<.r.Y.!.Y.V.d.r.V..X.XV.3.7.j.<.<.d.j.j.c.c.c.j.7.7.V.!././.!.G.G.!.!.!./.`.Y.j.j.V.!.#X!.Y.Y.!.!.!.!.c.A.G.G.G.!.Y.G..X.X!./.#X.X!.Y./.&X.X`.!.A.G.!.A.d.V.G.!.!.`.!.j.j.A.`.G.c.V.p.7.p.j.j.G.Y.G.Y.!.Y.A./.`.Y.j.<.r..X#XA.p.<...7.j.j.Y.!.!.r.7.!.7.7.3.3.r.p.p.d.j.p.<.j.A.j.V.!.j.3.V.j.!.,X;X!.!.&X.XV.<.7.A.G.!.!.!.!.!.&X;X&X;X$Xr.j./.G.j././.!./.d.d.j.j.d...! r.<.j.j.d.j.j.p.j.!.#X.X;X5X`.d.7.3.7.p.*.N ! !.&X&X5X;X!.Y.G.!.G.j.p.j.p.p.j.G.c.<.r.#X5X/.<.3.j.r.G.<.J <.!.p.p.p.j.!.Y.c.A.!.*.C p.j.c.Y.j.j.Y.!..X7.*.7.j.G.&X/.`.;Xj.!.`.#X&X`.!.Y.A.j.c.!./.G.!..X!.G.V.j.j.j.3.3.p...3.<.<.*.j.7.*.<...+.G.r.3.7.d.A.j.j.j.A.A.G.!.G.7.} <.*.<.A.&X.X/.Y.c.!.!.!.!.!.!.j.7..X#Xj.Y.&X!.!.Y.!.G.!.!.!.!.Y.Y.!..X.X!.Y.Y.!..X!.!.j.j.<...! 3.c.V..X/.d.c.!.!./.`./.!.Y.V.d.3.!./.Y.!.A.j.Y.G.3.d.!.A.j.j.7.<.+.3.j.r.*.+.<.<.d.A./.`.`.;X+.z G.!.j.j.c.j.!./.A./.!.r.7.d.d.3.3.c.r.<.d.7.p.7.<.7.j.<.*.p.+.p.<.<.p.j.<...<.3.j.<.U +.r.<.3.!.5XG.n D j.r.<.*.+.*.r.r.7.p.7.*.<.<.! <.r.d.j.#X.X!.7.R p.V.j.j.A.!.G.Y.!.`./.Y.j.V.!.c.<.<.j.G.c.j.p.A.d.p.c./.c.7.j.<.! J <.<.<.j.!.Y.c.j.!.Y.! ! <.<.7.j.V.V.j.7.p.r.+.7.G.d.3.d.!.A.j.A.c.<.*.<.p.j.j.A./.Y.7.<.j.p.r.p...D ..V.j.r.j.7.<.A.d.3.7.<.<.<.3.<.<.j.7.r.d.<.p.j.d.3.*.<.j.j...! r.G.Y.V.j.j.A.!./.!.!.!.!.p.} <.*.j.Y.c.G..X!.V.V.j.3.<.p.r.3.p.j.j.j.V.c.3.7.p.p.V.j.c.p.d.r.7.c.G.j.<...*.<.p.j.p.<.3.j.d.j.7.3.<.3.A.j.! 3.j.<.3.....p.!.j.<.*.+.7.d.3.d.`.!.R.!.!.",
"!.!.G.j.j.!.!..XG.j.r.j.G.!.A.d.p.j.<.<.d.j.j.j.j.V.A.d.7.j.A.!.Y.G.A.G.Y.!.!.!.!.!.G.G.V.G.`./.!.!.!.G.Y.!.A.Y.Y.Y.!..X/.!.&X&X#X`.~.`..X/.!.!.&X#X/.G.V.A.V.j.Y.!.!.!.`.`.!.!..X;Xc.7.j.j.d.d.p.j.Y.Y.V.V.G.G.A.!./.!.Y.V.V..X&X!.G.d.7.j.!.V.V.!.G.3.*.j.d.p.<.7.j.G.V.p.<.<.<.d.j.r.r.j.j.V.`.Y.V..X`.c.!./.&XA.<.p.!.#X.X!.Y.!./.&X;X&X-X#X3.j..X!.V.!.!.!.`.!.!.G.G.A.j.c.c.j.j.j.j.!.#X`.;X#X!.!.&X,X`.j.r.*.7.Y.c.<.j.;X5X!..X,X`.j.d.j.c.c.G.G.j.j.j.p.j.<.*.j.V.V.3.<.j.A..Xp.D v } j.r.j.j.G.G.j.j.!.! v <.3.j.!.G.A.G.G.j.! <.p.r.j.!.#X.XG.! j.&X;X!.j.r.G..XY.c.!.Y.A.!.;X.XY.c.p.j.V.p.7.p.<.j.c.Y.c.j.p.3.p.r.<.j.7.<.*.r.A.j.*.( 4.3.j.!.G.r.<.<.<.7.A..X.X/.!.!.&X!.j.d.<...*.<.!.c.C } /.!.c.A.!.Y.Y.!.`.`.A.j.Y.`.`.!.!.Y.Y.Y./.`.j.<...<.+.j.j.r.G.`.Y.!.Y.G.!.`./.Y.A.j.<.<.V.Y.V.G.G.!.#X/.c.c.!.Y.G.j.<.<.*.3.d.d.r.3.<...7.j.!.!.!.!.! z V.!.j.j.A.V.!..XY.!.A.3.<.3.3.c.j.Y.j.p.j.c.G.p.j.j.j.j.7.<.3.j.j.j.p.p.7.<.<.j.V.<.N ! 7...! 3.!.!.3.r.j...! j.j.V.G.j.7.r.<.<.+.<.} +.3.j.G.`./.!.V.<.c.A.d.j.V.V.V.G.!./.!.Y.A.!.!.V.3.<.j.V.j.j.c.`.A.V.!.!.c.r.A.G.j.*.<.c.r.j.Y.Y.j.j.!.!.<.( r.j.j.c.V.c.!.V.p.<.+.p.V.j.3.p.A.j.j.!.c.j.A.G.c.j.V.!.!.!.p.<.r.r.r.p.+.! ! 7.p.j.G.j.j.j.<.7.c.d.<.<.d.j.r.d.p.j.c.1.7.<.<.3.<.*.7.r.*.*.j./.#X`.A.d.d.A.!..X&X&X!.<.! R ! j..X!.G.Y.d.7.j.j.p.7.d.j.p.p.j.A.Y.!.G.7.p.d.j.j.d.j.d.j.p.d.A.!.c.7.<.3.p.3.3.<.<.p.V.j.j.d.p.p.3.d.7.! 7.p.3.3...+.<.j.3.*.<.<.3.d.d.j.!.!.Y.Y.!.",
"!.!.Y.c.j.j.j.Y.!.A.j.p.d.c.c.d.r.d.7.r.p.r.d.p.j.c.G.j.<.<.7.c.G.A.V.V.V.V.A.Y.!.!.!./.Y.V.!./.!./.!.G.E.Y.V.Y.(.!.!..X`./.;X;X;X&X!.Y././.!./.#X&X/.V.j.j.j.d.c.Y.Y.G.!.`.!.!.#X;XA.p.c.A.j.7.p.j.!.!.V.A.Y.Y.V.!.!.!..X.X/.!.V.Y.!.c.j.G.Y.j.c..XA.7.+.3.j.p.<.7.j.A.j.3.<.r.<.d.p.<.+...<.A.Y.G.3.c.V.<.c.A.#XZ.<.3.!..X!.c.c.G.!.`.#X&X;X;XG.Y.;X#XY.!.A.V.Y.!.G.p.d.j.j.A.j.j.r.3.r.Y.;X&X,X;X.X`.`.`.Y.j.A.! } V.Y.G./.;X.X3.j.#X`.A.c.A.j.V.Y.V.j.c.V.j.j.p.<.d.7.j.j.p.<.<.V.d.} N ! A.c.V.c.V.G.j.r.c.<.R 7.3.c..X!.A.`./.j.! p.V.j.!.;X;X`.`.p.Y.#X!.G.j.7.j.Y.G.j.j.Y.A.!.;X#X!.j.7.d.G.A.j.j.d.A.V.r.j.p.7.<.r.V.c.3.<.<...7.j.A.<.! ! ! 7.!.G.r.<.<.7.j.G..X.X!.!.`.&Xc.p.d.! J <.c.#X!.<.p.!.V.3.G..X`.!.!.!.!.j.j.G././.!.!.!.Y.j.G.!.r...+.p.p.Y.j.7.Y.&X#X/.j.j.Y..X!.V.c.j.<.*.r.p.d.c.A.A.V.p.<.r.V.G.A.j.<.d.<.<.d.j.V.c.d.*.<.<.j.!.G.Y.<.! Y.!.G.A.!.!..X<X&X&X!.j.j.c.A.Y.c.j.r.<.p.j.c.3.j.j.7.p.r.<.p.c.!.G.r.3.p.r.<.d.j.<.J ( 7.<...r.d.j.j.!.Y.<.<.r.j.V.V.7.( } } } ! *.+.*.<.G.#X!.j.j.!.A.j.j.c.j.j.c.j.V.!././.Y.A.A.!.!.A.j.j.d.d.j.j.!.G.V.j.V.j.p.G..X&Xc.7.r.} *.d.d.<.+.j.!.j.} 3.j.j.A.V.j.Y.G.j.j.V.Y.j.j.3.p.j.7.A.;X!.3.V.`.G.d.c.!.Y.!.j.<.<.<.<.<.! D U r.Y./.!.c.j.j.<.j.!.j.<.3.j.j.r.j.j.V.c.7.r.<.r.d.7.<.3.p.7.<.j.!..X`.V.p.d.j.V.Y..X#XV.*.! } ! j.!.j.3.<.! +.p.c.j.j.j.c.j.p.d.c.G.Y.j.<.3.j.j.j.3.j.j.j.j.A.!.!.c.r.3.r.d.<.<.<.<.p.c.d.r.j.c.A.j.p.3.*.j.j.j.j.<.<.*.<.} +.j.j.p.j.j.p.j.c.c.j.c.",
"j.d.j.p.7.<.<.r.Y.G.c.p.7.d.j.p.7.7.r.j.p.<.3.r.j.j.A.j.<.<.<.j.!.!.G.A.c.c.V.G.!.A.!..X`.Y.!.!.!.!.!.!.Y.j.j.c.!.!.!..X.X`..X#X#X;X/.Y.!.Y.L.&X.X.X!.j.p.p.j.d.A.!.!.G.!..X.X!.!.`.Y.c.G.A.j.p.7.p.c.A.A.!.!.!.A.!.!.!.#X;X#XY.j.G.!.Y.!.;X;X!.V.`.Y.p.*.<.j.r.3.<.3.7.*.} <.r.<.7.<.! ! U R <.d.c.3.c.V.3.j.G.j.r.} <.V././.A.V.V.V.G.Y.!.`.!./.!.#X#X`.`.!.G.Y.Y.V.7.r.j.j.j.7.d.7.<.3.A.;X#X#X&X;X&X`.!.G.j.#X3.<.c.A.G.!.A.,XY.A./.`.`./.Y.G.G.G.j.j.V.G.j.j.V.7.p.<.7.d.j.7...7.7.<.<.A.;X!.A.j.c.G.G.j.j.j.3.c.d.G.&X#X!.;X;X!.<.j.G.Y.;X#X&X!.#XY.Y.j.3.G.!.!.A.V.c.c.A.!.V.A.!./.!.Y.j.j.`./.Y.G.V.V.d.r.j.j.7.<.p.Y.!.r.3.7.<.r.3.&X#X*.R ! <.j.j.p.7.3.<.r.c.(.!.j.c.`..XG.G.`.j.3.A.G.`.`.!.!.A.7.*.c.`.#X!.A.A.!.Y.G./.`.!.Y.!./.!.c.j.c.j.<.+.d.G.!.j.7.V.!.G.A.d.d.!.;X!.c.!.!.p.7.j.c.A.A.A.A.j.7.<.7.c.j.3.3.j.V.7.<.d.j.j.d.7.j.<.} 7.V.j.j.p.j.Y.V.A.c.G.!.`.#X.X/.G.A.G.A.Y.!.V.p.d.d.j.c.d.r.p.c.p.3.d.j.j.A.!.!.j.p.j.j.d.*.<.<.! ! ....<.<...*.3.A.A.<.7.+.<.3.p.<.R ! ( } ! ....*.} 7.A./.d.7.!.G.7.j.G.j.c.c.j.j.Y./.`./.!.Y.!./.Y.a.3.d.j.d.<.j.j.c.3.d.c.j.V.!.;XY.d.! J ! *.<.+.<.c./.N.7.r.c.A.G.G.j.c.c.j.G.`.!.j.j.j.j.7.+.j./.A.! <.G.!.j.p.j.j.j.7.<.<.7.<.<.*.D D <.c.Y.A.p.7.j.j.G.!.7...<.3.d.3.p.j.V.j.7.r.7.7.r.3.<.p.j.j.7.p.c.!.!.j.r.j.A.j.j.Y.!.7.R C ( ! <.r...} +.! ..d.V.V.c.c.V.j.d.j.j.p.r.<...<.j.c.d.<.j.V.A.A.!.!.!.j.7.3.r.p.3.7.r.3.3.p.3.<.j.V.!.G.j.d.r.j.j.j.V.j.j.3.7.+.*.V.A.j.j.7.*.<.7.p.a.j.",
"<.<.7.<.<.<...*.j.j.j.r.<.7.j.j.r.<.3.V.c.3.r.j.j.j.V.j.p.r.d.G.!.!.!.Y.Y.Y.!.!.!.A.!..X.X/.!.!.!.Y.A.!.!.d.r.c.G.!.`..X#X.X/.!.!.#X#X/.!.V.V..X.X`.Y.j.j.j.c.j.Y./.!.A.!..X.X`.!.!.V.j.c.c.j.A.<.<.3.d.V.!.`.!.!.`././.`.&X;X/.A.G.A.j.c..X;X.X!.`./.c.r.j.G.c.j.r.r.3...<.r.r.d.j.r.<.7.<.<.p.<.7.7.j.A.j.j.V.<.3.<.7.V.!..X/.A.j.d.d.j.A.Y.A.!.G.!..X#X#X`.!.`.!.!.j.r.7.a.+.<.j.j.j.j.!.;X.X.X&X;X.X!.`.`.G.V.V.!..X/./.`.!.;X;X/.!.#X,X,X&X.X!.!.!.!.G.j.<.d.Y.3.*.<.7.<.3.<.<.j.7.r.c.#X5X;X!.!.!.G.!.Y.c.V.j.G.j.Y..X&X.X.X&X.XM.A.A.!.#X/.;X!.A.<.<. ...c.A.Y.!.Y.j.j.!.!.j.r.j.!.#X;X`./.;X/.A.V.G.A.j.d.p.7.....3.r.d.j.p.p.<.<.( .X;XV.*.<.p.<.<.j.d.7.3.p.G./.!.j.7.!.!.!.`.;X/.G.!.!..X.X/.`..X`.Y.A././.!.V.j.!.`.!.`.!.A.V.!.`.!.!.A.A.V.<...p.!.`.j.3.p.r.7.j.c.7.j.V.<.*.c.A.*...d.A.Y.j.r.j.j.j.7.r.j.3.+.7.G.d.3.<.j.c.j.V.j.j.d.<.d.A.G.V.V.G.!.G.G.j.c.!.!.`..X`.Y.Y.!.c.j.p.d.p.c.c.d.j.<.7.<.V.V.j.V.c.j.j.d.j.r.r.d.p.d.<.3.7.*.<.7.<.3.r.d.j.3.<.<...<.*.+.+.7.<.! ! +.} ( ( } <.! ! <.j.j.j.E.A.V.`./.c.V.c.j.V.Y.!.!.G.G.!.`.!.c.d.j.j.G.j.<.d.j.c.7.7.V.c.A.!..XA.r.! R ! ! ! *.7.c.j.3.j.V.!.&X`.#X!.A.V.c.j.j.V.Y.Y.!.V.<.( <.3.<.( <.j.Y.j.r.d.j.p.r.p.d.j.*.<.3...! } 3.j.A.d.<.r.r.V.G.p.<.d.j.j.<.3.j.G.A.p.3.j.p.7.3.3.p.j.d.j.V.Y.!.Y.p.7.c.G.c.c.Y.c...C D <.*.3.<.! R T n } j.V.c.j.d.c.j.d.j.c.r.7.p.3.3.j.c.d.<.V.Y.!.!.!.!.G.j.7.r.j.j.p.p.j.r.7.p.r.r.r.j.!.Y.V.j.j.j.V.j.G.Y.j.<.r...<.c.c.j.d.*.( <.r.j.p.j.",
"<.r.d.7.7.p.3.3.j.j.j.3...<.j.j.j.7.<.V.!.V.V.G.G.V.A.j.d.d.d.V.c.c.c.V.Y.!.!.!.!.Y.!./.!.`.`..X/.Y.V.!.!.j.j.!./..X`.Y.!..X`..X!..X.X/.!.A.V.!.!.!.c.d.j.c.c.j.c.!.!.Y.!./.!.G.!.c.d.d.c.V.j.j.<.<.r.j.A.!..X!./.#X`.`.!.!.,X;X`./.Y.V.A./.&X&X#X/.!.V.p.j.!.!.!.j.p.3.<.p.c.j.3.r.3.p.d.p.c.!.3.<.3.r.j.j.3.7.+.p.j.j.A.Y./..Xc.7.r.d.j.V.A.A.c.A.!..X.X!.!.!.!.G.!.c.7...<.! <.V.!.!.!./..X!.Y.#X,X.XG.Y.!.c.j./.;X&X.X.X`.!.#X;X`./.&X;X;X;X&X/./.&X#X!.j.<.j.&Xc.<.d.G.r.<.*.j.!.d.G./..X;X/.j.!.Y.j.A.L.c.j.j.V.j.Y./.;X;X.X#X;X`..X/..X`.#X/.V.G.p.7.+.<.p.j.d.d.j.c.V.G.Y.j.3.d.Y.#X;X.X/.`.G.c.j.A.j.j.j.j.V.d.p.d.3.p.r.r.r.*...+./.!.Y.<.<.7.*.3.j.p.7.p.V..X#X/.G.3.A.G././.!.!.Y.!.`.!.Y.!.!.#X;X.X!.!.Y.Y.V.j.Y.!.!.!.Y.c.V.!./.!.`.!.A.c.7.7.d.G.A.p.3.7.3.<.d.A.j.j.7.} } j.c.} J <.d.V.j.<.r.3.3.<.r.p.<.<.d.c.j.c.r.r.r.j.!.Y.<.d.p.3.7.A.G.!.G.#X`.G.3.p.j.j.!.!.!.V.c.j.<.! r.j.j.j.p.7.p.<.*.<.d.A.!.!.V.A.G.p.j.j.c.A.c.V.<.r.<.! 7.A.3.! ..3.j.+.! } +.p.p.7.<.r.p.*.....( ..( +.j.<.*.3.<.p.A.Y.A.c.!.Y.A.c.j.c.A.Y.A.c.!.!.!.!.V.p.r.d.j.G.Y.G.G.r.p.<.<.j.A.!./..Xc.3.*.*.<.<.3.j.j.j.*.! r.j.A./.G.`.&X/.!.!.A.d.j./.!.!.j.<.<.3.*.....<.p.j.j.j.A.!.c.c.A.j.j.! ( ( *.+.<.p.c.G.c.7.r.<.7.j.r.<.<.p.j.p.d.c.V.c.j.d.j.r.r.p.7.7.d.d.!.!.!.Y.c.p.d.A.Z.c.c.V.r.U N ! <.3.p.7.<.( Y N } j.c.j.7.3.j.j.<.j.A.j.j.R.c.d.j.j.j.7.A.Y.!.!.Y.Y.A.j.j.c.G.Y.c.j.j.j.j.j.j.d.j.A.Y.Y.G.V.j.j.G.j.j.c.7.} 3.( <.r.j.c.j.<.} 3.j.j.r.r.",
"<.p.j.d.j.c.c.!.G.V.c.p.+.<.j.V.c.V.d.j.!.!.!.`.!.Y.Y.c.d.d.p.j.V.j.p.p.c.!.!.!.Y.Y./.!.Y./.!.G.Y.A.j.A.!.j.A.!.#X&X!.j.j.`.#X&X.X`./.!.!.!.Y.!.G.V.j.r.p.j.j.r.c.!.!.Y.!.!.V.j.c.j.j.j.G.A.<.+.r.j.Y.!.G.!./.`.!.!.!.!.j.d.#X;X!.!.!.!.!.!.`.;X/.G.j.j.<...G.V.V.j.<.<.3.r.p.j.r.<.<.j.j.j.!.#XY.j.j.j.j.j.7.<.<.p.d.j.j.c.!.&XY.d.V.G.c.j.j.j.j.A.!.`.`.!.!.!.!.G.!.G.j.<.j.7.d.Y.#X.X`..X!.j.p.!.;X#XV.j.V.d.p.G./.!.!..X#X/..X;X#X;X;X;X,X;X&X!.!././.!.c.p.Y.7X/.3.7.G.d.p.A.G.E.j.`.#X.X;X3.*.j.d.<.j.c.j.p.p.d.j.!.!.;X5X;X;X;X;X,X;X;X&X#Xr.j.&X!.`.c.c.j.A.j.3.p.G.Y.A.Y.j.d.j.Y././.!.!.!.A.G.A.V.7.3.j.A.G.G.j.3.<.<.<.7.p.7.<.j.;X`.<.( } <.<.r.j.7.<.<.j.#X!.d.G.j.A.A./.!.!.!.!./.`.!.!.#X`.!.#X!.!.G.V.G.G.V.!./.G.G.V.j.V.!.!.Y./.`.A.j.j.j.p.d.<.3.7.3.<.<.3.d.c.7.<.+.! <.r...<.p.p.A.!.c.c.p.p.3.j.c.p.r.j.p.j.j.<.+...7.!.!.j.G.A.r.<.A.Y./.&X5X;X.Xj.j.V.G.Y.!./.!.G.V.<.R 7.7.<.<.+.<.7.<.p.7.<.d.!.G.A./.!.d.j.p.j.!.V.j.j.V.<.( j.`.d.( +.3.V.j.p.j.r.d.A.A.p.r.d.d.p.3.<.<.*.*.j.7.7.7...+.j.A.V.r.j.V.A.V.c.j.j.j.j.j.!.Y.A.j.j.j.j.j.d.V.Y.!.G.<.7.3.r.A.!.`.!.!.d.3.p.<.r.j.p.<.! ! *.! +.<.d.p.*.j.#X`.`.#X&XG.p.Y.V.j.p.3.r.d.<.<...<.3.7.d.j.c.!.j.j.N.p.p.} <.} ( ..<.d.j.j.j.p.r.<.| ;.<.<.*.<.j.j.V.A.j.j.V.G.p.3.3.p.r.r.j.c.!.!.G.c.j.j.V.!.!.G.V.V.7.D n R +.<.u.j.j.<.! ( <.j.j.j.r.r.V.j.<.r.V.c.A.!.A.j.j.j.j.j.G.G.Y.A.G.!.!.G.A.G.Y.Y.c.j.c.j.j.j.j.j.A.!.Y.G.Y.V.j.V.j.<.<.3.<.} j.p.d.7.r.c.c.7.<.r.j.j.<.<.",
"p.j.c.j.d.j.j./.!.G.G.j.7.7.A.!.c.!.A.j.V.G.!.#X!.!.!.A.j.j.j.V.`.A.r.3.j.!./.!.V.A.!.G.G./.A.7.j.j.7.d.j.d.j.j./..X!.p.j.`..X#X/.!./..X`./.!.!.G.A.j.p.d.j.j.7.A.Y.c.p.r.p.p.p.d.j.V.V.Y.V...J p.G.#X.XA.c.Y.!.Y.A.j.c.<...G..X.X/./.!.A.j.A.`./.!.j.c.<.R A.j.c.V.7.3.j.r.*.d.d.+...j.j.7.V.!.;X`./.!.c.j.j.7.j.c.d.r.r.d.G.`.Y.j.!..X!.V.j.j.Y.!.!.!.`./.!.!./.Y.Y.j.j.} <.<.p.c./.!.!.`.V.d.7.j././.G.Y.Y.j.p.A./.!.!.`.&X.X.X.X.X;X&X#X;X.X;X`.!.Y.A.c.j.<.!.;X!.( N ..<.c.V.*.r.A.`./.`.`.j.p.A.j.d.V.j.j.j.d.r.d.G.c.!..X;X&X#X`.;X#X;X;X;XV.&X9Xc.`.!.G.j.A.A.j.j.j.j.G.A.V.j.c.G.!.!.!.&X#X!.`.!.V.3.3.p.j.<.r.p.*.<.<.3.j.j.d.<.j.!.V...7.j.d.3.<.3.3.<.( <.&Xc.( G..Xj.j.A.G.!.!.V.Y.!.!./.`.G.Y.&X!.Y.!.G.Y.A.j.G.Y.Y.G.V.j.V.!.!.Y.Y.#X!.!.V.j.*.<...d.j.3.<.<.3.d.j.7.p.r.} } 3.7.j.c.3.p.c.c.!.!.c.<.p.V.r.<.d.j.G.c.3.<.*.*.j.c.j.d.7.<.*.j.j.A.`.Y.j.G.j.r.d.G.!.!.#X#X.X.Xc.+.r.3.<.<.r.V.A.j.!.7.R ..3.<.j.!.!.j.j.<.d.!.V.7.r.j.*.( c..Xj.p.<.7.Y.!.Y.G.j.j.A.Y.r.*.3.j.V.j.3.<.+...3.<.r.<.<.<.c.j.p.<.<.r.V.G.A.d.<.<.p.A.G.!.Y.d.<.r.j.V.d.V.c.j.r.*.V.G.G.`.`..XA.d.<.<.<.} <.j.j...! <.! ! ! 3.G.j.<.j.!./..X.X;XY.3.j.j.<.r.r.3.<.*.*.<.p.p.p.j.<.*.p.3.r.j.3.p.3.j.<.! ! <.j.V.c.d.<.!.G.7.+.7.j.j.d.c.j.j.j.j.c.!.!.`.V.j.j.j.d.j.c.V.!.Y.A.Y.!.Y.G.!.A.A.!.A...C U ! ..<.b.!.r.( <.j.A.d.d.j.c.Y.j.r.p.c.c.V.!.V.j.j.h.c.c.G.V.A.c.!.!.`.!.Y.G.V.c.r.r.c.c.d.j.j.V.V.Y.A.V.G.j.d.c.d.<.( ..<.+.c.Y./.j.3.p.j.p.p.j.d.j.<.<.",
"V.j.j.d.p.r.j.!.G.j.c.c.d.j.!.!.V.!.G.d.<.p.V.Y.!..X;X!.G.!.!.!.;X.X!.Y.!.!.`..XY.Y.!././.!.A.p.p.V.G.j.3.7.j.j.A..X#Xj.r.!..X.X!././././.Y.j.r.A./.!.j.j.A.j.r.V.j.r.3.<.7.d.3.j.j.c.!.`.!.7.( i.V.!.#X!.j.V.!.Y.d.3.p.<...c.;X`.;X;X#X!.Y.Y.!.c.V.!.Y.j.d.j.7.r.r.p.d.j.r.*.<.j.j.r.d.V.j.j.!.`.!..XV.j.j.A.d.z.A.d.7.<.r.G.j.G.c.V.(.G.p.d.j.Y.#X`.`.#X.X`.!./.!.A.A.A.7.3.V.j.V.!.Y.!.V.3.V.!.G.Y.!./.!.!.!.V.G.!.`..X.X.X/.#X.X`.`..X&X;X;X;X;X.X!.!.!.A.j.G.V.j.r.! *.7.j.j.<.7.V./.A.!..X!.G.j.j.V.V.j.j.j.p.3.j.!.G.V..X/.;X/.!.&X;X,X;X;X!.;X/.h h #X!.p.r.r.j.p.j.j.c.j.j.p.j.Y.!.`.!.Y.`.`.!.Y.c.7.*.j.7.*.*.j.3.*.*.r.A.G.d.! } G.j.} !.&X.XG.<...<.7...<.Y.5X!.<.V.j.r.j.j.d.V.Y.A.!.!.!.#X!.j.!.G.!.!.j.<.! } j.!..X!.!.!.G.!.!.A.V.!.#XY.j.j.<...*.d.c.d.3.3.r.p.j.r.r.7.r.r.<.7.j.j.<.7.j.j.!.A.V.r.j.c.c.j.7.c.G.A.p.<.( ! +.! r.d.<.*.p.V.!.!.&X7.U r.j.*.j.j.!.&XA.A.A.j.j.3.<.! *.<.<.j.Y.V.c.3.! R ! R ( r.j.A.j.<.<.Y.G.v.<...} <.j.G.A.j.d.3.&X;Xj.c.<.r.V.c.A.3.*.V.!.c.r.j.<.<.3.<.<.3.7.j.G.G.j.d.p.7.V.G.c.G.<.<.c.G.A.!.c.d.j.j.j.j.<.p.j.<.( <.j.!.`.Y..X`.j.7.r.A.A.<.+.j.!.j.} j.c.( *.j.j.A.!.Y.V./.)./.#X!.j.7.3.7.<.p.7.<.d.p.7.j.A.A.A.+.C <.p.j.Y.d.d.j.G.j.r.( 3.A.!.V.<.7.!.;X/.j.p.j.c.c.Y.j.p.j.c.V.Y./.;X`.G.V.!.G.j.p.V.!.!.G.G.!.V.V.!.A.V.Y.V.j.( ! ! ! r.A.<.r.3.3.j.V.j.p.j.A.l.<.p.V.V.j.j.c.j.d.c.<.d.j.c.c.G.A.`.!.A.A.G.G.V.j.<.3.V.c.j.c.d.V.G.V.V.V.A.c.7.p.d.*.R ! <.3.d.A.A.A.V.A.c.3.<.r.7.<.+...",
"d.7.<.*.<.<.<.p.j.f.j.j.j.A.!.!.A.G.j.3.*.<.r.j.j.!.,X;X!.Q.!.`.!.!.!.`..X.X`./.`./.`.`./.`./.G.j.Y.!.A.d.p.d.j.!.!.!.j.d.Y.!.!.!.!./.!.c.+.R ( /..XY.d.p.j.V.V.c.j.j.j.d.r.j.p.j.p.r.j.!./.G.d.V.D.G.!.!.N.G.!.A.j.j.V.j.r.!.;X`.`.`.`.!.!.!.!.G.!./.Y.j.j.c.p.<.7.d.7.3.<...*.d.j.r.3.d.j.j.Y.A.V.G.j.j.V./.V.d.j.r.r.<.<.V.A.`.c.j.Y.A.d.j.G./.;X;X;X#X`..X`..X!.A.j.j.r.p.!.!.Y.!.G.G.c.p.!.!.Y.G.!././.!.A./.!.!.`..X/.!.!.!.!.!..X&X;X;X;X&X&X#X/./..X.X`.!.p.3.j.j.j.p.V.,X..U r.!.G.!.#X!.V.p.d.j.d.r.p.d.j.p.p.j.V.A./.`.;X/./.&X#X&X&Xc.!.9X,XJ e ( ;XV.p.p.j.<.j.c.j.j.j.p.c.G.A.!.!.A.G.V.j.V.V.d.7.j.j.p.<.3.+.*.3.7.j.d.<.R ! 7.<.! V.#X.XV.<.<.p.} } <.j./.!.p.<.3.<.r.r.r.V.!.!./././.;X!.V.!.G.!.!.c.7.<.<.v.!..X!.!.!.G.!.!.A.j.!./.c.d.a.<.<.<.j.j.j.j.j.c.j.d.p.d.3.<.3.3.d.j.d.d.Y.Y.j.c.j.A.V.G.j.j.j.<.p.V.G.j.p.3.r.j.3.d.j.j.r.<.7.c.c.G.V.3.d.A.G.!.j.c.!.r.*...+.j.j.r.+.r.p.<.j.Y.V.r.3.<.*...R ! 3.j.A.j.<.<.V.V.j.3.<.<.p.j.d.r.r.<...A.G.7.j.p.A.A.j.j.p.<.r.r.7.<.p.<.} *.<.7.r.G.V.A.!./.!.c.j.j.V.c.!.j.r.d.7.G.!.Y.G.!.c.7.3.+.d.G.j.<.r.j.!.j.7.V.!.A.c.A.!.G.7.<.c.Y.c.( <.7.( +.r.l.Y.Y.!.!./.!.!.!.V.p.d.c.3.+.j.c.r.j.d.r.c.V.j.c.7.+.d.d.V./.A.c.j.c.r.A.7.j.G.!.!.V.Y.Y.!.A.3.<.p.G././.c.r.r.j.A.Y.!.!.G.j.V.!.!.V.j.G.!.!.!.!.!.V.G./.!.!.!.Y.c.} J U ! j.Y.p.p.p.j.!.G.c.j.j.j.p.<.p.c.c.j.c.V.j.p.r.7.j.<.7.j.Y.A.Y.!.Y.V.j.d.j.j.r.7.j.j.j.V.j.V.Y.G.!.Y.!.A.7.<.+.! J U +.7.r.p.j.A.A.c.V.c.p.<.<.<.<.<.",
"7.<.+...<.3.7.p.d.7.7.r.p.A.!.G.V.c.j.7.*.+.<.d.<.<.c.!./..X`..X!.!./.`./.!.Y.Y.;X.X`.!.!./..X!.!.G.j.3.*.<.3.d.Y.A.V.j.j.G.!./.!.A.A.G.r.J N ( Y.A.V.j.r.r.j.c.j.j.j.V.d.<.7.p.A.p.<.3.V.!.!.Y.j.l.l.L.D.j.j.j.V.V.c.Y.!.!./.!.!.!.`.&X.X`..X.X!..X.XG.p.j.c.r.} <.7.<.<.r.r.j.!.!.j.} } <.j.G.Y.!.G.j.j.j.`.G.p.3.<.j.3.<.j.c.!.A.c.!.!.G.`.;X`.,X,X;X&X#X.X!.V.c.j.r.p.j.j.!.#X!.!.A.A.j.r.c.!.!.G.G.!././.!.!.!.!.#X&XY.j.c.G.G.!..X&X&X&X&X;X;X&X`.!.!.!.!.V.*.! *.<.3.7.!.r.f f <./.`.#X.X.XV.r.p.j.p.7.p.G.Y.A.j.j.A.!.!.G.`..X.X#X`.`.&X!.!.#X7X/.N r N V.p.7.j.7.d.j.c.j.p.7.j.c.r.j.V.G.V.d.p.j.j.p.r.c.G.G.j.j.3.<.<.<.d.7.*.<.<.<.7.! 7.V.G.j.<.*...} 3.d.d.d.c.c.<.} ..<.+.<.c.Y.!./.!.!.`.!.G.`.!.`.`.!.G.A.G././..X!.!.!.Y.!.!.A.V.!.!.j.d.p.<.<.*.<.r.j.c.V.j.p.d.V.!.c.p.j.j.A.j.p.j.!.Y.c.V.c.!.!.G.j.G.A.7.j.^.!.j.<.+.r.G.V.d.j.j.j.<.3.c.c.V.!.d.<.j.A.j.<.c.j.+.<.3...3.d.3.+.r.j.3.r.c.A.r.<.<.<.<.<.*.c.Y.!.V.7.<.c.j.r.r.7.<.r.d.<.*.<.+.} 3.d.<.j.j.A.!.c.j.c.c.j.p.d.7.j.d.<.7.j.j.c.A.j.d.G.`.Y.d.d.c.V.d.V.c.j.d.3.c.G.V.A.!.V.7.d.d.A./.A.d.j.j.A.<.! ..7.<.r.c.A.d.3.r.V.V.c.<.r.<...( <.G./.A.A..X.X/./.!.j.r.j.j.<.*.c.A.d.j.3.j.V.V.d.j.j.r.p.p.j.G.j.p.<.<.+.j.r.V.Y.!..X/./.!.G.j.3.+.<.A.`./.A.d.d.c.!.!.A.j.j.j.V.!.!.!.G.!.!.!.!.!.!.V.!.`.`.`.`.!.G...N D ! j.G.j.d.A.Y.!.G.V.A.A.j.d.d.j.c.c.j.V.Y.V.j.7.p.p...7.j.A.V.G.!.!.A.d.r.j.V.j.r.d.p.j.G.A.!.G.G.!.!.!.Y.3.+...*.} ..p.A.G.V.p.c.V.c.G.Y.j.<.} +.*.+.",
"j.j.d.<.<.<.3.d.p.7.3.<.3.j.c.j.d.d.j.j.r.<.7.j.r.( *.c./.;X;X#X;X#X.X.X`.!.!.!..X/.!.!.!./.`.!.!.j.*.! } <.r.j.c.c.c.j.j.A.!.`.#X!.G.!.!.w.+.3.V.c.Y.!.V.d.j.V.j.j.c.j.<...3.p.j.r.<.<.j.Y.!.G.j.j.V.~.!.V.j.5.7.j.j.j.Y.!.!.j.c.c.!.;X.X!..X#X#X;X&X!.d.t.j.p.*.*.<.<.<.p.j.A.G.Y.j.<.+.<.r.c.!..X!.Y.c.3.!.!.!.c.c.^.V.r.d.<.r.V.!.`.!.!.;X;X#X;X;X;X;X;X.XY.j.j.V.c.j.j.4.r.G.Y./././.G.7.<.d.G.!.!.!.!.!.Y.!.;X;X#X/.V.j.j.A.V.Y./..X.X.X&X&X#X.X`.!.V.j.j.p.p.3.3.<.7.r.`.G.<.<.!.#X&X&X/.!.c.r.r.7.<.*.<.d.7.3.7.3.j.!.Y.G..X.XY.c.j.G.!./.V.j.!./.r.k 7 <.c.j.j.j.j.7.p.r.7.7.j.j.7.j.A.j.G.Y.j.3.} ..7.j.p.7.7.d.p.3.<.<.7.y.7.p.3.+.<.<.7.j.G.c.j.p.*.<.j.r.r.3.d.A.3...3.p.3.p.A.!..X/.!.Y./.!.!.#X`.!.!.!.!./..X`.!./.!.!.!.Y.!.!.G.Y.!.G.c.A.A.p.<.p.3.p.c.A.c.j.j.j.G.!.c.r.p.j.G.c.j.c.A.A.c.j.c.#X!.j.j.!.A.<.p.!.!.j.*.} 7.j.d.j.j.p.p.7.p.c.j.V.V.<.+.c.G.p.r.A.d.<.V.!.r.7.p.<.} 3.j.3.*.r.V.<.+.*.} *.3.3.!.!.G.j.3.d.G.j.3.7.<.*.<.3.<...<.<.<.<.3.<.d.j.V.Y.A.j.j.A.Y.j.r.<.r.j.7.d.V.j.j.p.r.p.V.!.G.j.c.G.V.7.3.r.p.j.c.d.d.p.j.Y.V.p.V.A.G.Y.j.j.c.j.j.3.! ..3.*.<.j.j.3.*.<.d.r.r.<.7.....! ( j.!.c.G.!.!.!.Y.G.d.<.3.j.j.j.V.c.A.!.j.c.G.Y.c.c.G.j.3.r.d.A.G.j.p.r.<.<.3.V.!.!./.!.!.!.c.c.j.3.3.V.!.!.Y.V.c.A.!.!.G.j.j.j.V.!.!.!.!.`.!.!.!.!.!.G.!.!.!.!.!.A.G.*.N ! } p.<.<.3.G.!.!.G.A.Y.Y.V.c.A.A.A.c.j.A.!.!.V.d.d.d.<.j.j.j.A.!././.!.A.V.G.Y.j.r.r.7.d.A.Y.!.c.j.A.A.G.G.7.} +.<.<.<.j.Y.!.!.V.c.c.A.A.j.<...} } +...",
"p.c.j.7.<.<.3.j.r.r.7.<.*.<.r.r.3.7.j.G.j.<.3.j.j.<.3.V.!./.!./..X/./.#X;X#X/.!.!.!.!.!.!./.`.!.A.V.p.7.p.p.r.d.V.V.A.j.j.G.!.!.`.Y.A./.;X!.c.j.G.V.!..XY.j.c.A.j.A.A.j.<.<.d.j.3.<.<.3.d.j.c.V.j.j.j.!.~.V.a.#.+.c.A.j.c.A.!.G.c.c.!.#X`.!.!./..X&X#X`.j.<.d.j.r.<.3.r.d.j.j.c.A.A.V.V.V.j.p.p.!.&X.X.XV.! j.!.;X.X#X;X.XY.V.r.p.!.&X;X`.`.;X;X;X.X`.#X;X5X5X7XA.V.!..X/.c.<.3.G./.&X/.G.A.j.p.p.G.Y.V.V.V.V.V./.&XV.! U *.d.c.A.A.A.!.!.!..X;X.X!.!.!.!.G.V.V.!..X/.!.!.!.V.`.;X;X;X;X`./.!.A.A.c.j.r.<.*.+.} 3...+.p.<.<.G.!.!.`.A.<.*.r.j.G.!.V.j.A.j.j.3.f R j.j.A.c.j.3.<.r.p.p.d.7.<.7.d.j.V.V.j.<.! ! *.*.} ..r.j.j.p.7.3.<.7.r.7.<.<.r.<.<.d.j.j.A.!.c.V.Y.7.3.j.c.V.<.( p.V.j.d.c.j.G.!.!./.;X#X`.#X!./.!.!.!..X.X!.Y.!.!.!.!.Y.!.!.Y.G.c.G./.`.XX!.4.Y.d.p.j.j.7.d.A.c.A.V.j.3.<.d.V.Y.!.!.Y.c...D ( j.c.p.d.!.c.<.r.V.G.V.r.<.d.j.<.c.V.p.r.j.j.j.r.<.<.! ! V./.j.j.!.!.c.c.V.d.r.<.r.<.7.j.r.<.7.r.*.*.3.+.+.*.*.A.A.j.p.<.d.c.p.<.*.<.<.*.*.....<.7.p.<.<...<.j.Y.`./.V.j.!.`.A.<...+.7.7.r.p.<.r.j.c.j.c.Y.!.A.A.A.A.d.<.<.3.c.Y.d.r.d.c.!.V.7.j.!.G.A.d.7.r.<.<.<.*.r.c.r.<.d.d.p.<.<.p.r.p.<.r.( ( ! R <.j.A..X#X#X/.G.A.V.j.p.A.!.Y.c.j.!.&X!.G.!./.`./.!.A.r.<.p.G.`.!.Y.V.j.j.j.G.!.!.Y.!.!.A.p.j.Y.c.j.Y.!.!.Y.j.r.s.A.G.c.j.j.V.G.G.V.V.!.#X!.!.`.!.!.!.`.!.G.V.j.p.j.+.N C ! ..! +.3.G.A.!.!.!.Y.G.A.A.G.G.A.c.c.A.!.!.A.j.j.j.p.c.r.r.Y.!./.`.!.!.!.!.Y.j.d.p.r.p.V.Y./.V.j.j.j.j.j.r.+.+.<.<.<.p.j.A.!.`.G.j.j.d.<.*.*.( ! +.*.",
"<.r.p.7.3.7.r.d.3.3.3.<.*.*.3.p.3.3.j.G.j.<.<.r.d.3.d.G././.Y.!.!.G.G.!.&X#X/.!.Y.G.Y.!.!.!.A.d.p.V.A.V.c.d.7.p.A.A.V.d.j././.!.!.A.j.c.!.!.G.c.V.c.G.!.Y.j.d.d.p.c.V.c.p.p.j.j.<.<.<.<.<.7.p.j.p.p.j.L.j.1.7.<...j.j.p.j.G.!.!.!.Y.Y.!.`.!.Y.A.!.!.!./.j.*.7.j.r.<.7.d.j.G.c.j.!././..X;X;XY.d.!.;X&X;XY.( j.`.#X#X;X;X#X`.`.!.&X&X;X;X&X#X;X;X!.A.!.;X,X;X#X;X&X`..X;X;X!.A.A.!.&X;XY.7.r.z.c.A.Y.j.r.j.V.G.!.`.#Xc.! ! c.#X`.Y.G.A.A.G.!.`.&X.X!.!.!.!.Y.G.G.#X;X.X`.`..X!.;X`..X`.`.G.j.<.*.<.<.7.7.r.j.j.j.d.<.<.V.r.<.G..X/.G.j.<.7.V.V.j.G.A.j.Y.A.j.j.( *.+.7.#XG.<.<.<.j.c.j.p.3.<.r.7.c.j.d.7.3.<.*.<.<.<.d.!.c.d.7.r.7.<.<.3.*.} 3.j.7.+.<.<.p./.&X!.A.`.p.*.r.j.V.7.<.G.#X!.Y.!.A.V.A.c.Y./.!./..X!.`.!.!./..X`.G.c.!.!./.!.!.!.!.!.Y.c.!.;X#X&X`.3.f.<.3.j.7.<.p.A.j.V.c.j.j.r.j.j.V.Y.!.!.<.h r N ..j.j.j.Y.V.7.j.V.G.Y.j.7.j.d.3.j.!.V.j.j.d.7.<.*.3...! j.;X#XG.!.!.j.A.!.j.7.*.p.p.3.3.7.r.7...r.3.<...*.<.<.j.j.j.p.<.r.r.<.<.*.<.7.7.*.! ( <.3.d.<.3...*.d.G./.Y.j.V.!.!.j...+.+.<.3.3.<.3.j.G.V.j.r.j.!.!.G.A.A.A.p.<.<.c.Y.j.p.c.Y.!.V.p.c.!.!.!.j.3.<.! ! <.<.r.j.7.*.7.r.j.j.d.c.d.p.7.j.7...! ! 3.A.!.;X/..X!.j.p.j.c.j.Y.!.Y.A.!.`.`.!.!.!.`.&X/.A.j.r.7.r.j.Y.A.V.j.j.G.c.G.!.!.Y.!.`.V.d.j.Y.A.A.!.Y.Y.j.<.! } 3.r.<.p.V.G.G.V.j.j.V.`.!.!.`.!.!.!.`.!.V.j.d.<.p.} N J ! ! ! <.j.Y.G.!.!.!.Y.G.Y.Y.Y.A.V.A.A.G.!.Y.c.j.j.d.3.c.j.d.c.G.!.`.!.Y.Y.Y.G.G.A.c.j.j.A.!..XY.j.j.j.r.d.r.<.<.<.<.r.j.j.c.G./.G.j.p.7.7.p.p.+.} <.*.",
"p.j.p.3.3.<.<.<.<.<.<.3.<.<.3.d.j.7.r.j.j.3.<.p.p.p.j.A.#X;X/..X`.!.Y.!..X.X.X#X!.Y.G.G.A.A.j.<.*.d.j.j.c.c.j.V.A.A.A.j.A..X.X`..X`.G.c.G.!.A.M.j.V.G.!.!.G.d.r.3.p.d.V.c.j.j.p.7.7.3.<.<.<.3.p.7.i.j.D.7.+.1.7.( 7.*.+.j.V.j.p.!.!.V.G.!.Y.j.r.c.A.j.Y.V.7.j.V.j.j.j.p.d.G.c.7.G.&X;X!.`.5X;Xj.A.`.`..X`.r.Y.,X&X&X&X#X.X/./.&X,X&X`..X#X#X&X/.j.j.!..X&X7X2X#X5X;X/.#X#X!./.!.A.!.#X/.j.p.j.7.j.Y.A.j.G.Y.G.Y.G.!./.!.!.;X5X`.!.!.!.V.c.Y.!./.`././.!.!.Y.Y.!.`.`.!././.`.G.!.&X!.G.!.j.j.r.7.<.<.<.<.3.p.j.p.3.*.+.p.7.3.!./.!.c.j.d.V.!.c.j.j.d.r.j.G.p.<.7.G.<.<.`.j.} +.<.d.j.j.d.d.j.A.A.7.j.j.p.<.*.<.j.j.p.j.A.r.7.3.<.7.r.<.3.+.R ..3.<.! ! ! <.`..Xj.7.Y.j.3.r.j.G.V.7.V.!.j.j.G.V.j.c.d.j.j.j.A.!.!.G.V.!.!.!.Y.j.j.Y.!.`./.!././././.A.G..X.X.X!.<...+.d.G.j.p.j.V.7.j.j.j.j.d.j.p.d.V.Y.A.! f v ! 3.V.V.j.G.j.7.p.j.c.!.A.j.j.r.<.A..X/.c.3.*.*.( } <.*.! *.Y.&X!.j.3.<.Y.#XG.j.j.7.p.<.<.<.<.*.! j.3.! R *.7.r.j.<.<.7.*.p.p.p.j.p.<.3.j.7.....<.<.3.+.<.<.r.d.A.!.Y.V.Y.!.!.!.r.<.3.<.<.*.*.r.j.d.3.<.<.r.!.#X!.!.A.!.j.r.p.G.Y.j.<.j.A.c.c.j.A.Y.Y.Y.j.<.<.*.<.j.d.7.d.r.<.p.d.j.G.j.p.3.3.<.p.c.7.<.7.G.Y.c.!.V.!./.V.j.j.A.V.G.!.!.Y.#X.XG.A.!.`.!.!.j.r.j.j.j.j.d.j.d.j.j.j.V.j.A./.!.!./.`./.Y.Y.Y.V.V.G.G.A.j.<.( ..<.<...p.V.!.G.G.V.j.j.!.!.`.`.!.!.!.`.!.j.j.j.3.7.} J <.<.! *.r.j.G.!.!.!.Y.Y.Y.!.!.!.A.A.Y.Y.G.!.Y.V.c.j.j.7.V.c.j.j.V.!.!.!.Y.!.!.Y.Y.A.j.j.j.A.!.`.G.d.j.j.3.7.3.<.*.*.*.7.j.V.V.A.!.G.V.c.j.V.V.j.r.r.j.r.",
"j.j.r.<.*.+.+.<.<.<.<.r.r.3.7.j.A.p.3.j.j.d.d.c.p.j.j.j.!./.Y.`.!.Y.Y.!.`././..X/.!.G.G.Y.!.A.p.p.c.j.p.V.Y.A.A.Y.Y.!.A.G./.`..X/./.!.Y././.G.j.j.V.V.A.!.!.c.j.r.r.d.G.Y.c.j.p.7.7.3.<.*.<.3.p.<.>.<.j.0.<.>.! ( 3.+.+.j.j.7.<.V.!.Y.!.`.Y.p.7.p.j.d.G.!.Y..X.X.X`.!.j.j.`./.c.Y.5X&X<.} G.#XV.A.!.!.!./.j.!.&X;X;X.X#X;X#X`.;X&X#X!./.#X;X;X!.!.V.*.h h 3.V.d.`.`.c.Y.!.!.&X!.V.j.G./.!.G.G.d.j.Y.!.G.Y.A.j.A.`.!.!.!.G./.;X.X.X#X/.A.j.A.G.A.G.!.`..X`.`..X&X#X/.A.V.A.!.d.<.Y.d.j.G.3.3.p.d.j.<.<.3.r.d.j.d.j.p.<.r.d.c..X!.A.3.3.d.V.G.c.G.A.j.r.d./.A.! +.j.j.<.7.<.r.j.7.p.p.3.3.3.3.j.j.7.7.<.<.<.<.<.*.3.,.<.j.p.c.p...<.j.p.c.d.} *.<.<.+.<.*.j.;X;X!.j./.#X/.!.Y.A.j.r.d.d.*.<.j.V.j.V.j.j.j.p.j.c.c.V.j.!.!.!.!.c.c.Y.!..X`.`.`..X#X.XA.j.G.`..XY.+.+.3.A.!.c.j.c.j.7.j.j.r.r.j.A.j.r.G.!.Y.} U p.j.c.V.d.j.A.j.7.r.7.j.!.Y.c.c.d.7.A.`./.j...} <...<.3.r.7.<.p.!.!.7.3.<.j.V.j.V.!.p.j.r.p.<.U R ( d.p...( <.p.j.G.<.<.3.<.j.j.j.A.A...+.j.j.<.<.3.3...D } s.G.G.!.A.A.c.V.c.!./.j.p.j.d.3.*.*.j.j.<.} ( } +.j.G.j.!.V.!.V.j.c.!.A.r...j.c.d.j.d.j.G.j.p.*.+.<.3.r.V.j.7.j.A.j.j.j.A.V.+.} 3.V.p.7.j.j.V.Y.!.d...r.<.c./.Y.j.d.j.j.c.!.V.j.Y.Y.d.j.!.`.!.c.r.<.c.!.c.j.d.j.j.Y.Y.Y.Y.G.G.!.!.!.`.`.;X#X.X!.V.c.A.A.A.G.V.j.j.j.p.<.j.G.G.V.G.!.G.V.!.G.`.#X`.`.!.!.!.j.j.V.r.r.| ! ! ! ! j.!.Y.A.!.!.!.G.Y.Y.Y.Y.!.!.!.!.!.Y.!.!.Y.j.j.!.A.c.r.r.j.A.Y.!.Y.!.`.`.!.j.d.3.3.p.j.Y.!.c.7.j.c.3.<.<.*.} } ! *.j.!.Y.G./.!.!.`.!.Y.j.3.7.j.!.j.",
"j.d.a.j.G.j.7.j.d.<.r.r.j.c.V.p.3.3.j.j.j.d.p.!.j.Y.A.j.r.j.G.`.!.!./.`..X`././.Y.Y.A.A.!.Y.G.Y.G.G.G.G.A.G.!.!.!.`.!.!./..X`.#X!.Y.!.!./.!.A.c.d.j.!..X`.`.!.c.p.j.j.j.j.G.Y.j.j.j.d.<.<.r.j.j.0.<.#.<.<.<.<.| +.d.r.7.j.j.p...<.d.!.!.Y.G.r.<.<.r.j.c.!.!.;X!.`.;X;X!.A.d.r.!.#X#X&X!.n } `.#X;X.X!.G.Y.d.3.Y.#X#X;X;X#X.X#X&X,X&XA.j.;X,X!.j.V.Y.`.} 7 w C N <.j...*.V.!.;X`.Y.c.j.p.j.!.!.Y.Y.!.A.j.j.c.3.Y.`.;X#XY.Y.`.&X;X.X/.!.V.V.V.j.c.G.!.!.!.!./.`.!.`..X!.Y.`.#XG.7.( *.j.j.7.6.r.d.c.p.<.p.j.A.`.V.j.d.p.r.r.!.V.3.j.r.3.d.V.A.V.A.V.A.A.!..XA.7.3.c.V.G.<.<.p.j.V.d.+.<.p.d.d.!.j.j.r.<.3.3.<.<.<.<.+.<.3.d.A.p.+.+.r.r.<.r.7.*.*.<.} ! d.`.XX.X;X!.!././.7X#X!.!.j.V.!.j.j.!.!.A.G.j.V.c.c.j.p.d.j.p.j.!.!.!.!.!.!.!./.#X`.!..X/.!.G.3.+.j.!.p.( 7.r.A.!.c.j.j.p.3.d.V.d.j.j.G.Y.d.G.`./.!.!./.!.!.j.p.p.V.!.A.j.d.V.V.j.j.r.r.j.!./.j.3.<.<.<.p.!.c.j.j.j.A.Y.G.j.c.j.<.c.`.j.j.c.p.j.p.r.3.j.7.j.j.7.j.G.j.A./.Y.!.j.3.j.j.<.<.j.} ( 3.3.<.<.3.*.( ! *.j.j.Y.!./.Y.V.j.c.Y.Y.A.`.!.A.3.V.p.j.j.3.<.<.j.V.A.*.D +.j.Y.V.j.V.G.!.c.<.<.d.p.p.d.7.d.c.r.7.<.p.j.j.!.V.j.G.!.!.j.A.!.V.<.! 7.Y.c.<.7.j.!.!./.d.A.!.j.j.c.c.V.j.d.c.7.j.p.7.G.!.t.r.c.!.j.d.j.j././.p.j.c.c.V.!.#X/.!.Y./..X!..X!..X&X/./.Y.r.r.V.Y.!.!.!.!.V.V.A.V.j.j.V.G.G.!.!.!.!.!.!.!.!.!.!.!./.A.c.G.A.r...! } 3.V.!.Y.A.G.Y.!.Y.!.!.!./.!.!.G.!.!.!.Y.!.!.G.d.j.c.V.d.7.p.c.V.!.!.!.Y.!.!.A.j.7.<.+.<.j.j.c.p.3.j.c.<...+.( J J ( 3.j.A.G.A.!./.`.`.`.!.c.3.+.<.d.j.",
"j.j.j.c.!.G.V.!.7.*.r.7.7.r.j.j.<.d.V.j.j.V.A.!.Y.!.G.V.V.j.j.V./.`..X.X.X#X.X/.j.j.j.j.G.`..X.XY.G.G.G.Y.Y.!.!././.!.!.!.`.#X&X&X#X`.!./.!.V.r.j.A./..X!.!.!.Y.G.G.A.j.j.A.!.A.j.V.C.j.d.d.d.p.7.>.>.1.7.1.<.+.*.p.p.j.j.j.p...+.7.A.A.V.c.3.*.( *.p.c.!.!.!.j.V.&X;X!.A.d.<.j.;X#XA.#XY.d.7.!.!./.!.j.j.d.7.j.!./.#X&X#X#X&X&X5X,X#X.X;XG.c.d.7.c.;X;Xd.<.p.p.j.Y.p.j.Y.!.!.7.3.j.j.r.r.j.`./.V.c.c.V.G.G.7.A.!.&X;X/./.#X&X&X!.Y.G.V.A.V.p.p.j.V.A.!.`..X`..X#X&X/.!.#X;X!.j.+.*.r.d.p.j.j.c.!.c.r.j.c.V.!.j.d.j.A.G.j.!.c.<.j.j.d.r.p.j.c.c.3.d.A.!./.!.!.#X!.!.#XY.j.<.7.7.!.j.<.<.3.*.r.r.<.r.j.d.j.j.j.p.p.<.<.<.7.p.<.! <.r.<...<.3.7.r.<...! *.j.!..X;XY.G.!.!..X.X.X!.j.d.G.j.<.j.Y.c.c.j.G.V.j.j.d.c.j.d.j.A.A.Y.`.;X&X#X!./.#X.X`.!.`..Xj.<.j.!.Y.j.V.V.!.!.c.j.c.j.p.d.c.V.Y.j.j.r.j.A.Y.Y.Y.Y.!.!.G.j.j.j.A.Y.j.d.j.V.j.7.<.r.j.G.!.#XV.<.3.j.G.G.!.V.A.c.V.!.A.j.7.j.Y.c.j.A.A.!.j.3.r.7.d.c./.!.Y.Y.j.j.c.V.G.A.!.!.V.p.j.c.r.d.j.7.r.j.r.<.<.*.7.7.r.r.p.<.j.V.`.!.G.j.d.j.V.A.!.!.Y.p.Y.V.V.c.r.7.<.d.j.A.7.....7.j.c.d.r.d.j.j.<.7.j.r.<.3.<.3.d.7.g.j.G.!.G.!.!.Y.V.j.!.A.Y.V.c.p.7.j.V.p.<.3.j.A.d.j.3.j.j.d.V.Y.A.j.p.p.j.j.j.j.j.A.A.d.j.j.V.d.d.j.c.!.G.V.c.c.c.V.!..X/.Y.!.!..X!.!.G.!..X!./.!.j.p.v.G.Y.G.G.A.j.c.V.j.!.!.G.j.j.V.G.!.`.!.!.!.`.`.`.`..X!.G.G.j.*.( ..7.j.!./.!.!.!.!.!.!.!.!././.!.!.Y.!./.!.!.!.!.A.j.V.V.h.p.<.*.+.j.Y./.!.A.V.V.c.7.<.+.} 3.V.V.j.r.3.c.!.j.<.*.( U C R +.7.j.Y.!.^./.`.!.Y.!.Y.d.<.+.<.j.",
"S.A.c.j.G.!.!.!.*.! <.<.+.+.7.j.j.j.G.c.V./.`.!.!.Y.c.V.Y.c.d.d.G./..X.X.X.X/.!.j.j.3.<.c.`.#X.X!.!.Y.Y.!.!.!.!.`.!.!.!.!./.;X;X&X&X/.!./..XG.7.d.V.!.!.!./.`.!.!.!.Y.j.d.c.G.c.d.l.C.V.j.a.7.1.<.+.<.i.a.i.5.<.<.p.j.c.V.V.j.3...<.d.j.V.V.r.*.+...<.7.j.p.d.<.7.G.Y.j.j.G.G.`.&X;Xj.Y.5X/.! } r.!.`.V.c.Y.A.A.j.j.G..X;X;X;X,X,X;XG.!./.p.j.d.! r.!.,X;X/.!.&X`.#XY.!.!.G.V.} ! d.7.<.+.<.!.Y.d.7.p.A./.!.d.!.L.`.`.!./.&X;X;X!.!.Y.A.Y.Y.j.d.V.V.j.V.!.!.Y.!.j.#X;X#X;X;X!.d.<.+.<.7.d.A.G.Y.`.G.p.c.A.A.!.A.3.p.!.`.j.A.V.j.j.Y.Y.d.7.j.V.j.d.r.j.A./.#X/.&XG.!.`.`.c.<.j.7.A.#Xj.3.j.7.<.....p.c.A.!.!.Y.!.j.*.+.<.<.7.<.( <.3.3.3.3.7.r.p.<.+.<.d.A.A.c.A.j.A.!.Y.Y.!.`.A.<.<.c.c.<.p.P.A.j.c.G.c.j.r.3.p.j.j.V.V.j.V.!./.#X;X!.!.#X`.!.G.!.#XG.<.r.G.Y.V./.!.!.A.d.j.c.j.V.d.j.V.!.c.j.j.V.Y.G.A.Y.V.j.c.G.V.V.j.j.j.r.3.p.j.j.r.3.j.c.d.p.G.j.3.p.G./.A.j.A.!.!.!..X!.j.c.A..X.Xj.d.c.A.<.} *.+.7.V.#X`.`.`.!.A.j.j.j.p.G.Y.A.j.j.j.t.r.<.r.j.j.3.3.3.+.} +.*...*...r.d.V.!.V.r.r.d.j.j.G.A.G.r.G.A.j.p.<.d.r.r.<.r.7.7.<.3.j.V.j.7.p.c.p.<.7.j.r.<.<.7.d.j.p.V.c.!.!.A.V./.`.G.j.G.G.!.j.j.c.Y.!.G.d.p.p.j.j.r.V.j.c.j.p.V.G.A.j.p.r.j.j.G.!.c.j.A.c.j.j.V.j.c.A.c.A.A.j.j.j.j.j.c.G.G.!.`.!.#X/.!.Y.Y./.!./.!.c.j.A.!.G.Y.!.G.j.j.V.c.!.!.G.j.V.G.!.#X`.`.!.`.`.`.`.#X.X!.!.Y.p...+.r.c.Y./.`./.!.!.!.`./.!.!.!.!.!.Y.Y.!.`./.!.!.Y.A.V.G.j.p.j.j.p.7.7.V./.!.A.j.c.G.j.p.7.r.V.!.G.c.p.*.7.c.j.7.3.<.} J R +.*.7.c.V.A.A.!.!.Y./.!.7.<...<.j.",
"j.V.j.j.j.G.G.V.( J ( <.<.7.j.j.V.d.j.G.!..X`.Y.!.c.r.p.V.A.j.j.j.G.!.!./.!.G.G.j.p.<.<.V./.`.`.!.!.!.!.!.!.!..X`.!.!.!.Y.!..X;X`./.!.!.`..X!.j.j.c.Y.Y.Y.!.!.c.G.!.!.A.j.c.j.r.3.0.r.p.7.<.*.*.+.] >.a.j.j.a.0.p.d.c.A.c.c.A.V.7.7.r.j.A.Y.j.4.+.( ( +.3.<.7.<.3.j.d.3.p.!./.&X.X5XG.j.!./.<.! p.G.&X`.Y.Y.Y./.!.c.A.#X;X`.`.,X;X;X!.A.`.Y.V.r.J 7.G.!.`./.!..X.X;X/.!.!.!.!.j.+.r.3.<.<.j./.Y.j.7.r.A.!.V.d./.j.G.G.A.!.&X;X;X#X/.!.A.G.Y.V.V.!.Y.G.A.G.!.`.!.V.#X`.r.r.G.A.3.3.<.<.7.j.G.!.!./.A.7.j.A.V.!.!.j.c./..X7.p.A.!.V././.V.j.G.V.r.d.d.A.!.#X/.G.;X&X`.Y.A.3.*.G.<.! `.!.!.,XY.r.r.j.c.!.#X&XG.p.A.j.<.+.<.<.7.3.+.( ( <.p.p.3.<.7.! ! <.j.c.j.r.3.3.!./.G.Y.Y.j.*...3.j.c.j.j.j.G.j.V.J.c.j.d.7.7.r.p.j.A.A.G.A.j.G.;X&X/. X`.!.Y.G./.Y.j.j.A.V.j..X.X!.j.7.p.j.V.j.j.V.G.!.j.c.c.p.A.A.A.!.Y.j.c.!.!.!.A.j.j.p.d.p.p.j.p.r.V.A.r.3.j.j.V.G.!.`.c.*.j.!.G.Y./.Y.V.`.A.Y.`.!.V.A.j.<.+.<.<.p.G.`.Y.!.!.!.!.G.j.p.d.c.c.V.c.j.j.p.<.} <.c.c.3.<.<.<.....} ! *.<.r.<.d.Y.c.t.j.j.j.j.G.j.j.<.j.j.r.3.*.r.<.<.( *.3.r.p.r.j.V.j.j.c.G.j.7.r.j.p.<.*.<.j.j.j.G.V.!.`.!.A./.#X`.G.j.p.j.d.j.j.A.Y.j.r.p.d.7.3.r.j.7.j.G.j.c.j.j.j.d.7.<.d.!.!.j.j.!.!.j.d.c.j.j.j.3.d.c.j.c.V.c.j.d.j.j.!.#XY.`./.!.!.Y.Y.A.Y.!.c.j.A.!.G.!.`.!.c.j.j.j.!.#X!.G.!.!.!.#X`.!.!.`.`.`.`.#X.X!.!.!.c.7.p.Y.Y.!.!./.!.!.!././.!.Y.Y.!.!.Y.G.Y.!.`./.!.!.!.G.G.G.j.r.j.j.j.j.p.A././.A.j.V.!.A.j.j.V.!.!.V.Y.p.( ( 3.r.7.3.<.! D ! <.<.r.G.G.G.A.G.!./.!.j.*.} *.<.d.",
"j.j.j.j.j.A.V.d.3.*.7.j.j.A.c.j.c.7.r.A.!.!.!.Y.!.A.d.r.c.!.!.Y.A.Y.!.!.!.A.c.Y.j.3.<.d.!.`./.`.A.!.`.`..X/./.#X#X.X!.Y.G.V.A.!.#X`.!././.!.Y.c.j.j.V.V.V.!.!.G.G.!.!.A.c.c.j.7.<.<.<.<.<.*.+...] ! #.p.j.N.l.l.j.j.A.V.j.d.j.V.j.j.j.j.A.G.c.p.*...+.<.3.+.<.*.<.j.V.Y.G.`.!.!.!.!.A.c.r.r.3.p.c.j.V.!.G.j.j..X/.V.A.`.`.!./.;X/.5X5XA.!.!.j.7.3.j.Y.!.!.!.!./.`.;X!.A.G.A.A.j.<.*.<.3.d.Y.`.`.A.p.7.j.V.p.<.j.r.j.c.G./.#X`.!.`.!.!.V.j.V.V.V.!.!.!.Y.c.!.#X!.&X5X!.R k D 3.V.j.r.j.j.j.Y.!././.Y.r.j.A.j.A.V.j.j.Y.!.<.<.A.#XY.!.Y.A.Y.!.V.<.7.p.j./.5X!.p./.;X;X.XG...U G.j.D *.! j.wX`.d.G.G.A.!.;X;XV.<.d.c.3.<.3.<.7.r.*.! } <.<.3.p.j.j.*.+.2.<.*.r.r.<.<.!.`.!.!.!.c.+.<.d.j.A.A.j.j.c.j.V.c.j.c.c.c.c.j.r.d.A.!.!.c.3.r.#X&X!.!./.!.!.!.!.Y.A.Y.!.V.j.#X&X!.j.3.7.j.G.c.c.A.j.c.d.j.j.3.V.G.V.G.G.j.V.V.V.Y.A.c.j.p.p.j.3.p.c.A.!.!.j.3.r.r.Y.`.!..X!.<.j.!.A.Y./.!.!.;XG.j.A.!.G.j.r.7.<.d.7.j.Y.!.A.j.G.A.A./.!.j.c.j.j.j.j.c.V.j.7.<.7.A.!.j.+.+.7.7.d.r.<.7.r.p.} p.Y.j.7.7.<.p.j.Y.d.r.<.j.j.p.j.d.j.<.<.3.j.V.j.d.7.r.p.p.j.V.V.d.<.7.j.j.r.<...c.Y.G./.A.!.`.!.L.!./.`.!.d.7.d.d.j.j.j.d.<.<.<.<.<.p.V.V.*.<.M.j.j.7.r.d.7.<...7.G.V.r.j.!.!.j.d.j.j.j.d.<.r.j.G.G.A.V.j.j.d.d.V.!.p.V.Y.Y.!.A.c.c.A.G.j.j.j.j.!.`.`.!.A.c.j.7.G.!.!.G.!.!.!.!.!.!.`.`.`.`.`.`..X!.!./.!.V.V.!.!.!.!.!.!.!.!.!.!.!.G.G.Y.Y.Y.G.Y.!.!.!.!.!.!.!.G.G.V.c.c.j.p.j.V.!./.!.A.j.V.Y.V.j.j.j.j.<.*.c.7.} ..7.7.<.*.} ! ! } p.d.j.!.Y.!.!.V.V.A.<.! ( +.<.<.<.",
"V.c.V.c.j.V.V.p.d.j.!.!.A.!.c.p.A.A.c.c.j.j.A.Y.!.!.A.c.Y.`.!.!.`.#X/.Y.G.c.V.!.c.r.3.c./.!.V.A.c./..X`..X.X`..X.X#X!.G.Y.V.c.!.&X`.!.!.!.G.A.A.j.V.Y.A.j.c.!.!.G.!.A.p.7.p.p.7.<.<.<.<.<.1.<.+.} } <.7.g.N.C.j.j.c.A.c.j.7.<.p.d.j.j.j.c.V.Y.G.r.3.3.3.7.+.<.*.*.7.V./.A.!.G./.G.p.7.d.3.<.<.d.j.<.<.c.!.j.7.!.7.<.j.!.Y.Y././.<.V.&Xc.!.;X/.!.!.r.r.Y.G.j.c.Y.Y.`.V.j.V.j.7.*.*.R ! *.<.j.G./.Y.c.j.j.A.d.<.<.p.j.V.A.!.!.Y.G.Y.Y.!.A.j.V.c.c.A.G.!.Y.j.Y.!.j.j./.#XG.3.<.j..XG.V.Y.G.V.!.!./.!.!.j.V.!.V.V.c.d.j.A./.j.j.!.&X!.G.j.c.!.!.c.<.!.!.Y.;XqXY.<.j./.!././.j.<.!.!.+.! N } Y.!.c.!.A.V.Y.!.!.G.r.j.r.+.+.r.p.p.j.7.*.d.j.<.<.j.A.c.j.+.<.<.*.<.<.7.<.d.j.c.7.A.#Xc.j.j.c.A.j.V.!.V.p.G.V.j.j.j.A.Y.Y.j.j.V.!.!.c.3.p././.A.G.!..X!./.G.j.j.V.A.V.c.!..X!.j.3.<.3.j.j.d.d.7.d.p.j.p.p.A.A.c.j.j.j.c.V.j.j.j.j.p.<.3.G.d.j.A.Y.!.!.j.<.<.<.G./.A.!.!.j.Y.!.!.#X&X!.`.&X!.V.j.c.j.<.<.7.+.r.<.p.A.Y.A.j.!.V.d./.#XV.c.j.j.7.r.j.j.j.r.7.r.A..XA...( 7.d.Y.!.p.r.r.j.*.j.!.G.c.p.+.3.j.G.j.3.7.p.r.p.j.G.A.3.r.p.c.G.V.p.7.7.3.<.r.j.d.<.<.7.c.F.c.7.*.c././.#X!.!.!.`././.!.G.Y.j.d.r.<.j.V.j.3.+...<.7.3.7.c.Y.d.7.7.7.r.<.<.7.<.<.3.j.j.3.<.j.j.p.r.j.j.j.j.c.j.d.j.V.j.d.p.j.c.j.d.r.j.} 3.j.V.A.j.c.E.!.Y.c.j.d.p.!..X!.Y.!.!.j.<.j.G.V.V.`.#X`.`.!.`.`.`.`.`.`.`..X!.!.`..X!.G.Y..X`./.!.!.!.!.!.!.!.Y.Y.!.!.!.Y.Y.!.!.Y.Y.Y.!.!.Y.G.G.V.d.7.j.A.V.!.!.!.V.c.V.G.G.c.p.7.<.! U p.<.*.<.r.<.*.*.*.<.7.r.c.j.j.A.V.A.!.V.c.j.! N +.d.p.*.*.",
"!.V.V.V.j.c.V.d.*.d.!.!.c.!.G.d.G./.Y.j.7.<.j.A.G.G.A.G./.`.!.G.`.;X.XG.V.V.V.!.V.j.d.A./.!.c.V.!.#X/.A.!./.!./.`.`.!.Y.Y.!.!./.`.!.A.j.j.c.V.V.!.!.`.!.j.r.j.V.V.A.d.*.*.<.<.<.<.<.*.*.3.d.r.<.<.<.<.<.5.j.V.d.p.j.j.j.c.j.<.7.j.c.j.c.V.c.Y.G.p.3.3.3.r.7.j.p.<.<.7.j.<.p.7.j.A.r.r.r.3.p.7.3.d.7.r.V..X!.d.V.r...p.!.j.p.G.!.v N 3.c.!.!.`.#X!.3.3.G.G.d.7.<.3.d.7.7.j.j.p.<.<.! ! +.+.<.V.!.V.G.Y.c.A.j.d.3.p.V.G.A.V.V.V.A.V.A.!.Y.A.Y.A.j.d.j.A.Y.!.!.!.!.;X&X/.!.!.!.`.;X/.!.!.^.A.Y.!.!.G.!.j.A.`././.!.`.&X#X5X#X!.`.&X/.!.A.G././.G.d.!.`./.#XG.} } 7.&Xj.j.Y.;X#XG.7.<.p.j.3.+.j.!.#XG.A.!.c.j.A.d.j.<.! ..c.c.r.j.d.<.c.V.7.7.j.p.3.p.! +.<.*.<.<.3.<.<.<.3.! <./.!.!.!.Y.A.c.!.&X!.j./.Y.c.c.j.c.c.V.d.j.A.Y.G.A.j.G.`.!.Y.G.!.#X#X!.A.j.p.d.j.j.c.c.!.!.c.r...} r.r.<.3.p.A.j.j.d.d.j.j.A.V.j.c.!./.j.j.c.A.c.p.d.&XG.j.r.7.d.V.V.p.c.p.G.!.j.j.j.A.G.G.!.#X/.j.G.!.Y.!.c.j.j.w.j.j.<.d.3.p.c.G.G.c.!.G.d.Y.`.j.j.j.j.7.3.r.r.d.7.3.3.j.Y.j.*.+.p.!..X!.<.<.p.V.7.<.r.7.j.<.J ! +.j.j.3.p.p.3.d.p.j.j.<.r.<.<.3.<.7.r.j.p.<.<.d.p.r.j.V.A.Y.V.j.r.j.!.!./.!.!.!.#X;X;X!.A.!.j.p.*.R <.d.j.3...} <.d.<.! +.d.j.p.3.<.<...<.<...7.j.G.d.<.3.p.<.3.7.j.j.j.j.c.j.d.j.j.c.j.a.j.V.c.j.7.r.( <.c.!.Y.A.A.!.!.V.j.j.j.p.Y./.!.A.!.`.G.d.G.!.!.!.!.`.`.!.!.`.`.`.`.`.!.!./.!.!..X.X/.!.!.`.`././.!.!./././.!.!.!.!.!.!.!.Y.Y.Y.G.G.G.Y.Y.!.G.A.j.*.*.p.j.j.G.!.!.G.G.G.G.c.j.7.3.p.*.! d.<.<.<.*.} ..<.<.7.j.j.V.A.j.G.A.c.Y.Y.Y.V.+.! r.V.j.+.+.",
"!.j.j.c.j.c.A.c...d.G.A.j./.G.7.j.Y.c.p.3.*.7.h.j.j.j.A./.!.A.V.A.&X.XV.c.A.V.c.j.j.j.Y.&X;X.X#X;X;X!.p.j.!.!.!.#X/./.!.G.!.#X/.!.Y.j.<.<.j.c.j.G.G.!.!.V.d.j.j.j.V.d.*.<.<.<.+.+...} ..1.j.j.3.7.7.5.<.<.j.N.a.r.j.d.p.Y.Y.r.j.!.!.j.c.A.c.c.p.p.7.3.7.j.j.V.p.7.3.3.j.<.p.*...p.<.j.p...<.d.r.<.d.j.c.#X&X!..X#X<.r.!.7.*.G.;Xj.<.G.,X/.p.!.;X#XG.G.!.Y.A.j.*.! ! ( } +.<.3.*.3.*.! ....*.Y.!.<.j.G.7.2...<.+.<.c.!.Y.c.j.j.c.j.j.Y.G.G.!.G.j.j.j.j.c./.!.c.Y.G.`..X!.!.`.#X&X.X!.!.Y.V.G.G.G.Y./.c.A.#X&X;X;X;X5X#X5X;X&X.X&X.X`./.`.&X&X!.V./..X!.#XV.<.j.A.!.j.G.G.;X.Xp.*.( <.G.V...j.G.Y.j.j.!.A.c.A.j.d.j.+.<.!.G.<.3.3.3.V.V.j.j.p.<.3.j.<.7.! R p.j.<.j.Y.c.V.*.*.j.A..X5X`.A.!.`.&X`.Y.;X`.!.`.!.A.j.j.d.c.!.G.j.j.j.A.G.G.G.j.j.Y./.!.!.!.c.j.j.V.V.d.Y.!.!.j.+.( 7.d.<.<.p.A.j.V.Y.c.d.j.!.!.j.c.!.!.d.d.Y..X!.c.c./.G.j.<.*.<.d.j.d.!.d.j.G.j.j.d.!.!.!./.#XV.<.d.A.A.!.A.V.!.c.V.V.7.j.r.r.j.j.j.j.V.Y.V.A.G.j.j.j.V.p.r.d.p.j.d.7.r.j.j.d.<.7.j./.!.r.J ( j.!.j.j.3.+.p.3.! ..<.3.j.7.j.j.r.c.d.p.d.<.d.r.<.<.%.<.7.j.j.<.*.r.d.j.Y.!.!.G.A.G.Y.G.#X!.Y.A.c.j.!..X`.!.!.&XG.j.<.! ..7.j.j.<.*.7.<.*.! *.r.7.<.<.3.3.} *.<.( 3.j.!.j.3.d.d.j.A.V.c.A.G.c.c.j.j.V.j.Y.G.j.j.d.p.p.j.j.*.p.!.;X.X/.V.Y.A.p.7.j.j.p.d.G.G.j.A.!.Y.c.!.!.`.`.!.!.!.G.!.!.`.!.!.!.!.G.!.!.`.#X.X`..X#X!.!.!.!.!./.`.`./.!.!.!.!.!.!.Y.G.Y.Y.G.A.A.A.G.G.G.!.c.<.<.j.j.j.!..X/.!.Y.G.V.j.j.7.<.j.7.! <.3.*.} ! ! ( ..( <.V.j.V.Y.V.!.Y.j.c.j.V.j.<.} 3.j.d...( ",
"3.j.A.j.j.p.j.V.j.} r./.!.j.7.d.j.!.d.r.j.7.p.j.V.p.d.j.Y./.G.j.7..X!.c.!.!.G.V.c.j.c.!.`.#X#X&X;X;X;X!.G.!.G.G.A.Y.!.!.!.!.!.!.*X`.7.! <.p.j.c.c.Y.`.!.j.d.c.V.j.g.a.7.>.o.>.<.3.d.*.+.j.!.A.d.d.d.d.p.r.r.j.j.j.V.j.j.A.G.A.A.!.!.Y.A.!.V.p.j.j.r.<.r.c.j.r.j.d.7.7.3.G.!.<.p.p.3.<.<.*.3.d.p.<./.A.7.V.!..X&X!.Y.d.r.r.r.V.!.;X5X/.!.&X.X/.#X/.;X#X!.;X&Xj.<.+.| +.<.<.} ! } r.3.! ! <...3..Xd.d.j.r.| ( *...+.r.A.p.j.d.d.d.7.<.c.!.!..X!.G.j.j.A.j.!.j.j.p.j.`..X.X#X!.!.!..X!.!.G.c.c.G.G.!.G.j.A..X.X,X!.`.;X;X,X;X!.Y.!.!.&X/.!.`.#X.X!..X.X`.A.!.A.A.;XV.A.Y.`.;X`.j.<.<.j.*.<.d.V.A.j...+.j.j.j.G.j.j.V.r.3.r.j.j.p.c.c.Y.G.!.c.j.p.p.j.Y.j.<.<.7.p.<.Y.!..X!.;X.X<.+.3.r./.;X,X5X&X!.j..X/.j.!.Y.j.r.r.j.V.c.r.7.j.7.A.A.j.j.j.<.3.j.!.!./.j.c.G.j.d.p./.!.`.!.<.<.<.j.j.<.r.j.p.A.!.G.j.j.j.j.j.d.j.V.c.j.j.A.Y.j.j.j.r.d.j.p.j.j.7.p.j.<.<.V.Y.Y.G.!..X/.!.V.j.j.j.!.G.Y.c.d.j.V.V.p.c.j.j.d.d.V.c.j.G.c.G.!.A.Y.j.d.V.V.p.r.j.c.d.<.j.7.<.j.c.r.r.d.G.V.d.7.G.G.j.Y.j.<.d.c.<.( +.*.3.*.<.d.d.j.j.<.3.} <.j.<...*.+.( ..j.d...<.j.j./.#X!.A.Y.!.j.j.c.!.V.r.<.<.G.G..XA.} j.!.V.d.p.c.j.r.3.<.*.7.<.<.} j.j.( <.7.j.p.<.7.} N +.A.!.!.Y.p.7.V.c.j.j.Y.!.!.j.j.!.G.Y.Y.G.j.p.7.} ..} r.} p.Y.V./.Y.d.j.Y.j.r.j.j.j.} ..!.!.!.!.!.!.`.!.`.#X!.G.G.G.G.!.#X`.!.V.G.!.!.!.!.#X#X`.;X;X!.!.`.`.!.!.!.!.!.!.!.!.!.G.c.j.j.c.j.!.!.j.c.A.j.Y.Y.A.j.p.j.j.V.A./..X!.!.!.c.j.j.d.d.<.} 3.j.G.<.! } ! U ! ( j.G.c.A.G.Y.!.7...r.p.3.<.} ! +.<.<...+.",
"r.c.G.A.A.A.G.!.Y.3.p.A.j.3.*.<.d.G.p.7.j.j.V.c.Y.d.d.j.j.j.r.7.j.G.p.d.!.V.j.j.Y.V.j.j.V.G.!.#X#X;X;X`.Y.Y.j.j.j.c.G.!.!.Y.G.G.!.!.V.<.*.<.<.p.Y.!./.!.j.p.p.r.j.j.j.j.7.1.<.] <.3.| } j.!.~.L.A.A.A.V.c.j.j.j.A.!.!.!.!.!.V.j.!.!.V.j.V.V.j.j.G.c.j.j.c.j.d.j.r.r.d.j.Y.!.d.V.<.<.*.} +.<.7.7.r..X/.j.j.j.!.;X&X.XV.j.V.c.A.Y.G./.G.j.G.`.&X#X/.&X#X/.;X;Xd.*.7.<.<.<.<.+.! D } 3...~ *...<.j.d.r.j.C.j.<.*.7.+.3.d.*.<.r.p.r.1.+.p.G.!..X/.G.d.7.Y.A.`.G.j.V.G.!.!.`..X!.G.c.!.Y.!.Y.c.c.G.Y.G.V.j.V./.!.Y.*.} `.5X;X&X!.A.G.A.`./.Y.A.!..X#X;XY.!..X&X!.!.&X#X#X`.!.!.!.j.} +.d.*.<.p.V.V.j.<.<.p.j.V.V.<.3.c.7.r.j.j.j.p.j.!.`./.!.j.7.*.<.c.!.!.!.A.d.7.<.<.<.A.`.;X,XG.c.D n 3.#X`.!.^./.!.!.r...G.Y.j.j.p.g.7.3.<.<.3.3.j.A.j.r.3.7.j.j.G.G.Y.p.c.A.j.3.3.!.!.!./.Y.!.V.j.!.c.d.p.d.Y.Y.!.G.G.G.V.j.d.c.!.^.!.j.d.c.j.c.!.V.j.p.r.j.j.3.<.j.j.j.G.!.!.Y.!.&X;Xc.} *.j.V.G.G.!.V.j.j.j.c.j.j.d.j.j.j.A.c.j.c.j.!.`.!.!.d.j.c.V.j.j.j.j.j.j.c.d.p.c.j.r.d.p.V.G.!.A.G.j.j..XG.3.j.Y.j.3.<.3.7...*.p.r.r.d.j.r.! ! <.+.+.7.1.<.7.A.j.} ..7.j.!.`.!.V.A.!.G.<.d.G.d.<.*.*.j.V.!.A.<.A.!.G.A.G.!.Y.j.r.7.<.( ( d.d.j.j.<.r.3.7.j.p.j.p...r.A.Y.!./.c.r.j.A.G.G.!.!.Y.j.j.!.!..X#X!.G.p...} ..( ..C *.p.*.j.V.r.p.V.c.j.c.j.r...3././.!.!.!.`.`.!.!.!.!.!.G.G.!.!.!.!.V.j.G.!.`.!.D.!.#X`.`.!.V.G.`.#X`.!.!.G.G.Y.!.!.G.c.j.p.d.V.c.!./.A.!.!.A.G.c.c.c.j.j.r.V.G.!./.!.!.Y.d.<.r.3.<.<.<.A./.j.<.<.<.+.} *.<.j.!.G.j.+.+.c.A.<.3.<.<.<.*.<.p.<.*.} +.",
"j.c.c.j.j.c.G.!.j.7.p.c.G.A.j.c.c.!.V.j.d.j.Y.A.G.j.j.j.j.d.<.} j.c.r.j.!.j.d.V.G.j.r.7.r.j.Y.#X.X`..X/.`.`.G.j.V.A.!.!.!.A.c.c.d.d.G.j.<.<.<.7.V.A.Y.G.c.j.d.3.7.p.j.j.p.p.7.>.<.r.*...0.V.!.~.!.!.!.!.!.G.V.j.A.!.!.`.`.!.A.A..X/.G.j.j.F.Y.V.V.V.A.V.c.G.!.A.V.G.!.!./.Y.c.A.r.j.7.+.*.7.d.c.<./.;X.X!.V.G.!.#X;X`./.&X`.!.A.p.c.Y.j.r.!.&X/.!.#X.X!.;X.Xr.*.p.0.1.+.} ] ~ ! D *.+...<.<.#.<.*.+.<.C.#XA.3.d.j.c.c.<.p.V.V.j.j.p.d.Y./..X#X!.j.7.!.G./.Y.j.!.!.!.Y.`..X!.Y.c.A.!.&X;X`.!.!.!.A.G.G.!.;X&X`.r.( /.;X`.#X`.Y.G.!.#X&XY.j.A..X5X/.<.d.!./.Y..X;X#X&X.X!.j.Y.A.7.*.r.+.<.r.A.!.A.j.<.r.j.A.V.7.<.Y.p.j.c.c.j.d.j..X`..X`.p.} R R <.G./.#X`.j.d.c.<.( d.!.!.!.c.j.r.r.`.5X.X!./.#X;X!.<.! Y.Y.r.3.<.3.....<.<.3.p.+.7.G.G.r.<.7.c.!.!.!.j.!.!.V.r.j.!.!.!.Y.j.j.3.c.!.j.d.j.Y./.A.Y.j.V.A.c.j.r.j.j.G.!.j.r.A.A.j./.!.V.<.+.<.j.V.j.!././.!.!.`.!.V.!.;Xd.D +.c.c.p.j.c.d.r.j.j.Y.j.j.7.j.A.A.n.j.V.G.V.!.`.!.A.7.j.j.c.A.V.r.3.j.!.Y.G.G.A.j.7.7.<.*.<.Y.!.!.c.V..X!.d.j.!.Y.j.r.j.j.*.<.j.r.3.r.d.3.! ! <.<.<.7.p.7.p.G.j.%.( +.j.Y.c.7.7.j.!.!.j.V.G.p.<.r.r.c.A.G.!.!.`.!.A.V.V.j.p.7.d.!.G.<...c.G.j.p.r.7.*.<.3.<.3.p.r.j.j.`.`.!.c.7.<.r.c.!.!.G.Y.V.j././.#X`.A.V.<.! +.<.<.<.! p.c.3.j.!.j.p.V.V.d.d.3...j.A./.!.`.!./..X`.!.G.G.!.!.!.!.`.`.`.!.V.j.G.!.!.G.V.G.!.`.`.`.!.!.`.`.!.!.V.j.V.A.!.!.!.A.j.j.j.Y.V.A.A.j.Y.!.c.j.7.p.V.G.V.3.j.A.!.!.!.!.c.3.( <.<.<.7.j.G.A.<.<.3.3.<.<.7.d.d.c.d.<.! ! r.j.r.7.3.p.j.r.<.7.<...! ..",
"c.V.j.p.7.r.j.j.j.j.c.V.!..X!.!.Y.`.!.A.p.r.A.Y.A.c.A.j.c.Y.j...3.V.G.G.G.j.j.A.j.p.7.7.r.d.A.`..X!./..X.X.X.X.X!.!./.!.Y.Y.!.A.<.! j.V.p.j.p.y.p.j.j.V.Y.!.A.d.<.<.0.p.1.5.p.g.r.j.0.<.<.7.C.!././.`..X#X.X/.!.!.!./.#X.X/./.#X&X!.A.j.r.j.c.c.j.j.c.V.c.!.#X!.Y.!.!..X!.j.d.p.c.!.!.j.d.j.G.!.V.&X;X;X&X.X`./.!.#X!./.;X;X/.c.r.j.!.G.r.V..X/.~.$X.X!.#X/.d.p.a.j.j.1.+.] <.<.<.j.r.7.r.*.( ~ 0.0.7.A.;X[.r...j.j.c.r.j.A.V.A.`.G.r.j.A.A.Y.j.j.d.!.V.Y.j.<.7.!./.!.`.`.Y.Y.!.G.!.;X,X&X/.!.G.!.`..X;X;X&X;X.X!.;X&X#X,X<X;X;X;X,X,X!.j.c.!.;XA.! <.c.Y.!.;X;X#X#X`./.G.Y.V.j.*.+.! ..3.j.Y.V.G.+.r.V.p.j.V.d.Y.j.r.7.j.V.j.j.!.!..X;XG.7.<.<.<.G.!.`./.j.d.G.c.3.c.!.G.G.A.c.A.#X,X;X.XG.j.G.`./.7.( Y.!.3.*.<.*.( <.j.j.j.p.( <.V.A.<.} <.V.V.c.V.j.G.Y.A.d.j.!.!.Y.d.<.r.7.d.j.p.p.d.j.V.c.d.7.d.j.j.d.r.j.j.j.c.r.r.V.j.*.j.!.!.j.7.p.j.G.j.G.!.Y.j.p.j.d.p.j..Xj.} j.A.d.3.r.d.7.r.j.j.A.V.j.3.j.!.Y.c.d.j.c.c.!.!.G.A.j.c.j.j.V.V.<.*.j.!.!./.!.V.j.d.<.<.} ! j.G.Y.V.!.!.!.A.V.!.V.p.r.p.p.*.3.c.p.3.j.A.j.+.} <.7.r.j.d.r.<.p.d.<.*.! p.A.7.! +.j.V.j.G.A.j.<.<.j.j.j.A.c.!.!.Y.G.V.A.A.d.<.} 3.!./.j.<.r.p.7.d.j.7.<.<.*...3.j.c.j.<.G.V.3.p.j.*.<.j.Y.!.G.!.A.d.!.!.!.j.j.V.r.+.<.p.<.d.p.Y..X!.!.!.A.j.Y.Y.j.d.p.3.j.!.!.Y.!.Y.!.`.!.!.V.V.!.!.!.!.#X#X#X!.G.G.!.!.`.!.G.G.!.!.`.#X#X#X`.`.!.G.V.j.j.j.V.G.A.c.d.r.p.V.j.7.7.d.G.Y.G.c.7.r.j.A.j.<.3.c.Y.G.!.!.j.r.*.<.<.7.j.G.j.<.<.7.p.r.<.<.p.c.j.p.<.<.<.*.<.! ! ( *.r.V.j.+.( 7.+.R ! ",
"j.A.Y.V.d.p.d.j.G.!.A.j.V.!.G.G.j.A.Y.Y.j.7.j.Y.G.A.G.j.V./.!.j.3.A.!.G.V.c.j.j.j.p.p.j.j.j.V.!.!.G.`.7X,X#X&X;XY.!./.Y.A.!.`.Y.<.U 3.c.j.G.c.j.j.j.j.j.!.`.!.c.7.>.<.p.0.<.5.a.r.j.7.<.<.<.j.Y.!.!./.`.#X#X.X/..X`..X#X`.!.|.;XY.r.<.3.<.<.r.d.A.d.j.c.j.A.!.!.A.!.`.&XY.7.d.d.V.!.#X/.V.G.Y.j.G.;X;X.X.X.X`.!..X/.j.p.G..X`.V.c.p.G.!.j.V.`.`.Y.`./.Y.!.L.j.A.V.j.N.0.5.#.0.j.G.[.Y.d.<.+.$...d.V.C.C.Y.c.*.R +.<.d.d.j.j.d.c.&X!.r.j.j.p.j.<.V.!.!.G.!.j.<.! <.!./.!.!.G.!.&X`.`..X#X`./.`.!.!..X#X;X&X.X;X5X!.!.!.!.Y.V.c.j./.#X;X#X!.Y./.&X!.j.c.V.!.`.&X&X&X#X!.`.`.`.A.G.7.} ! *.7.j.V.j.j.<.j.j.<.r.A.c.!.!.j.+.3.p.<.<.p.7.j.A.d.+.} } <.c.c.A.Y.j.p.r.V.j.Y.!.Y./..X.X!..X.X;X7X`.j.j.V.`.V...j.A.p.<.<.+.+.j.!.!.V.<...<.p.7.*.<.7.7.r.d.j.p.j.c.A.j.j.#X#XG.p.j.!.G.j.d.7.p.d.r.d.d.j.p.j.c.c.j.j.V.A.j.j.d.d.G.j.<.7.G.Y.c.A.Y.G.Y.!.Y.Y.!.j.r.j.p.3.j.`.A.j.!.A.j.r.r.p.r.d.c.j.j.V.j.7.j.!.G.j.7.d.j.j.G.!.A.V.c.c.j.d.c.A.p.3.j.j.!.`.G.d.c.A.7.3.3.<.d.j.V.Y.;X/.`./.!.!.j.<.<.*.<...7.j.r.p.A.G.j.<...<.j.A.!.j.j.3.<.3.p.r.+.+.p.<.( 3.V.j.r.j.j.p.<.3.V.A.j.A.j.j.d.p.V.!..XY.V.3...<.d.j.c.3.<.<.<.d.j.3.<.r...*.d.j.c.c.*.<.<.R ( p.+...d.Y./.!.`.A.<.d.j.j.<.V./.Y.j.<.j.r.c.V.!.;X&X.X!.!.j.Y.!.j.j.d.p.3.Y.!.G.j.3.7.A.G.G.V.V.G.G.!.`.#X#X#X!.!.!.!.#X!.!.V.G.!.!.`.`.`.`.`.`.`.!.V.j.7.p.j.c.V.c.j.j.7.j.p.<.<.d.A.Y.Y.G.j.r.d.j.j.r.<.V.!.G.!.Y.c.j.7.<.<.<.d.j.<.! <.<.<.*.} } <.j.t.<.<.p.j.d.7.+.R ! } *.r.p.! C <.<.! D ",
"j.V.Y.A.j.j.A.A.c.A.V.p.j.G.c.j.j.d.c.!.Y.j.j.A.A.V.Y.G.V.Y.Y.!.A.G.Y.A.G.A.j.p.j.p.a.j.j.j.G./.c.+.! p.!.#X#X!.Y.!./.Y.c.!.!.c.p.} 7.V.G.!.Y.V.G.G.c.j.Y..X.X!.j.>.<.j.V.p.1.5.p.r.<.<.3.3.j.l.G.Y.!.!.!.!.!.!.`./..X.X/.!.`..XG.3.<.7.r.7.p.j.Y.d.d.j.j.j.A.A.c.!.#X;X!.r.j.V.G.V.Y.G.d.j.j.<.3./.&X.X.X!.Y.G.;X&Xc.<.*.j.&X&X/.j.r.V.j.j.!.!.V.!.!.L.Y.A.j.!.V.j.j.j.!.N.V.j.p.!.Y.<.! ..7.3.<.l.G.j.<.} ! | *.p.c.c.d.p.3.d.!.!.j.V.A.j.j.<.Y./.A.j.A.j.p.} ! G.!.!.!.V.A.&X;X#X&X&X#X#X&X.X!..X.X;X;X.X/..X`.!..X/.V.V.j.r.V.`.&X;X;X[..X&X;X.X/.c.G.Y.!.&X.X`.A.!.!.`.Y./.I.<.+.<.<.7.c.j.3.j.V.j.p.r.j.A.Y.&XG.*.<.<.( <.<.*.<.3.<.( ..<.<.j.j.V.!.!.j.<.j.A.!.!.Y./..X#X!.A.V.!.;X;X!.<.p.`.`.7.j.A.c.r.*.<.j./.`.!.!.j.! ..<.d.d.3.7.3.d.c.A.j.j.j.V.r.A.#X#X!.A.c.V.j.E.j.p.d.j.A.c.p.A.V.G.A.c.c.j.c.j.j.j.j.j.c.j.7.p.V.V.j.j.c.c.c.!.A.V.!.A.j.j.j.<.c..X!.Y.!.!.`.!.c.j.p.p.c.j.r.j.c.p.j.Y.V.j.r.G.j.j.G.!.V.j.p.c.j.j.A.Y.V.c.V.c.!..Xc.<.j.G.j.3.d.7.d.j.Y.!.&X!./.`.`.#XG.<.+.<.<.<.p.d.r.j.!.j.j.d.<.<.j.G.!.V.G.d.<.3.p.j.7.! *.<.<.p.j.7.j.7.p.j.j.j.G.Y.A.d.j.j.p.7.j.d.j.V.j.<.+.7.p.3.3.r.d.p.7.j.j.7.*.<.( *.r.7.j.A.p.*.<.R N ! } <.j.!..X#X`.j.} } <.<.} V.!.!.A.7.V.G.A.A./.;X&X#X`.!.j.c.A.c.j.7.r.<.c.G.G.j.<.+.j.!.!.!.G.!.!.!.#X;X#X`.!.!.!.!.!.!.V.j.V.!.!.`.!.#X`.`.!.!.G.j.j.p.j.j.V.A.V.c.j.3.d.p.7.r.j.j.V.c.A.j.3.<.r.j.j.r.G.!.!.!.Y.V.c.j.p.d.j.p.<.! ! *.+.! R D J } d.<.<.d.A.G.G.c.r.! ! } } <.r.( C <.7.<.*.",
"p.d.j.j.j.c.!.!.c.V.V.d.d.c.j.j.j.j.c.Y.!.A.j.V.c.j.G.A.j.c.V.Y.!.Y.!.Y.Y.!.j.j.c.p.r.j.V.V.G./.Y.! h k ! j.`.G.!.!./.!.A.Y.!.A.A.j.j.G.!.!.Y.G.Y.!.A.c.!.#X#X`.G.<.<.j.G.j.p.7.0.7.<.7.3.<.r.j.Y.!././.!.!.!.`..X.X&X&X.X.X&X.X&X!.A.V.j.7.r.j.V.d.j.j.j.j.c.A.j.V.!.`.Y.d.d.c.Y.V.V.j.3.7.p.<.r.!.!.!..X!.!.!..X.X!.j.+.p.;X5X#XY.<.7.p.r.c.j.j.Y.!.!./.!.j.!.0.a.!.!.;X`.!.j.<.V.l.#.R | r.3.3.A.j.<...! ! *.p.G.!.j.<.7.<.3.j.j.d.c.c.d.d.3.j.j.r.<.d.j.j.7.j.`.`.!.!.j.j.!.`.`..X#X/.!.!.Y.`.&X.X.X`.`.A.V..X!..X`.!./.!.Y.!.;X!.#X,X.X.X`.&X&X#XA.G.j.c.&X`.j.<.A.c.!.Y.!.!.7.7.<.+.<.j.r.<.j.A.V.A.j.d.G.d.A.d...3.r.<.d.p.p.7.*.+.R ! <.d.A.!.!.!.Y.A.p.p.c.!.!.G.!..X.XV.j.p.j.!.;X;Xd.7.Y.`.A.Y.!.!.V.<.j.!.#X`.!./.!.3.<.} d.j.<.r.c.p.V.G.d.d.d.c.<.j.!.!././.V.r.3.p.j.c.j.7.d.c.j.G.G.Y.c.j.j.j.j.p.j.j.7.7.r.<.<...3.d.j.c.A.A.V.A.G.V.G.G.A.A.j.7.A././.!././.#X;X!.V.j.r.j.d.<.d.V.j.j.V.j.j.j.!.c.j.A.Y.V.j.j.V.h.V.!.!.Y.!.Y.G.!..XG.r.d.A.A.V.Y.d.r.d.A.j.V.Y.!./.!..X!.<.} 7.3.r.c.j.p.A.G.G.A.G.p.<.p.j.j.j.j.p.r.p.d.j.p.<.<.3.r.d.r.<.j.7.j.A.!.A.j.j.j.<.V.V.d.3.<.R } V.d.<.<.j.j.p.<.7.j.p.d.c.A.j.p.<.+.<.r.j.A.G.j.7.*.! U ! <.j.!./.`..XY.p.} ! +.+.( 7.d.c.c.p.A.V.j.c.!././.!./.!.c.c.G.Y.c.d.V.d.p.j.c.j.d.<.V.V.V.G.G.!.!.`.!.`.`.`.!.!.G.G.V.!.G.j.V.!.!.!.!.;X#X`.!.!.D.j.j.c.V.A.A.c.j.p.7.<.7.r.p.j.c.j.A.G.!.j.3.<.3.j.j.V.!.!.!.!.!.G.G.Y.!.`.!.V.r.} ( *.<.+.R C U +.j.j.j.A.!.!.!.A.j.<...*.} ..<.U N *.j.j.j.",
"3.7.j.j.j.A.Y.A.A.c.c.r.7.j.j.V.j.j.c.c.A.c.j.A.A.c.V.p.7.j.A.G.V.!.#X!.A.G.V.V.G.j.p.j.V.x.V.Y.!.Y.r.( J *.!.`./.Y.!.`.!.!.#X.X#X!.A.!.`.!.V.j.A.!.!.G./.&X.X/.!.a.<.a.j.j.g.a.<.3.0.p.<.| 3.l.G.!.`.`.!.!.!.`..X#X&X#X/.`..X!./.`.`.!.j.3.r.V.j.j.c.c.j.j.c.A.j.j.j.!.`.Y.j.A.V.Y.!.Y.j.7.7.7.c.G.r.d./.!.c.A.c.V.Y.G.p.V.;X`.!./.3.<.<.<.j.7.<.d.c.A.!.C.3.j.<.j.!.j.V.j.W.G.3.j.a.<.+.<.p.3.3.V.*.B ( ..R ~ j.!.!.p...r.3.7.3.r.r.j.j.r.r.r.7.7.r.p.c.!.c.c.#X&X!.!.!.A.G.!././.`.!.G.V.A.V.!.;X.X!.!.;X`.!.#X`.&X&X`.!.V.!.!./.3.c.;X;X,X;X/..X,X;X&Xj.d.#X!.C k p.c.`./.!.c.p.G.j.7.r.c.<.+.7.j.A.G.j.j.V.r.<.} ! <.r.<.p.p.j.d.*.*.U ! 3.7.c.!.!.d.7.j.j.d.j.Y.!.z.V.!.!.d.d.r.A.`././.!.V.A.!.G.Y.V.A.j.c./.!./..X`.`.`.Y.A...<.j.<.d.p.<.j.V.d.j.j.G.<.j././.!..X`.G.z.j.j.V.j.r.p.j.j.V.G.Y.j.p.j.j.j.c.A.j.3.r.c.j.V.j.d.p.d.c.G.A.j.A.!.V.j.c.A.G.j.c.!.!./..X`.!.A.G.p.j.V.j.G.A.3.7.V.j.d.j.j.c.G.!.A.V.A.A.c.V.!.V.j.Y.#X!.Y.!.Y.A.Y./.!.c.j.A./.!..Xc.r.3.j.p.j.V.!./.A.Y.G.*.! <.<.r.A.j.j.Y.V.j.V.!.j.3.d.j.j.<.<.*.r.j.d.d.r.+.+.7.j.A.G.j.V.G.G.!.`.Y.j.r.<.j.`.Y.p.<.*.! d.c.j.j.j.j.A.!.G.j.j.7.j.G.A.V.j.c.d.<...r.A.V.j.<.C ! +...3.j.A.!.!.!.j.7.+.! <.<.+.+.<.j.j.p.j.7.7.j.G.!.!.G.Y./.Y.Y.G.A.d.3.A.!.j.c.j.3.<.+.V.p.7.p.j.j.G.G.V.G.!.!.`.!.!.G.V.!.G.j.V.G.!.#X#X`.#X#X#X`.!.V.j.j.c.A.Y.Y.A.c.j.j.j.j.j.V.j.j.V.!.!.V.p.r.j.Y.A.!.!.!././.!.!.!.!.!..X!.V.d.+...*.r.<.R N U *.j.V.c.G.G.Y./..X/.j.<.<.} ..<...+.} <.<.<.",
"<...r.V.j.j.G.j.A.!.!.d.<.j.c.A.j.7.j.d.7.d.p.p.c.j.j.r.j.A.A.!.Y.G.!.!.!.!.!.A.V.V.j.c.V.c.A.c.A.V.V.A.G.!./..X`./.!.!.!./.&X;X&X`..X!.Y.V.j.V.!.`././.!./.;X#X.XV.0.<.0.C.Y.j.3.<.a.c.j.0.j.A.`././.!.!.Y.!.`.#X#X.X.X.X.X`./.&X;X!.A.G.c.V.G.j.j.j.V.j.p.c.V.j.d.r.j.!.Y.V.A.!.G.V.!.Y.j.j.c.A.!.j.3.c.c.<.*.} <.A.A.!..X&X/.!.;X!.<.*.j.G.r...1.c.A.c.d.a.Y.j.p.a.<.! ~ +.K.j.0.7.<.#.<.0.<.+.A.0.#.d.<.! <.j.!.c.1.<.7.d.0.7.<.3.j.j.p.r.7.3.3.A.j.<.j.G.j.#X&X&X`./.!.!.;X/.j.#X!.!.!.G.!.`./.d.d.#X&X!.;X`..X`./.!.Y.!.!.`.#XV.p.!.;X;X;X;X.X`.#X;X/.G.!.!.*.p.j.j.`./..Xj.p./.r.! <.j.j.<.p.j.d.A.j.j.A.d.*.*...3.d.Y.Y.3.j.j.<.! <.} p.j.c.V.j.<.<.j.j.j.a.c.!.G.Y..X`.<.7.j.j.c.!.!.j.p.V.`.G.c.j.c.A..X`.!..X/.`.!.!.V./.V.*.r.p.d.p.<.j.d.j.j.p.j.<.c.Y.G.c.!..X!.!.G.V.G.Y.A.A.c.3.7.c.V.d.7.d.c.A.G.G.V.d.c.!.A.c.!.Y.A.G.G.j.j.!.#X/.j.p.c.A.j.c.V.!..XG.!.!.!.V.c.p.c.`.!.V.V.7.<.7.j.c.V.A.A.c.`.A.j.G.j.V.A.!.p.j.!.!.G.G.Y.A.G.A.A.Y.c.<.r.&X!.!.G.p.r.j.j.j.G.!./.!.!.c.<.<.3.3.j.Y.V.V.G.V.r.j.A.c.<.7.V.j.+.<.r.d.7.r.d.7.<.r.<.<.j.p.r.A.Y.!./..X/.j.d.V.G.!.Y.! R ..<.r.c./.!.c.3.j.j.G.j.p.<.+.7.d.p.j.Y.V.<.+.<.c.A.!.j.+.! +.! ( r.p.V.!.!.A.<.<...<.! ..} <.p.<.+.p.V.j.c.V.j.j.Y.!./.!.!..X`.c.<.7.A.!.j.r.3.<.d.c.<.+.<.<.p.V.p.7.j.G.V.V.!.!.G.j.V.G.!.G.!.`.#X;X!.!.`.`.!.!.!.V.G.Y.!./.`.G.c.G.G.c.A.G.!.G.j.V.!.!.j.*...j.Y.A.Y.!.`.`././.`.&X.X#X!.!.j...( +.+.r.<.R C ! +.<.r.c.j.V.G.j.j.j.3.! ! <.7.3.7.r.<.*.<.r.",
"<.<.j.Y.V.c.V.j.A.!.#XG.p.d.j.A.d.r.j.j.<.<.3.r.j.j.j.p.c.Y.A.A.!.A.V.!./..X/.G.A.G.V.A.V.A.!.G.G.Y.Y.A.A.Y.!.!.!.!.!.!./.`.`.`.#X/..X`.!.A.j.A./.`.!.!./.`.;X&X.XG.j.d.0.7.j.G.l.j.A.~.!.L.!././.!.!.!.!.!.!./.!./.`..X.X.X`.`.#X#XY.Y./.!.A.c.Y.h.<.7.A.A.c.j.G.A.j.p.j.j.j.c.j.d.p.j.j.j.j.A.!.Y.j.p.A.V.3.<.3.<.c.G.`./.!.c.Y.;X#Xj.<.7.j.<.+.<.j.j.j.9.<.d.+.! <.j.g.+.~ D.;X/.A.r.<.0.a.d.#.7.<.( | 7.d.1.r.c.j.a.7.7.j.c.d.3.3.d.j.V.j.<.p.<.d.7.( <.V.G.Y.!..X.X/.Y.!.&Xc.} Y..X!.#X;X#X.X`.j.d./..XG.A.j.!.`.G.c.!.&X;X&X5X.Xc.V./.;X,X7X;X&X#X!.!.#X!.V.*.d.A.G.!.!.;XY.c.A.3.<.*.<.j.7.<.p.p.d.7.j.A.<...+.+.3.3.j.j.j.j.V.r.} <.<.j.j.j.j.j.<...<.r.d.V.L.~.!.L././.p.*.*.p.j.A.!.`.j.3.j.j.A.j.A.`.`.!.G.G.G.&X.XY.A.!.A.r.G.Y.c.d.7.d.r.c.j.d.A.A.A.!.c.r.Y.!.c.G.G.V.G.!.Y.!.Y.p.7.j.j.j.7.7.d.j.j.V.G.G.!.!.j.r.A.G.G.Y.!.G.G.!..X!.j.V.`.`.!./.!./.&X!.!.!./.A.G.A.!.`.c.p.A.V.<.d.G.!.!.!.Y.G.Y.c.j.G.c.G.V.V.V.A.!./.!.!.Y.V.G.V.j.c.c.7.d.`.G.Y.G.j.d.j.j.V.!././.!..X`.!.!.A.j.V.!.!.!.Y.c.7.d.j.c.p.j.A.j.<.7.j.j.<.<.<.<.<.7.<.<.p.p.r.j.!.!.Y.!.!.V.A.`.A.!.G.+...*.2.} 3.Y./.G.3.p.d.d.p.p.+.J U +.<.*.3.7.<.p.j.V.j.A.Y.p...} <.<...( V.Y.c.j.d.p.*.*.D ! <.7.<.<.7.7.d.p.j.V.j.d.j.V.c.j.V./..XA.7.p.7.G.c.p.<.*.7.3.! ! <.<.<.j.<.<.j.j.7.7.j.G.G.V.V.!.!.!.!.`.#X;X;X`.j.G.#X!.!.!.!.!./.`.`.Y.V.G.!.c.j.V.!.G.d.j.j.7.<.+.<.j.Y.!.G.Y.!.!.!./.!.Y.!.!.V.V.d.! ! ( <.<.+.R J R ! $.r.j.r.3.3.*.3.j.} J ! 3.d.3.+.} ( +.7.j.",
"3.3.d.Y.`./.A.p.V.!..X!.j.p.r.j.p.p.V.c.<.<.7.d.j.j.d.p.G./.A.c./.A.c.Y.`..X/.Y.V.Y.!.!.Y.!.!.A.G.!.G.j.j.V.Y.Y.!.!.!.`..X.X/.!.!.Y..X.X!.!.A.j.A.G.A.!.!.!.`.#X/.A.c.Y.j.| ( a.!.G.!.&X;X&X;X;X&X.X/.!.!.Y.Y.!.!.!./..XXX.X`.`.#X#X/.!./.!.j.j./.!.p.7.V.A.c.A.A.G.j.r.p.j.j.j.c.j.j.j.j.j.c.c.A.c.j.A.!.!.j.3.<.p.V.d.V.!.V.<.p.!.!.j.<.<.7.<.d.j.C.c.l.j.3.r.] ! <.V.D.| U V.;X!.d.} ! ..<.j.3.! ( +.( 1.j.p.<.d.j.j.0.1.j.A.V.j.p.7.j.Y.V.*.d.<.7.7.<.j.G.c.V.Y.!./.!.V.Y.&XA.*.!.`.A.!.&X`.#X;X#X`..XY.*.D ! d.!.!.!.`.;X;X`.&X.XY.!.&X,X;X#X#X.X`.A.A.`.A.j.7.V.!./././.;XG.!.Y.j.!.j.j.!.d...<.p.p.7.c.c.7...( } <...<.p.d.<.7.<.! 7.c.!.G.G.!.A.<.+.*.*.j./.~./.A.r.V.Y.r.+.<.j.A.V.!.&Xj.*.<.r.G.A.Y.!.!.Y.G.d.r.`..X`.!.!.V.p.!.!.G.j.p.<.<.r.<.} j.Y.!.#XA.7.G.!.j.V.V.A.!.!.G.!.!.c.7.<.p.j.3.3.d.j.j.c.A.G.!.!.j.d.j.A.Y.Y.!.!.!.!./.!.V.!.`.!.A.!.!.`.&X!.`.(.!.Y.Y.Y.!.!.d.3.A.!.r.V./..X.X/.!.!.G.c.d.j.j.A.G.!.Y.Y.A.G.Y.Y.A.G.V.c.j.j.j.j.j.!.Y.!.Y.j.j.d.<.j.j.A.c.Y..X#X`.`.A.r.r.c.G.Y.A.j.r.d.j.G.G.Y.!.j.7.d.c.j.p.r.j.j.r.<.....<.r.d.j.!.Y.Y.!.!.!.!..X!.!.!.d.j.j.j.+.<.j.!..XV.c.j.p.} *.+.! ! +.*.! ( ..+.p.d.j.j.!.Y.V.r.( 3.r.} +.V.c.*.+.3.j.r.j.+.+.3.7.3.j.j.7.d.j.V.Y.Y.c.c.G.V.d.d.j.A.c.r.j.<.c.j.<.} ( *.! ! } <.<.<.7.<.<.j.V.7.<.p.V.!.V.j.G.!.!.!.!.`.#X;X!.! +.`.!.!.!.!./.`./.!.Y.A.Y.!.c.j.j.Y.A.j.j.p.( R *.d.A.!.`.A.c.j.A.!./.G.d.d.j.j.j.r.( ! +.<.7.<.( ( ( ! ! } <.*.<.<.<.<.7.<.( } r.j.r.<.+...<.d.V.",
"j.7.<.j.`.&XY.d.j.j.Y.V.j.d.<.<.<.*.p.j.7.<.7.r.j.j.r.7.G.`.Y.V.!.Y.G.!.!.!.!./.!.`./././.!.!.Y.Y.Y.V.d.p.c.!.!..X.X#X&X&X#X`.!.c.c.!./.G.!.V.+.<.p.c.Y.Y.V.G..XL.d.a.!.!.<...d.~.G.Y./.#X&X;X&X&X.X/.!.V.j.c.G.!.!.`..X.X.X`.`.`..X#XY.V.j.r.j.!..XY.j.j.j.V.!.V.V.j.d.j.G.A.j.V.V.V.c.j.A.G.c.c.V.!..X.X!.j.<.*.j.!.<.7.V.V.<.3.j.c.j.7.3.j.j.c.C.A.j.j.j.r.p.<.#.<.j.C.<.! g.j.c.j.7.3.<.( <.j...+.3.7.1.<.3.#.d.l.j.7.r.V.l.j.j.d.<.r.A.c.<.d.3.r.7.p.!.!.d.c.!./.`.!.G.!..X/.!..X!.G.!./.#X/./.`.!.!./.!.!.!.G.!.!..X!.!.!.#X.X`.!.!.;X&XG.c.#X.X`.!.Y.`.!.!.#X;X;X.X!.!.Y.p.A.j.<.j.j.G./.A.+.<.7.d.r.j.c.j.*.! <.d.*.*.j.r.<.<.<.*.j.!.G.c.!./.j.....+.} d.!.Y.!.j...j.L.<.7.j.Y.Y.!./.!.j.7.7.*.j.G.A.d.d.c.A.7...j.V.#X!.A.j.j.!.Y.V.V.G.j.r.7.} ( c./.`.#XY.p.j.V.r.d.d.A./.!.j.c.!.G.j.<.7.j.3.<.j.V.j.j.A.A.G.A.c.Y.V.V.A.G.G.A.A.Y.!.Y.c.A.!.A.j.V./.!.`.!.!.G.!.!.!.!.!.`.A.j.!.!.c.!.`..X.X.X`./.!.!.j.p.7.c.G.!.Y.Y.V.c.V.c.c.!.!.!.A.j.j.j.j.j.!.!.G.j.c.p...3.j.j.3.d.!././.!.j.<.<.j.V.!.Y.c.j.c.V.!.`./.!.c.G.A.V.j.d.p.d.d.j.r.3.<.3.d.c.G.!.!.!.~.`.!.!.!.!.!.G.j.A.Y.`.j.+.( <.!.G.V.d.p.! ( 3.p.7.p.p.+.*.<.+.3.7.d.j./.U ..V.r.7.<.! ..j.c.+.*.r.j.j.G.j.d.r.3.r.j.p.j.j.A.V.j.j.d.<.<.c.j.j.d.j.j.7.3.<.j.p.*.+.+.<.R +.+.<.<.7.7.<.7.G.!.V.j.j.G.`.!.G.!.!.!.`.`.#X#X`.#X! } !.!.V.j.V.!./.!.G.V.A.!.A.j.j.j.c.j.j.G.j...R +.j.Y.!.G.j.d.r.j.!.!.G.7.! <.r.r.<.+.*.<.<.j.d...( *.*.( U ( ( <.j.j.7.<.j.<.<.r.j.c.c.j.r.d.d.p.",
"j.j.<.7.Y.!.G.A.p.j.V.j.p.d.r.r.<...<.j.j.p.7.<.d.p.<.<.V.`.Y.A.G.G.G.G.Y.Y.!.&X.X#X.X&X5X&XG.Y.!.!.Y.V.c.A.!.#X!.`.#X;X&X.X/.!.r.<.d.G.A.Y.A.<.} 3.c.!.!.V.j.Y.!.j.3.c.!.l.d.Y.!.A.V.L.!.[.#X[.`..X#X`.G.c.A.!.!./..X.X.X.X#X&X!.!.!.V.c.A.j.G.G.!.Y.j.7.j.G./.Y.V.j.j.j.c.V.c.c.A.Y.A.c.A.V.r.d.A.#X;X.X`.G.<.<.j.G.7.7.d.j.r.<.<.<.3.<.<.<.<.d.j.V.j.j.c.j.j.j.i.5.j.!.j.o.>.3.A.!./.`.V.3.0.C.j.j.j.c.j.<...3.Y.!.j.r.j.A.0.*.7.p.3.3.j.V.j.j.p.d.<.<.j.A.V.V..X&X;X;X.X.X/.!..X.X!.!.`./.!.A.V.!.!.!.`.#X;X&Xj.j.j.!.G.A.!.#X&X&X!.A.!./.V.j.&X!.d.*.<.Y.!.!..X`./.!.j.j.c.<.<.<...3.V.&X#XG.<.<.<.r.7.d.A.G.<...j.A.<.R <.p.d.d.3.j.`.`.G.j.G.Y.p...+.<.7.c.C.j.Y.p.} a.a.<.j.!.!.G./.#X/.V.j.p.+.7.j.d.<.j.Y./.!.A.A.d..XY.j.A.G.!.V.j.G.Y.V.j.<.! <.!..X!.`.`.A.j.j.r.7.<.d.A.V.r.j.!.!.Y.d.j.c.r.<.p.j.p.j.Y.!.!.A.j.Y.!.V.V.G.A.j.c.Y.!.G.j.c.!.`.!.!.`.!.!.Y.!.c.Y.!.!.Y.Y.!.Y.A.Y.c.d.j.G.!././.!.G.`.&X!.V.d.j.j.A.!.!.Y.Y.!.A.c.G.`..X!.c.j.j.j.j.Y.!.V.j.Y.j.<.r.j.j.<.4.j.V.!.!.d.p.d.d.j.G.Y.V.A.G.c.G.!.!.Y.A.#X`.!.G.c.d.7.3.c.V.G.A.j.j.Y.!..X!.!.!.!.!./.`.!.!.G.V.!.!.;X!.3.! ( j.j.j.7.7...} <.<.*.3.d.<.7.p.3.r.r.j.c.Y.e a p.j.<...} +.V.G.<.r.V.A.V.!.j.7.r.p.3.*.*.j.Y.`.!.c.V.V.7.+.j.V.V.d.j.c.7.<.7.d.d.r.d.p.c.<.+.+.+.<.p.<.+.p.!.!.G.j.p.V.`.`.`.`.!.`.`.#X#X#X#X9XV.j.`.!.V.7.j.G.!.!.j.d.j.V.c.c.d.d.j.j.j.G.c.7...} <.j.A.j.j.r.3.j.Y.!.Y.d.<.7.p.<.<.7.r.3.<.d.r.( ! } *.*.} } ( +.d.j.3.<.p.7.7.d.j.A.V.d.j.j.p.<.",
"j.Y.!.!.!.Y.V.Y.p.j.A.j.7.d.j.A.j.<.<.j.V.j.7.} <.3.<.*.c.!.A.c.V.V.c.c.Y.!..X;X.X.X/.!.&X.XA.!.!.!.!.!.Y.G.!.`.c.G./..X.X!.Y.A.r.( ..j.V.c.A.j.+.p.V.A.Y.V.p.p.L.j.r.l.L.C.c.Y.!.A.A.G.Y./..X[.!..X;X&X!.V.A.!.!./.`..X.X#X&X;X.XY.j.j.Y.!.G.V.j.c.G.j.7.j.!.;XV.V.G.I.j.p.j.c.V.G.!.G.c.A.V.3.7.V..X#X/..X!.p.+.p.c.<.<.p.r.<.<.<.<.p.p.<.<.<.0.j.V.l.V.A.l.c.!.l.D.).!.l.p.p.l.`.^..X,X;X;X&X/.A.j.Y./.C.r...p.[.~.j.d.A.A.7.+.r.A.V.j.c.!.!.V.d.j.j.d.p.d.A.Y.&X#X;X;X#X;X.X!./..X.XY..X#XV.G.V././.!./.!.!.!.p.j.7.c.j.d.g.!.`..X!.G./.`.G.!.&XG.! h R !.!.C.j.j.A.j.*.<.j.j...*...+.<.j.7.r.<.r.<.d.3.<.j.!.p.*.j.V.p.+.*.j.j.p.<.j.!./.!.!.!.A.A.j.<.j.A.!.A.j.A.a.<.r...<.p.G.!.!./.#X.X!.j.c.j.c.r.<.3.j.c.Y.#X;X/.3.p.!.j.Y.!.!.A.V.!.G.G.c.3.+.r.!.`.V.A.`.!.j.j.j.j.<.<.r.d.p.j.Y.G.Y.c.A.Y.j.r.p.j.r.j.!./.!.G.j.A.!.V.V.!.Y.V.A.!.Y.!.!.G.Y./.#X#X#X!.!.Y.Y.j.G.!.Y.A.V.A.j.d.j.r.*.r.V.!.`./.Y.z.!.&X!.G.V.A.j.V.`.!.Y.G.!.Y.V.V.G.!.!.A.c.A.Y.Y.!.!.G.A.!.Y.d.j.j.j.7.<.r.p.j.G.j.j.j.7.<.d.A.!.Y.G.d.d.j.j.c.A./.XX#X.X!.c.d.d.j.G.!.!.A.V.G.!..X!.!.!.!.`.#X.X!.!.!.Y.!.!.#X/.A.d.r.j.r.r.r.r.7.<.<.( ! <.j.3.<.r.<.3.7.V.V.G.( N j.j.*.} +...j.j...p.Y.!.Y.!.j.} <.d.7.<.<.p.j.!.Y.c.V.G.j.<.c.Y.!.j.j.j.3.*.j.d.j.d.j.d.!.p.<.7.7.7.p.+.} j.!.!.V.7.+.7.!.`.#X`.!.!.!.!.!.!.;X;Xj.V.#X`.!.j.j.V.!.Y.j.7.r.d.A.!.c.j.V.A.G.G.j.d.<.} +.j.!.A.c.p.<.c.G.G.!.j.G.j.7...*.d.p.*.*.<.<.+...( ( *...+...} *.+.} <.7.<.r.j.c.V.j.r.j.j.j.r.",
"c.!.#X#X.X!.c.j.d.j.c.d.7.7.j.Y.Y.r.<.j.c.p.7.+.3.p.7.<.j.!.j.j.G.!.A.c.Y./..X#X;X#X!.j.j.!.!./.!.!.!.Y.A.G.!.!.A.G.!././.!.c.d.j.<.<.c.c.j.c.j.3.V.Y.j.j.V.7.<.3.1.a.A.Y.G.A.C.V.C.Y.!.!./..X`.!.!.`.`.!.c.j.V.!.!.`..X`.`..X#X#X!.j.j.V.G.G.c.j.V.G.j.r.j.G.;Xc.A.!.!.j.p.j.j.j.j.G.I.V.!.!.j.j.G.`..X!.!.V.<.} p.j.} *.r.7.+.<.<.3.j.d.<.<.<.r.a.d.p.d.j.7.r.j.p.!.=XL.V.!.(.;X;Xd.r.c.C.`.G./.j.#.G.;XG.p...*.V.j.3.a.j.j.d.3.c.`..X!.!..X#X!.V.Y.!.A.d.p.G.A./.!..X.XY.!.!.#X.X;X;Xj.!.,X#X!.!.;X#X/.#X!.!./.A.!.j.A.c.c.A.Y.!.!.V.G.`./.c..X/.c...! j.;X#Xd.*.3.c.d.<.j.;X`.p.r.<.<.*.<.<.*.<.p.<.j.d.<.3.!.j.<.p.j.G.c.d.j.c.j.<.j.j.V.G.`.!.j.!.!.7.j.j.Y.L.j.a.7.r.j.1.d.r.j.!.`.!./..X.XY.!.V.c.7.<.7.j.j.c..X;X;Xc.7.!.j.G.V.Y.G.V.A.p.7.3.<.<.<.d.c.r.d.G.G.j.7.7.j.r.<.r.j.j.j.c.j.j.c.A.G.V.j.j.V.j.c.W.!.!.!.V.Y.Y.V.G.!.!.!.!.!.G..X;X!.A.Y.`.#X#X/./.!.Y.j.V.!.!.!.G.A.j.r.d.p.<.j.!.`.#X.X/.!.Y./.A.A.Y.!.j.G.!.Y.V.c.c.A.G.V.A.G.Y.A.V.A.Y.!.!.!.!.!.!.!.c.V.V.V.j.p.j.j.p.j.A.A.V.j.7.3.j.!.Y.G.e.p.c.j.j.G.!./.`.`.!.c.r.r.j.V.A.A.A.G.Y.!.!.!.!.!.!..X&X`.Y.G.!.V.Y.A.G.Y.!.Y.c.c.7.3.3.d.d.7.<.<.<.p.j.r.3.p.<.<.<.j.c.Y.!.r.Y.j.d.<.3.<.+.+.R p.Y.Y.A.V.V.<.<.<.7.j.d.d.c.G.!.G.V.A.V.d.G.!.`.!.A.d.*.+.j.r.p.7.j.j./.p.7.V.j.7.p.<.<.j.`.!.V.p.+.<.V.!.#X`.!.!.!.!.!.!.;XV.+.p.`.!.G.j.r.7.j.c.j.7.3.3.c./.!.Y.!.!.!.G.j.7.+.} <.V.`./.!.j.3.A.Y.V.!.j.j.<...! } r.7.*.<.+.} *.3.<.( } ! ..<.+.} ! R 3.3.+.<.j.A.c.c.A.j.j.p.r.",
"!.!.V.V.!.!.j.3.j.7.p.r.3.<.7.V./.j.p.A.V.d.j.r.j.A.j.3.j.Y.j.j.!..X!.V.A.!.!.!.;X#X;X!.j.!.`.G.!.`./.G.V.Y./.`.`.!.!.!./.!.c.r.p.p.d.V.c.c.!.V.j./..Xj.j.V.d.p.3.1.j.!.!.Y.C.j.d.l.!.!.!./.[./.`././.`.!.!.!.!.Y.!.`..X/.!.!./.!./.A.j.p.r.A.!.G.G.c.3.r.p.d.!./././.Y.j.p.j.c.j.j.A.V.j.G.!.j.j.V.!.`./.!.j.+.<.r.j.<.3.3.7.d.d.j.c.G.j.<.3.d.c.j.0.<.<.<...*.<.+.N.`.V.G.~.p.a.*.r 8 a C j.0.j.j.! 0.;X~.d.! ..d.1.*.<...| <.3.V.#X;X.X&X;X;X`.`..XY.r.<.j.&Xr.c.G.&X`.d.p.j.;X;X;X#X+.*./.;X!..X;XA.j.Y.Y.`..X!.;XY./.!.!.!.G.Y.j.r.j.!./.Y.!.j.3.7.G.`.G.j.<.! <.d.<.<.j.,X#X!./.A.A.r...7.<.<.3.*.d.c.7.<.c.j.7.<.<.V.j.+.<.d.A.A.!.j.A.!.!.Y.p.!.`.j.j.7.C./.G.<.+.0.j.d.!.j.j.!./.!.!..X;X&X/.3.*.<.7.3.r.p.j.Y.A.#X.Xj.A.r.V.j.G.!.j.<.r.<.<.p.j.p.d.G.j.c.G.A.j.<.+.p.j.p.j.V.j.p.r.<.d.c.A.V.c.c.V.Y.j.j.A.G.!./.Y.!.V.c.!./.!.!.!.G.Y.!./.!.!..X#X`..X!./.!.G.d.j.A.!.!.A.V.d.7.p.7.p.c.!.!.!.!./.`.G.!.c.A.!.!.j.j.c.c.G.A.j.A.!.G.j.j.c.A.A.G.!.!.!.!./.!.!.!.A.Y.A.j.r.3.j.G.j.j.j.c.!./.V.<.<.j.Y.G.d.j.!.A.V.G./.!.!.!.`.Y.j.j.c.V.j.j.G./..X#X!.Y.!.!.!..X&X`.Y.Y.!.A.!.Y.A.!.!.G.c.A.d.7.7.V.7.+.+.<.7.3.<.<.c.V.s.3.<.p.j.G.Y.j.G.7.j.r.r.j.*...J <.j.j.V.A.A.c.3.R <.V.j.A.j.j.G.Y.c.A.!.!.`.!.!.!.c.3.*.p.7.<.3.r.G.!.&Xr.7.G.j.<.7.j.j.G.`.!.G.j.p.p.G.!.`.`.`.`.`.!.`.;X;X!.p.V.`.G.7.<.*.( *.p.j.p.7.<.7.!./.!.Y.Y.!.G.A.<.R ! 3.A.!.!./.j.3.G.!.c.G.j.<.! ! ( <.j.j.j.3.+.R ! <.<.+.! ( +.<.<.} U U 7.j.<.<.A.A.p.p.V.d.7.<.+.",
"`./.Y.A.!.!.!.G.d.7.d.j.<.<.7.7.j.V.A.G.G.A.Y.G.j.Y.j.r.r.A.V.G.!.#X!.A.c.A./.`.;X.X&X&X!.!./.!.!.#X&X!.A.Y./.!.`.`.Y.j.j.Y.c.<.*.*.} r.7.+.d.j.c.!.A.j.j.j.j.V.3.p.c.!.!.A.c.r.7.c.!.!.!.!.!./.!./.`.!.A.!..X`.Y.!.!.!.!.!.!.!.!.!.!.!.A.d.c.V.A.Y.c.c.!.c.d.A.Y.!./.!.c.j.j.c.c.j.V.A.j.A.!.V.j.G.&X;X&X#Xc.3.r.c.j.d.j.c.j.j./.j.d.Y.A.7.3.7.3.<.3.<...*.<.! } } 7.V.j.l.D.<.~ 4 < 6 & t a.7.+.! U 1.[.!.#.! ] i.7.>.<.j.j.+.+.L.oXV.!.[.c.$X;X&X!.!.!.G.c.d.*.A./.;XG.d.G.3.j.,X;X!.A.! Y.!.A.V.G.7.*.c.`.&X&X;X#X.X`.`.A.`.!.`.!.A.V.!..XG.A.r...p.G.!./.d.+.+.<.<.<.d.G./.!.c.A..X;XY.<.3.d.p.r.d.j.d.7.p.V.*.7.p.j.V.<.<.7.r.j.d.A.} +.7.c.0.| j.!.A.j.3.!.#X5.<.V.V.j.<.Y.j.!.!.A.G.!.#X!.G./.3.! d.j.<.p.d.j.j.! D j.&X!.A.j.j.A.V.7.<.<.j.j.p.<.d./.`.!.p.Y..X7...d.j.Y.p.j.!.d.d.7.<.j.V.Y.j.7.p.G.!.!.!.G.Y.!.!./..X!.!.`.`./.Y..XY.!.!.!./..X&X;X&X`.&X`.!.A.j.j.j.j.Y./.j.<.7.d.c.7.d.c.!.!.G.Y.&XG./.j.c./.A.j.p.r.j.!.!.Y.!.Y.!.V.c.c.V.G.!././.!.!.G.G.!.!.Y.!.!.A.j.d.j.V.V.V.j.3.7.G.Y.d.<.<.V.!.!.Y.V.c.!.!././.!.!.!.!.A.A.Y.j.j.j.j.Y././.!.!.!.!.!.!.#X/.Y.!.Y./.Y.Y.c.V.G.G.d.r.*.! 7.!..Xd.7.d.<.+.*.<.c./.V.p.j.c.Y.Y.V.V.j.7.7.j.r.p.<.! v J r.Y..X/.Y.V.r.+...3.j.V.j.<.j.`.!.!.&X`..X#X!.d.7.7.3.<.<.j.j.! Y.G.G.j.<.j.d.*.7.j.c.c.G.!.!.A.V.A.!./.`.!.!.`.`.!.`.#X;X!.G.!.!.V.j.+.*.r.d.p.j.7.r.<.7.C.!.!.Y.G.V.j.j.! ! r.G.j.!././.V.3.j.A.c.j.+.N ! <.*.<.c.c.d.<.+.J J <.<.! ( } <.<.<.! C ! ( <.! ( j.j.j.c.j.*.*.*.+.",
"#X;X.X!.Y.!.!./.p.7.d.j.p.r.j.d.j.V.A.Y.!.!./.Y.A.A.p.7.r.V.V.V.Y./.G.c.A.G.!.!.#X/.#X#X!.Y.!.Y.Y.!./.!.Y.~./.Y.Y.!.!.j.d.j.d.<.<.<.( ..} } j.A.j.V.j.d.A.G.j.j.j.j.j.c.V.V.j...<.j.Y.!.!.!.!.!.!.!.!.Y.c.A.!.`.!.!.!.!.!.G.G.G.!.!.G.`.!.j.r.3.+.j.G.Y.`.!.V.!.A.G.!.Y.V.j.j.c.j.j.V.G.A.!./.Y.j.V.`.#X.X!.V.V.3.j.Y.!.G.j.c.!.;XA.p.G.`./.Y.d.r.3.7.7.<.7.0.#.} >.5.j.j.j.N.i.j.| U B N ! 1.<.+.} ! | i.j.7.o.0.p.<.>.7.G.!.i.j.!.C.<.j.!.j.Y.!..X`./..X`.c.<.<.p.p.V.A.V.!.j.*.A..X;X;Xc./.!.A.j.G.V.j.!.#X;X.X;X;X.X/..XA.!.`.`./..X`.!.`.Y.!.j.7.A.!.!./.j...<.7.d.V.!..X&X!.j.j.!.;X`.d.r.p.7.3.p.j.7.<.p.d.+.<.<.3.j.<.<.d.d.d.p.V.<.<.7.Y.A.3.d.G.l.l.j.!.W.+.! 5.7.7.7.!.d.d.j.3.<.r.!.p.<.A.c.r.c.j.<.r.j.j.j...s h <.Y..X#XV.j.A.j.j.V.!.A.j.j.V.`.`.A.+.<.d.r.d.c.r.r.3.7.j.r.d.r.<.V.A.Y.A.j.V.!.`.!.Y.G.!.!.G.!./.Y.!.`..X.XY..X`.`././.`.#X&X;X;X.X/.`.#X!.V.Y.c.j.Y.`.G.j.V.A.Y.r.p.j.!.#X/.!.!.!.!.j.j.j.j.A.c.r.j.Y.Y.G.!.G.G.G.V.j.c.A.G.A.V.Y.G.c.A.!.!.!./.`.G.c.j.c.A.A.j.p.p.r.p.j.j.j.j.!.`./.`.!.A.Y.G.G.!.!.!.!.!.G.G.!.Y.G.A.V.G.!./.!.!.`.`.!.!./.Y.Y.!.!.`.Y.A.j.c.G.!.A.j.<.} d.`.#Xj.7.d.7.<.<.<.V.Y.j.r.d.j.A.G.d.7.r.d.j.j.r.j...D N ! 3.j.Y.!.j.c.c.z.j.A.V.j.3.*.j.`.!.`.#XY./.`.!.j.p.3.<.<.j.!.G.! p.G.`.Y.j.j.r.<.p.c.V.j.c.Y.!.!.Y.Y.!.!.!.!.!.!.!.!.`.;X#X`.!.!.!.!.V.+.( 7.j.r.p.3.j.V.j.G.!.!.G.c.j.r.<.! } c..XY.!.Y.!.!.7.7.j.c.d.! J +.3.} +.j.p...! ! J ! 3.<.R D ..3.<.+.! J ( ..! ! } 7.d.p.d.*.+.3.<.} ",
".X;X#XY.A.G.!.`.j.p.p.j.d.j.c.j.c.G.V.G.!..X&X!./.G.j.j.j.!.!.A.c.`.!.G.A.j.j.V.!.!./.`.!.Y.Y.!.G.Y.!.!.!./.!.A.j.G.Y.j.p.p.p.p.j.d.7.*.} <.j.V.j.j.d.d.A.A.j.j.V.V.j.V.V.c.j.3.r.j.!.!.!.!.!.!.`././.!.c.j.Y././.!.!.!.G.V.V.A.!.Y.c.!.!.j.7.p.<.c.G.G./..X/.`.G.A.Y.!.G.j.d.j.j.j.A.Y.Y.!.`.!.d.c./.`.!.c.j.c.p.p.V.!.j.1.p.Y.!.c.p.V./.#X.XG.A.j.j.d.a.j.c.d.<.i.p.j.j.j.g.7.i.D.a.>.7.p.<.7.7.<.<.} #.j.p.>.p.1.#.o.>.j.G.5.j.G.3.! 3.!..X,X!.A.j.G./.!.j.c.3.<.<.j.Y.!./.!.c.A.!.;X;X#X#X`.;X!.!.`.!.`.#X&X!.V.c.j.j.!.j.A././.`.#X.X!.!.G.G.p.3.Y./.!.!.j.<.d.j.V.!..X`.`.&X!.!.`.;X;XY.c.d.7.<.7.j.p.r.j...} 3.+...r.p.c.j.j.d.j.c.p.<.*.j.V.*.*.c.V.j.j.j.0.! ! <.>.#.p.A.<.} <.<...<..X;X!.`.!.j.A.j.r.7.d.d.G.!.C r N 3.G./.c.j.G.V.j.!.!.V.V.Y.Y.c.3.<.*.r.j.j.j.j.r.p.j.z.c.j.j.p.7.c.c.Z.A.j.c.!.`.!.A.A.A.c.j.j.A.j.A.!./..XA.!.`..X.X`..X.X.X.X.X.X!.!.`.!.A.!.!.A.!.!.G.V.G.c.j.V.j.V.!.!.!.Y.A.V.j.j.A.j.d.!.Y.p.j.Y.V.c.G.c.j.Y.j.j.j.A.c.j.d.c.c.j.A.!.!.A.c.!.V.j.j.c.!.!.Y.j.!.!.V.A.G.A.c.!.`./.`.!.G.G.V.A.!.!.!.`./.!.^.`./.`.!.A.A.!./.!.!./././.!.!.G.!./.`..XY.c.j.j.c.G.c.r.<...3.j.j.+.( <.<...<.j.G.V.d.d.j.j.j.j.c.d.j.c.V.j.d.G.p.} ! <.3.p.G.V.j.V.A.A.!.`.!.c.r.3.A..X.X#X.XV.!.!.Y.V.j.3.+...7.Y.A.*.p.!..X!.<.+.+.<.p.j.j.j.j.G.!.!.!.!.!.!.G.!.!.`.`.`.!.;X#X`.!.!.!.!.V.} ! <.p.r.r.<.j.!.Y.!.!.Y.V.j.d.r.<.} +.j..XG.G.V.j.V.<.<.j.V.j.*.( <.<.! ..j.<.E ! ! R ! *...R ! <.j.d.<.! ! } ! D ! +.r.j.d.<.! *.j.j.+.",
"!./.!.V.A.!.!.!.!.j.p.r.r.j.A.A.G.!.A.A.!..X;X`./.G.j.V.j.!.A.r.p.!.!.Y.Y.j.j.V.A.G.Y.!.!.!.Y.!.Y.!.!.!.!.!.G.j.d.j.j.j.d.d.j.c.Y.G.A.7.*.7.d.j.j.c.V.j.j.j.c.Y.G.j.p.P.Y.V.G.Y.c.Y.!.!.Y.!.!.!.!.`..X/.A.V.Y.!./.!.Y.G.A.c.c.G.!.!.c.j.A.j.p.V.G.Y.V.c.!.#X.X`.Y.A.Y.`./.V.j.j.V.c.A.G.G.!./.!.7.G.#X#X!.Y.V.c.7.+.<.j.d.3.r.j.j.j.j.c.V.A.!.!.!.A.A.A.l.c.C.c.i.j.j.j.j.p.<.} ~ 0.p.<.<.<.i.j.j.7.i.o.i.G.} ~ o.#.1.<.~ 5.j.<.3.j.r.<.a.!.;X[.d.a.j.!.&X!.V.A.p.<.<.d.j.j.Y.!.;X`././.Y.;X.X.X!.G.!.&X#X.X.X/.G.<.3.c.A.!.7.d.!.!.!.!.!./.`.!./.j.7.G.!.G.A.d.V.!.Y.Y./..X!.!..X!.`.#X;X;X/./.Y.V.r.7.d.j.p.p.7.*.<.<.r.Y.!.Y.c.A.d.p.r.3.+.! #.r...*.Y.`.G.j.a.<.X.| <.+.+.j.G.<.} 7.j.<.<.j.!.!.&X!.V.!./.Y./.G.j.F.#X+.h *.<.8.j.V.!..X!.Y.V.d.3.<.<.3.3...! 3.!.#X.X!.j.7.p.j.c.G.c.d.p.3.p.d.j.c.d.p.A./.!.!.!.A.j.j.j.V.j.c.Y.!..XA.A.!./.`.`.`./.!.!.Y.!.`.G.G.!.G.A.!./.!.!.Y.!..X!.A.!.Y.!./.G.V.G.Y.j.d.c.!.A.c.!.!.j.A.!.j.p.j.j.d.V.j.d.C.G.V.j.j.j.j.c.!./.!.j.r.c.c.j.d.j.G./.`.j.!.#X&X&X/.!.!.`.`.!.!.!.!.!.Y.Y./.`.`..X#X.X#XXX`.`./.G.V.!.!.!.!.!.!.!.!.Y.G.!.`.`./.G.p.<.<.j.c.j.r.r.r.<.! ! U ! <.<.+.7.G.!.G.c.c.j.j.d.<.j.j.j.j.j.p.r.A.A.<.+.3.<.d.!.G.V.Y.G.j.c.!.!.A.j.j.!.`.!./.!.c.V.G.Y.Y.A.p.<.<.<.j.j.j.V.Y.V.7...+.<.p.r.3.3.r.V.Y.!.!.!.!./.!.`.#X!.G.`.!.!.!.`.!.G.!.!.j.<.! *.<.p.j.A.r.j.G.!.!.Y.A.c.j.p.p.*.} ! <.G.j.j.j.7.<...<.d.A.!.j.3.7.<...<.j.<.U ! } ! J U U ! <.j.c.j.+.R ! ..! U ( <.j.G.j.<.+.<.c.V.<.",
"c.G.A.A.!..X!.A./.A.d.7.r.j.A.A.!.`.!.!.!./.#X`.!.!.A.A.p.V.j.<.r.c.j.c././.!.!.Y.A.V.G.!.!.Y.Y.!.!.!.Y.A.V.j.j.p.d.j.d.r.7.j.V.A.c.V.<.} <.r.d.V.!.!.V.p.7.j.!.G.r...7.V.V.G.Y.V.Y.!.G.A.A.G.Y.G.`..X!.G.Y.!.!./.!.G.A.A.V.V.G.P.!.V.d.j.j.d.j.G.j.p.c.!.`.!.Y.A.j.A.`.#X!.A.A.G.A.A.A.A.!.!.Y.j..X;X`.!./.!.j.<.} <.j.G.Y.G.c.A.A.c.V.V.j.A.Y.A.L.!.!.G.V.V.V.G.j.g.j.p.0.1.! } | <.<.~ ] <.1.7.<.7.W j.!.A W >.p.G.j.o.5.j.<.a.j.d.d.d.A.!.0...j.c.j.j.j.V.d.c.r.r.d.3.7.Y.`.#X.X#X.XY.;Xc.7.R <.Y.`.Y.Y.!.Y.`.j.j.!.!.!.j.V./.!.!.!.!.`.#X`.7XY.j.Y.!.A.A.j.G.!.!.!./.`.!.!.!.A.!./.`.!.j.V.A.G.j.<.3.d.d.p.<...} +.7.j.c.j.!.!.V.j.3.<.<.( +.j.d.d.!.~.c.a.j.<.! ! ! W ~ j.j.+.! <.p.j.V.!./.!.`.!.A.!..X;X#X!.!.!..Xj.} G.7.<.d.G./..X!./.j.*.( C a y h h N +.c.!.!.c.r.p.3.7.j.!.A.p.j.p.7.7.j.j.d.d.A./.!./.!.c.j.c.G.G.A.c.A.Y..XG.G.`././.!.!.!.!.G.A.j.!.A.c.A.c.c.A.`.!.!.A.!.#X/.!.G.G./.#X!.G.!.`.G.A.A.!.!.Y./.#XG.!./.j.r.d.d.d.j.j.j.G.!.A.c.V.7.d.V.!.`./.A.d.j.Y.A.p.p.j.V.Y.j.Y.`.#X#X!.!.#X&X.X!.!././.`.!.!.`.`.!./.`.`..X.X!.!.!.!.Y.!./.;X`.`.!.!.!.A.Y.V.G.!.!.!.j.<.+.r.j.j.d.p.p.*.R ( <.p.d.j.j.V.G.!.Y.G.j.j.j.p.<.7.r.j.c.j.7.<.c..Xj.<.d.r.3.A.!.V.!.!.c.j.j.j.d.j.V.!.!.G.Y.Y.j.j.V.A.A.G.c.j.j.j.A.j.G.!.!.c.<.<.c.A.c.j.r.3.d.G.!.!.!.!.!.`.`.`.`.!.G.`.!.j.p.V.!.G.G.G.<.! } <.<.3.j.G.<.3.j.!.!.!.A.c.p.<.<.! ! R *.!.V.j.A.p.} ! ..<.A.!.d.<.r.r.+.*.<.( U ! ..! D C J ! 3.j.j.7.! C ! <.+.+.<.p.c.G.V.p.7.3.j.j.<.",
"c.G.Y.!.#X&X/.!.!.G.c.j.j.V.G.A.!..X.X.X`.!.`.!./.!.!.!.j.G.Y.j.V.G.j.c.!.!.`.`.!.V.c.A.G.G.A.V.G.!.Y.A.c.j.d.j.d.j.j.p.<.*.3.j.j.j.j.<.} *.<.<.j.V.c.d.<.<.7.j.A.j.*.<.d.j.V.c.j.Y.!.!.Y.G.G.G.V.!.!.A.A.!.!.!.!.!.Y.A.A.A.A.A.V.G.j.7.j.G.c.j.p.<.3.V.!.!.!.!.G.j.c.!..X!.G.G.Y.G.A.V.A.!.!.!.G.,X;XY.j.!.!.j.j.p.j.V.!./.!.G.Y.G.c.G.Y.c.G.!.!.!./.!.L.Y.!.`.#XG.g.g.g.j.N.<.+.! ! #.} ~ +.+.+.<.1.A a.~.U o.<.p.D.j.<.p.g.<.3.a.d.a.7.c.`.C.G.#X!.j.3.d./.V.j.j.p.j.p.d.Y.!.Y.!.!.!.A.!.<.U ! j.!.l.+.<.Y.Y.!.Y.V.Y.Y./.!.`.;X!.!.`./.!.A.G./.p.3.j.A.G.!.!.Y.!..X.X/.!.!././.Y.A.U.`.Y.3.7.<.j.j.<.<.7.j.j.<.<.<.7.r.j.A.A.A.G.!.A.p.<.<.+.p.C.A.C.Y.!.V.p.j.<.W Y Y I ] 0.<.! R ..r.T.,X9X!.<.<.V..X`./.&X;X;X!.<.r.`.!.j.+.3.G.!.!.!.!.!.j.+.*.<.! ..<.<.j.A.Y.!.!.V.j.V.c.j.V.!.G.p.c.j.d.r.d.j.j.j.G.Y.V.!.Y.j.j.V.Y.Y.G.j.j.c.!.G.!.#X`.!.Y.G.Y.Y.Y.G.j.d.j.d.*.<.c.j.#X`.!.Y.!..X.X.XY.c.V.!.Y.A.!.oX/./.!.!.`.!.!..X/..X.XA.j.j.j.j.c.j.A.!.!.Y.V.V.3.p.c.!.!.Y.A.j.j.!.Y.d.3.r.j.j.V.Y.!.!.!.!.!.!.#X.X!.!.!.!.!.Y.~.#X`.!.!././.`.`.Y.Y.!.!.!.`.`.;X.X.X!.!.!.G.!.!.!./.!./.j.+.( *.<.j.r.<.<...} 7.c.j.<.j./.!.c.Y.G.c.r.r.j.d.r.d.<.r.j.j.<.<.V.;XV.7.c.j.*.3.A.d.V.G.c.j.j.j.j.j.c.G.Y.G.U.A.j.p.c.c.j.V.!.!.!.`.&XY.!./.`.!.r.p.G.V.d.j.j.j.V.Y.!./.!.!./.`./.#X`.!.!.#X`.j.7.j.#X!.p.7.! D ! | ! } <.p.! ..7.j.Y.!.Y.V.3.! R ! ! U +.`.G.j.!.j.! J R ( c.G.} U <.d...} *.} ( <.<.! J R ( +.<.7.3.7...! +.<.<.3.d.j.p.p.V.j.7.j.j.p.<.",
"A.A.A.!.#X&X.X#X!.!.!.G.G.Y.Y.G.!./.`.#X.X!.!.!.!.A.V.!.V.Y.!.!.!./.!.!.V.c.!.!.A.j.j.V.j.j.V.j.c.A.V.c.j.d.r.j.j.j.j.r.<.<.<.p.j.j.V.j.<.+...+.<.<.<.7.7.r.j.V.V.A.j.j.V.j.j.j.j.Y././.!.Y.Y.!.A.!.G.V.G.Y.A.A.Y.!.Y.G.G.!.!.G.G.A.V.d.j.!.Y.A.j.7.d.!.!.!./.#X!.V.j.G.!.!.Y.Y.!.!.Y.G.Y.!.!.!.!.;X;X!.V.G./.!.A.Y.A.c.A.Y.Y.G.A.A.c.G.!.G.!..X[..X!.G.G./.&X;X`.!.j.N.L.!.!.N.0.! ! <.<.<.<.<.<.<.<.! p.G.<.<.} ] <.1.5.g.i.<.*.d.j.j.j.C.~..X!.#X!..XA.j.!.<.<.j.<.7.j.d.j.j.V.Y.j.r.3.<.<.+.V..X/.r.! <.!.!.j.A.j.!.`..X!.!.&XY.!..X`.Y.j.d.d.<.<.j.j.c.!.!.!.!.#X#XG.j.V.Y.`.Y.d.p.!./.j.j.7.j.j.r.3.3.7.d.<.<.*.<.d.G./.A.7.7.j.j.7.! <.} j.j.Y.Y.V.!./.Y.V.p.| #.+.] <.1.+.<.+.7.V.!..X`.Y.( z C 3.A.!./.;X.Xj.c z j.&X!.7.j.#X&X!.!.!..XV.<...<.r.j.j.c.!.c.7.r.!.`.!.A.Y.Y.V.c.j.3.j.j.A.c.c.j.d.j.c.j.A.Y.Y.V.c.V.Y.!.A.d.c.c.A.A.!.`.!.!.A.A.Y.!.Y.G.j.7.d.d.! ! d.c.Y.!.!.V.V.!.!.#X/.V.j.c.G.c.V./.`..X.X.X#X`.!./.`././.Y.G.!.A.V.A.A.G.!.!.!.V.j.7.j.G.!.A.V.j.d.j.V.A.d.<.p.A.j.V.c.A.G.Y./..X!.!.!.Y.!.!.Y.!.G.!.`.!.G.!.!.!.!.!.V.A.!.!.!././..X!.`.!././.c.Y.G.G.G.c.Y.d.3.7.3.<.p.r.<.<.*.<.3.d.<.} d.!.Y.j.G.V.j.3.r.j.d.V.V.3.<.7.r.<.*.j.!.d.} <.c.<.+.p.<.p.j.j.j.j.A.Y.c.c.V.A.Y.A.j.r.*.j.j.d.V.`.&X.X;X,X`./.#XG.V.p.j.j.p.<.7.d.j.A.!./.`./././.`./.;X`.!.!.`.!.!.!.!.#XV.<.} ! ! ! ! ! ! ( +.! ..<.+.j.!.!.A.7.! R ! ( C ! !.j.3.c.p.! U J U <.r.! J <.p.<.<.r.<.3.d.3.( R ! +.+.+...} <.<...<.<.<.7.p.j.7.<.j.j.3.c.j.p.7.",
"G.c.j.V.`.&X#X&X/..X`.!.!.!.!.Y.Y.!.!././.Y.Y.G.!.c.j.!.!.G.A.!.!.!.!.!.G.G.!.Y.j.r.j.c.d.d.c.j.j.j.j.j.j.p.3.r.j.j.p.7.7.r.r.r.j.j.V.V.7.+.+.*.<.<.7.d.j.j.V.A.G.A.c.!.&X!.j.r.j.G.!.!.G.A.G.Y.!.!.Y.Y.!.A.j.d.V.G.Y.P.Y././.!.!.!./.!.G.!.!.Y./.G.!.#X#X.X.X.X`.A.j.c.!.!././.`./.!.!.!./.!.!.G.#X#X`.G.j.V.V.d.V.V.c.Y.!.G.Y.!.Y.j.A./.`./.!.!.!.!.A.Y.`..X/.V.W.N.G.[.`.!.N.D.+.<.j.1.<.<.} p.<.<.7.g.p.7.<.>.~ >.5.p.0.#.+.r.V.d.1.l.G.L.#X`.;X!./.A.G.;X+.<.Y.<.<.j.p.p.p.!./.j.<.} D ..<.V./.!.j.d.!.;X!.A.G.p./.;X&X!.!.G.c.!./..X`.A.j.!.j.A.Y.j.r.d.j.j.j.A.A.<.( <.r./.Y.<.( j.!.j.V.j.c.j.j.c.j.r.p.r.j.p.r.j.!.;X!.d.<.d.3.<.U <.<.d.d.!.!.<.<.C.A.!.V.<.<.>.~ <.| +.<.( <.A.!.!.!.!.v.( N ! j.!.G.!.!..Xd.N N 3.!.`.!.#X.X!.!.`.;XA.p.<.<.d.d.7.A.d.p.<.<.d.c.j.d.V.!.j.7.j.7.G.!././.!.A.p.p.j.j.A.V.V.V.j.j.j.V.A.j.!.!.Y.A.!.!.G.A.V.G.!.!.G.c.j.j.A.Y.<.! <.V.!.`.#X!.A.G.!.`.!.A.j.!./.A.V.`..X.X#X.X`.`.`.`./.!.Y.G.!./.Y.V.Y.G.G.!.!.!.c.p.d.V./.`.!.G.A.j.A.j.c.r.} d.`.A.Y.d.d.j.c.!..X!.Y.!.G.!.!.!.`.`.A.!.A.j.V.!.Y.G.G.j.c.!.!.!.!.!.!.!./.!./.!.p.j.d.d.r.<.r.<.r.j.c.<.<.3.r.r.<.....+...<.G.Y.j.p.A.V.j.r.d.d.p.!.G.d.r.p.j.j.p.j.Y.j.! ( A.c.<.*.<.<.r.j.j.j.V.G.G.c.j.j.V.j.<...! r.j.d.A.&X;X/.!./.!.!.#Xp.j.c.j.d.p.7.3.d.G././.`.`.!.!./.`.`.!.G.!.#X#X!.`.#X#X!.7.! ! <.<.+.U R J D ! R } ..R p.Y.Y.G.d.*.+...+.J } .Xc.<.j.r.( ! ! J ! } ! ! } *.<.p.p.*.<.3.<.} ! ( ( ! J U C ! } ! *.3.d.<.<.j.j.3.j.d.<.j.d.r.r.",
"A.V.j.j.Y..X&X&X&X.X.X.X`..X#X`./.!.!.!.G.!./.!.!.j.j.!.#X!.A.Y.!.!.!.!.!.!.A.j.p.p.j.c.j.j.A.!.j.G.j.j.j.j.r.r.p.3.p.j.j.d.r.j.j.c.j.p.<.<.<.<.d.r.p.j.j.j.A.G.`.d.7.Y..XY.j.j.A.Y.!.A.j.G.!.G.j.V.A.Y.!.!.j.p.j.V.G.G.!./.!.G.!.j.Y..XY.V.A.Y.#X.X.X#X#X#X.X/./.#X!.Y.!.#X.X`.Y.!.!.!./.!.!.!.A.!.!.!.!.A.j.j.c.p.j.j.j.Y.!.G.!.A.j.G.!.!.!.!.G.!.!.A.j.G.!.!.j.!.j.j.Y./.#X/.!.<.7.Y.p.r...! r.<.<.r.<.j.c.3.! ..j.A.d.7.<.+.A.`.j.<.<.p.G.A.r.`.&Xj.*.c..XV.p.j.!.d.p.G.V.!.&X,Xj.<.<.<.+.<.j.!.!.A.G..X&XV.j.A.r.j.#X/./.&X`.7.c.Y.!..Xj.G.~..X`.Y.*.3.p.r.3.p.d.<.c n +.d.Y.~.Y.*.j.A.+.G.c.c.j.j.c.V.j.j.V.!.#XA.c.A.j./.!.c.j.r.} ! <.<.<.( !.A.7.<.<.!.Y.r...<.j.j.*.! #.| | +.7.!.#XG.A.Y.A.<.3.!.!.!.!.G.!.,X( N ( j..X/.!..X!.c.!.;X!.r.<.d.j.7.7.d.r.d.p.3.3.<.<.V.G.A.j.j.V.j.!.!./.`..X!.j.j.j.d.j.j.c.G.j.j.p.c.!.G.V..X`.j.Y.#X!.~.Y.!.!.!.V.j.V.A.j.c.j.7.V.A.!.`.!.G./.!.c.!.!.G.Y.A.G.G.c.G.Y.^./.!./.`.!.!.!.G.V.c.V.!.!.Y.G.!.!.Y.!.!.A.V.j.j.`.;X`.!.A.Y.!.d.p.p.3.j.~.G./.A.p.r.j.Y.#X/.!.c.r.V.A.c.`.`.c.j.c.V.V.A.G.A.V.A.G.Y.!.!.!.!.j.A.!.Y.A.!.V.<.<.p.<.3.r.<.3.j.A.j.<.7.c.V.( *.*.*.r.j.Y.G.j.c.G.c.p.<.<.3.p.j.V.j.d.j.A.p.<.j.V.Y.+.c +.G.Y.} *.j.j.<.<.<.*.d.A.Y.c.j.c.j.<.<...<.+.7.G.`.!.r.! ! 7.!..XA.A.c.A.j.3.d.j.j.!..X#X.X/.!.!.`.`./.!.G.!.!.!.`.!.!.!.c...( <.7.7.<.R ! R C ! N C D D r.!.j.j.V.c.<.( C C ( A.V.j.3.<.( <.<.U n C ..+.} +.<.j.<.*.*.<.<...! ( ! J D J R R ! ( <.j.j.<.+.<.7.7.j.j.7.r.j.r.7.",
"/.!.A.V.Y..X;X;X&X.X#X&X#X&X;X#X#X!././.Y.A.!.!.V.j.c.!./.G.V.G.`./.Y.V.c.V.V.j.r.<.<.7.3.r.j.A.!.Y.j.j.p.j.p.j.p.7.j.j.V.c.d.d.V.V.j.d.3.<.*.*.j.j.j.c.A.G.!.`.G.<.*.A..X!.j.c.V.A.A.j.d.V.Y.c.7.p.d.c.!.!.c.j.V.!.!.!.!.`.!.Y.p.3.j.Y.V.j.c.A.&X#X#X&X&X&X.X/./.&X&X#X&X`.!.Y.c.V.G.!.!.!././.j.Y.!.!.!.!.Y.G.j.j.j.j.V.!.Y.G.j.j.j.!.!.A.!.!.V.G.!.Y.j.j.!.`.!.!.j.V.!..X;X/.!.3.<.p.<.p.<...<.*.*.3.<.V.A.d.*.j.!.A.p.p.7.+.p.A.c.d.<.r.G.A.U j.;Xj.} r.j.3.*.p.j.d.j.A.!.;X;X!.<.3.r.j.j.V.Y..X/.Y.!..X`.j.d.j.r.A.;XY.d.!..Xj.c.G.A.!.!.!./.!.V.j.<.<.<.+.<...D N n ..j.!.!.!.V.j.!.!.3.j.V.j.r.r.j.c.j.j.7.V./.!./.c.<.!.#X!.Y.r.! ! *.+.! ! j.j.c.j.7.V.A.j.7.d.c.r.+.*.+.<.>.<.j.!.).l.3.j.C.<.*.j.j.j.!.!.!.9X!.Y.Y.!.!..X!.!.Y.V.Y..XA.j.3.4.3.j.c.d.j.A.c.p.j.d.<.Y./.j.d.j.V.A..X.X`./.`.!.A.c.c.j.G.c.j.A.c.c.d.j.!.!.Y.`.`.G.`.#X`.`.!.G.Y.Y.j.<.j.V.j.V.G.c.Y.A.c.!.!.!.`.Y.j.Y.`.A.!./.A.V.A.V.G.Y.!.!.#X`.Y.G.!.G.A.V.V.!.!.!.!.!.!.!.!.Y.c.c.V.j.!./.!.A.j.c.!.c.j.j.r.j.Y.A.G.V.j.j.j.V.!.Y.A.c.p.c.j.r.G.!.V.c.V.V.j.j.V.A.!.!.!.!.Y.Y.A.V.d.r.j.G.G.c.j.p.p.<...<.7.<.j.A.c.j.p.p.A.`.3.} *.*.d.A./.#XG.j.G.!.j.3.3.r.3.<.7.p.r.d.V.j.p.j.d.j.<.U +.A.`.p.<.j.j.<.<.r.3.j.A.c.7.<.j.j.7.<.p.r.<.3.V.Y.c.*.k k ! j.A.V.!.p.p.7.} <.c.A.Y.!./././.!.!.!.!.!.G.G.!.Y.G.Y.G.!.Y.j.<.<.p.d.p.<.} <.*.! ! N D U R j.`.V.j.c.j.<.D N R ! *.c.!.j.<.<.r.<.U N D } ..+.<.<.r.<.<.<.r.<...} } ! J ! ! } ( ( ! } 7.7.<...<.3.r.j.V.d.p.j.7.<.",
".X!.A.j.c.!.;X;X;X#X&X;X;X;X;X;X/.Y.!.!.A.V.Y.Y.d.j.A.!.!.A.V.A.`.!.V.d.p.d.j.j.j.<...<.<.p.j.A.!.j.j.j.p.j.r.j.Y.A.G.G.A.A.j.j.V.c.j.j.j.d.p.r.j.j.V.A.A.A.G.!.j.<.*.j./.!.G.A.Y.!.G.j.j.A.G.j.j.d.r.j.G.Y.G.G.c.Y.!.!.!.!.Y.A.r.r.j.V.A.A.V.Y.!./..X.X.X.X.X#X`.#X#X.X!.A.c.V.A.c.Y.!.G.Y.!.!.!./.!.A.c.A.G.c.Y./.Y.j.Y./.V.G.j.j.V.`.!.j.V./.!.G.!.!.j.d.V.!.!.G.j.A.G./.#Xj.r.<.*.<.<.c.j.p.3.3.<.<.*.d.d.3.( j.V.j.d.j.r.+.<.p.A.V.r.d.!.!.+.*.!.A.<.<.+.} } p.<.3.d.j.`.;X&Xj.<.j.V.Y.!.Y.A.!.!.Y.!./.!.j.d.j.!.`.`.7.! A.#X!.!.Y.d.d.G.Y.`.Y.d.j.p.<.( J <.<.U C ( p.c.!.`.!.c.j.!.!.c.Y.!.V.p.d.V.A.A.Y.c.G./..X;X.Xc.!.!.!.Y.j.} ! ( } ( } 3.7.Y.A.p.j.j.j.7.j.V.<...<.7.l.g.0.g.j.j.7.R <.l.1.<.j.j.V..X;X`..X#X.X/.!.!.&X!.Y././.!.G.Y.Y.j.<.*.d.V.j...7.p.r.A.j...d./.d.j.V.A.V.!.!.A.c.c.A.V.V.c.j.G.j.d.V.V.V.d.V.A.!.Y.!.!.!.`.!.!././.Y.!.`.G.3.V.!.c.V.G.V.V.j.j.!.!.`.#XY.V./.#X!.!.#XG.j.A.A.G.V.c.!.#X/.G.A.Y.V.V.V.A.!.!.Y.V.c.j.A.!.V.d.j./.A.!.`./.!.A.A.A.j.j.j.r.d.j.j.j.V.c.c.j.j.Y.Y.V.c.j.G.c.p.V.A.V.G.!.!.j.j.V.Y.`.`.!.!.!.!.V.d.j.7.r.c.j.7.3.d.G.j.3.r.<...f.!.G.V.A.V.!.;XA.7.3.*.d.j.c.`.!.V.!.#XA.7.j.c.d.3.r.j.j.j.c.c.j.j.j.j.V.j.j.!.;XA.p.j.j.*.7.!.G.j.j.j.<.*.j.G.j.<.<.p.j.V.Y.!.!.V.3.<.<.7.d.d.c.<.7.d.*.<.!./.!.!.!.!././.!.G.V.V.A.!./.Y.V.j.j.A.j.d.3.r.d.d.d.3.( <.<.( ! N J ! 3.!.&Xj.3.7.7.*.} +.r.<.R r.A.<...<.<.( J U J ! } <.r.<.r.3.r.d.p.*.( ..} J N U ( ..} ( ! ..3.<...! ( <.3.j.j.7.<.r.<.! ",
"`.Y.c.j.j.G.#X;X;X&X;X;X&X;X;X;X&X!.!.!.c.c.A.j.j.c.A.G.Y.!.Y.A.G.V.j.p.r.r.d.j.j.3.*.<.7.p.j.A.G.j.Y.!.c.V.<.<.j.j.A.c.d.j.d.d.A.c.V.A.c.j.j.j.j.c.G.Y.G.j.j.V.j.d.7.d.G./.!.Y.A.Y.V.d.j.V.c.d.G.j.7.7.j.j.M.A.d.V.!.!.Y.A.V.V.!.A.c.j.V.j.r.j.V.!..X`.!.!..X;X&X&X.X!.!.G.G.Y.!.Y.!.!.A.V.Y.!.!.!.!.V.p.j.A.c.!./.Y.d.V.A.j.A.c.V.Y.&X!.d.j./.`.Y.G.!.V.j.j.j.j.V.c.G.!.#X;XV.( *.<.3.3.j.j.V.d.d.7.3.+.*.+.*.*.<.*.3.j.j.r.+.j.c.!.Y.j.j.V.Y.r.D <.c.V.c.*.<.c.`.p.p.j.j..X.X`.d.<.c.A.!.!.A.V.Y.A.Y./.!.!.c.c.G.&X#XV.} U 7.!..X`.Y.j.3.p.Y./.c.<.p.p.+.! ! <.d.r.<.r.d.r.j.`..X!.p.r.d.7.V.`.Y.j.j.j.j.j.A.c.j.G.Y.!.;X;X`.Y.d.7.r.<.! ( <.*.*.7.c..XV.j.j.!.Y.j.Y.A.<.<.7.j.`.G.j.j.j.V.N.~ <.j.7.<.7.p.A.!.&X.X!./.!.!.A.d.!.Y.G.!.!.!.I.p.j.c.j.<.<.7.j...<.3.<.c.c.*.p.j.7.G.!.!.c.j.j.c.p.r.j.A.A.A.A.G.j.j.G.G.G.j.!.G./.Y.Y.Y.G.G.d.A.!.!.Y.Y./.!.d.j.!.V.j.j.j.c.c.c.!.!.!./.Y.G..X/..X!.`./.j.c.!.!.A.j.V.!.!.A.A.!.V.j.A.!./.!.V.V.j.c.!.`.G.j.A.`.V.A.!.~.!.A.A.3.3.r.V.G.c.j.j.j.A.A.A.j.j.!./.Y.V.d.c.V.j.G.Y.r.j.!.!.j.p.j.G././.!.!.!.!.G.j.G.c.j.d.r.<.<.p.!.j.<.3.3.<.p.c.j.p.d.j.j.c.j.G.<.*.j.j.3.j.j.j.Y./.p.+.r.j.d.p.r.j.c.j.j.j.j.j.7.<.j.!.!.#X;X!.j.d.d.} <.!.V.<.( <.+.! 7.!.Y.j.p.j.G./.#X#X`.!.Y.j.*.( p.3.<.! <.p.<.<.V.!.G.!./.!.!./.!.c.j.j.G.!./.!.G.j.7.d.j.d.r.d.d.d.j.p.<.r.p.<.+.U ( +.3.!./.j.<.3.p.r.j.G.!.!.r.A.V.7.<.r.r.+.+.*.( ( } <.r.3.r.<.r.j.j.*.( +.+.! D U U ! ! ! ! ..*.! ..! ! ..<.7.<.*.<.p.<.} ",
"!.G.V.c.c.!.&X;X;X&X&X&X.X#X;X&X,X[.`.`.Y.j.c.G.A.A.c.c.!.`.!.A.c.j.j.d.d.j.j.j.j.p.3.7.3.<.3.d.j.j.!.!.V.Y.<.} ! +.j.j.7.p.j.G.!.G.G.G.j.p.7.<.r.j.G.!.!.A.j.V.A.c.d.p.j.!./.!.V.G.c.j.G.Y.V.j.!.V.r.r.j.j.d.c.d.c.Y.!.Y.A.A.Y./.V.j.g.A.j.7.j.!..X.X!.!.!.`.&X/..X`.!.Y.!.!.A.G.G.A.V.A.c.V.!.c.Y.`.!.j.j.A.c.A.Y.Y.c.c.j.j.Y.L.V.A.`.!.j.V./.!.G.A.G.A.V.j.7.7.V.c.Y.!.!.!.G.*.<.*.<.<.3.r.V.j.d.p.j.*.} ..3.r...( 3.d.j.j.7.c.A.Y.Y.G.V.j.V.3.D +.d.G.!.r.3.j.`.j.j.j.j.#X/.!.j.*.<.r.!.!.!.!.!.Y.!.`.!.G.c.Y./.;X&X!.Y./.`.!.;X#XA.!.V.7..X!.p.*.*.<.} <.j.p.p.r.3.r.p.p.p.c.G.!.r.r.p.( r..X/.Y.V.j.r.r.j.j.p.G.!.c.V.G.G.j.<.*.7.7...( <.j.<.r.!.#Xj.V.!.!.c.p.Y.A.r.c.V.j.$X`.W.!.G.V.j.0.7.j.d.1.3.0.A..X.X!.A.c.j.j.p.<.j.!.Y.7.<.j.Y.( ..p.G.j.<.7.c.j.d.j.r.j.c.<.<.<.7.G.G./.G.r.3.d.<.*.3.j.j.j.j.!.Y.V.!././.V.!.G.!.A.Y.!.G.!.c.`..X.X!.A.G.G.j.j.!.Y.j.d.d.c.A.V.G.A.V.Y.A.G././.#X!.`..XA.Y..X!.!.G.c.V.A.c.c.Y.c.V.!./.`.!.A.!.Y.!.`.`.G.V.!./.c.V.Y.!.!.V.j.d.<.<.d.j.p.3.j.j.A.G.A.j.j.G././.G.p.r.p.p.V.!.7.j.!.!.j.p.j.Y.!.!.!.!./..X!.c.A.V.d.7.7.<.3.j.c.j.7.3.d.p.<.r.<.<.*.<.3.<.p.`.p.<.c.j.<.<.7.j.A.!.r.<.d.r.3.7.7.r.j.j.7.3.d.V.r.<.7.c.Y.`..X/.!.Y.G.*.! d.7.! ! ..( R ( r.V.Y.G.!././././.!.!.G.j.3.d.`.A.p.<.+.<.+.} <.j.A.!.!.!.!.!.Y.V.c.A.!.!.Y.G.!.Y.d.p.j.j.r.r.r.r.j.j.d.j.j.d.p.+.+.} } j.V.j.7.r.p.j.Y./.Y.!./.&XG.V.3.d.j.d.d.r.<.<.<.<.<.*.<...*.3.7.} ! ! } ! U J ! +.<.<.<.<.<.} } ..+.*.*.+.....+.7.<.! ",
"Y.c.c.A.V.!.;X;X&X#X&X#X`..X#X#X;X.X`.&X/.j.j./.!.G.j.j.!..X`.!.A.j.j.d.j.j.A.!.A.A.c.j.7.*.+.<.<.7.j.c.V.`.G.c.j.j.G.j.<.<.d.V.!.A.G.Y.j.p.p.r.<.p.j.G.!.G.c.A.G.d.3.d.c.G.!./.Y.!.G.Y.#X#X!.!.`.Y.j.j.c.d.r.j.j.j.A.Y.A.c.A.!.!.j.p.j.A.j.7.j.!./.G.c.Y.!.!.!.!.!.!.A.c.Y.Y.j.c.V.j.j.c.j.j.G.c.!.#X/.V.j.c.V.V.A.!.Y.V.V.V.G.V.j.d.A.Y.c.Y./.!.Y.Y.G.V.c.j.<.7.A.c.!./.7...*.*.<.+.3.3.7.r.j.c.j.j.V.<...+.r.<.*.<.d.r.r.h.<.d.c.c.A.!.A.j.j.j.} ( r.G.Y.j.V.} 3.j.j.d.j.G.V.V.j.<...<.G.G.A.Y.!.Y.!./.!.G.A.!.#X&XY.j.Y.&X/.!.#XA.<.j.d...V.A.7.p.7.3.<.r.Y.j.r.p.r.d.j.Y.!.!.V.!.j.A.c.R *.G.!.!.G.c.p.d.A.G.j.j.G.p.N i h n ! <.7.3.<.3.V./.j.p.A.!.d.V.!./.j.<.j.Y.G.!.A.G.`.W.g.j.j.7.<.d.7.j.j.r.d.j.G.!.Y.j.j.7.r.j.c.c.V.!.!.r.<.c.!.*.} <.p.p.3.r.j.7.3.r.r.j.c.p.<.7.j.c.j./.Y.p.<.p.3.<.r.j.c.c.Y.Y.c.j.Y..X;XG.Y.A.G.j.A.G.c.W.!.!.!..X#X!.G.A.j.j.!./.Y.j.j.V.V.A.Y.G.V.Y.!.I.!..X/./..X!.!..X.X!.`.!.V.c.c.j.j.j.j.A.!.!.!.Y.A.G.Y.Y.!.Y.V.A.!.`.G.Y.Y.!.!.G.j.V.r.<.3.7.<.<.r.d.V.A.G.V.j.c.G.!.!.G.c.j.r.j.G.j.c.!.!.V.j.A.!.!.!.!.!.`..X/.Y.V.j.r.r.d.3.3.V.A.!.G.j.j.d.<.3.<.<.<.<.d.p.j.`.c.d.j.j.7.3.p.j.c.!.V.Y.!.j.7.3.3.<.p.j.r.3.j.c.d.p.d.j.A./.!.!.;X/.G.<...3.7...+.<.<.*.} ..7.G.!./..XY.A.!.`.;X!.c.G.Y.j.<.7.7...! ! ! ..j.G.!.!.!.Y.G.G.G.!.!.#X!.G.G.!.!.j.7.j.c.p.r.p.d.c.G.j.V.A.V.G.r.3...} <.<.<.<.<.*.p.!./.j.j.!..XV.j.} <.d.j.j.p.7.c.c.p.3.*.<.} ..<.*.! D J R ! ! U D ( <.<.+.} *...! +.<.*...! ! ..<.j.3.+.",
"c.d.j.V.V.!.#X#X#X.X&X;X#X.X&X#X;X;X#X#X.Xj.7.V./.G.j.c.Y.!././.!.c.p.r.d.j.G.!.!./.!.j.r.<...*.r.p.r.j.A.;X;X;X!.j.j.d.<.3.d.c.c.j.G.!.c.j.V.G.3.p.r.d.V.j.p.j.j.<.*.j.Y.Y.G.Y.G.Y.c.G.#X!.A.!.!.c.j.j.j.r.7.j.c.j.j.j.j.d.c.!.!.V.j.j.p.<...<.!.!.j.r.j.A.G.!.!.!.!.A.j.V.Y.G.j.j.j.j.j.d.p.j.c.!././.Y.c.j.G.j.V.Y.j.d.c.j.j.V.j.p.j.c.V.!.!.!.Y.!.G.c.j.j.7.7.V.j.!.#Xd.} ( <.r.r.A.c.j.j.j.j.d.j.V.<.<.7.r.<.d.j.V.p.<.7.*.j.G.A.G.V.d.j.p.Y.r.( r.Y.V.G.#X<.+.V.Y.j.j.<.<.j.j.r.<.3.!.c.r.V.Y.V.G.!.!.!.!.!..X.Xd.<.j.c.Y./.&XG.<.<.p.j.G.j.<.!.!.Y.A.d.V.V.d.j.j.c.j.!.`.Y.j.V.j.A.G.3.d.r.j.j.j.j.p.d.c.j.d.r.c.c.! n D C r.c.<.( ..p.Y.!.!.V.j.V.r.r.d.;X!.j.c.!./.Y.A.).!.j.! ~ 7.0.j.0.7.j.0.<.d.d.j.Y.!.Y./.j.j.j.j.Y.c.V./.!.G.!.!.7.*.....*.<.r.7.j.c.r.<.r.p.r.<.d.j.d.j.!.V.j.<.3.<.<.7.j.j.j.V.j.d.7.c./.&Xc.j.G.G.j.c.j.7.j.j.p.d.Y./.!.!.G.j.j.V.!.!.G.Y.!.V.V.!.!.G.Y.!.!.!.`././.!.Y.`..X!.!.!.!.G.G.V.j.j.p.j.G.!.Y.V.S.c.G.!.!.!.!.Y.G.!.!.G.Y.A.A.!.G.c.j.j.c.G.A.V.c.j.j.V.c.G.G.j.j.V.!.!.`./.!.V.j.G.A.V.G.!.G.V.G.!.!./././.`.`.`.!.G.A.j.j.V.r.<.V./.G.c.j.Y.Y.d.p.3.<.<.3.j.r.j.j.7.p.j.j.j.j.j.j.j.!.G./.!.p.7.<.<.+.7.c.j.j.c.j.<.<.7.r.d.!.Y.Y./.G.d.7.<.<.3...<.r.j.j.<.<.p.A.&X`.!.V.G.#X#X.X!.c.G.j.} N *.3.! N N C ! p.V.Y.!.Y.G.V.A.!./.`.#XY.!.!.Y.Y.j.<.j.A.j.d.c.c.A.!.V.G.!.Y.!.j.V.j.<.<.( +.*.<.<.j.`.!.V.j.!.!.!.A.} } r.c.c.c.V.!.!.A.j.7.p.<.<.7.<.} ( } ( ( } ( U ! ..<.*.+.3.3.! ..+.+.*.! U ! *.r.<.+.",
"j.r.j.A.A.!..X.X.X.X;X;X&X&X&X#X&X5X&X/.;X`.j.j.!.G.c.V.A.G.!.#X!.j.7.<.7.j.A.!.!.`.!.j.r.<.+.*.c.j.<.r.j.G.Y./.!.p.p.j.p.p.r.3.j.j.A.!.j.p.c.A.V.c.p.7.d.7.<.<.p.<.*.j.!.`.Y.j.A.V.j.c.!.V.p.A.n.j.r.j.c.j.j.!.G.V.j.j.r.7.j.!.&X!.Y.j.7.<.<.p.!./.A.7.r.j.c.!.G.P.G.A.j.d.c.A.j.r.j.V.j.j.j.j.j.Y.!.`./.c.p.j.j.A.V.<.r.G.A.j.Y.A.j.d.j.V.G.V.G.V.V.A.V.c.j.d.r.A.p.j.!.G.d.*.j.!.!..XA.j.j.j.<.*.3.j.3.j.A.j.j.Y.V.G.c.7.j.V.c.!.Y.!.d.<.j.j.j.!.r.d.V.d.G.!.V.( G./.!.!.<.+.p.p.p.r.r.!.A.7.c.!.A.G./.!./.#X!.!.A.} } <.( 7.d.Y.V.<.! r.;X#X3.} /./..X#Xc.c.V.p.p.j.A.j.j.A.p.p.j.d.7.j.j.j.p.j.j.j.d.p.r.j.j.j.j.j.p.d.j.j.<.G.A.<.<.d.c.G.G.#X!.<.7.<.<.7.A..X!.V.Y.A.c./.!.!.~.7.<.j.j.D.7.a.c.3.<.l.c.j.V.!.V./.V.!.A.Y.G.V.c./.&X!.c.j.3.<.<.7.p.j.c.j.r.A.p.7.j.d.r.<.3.3.r.c.!.j.j.7.p.d.d.d.d.r.7.d.j.j.d.c.!.!.p.7.j.c.j.V.j.7.j.j.G.A.!./.!.`.`.A.!.V.Y.!.G.!.Y.d.j.!.!.A.A.!.!.!.!.`.!.j.G.`.G.!.!.Y.A.G.!.G.V.Y.c.c.!..X(.G.V.j.Y./.`././.!.A.j.G.A.Y.V.c.!.!.A.V.!.`.!.V.Y.!.A.j.V.j.A.!.A.A.G.!.!.!./..X!.Y.!.!.G.!..X`.!.!.!././.`.`.`.`.`.`.Y.!.V.V.!.j.7.c.!.j.j.j.c.V.j.V.j.<.7.d.d.<.7.<.<.p.3.7.r.d.G.G.A.!.G.G.j.*.3.3.3.*.7.c.c.j.d.*.r.<.<.+.*.G.V.j./.!.c.A.p...+.! 3.c.A.p.<.7.j.j.!./..XY.G.`.!.!.!.j.d.p.3.! ....R N N C ! r.c.!.!.!.G.c.A.!././.!.V.!.`.!.G.j.<.<.d.<.<.j.d.p.c.c.A.G.j.j.p.G.Y.j.r...3.p.p.7.Y..Xc.Y.!.!.A.!.V.<.+.7.c.A.G.G.G.G.G.G.j.j.r.r.7.<.*.<.3.+.! ! ! ( ! ! +.<.<.7.3.*.*.} +.r.<.! R ..7.7.<.",
"r.j.j.j.d.A././.!.;X;X;X*X/..X#X;X.X!.!.`..X!.V.j.A.V.j.j.Y.!.!.`.!.j.r.<.3.c./.A.!.A.p.d.d.<.! d.j.<.7.V.d.d.j.!.V.<.d.V.d.3.<.7.j.c.A.j.A.G.Y.!.A.c.c.j.r.r.d.j.3.<.r.Y.&X`.!.!.!.j.r.c.Y.V.j.r.j.d.j.A.!.!.!.!.Y.!.A.r.r.G..X5X#X!.Y.V.j.d.r.&X;XV.j.G.7.r.Y.`.j.r.V.A.j.j.j.j.V.j.j.j.c.A.j.<.p.!.`.!.!.G.p.G.Y.Y.d.r.j.A.!.Y.j.7.3.r.d.j.j.d.<.<.d.j.3.<.p.A.c.G.c.7.<.*.p.j.( c.G.3.N <.<.<.<.j.A.r.j.r.<.p.!.G.A.A.j.A.!.V.j.j.c.p.7.j.j.c.p.<.d.d.<.3.j.<...j.`.Y.Y.Y.3.7.d.V.j.7.A./.c.G.;X.Xc.G./.!.!.!.G.V.<.! } <.j.j.Y.!.3.+.A.;X;Xp.<.!..X/.j.c.Y.j.j.G.j.<.7.j.Y.`.G.G.j.<.p.j.j.j.d.j.j.p.r.r.j.r.<.j.V.<.<.d.j.<.c././..Xj.c.Y.A.!.V.j.j.( 3.c.p.V.;X!./..X/./.!.d.r.j.3.<.j.0.r.3.r.r.d.c.c.j.j.j.p.j.A.!.c.j.j.Y.!.Y.!.j.*...+.*.r.p.7.j.A.j.r.p.j.j.r.j.j.r.<.*.3.j.!.c.Y.c.3.<.7.j.j.3.<.7.3.p.j.V.G.Y.G.3.r.p.j.G.c.r.3.r.G.!.!.!.Y.!./.G./.!.Y.Y./.#XY.c.j.A.!.Y.Y.!.`.`.!.!.Y.V.Y.!.!.&X!.d.j.V.c.V.A.A.c.!.!.Y.!.!.G.Y.!.`.&X/././.A.V.V.j.j.Y.!.Y.Y.Y.G.!.`.!.!./.!.c.j.j.A.!.Y.j.j.Y.G.V.!.!.A.!.!.!.!.V.!./.!.Y.G.!.!.`..X`.`..X.X`.!..X/.V.j.c.A.V.Y.c.G.c.d.j.d.p.j.j.c.j.r.} *.<.<.3.j.j.<.d.c.V.Y.A.c.c.3...<.<.7.<.d.!.G.j.j.7.p.c.j.7.<.j.V.V.`.!.7.c.V.} ( ..<.d.Y.j.<.p.V.!.#X#X!..X!.Y.A.j.d.V.V.r.p.<.j.+.R J R D C <.<.j.A.G.!.Y.!.G.!.!.Y.V.c.Y.!.A.j.<.+.+.<.p.<.*.7.p.r.A.c.p.d.c.A.!./.c.A.c.j.!.!.A.!.!.!.`.!.A.G.!.!.j.<.*.j.!.!.!.G.G.A.c.j.j.j.j.j.*.+.3.<.+.......! U ( r.p.<.<.7.7.<.<.r.*.! +.d.c.d.j.",
"*.7.j.j.j.V.!.^.Y.&X&X.X.X.X&X#X#X/.Y.G.!.`./.Y.j.j.d.p.j.!.`..X.X!.c.j.j.7.7.!.!.!.V.r.7.7.<.<.p.j.<.3.r.r.j.j.Y.V.p.d.j.d.7.*.<.j.A.Y.A./.!.!.G.j.d.j.j.r.j.G.V.p.<.<.j.!.`.`.#X!.c.p.j.V.A.V.7.p.7.r.j.A.G.G.j.3.3.d.p.p.A.`.;X;X;X/.j.3.7.d.!.!.j.j.!.c.3.d.G.r.<.<.7.p.j.c.j.c.d.p.d.j.c.j.<.d.!..X!.!.!.j.<.<.j.d.7.p.j.!.!.c.3.<.7.3.3.d.3.3.*.<.j.j.r.p.j.j.F.V.7.+.+.j.l.h s v 7 k j.<.d.j.V.A.7.7.*.( <.j.j.j.V.c.V.Y.!.G.j.A.A.p.r.r.p.3.<.j.r.+.3.j.3.<.j.Y.A.G.Y.A.p.d.V.c.p.c.Y.j.c././.Y.!./.!.!.A.j.c.j.<.7.d.j.p.d.c.r.r.!.&X!.G.p.c.j.r.<.d.c.p.d.V.c.j.p.7.j.#X/.!.j.r.V.!.!.G.j.j.j.V.A.c.Y.j.<.j.A.<.<.j.V.V.7.p./.;Xj.3.d./.A.j.V.c.! ..7.+.3.!.V.!./././.L.<...7.<.3.c.d.j.d.g.d.d.j.j.3.c.G.V.G.G.!.j.7.j./.G.<.3.j.7.+...*.r.r.<.7.j.j.A.V.j.r.d.c.j.j.3.<.7.d.V.j.G.A.d.j.V.A.r.+.*.7.7.r.<.3.p.j.j.<.<.<.7.d.d.7.<.+.7.d.Y.!.G.A.!././.!.!.Y.!..X!.G.j.G.!.Y.Y.!.!.!.!.!.!.Y.!.!.!.`.!.r.d.Y.G.l.p.p.V.!.A.c.G.Y.Y././..X`.Y.!./.Y.Y.G.j.j.A.V.c.c.j.A.!.!.!.!..X#X!.!.A.A.!.Y.j.3.7.j.d.c.j.j.V.V.G.Y.j.Y.!.Y.G.G.!..X#X#X.X`..X#X#X!.`.!.V.j.V.A.V.V.j.V.A.A.A.j.d.j.c.A.j.j.+.<.j.3.<.V.V.<.7.+.<.c.j.j.j.3.<.7.<.*.<.<.j.!.j.r.j.c.A.j.j.p.j.j.c.Y.V.<.<.d.3.r.j.7.7.j.d.j.G.Y.G.G./.!.#X!.Y.Y.G.A.j.p.*.<.<.!.G.} R J D R <.+.j.j.j.!.!.V.7.V..X!.A.j.j.V.c.d.7.} +.*.3.<...<.7.<.r.<.<.j.V.V.A.G.V.A.G.!.`.Y.!..X`..X#X/.Y.G.!..X!.V.j.Y./././.!.Y.A.Y.Y.G.G.G.j.<.+.<.*.} +.<.( ! ! ..7.p.3.<.d.j.d.7.<...} 3.c.V.p.j.",
"3.j.Y.!.A.G.!.!.Y.`.!.Y.!.#X;X`..X/.!.G.Y.!.!.Y.j.r.3.7.j.G.!.`.!.!.j.j.G.<.R 7.!.G.p.<.7.p.d.j.j.j.p.r.<.d.!.j.j.V.c.j.p.r.r.*.<.V.G.!.!.;X!.G.j.r.r.j.d.3.j.!.!.j.3.} *.c.!.#X;X!.A.j.j.c.Y.Y.j.p.<.<.d.A.!.!.r.! ! <.d.d.c.!.`..X;X.Xj.<.r.j.V.j.c.j.j.j.<.r.j.j.r.3.3.p.j.j.V.c.d.j.A.G.!.G.j.j.Y.!.!.!.V.3.! ( p.j.7.<.p.G.!.V.<.<.<.( U ( <.j.<.<.A.G.j.p.7.r.c.A.j.<.<.j.!.} e w w N j.3.7.7.3.7.<.r.j.d.d.j.j.j.G.A.V.V.Y.Y.j.j.!.!.Y.Y.r.<.r.A.j.r.c.!.<.7.7.p.j.c.A.!.c.j.G.A.r.3.p.7.r.j.V.!..X#X`.!.V.r.j.j.<.3.j.j.+.3.A.j.3.Y.#X!.!.G.!.Y.j.d.j.j.j.j.j.c.c.d.7.j./..X.Xj.V.`.;X&X/.Y.A.A.!.!.V.Y./.7.d.V.<.<.V.c.G.p.7.!.!.A.A.!.!.c.j.A.A.<.3...! } j.d.A.!.G.c.V.3.a.C.1.<.j.j.l.j.V.j.3.p.j.3.p.V.G.!.c.Y.j.7.j.!.r.C J <.p.<.( ( <.j.d.p.j.j.G.G.d.7.j.V.d.7.r.7.j.V.!.Y.V.j.j.V.!.G.7.+.<.d.p.j.7.<.7.j.j.<.r.<.+.*.r.j.c.j.3.7.j.G.G.A.A.Y.c.j.G.Y.Y.!.!.A.c.Y.!.!.Y.!.!.!.V.c.G.G.A.G.G.Y.G.3.d.!.!.A.j.j.A.G.V.V.Y.G.V.Y./.!.Y.j.c.Y.Y.!.!.V.V.A.j.j.c.j.j.j.V.j.c.!.!.!./.Y.A.!.!.Y.j.r.c.c.Y.G.V.V.V.V.V.c.Y.Y.V.V.V.G.`.`.`.`./././.`.`.`.!.G.A.G.Y.G.V.j.j.A.!.!.j.j.j.A.V.d.c.d.j.!.j.<.V.A.j.c.<.7.j.p.p.p.<.7.j.*.<.<.<.j.!.c.j.A.j.c.j.c.r.3.<.7.j.j.<.( <.r.7.7.<.<.r.d.c.!.!.Y.#XG.V.;X.X!./.#XA.d.<.*.3.<./..Xc.j.3.<.<.<.*.V.G.j.c.c.j.r.A./.`.G.7.<.r.f.<.<.+.<.*.+.} ( <.r.*.+.} <.j.A.V.G.V.G.G.!..XA.d.!.&X.X`.#X`.!.Y.!.`..X/.!.!.!./.#X.X!.G.!.`.!.!.!.j.<.....( ! ( <.*...+.<.<.r.r.3.7.j.j.d.7.<.<.d.c.j.3.r.",
"V.Y./.!.G.A.G.V.V.A.j.j.Y.`.#X/..X.X/.!.!.Y.A.V.d.3.3.p.d.j.V.A.G.!.j.c.!.d.} <.!.V.7.p.j.j.j.V.c.j.d.d.r.j.!.c.3.j.A.j.3.3.p.3.3.V.c.Y./.#XG.V.d.7.r.j.p.<.r.!.`.A.j.3.r.G.!.!./.A.V.G.V.A.!.Y.G.j.7.<.r.j.c.j.r.*...<.d.j.j.c.G.A.!.!.j.7.3.<.<.3.d.d.j.A.j.j.d.p.7.<.<.7.d.j.c.j.j.V.Y.V.c.j.j.j.j.V.c.V.j.7.+.*.j.A.3.*.3.d.j.j.3.<.r.<.( +.7.c.*.*.j.d.7.<.3.<.7.c.A.p.<.7.j.d.v s +.! p.<.<.3...+.<.r.A.!.G.Y.A.!.`.!.V.j.j.V.r.<.c.!.`.!.<.+.<.j.j.j.Y.!.3.j.c.j.p.p.j./.`.!.#X&XV.p.j.G.!.A.V.Y./..X/.Y.c.r.p.r...+.d.A.d.j.!.G.<.r.Y.!.G.c.G.A.j.7.p.d.c.V.j.j.j.p.r.j.!./.Y.*.j.!.`.G.V.V.V.j.c.j.7.j.#Xd.r.j.j.V.!.c.V.V.c.!.j.Y.`..Xc.j.c.!.`.Y.!.j.<.<.j.p.G.!.!.V.j.*.p.Y.j.p.j.0.j.j.c.a...1.V.a.<.j.G.G.d.V.V.j.!.!.p.( ( <.7.<.<.! ! <.3.<.3.p.p.r.<.<.j.c.d.3.r.d.G.A.G.A.j.j.j.d.j.j.<.<.7.r.r.j.j.3.r.j.j.7.j.<.} } <.d.A.!.V.c.V.A.Y.!.!.A.<.7.Y.!.Y.!.G.c.j.G.!.Y.G.Y.!.!.c.d.j.c.c.G.G.V.j.r.j.V.j.j.r.p.A.A.V.G.!.Y.V.G.!.Y.A.j.j.A.G.!.!.A.A.A.j.V.A.j.j.V.V.c.V.G.!.Y.!.!.G.!./.`.!.c.r.j.!.!.A.j.p.p.j.V.Y.G.j.c.G.G.!.!./././.!.!./.&X.X/.!.!.!.!.!.Y.A.j.j.!.Y.c.Y.j.j.p.<.j.Y./..XV.3.p.j.c.!.j.j.d.7.r.3.+.d.G.<.<.<.3.j.l.d.j.j.d.j.j.j.<.<.3.c.c.V.d.+.<.j.<.+.+.<.j.V.V.Y.Y.!..X<...A.Y..X#XY.c.d.7.<.7.p.!.G.`.V.7.3.j.V.c.G.!.V.j.r.A.Y.!.V.j.r...! *.3.+...<.<.<.<.! ! <.r.<.*.+.3.c.G.!.#XA.A.A.Y.V.( ! G..X!.!./.`./.!.!.!.!./.!.Y.G.!.&X.X!.V.G.!.!.!.G.3.<.*.+.( R ! } <...} ( ( <.3.<.<.p.j.d.p.r.d.j.j.j.3.r.",
".X`./.!.G.G.G.c.j.d.r.j.c.c.!././..X`.!.!.Y.A.j.j.p.d.j.p.r.j.j.d.A.V.j.Y.!.j.7.G.c.p.c.Y.c.G.!.A.j.r.r.p.j.A.V.3.r.j.c.p.p.j.j.p.j.d.V.!.!.j.j.d.3.7.j.r.<.r.Y.!.V.A.Y.!.&X/.G.G.j.c.Y.Y.G.G.V.A.V.j.j.j.V.j.3.7.j.j.r.p.j.V.j.A.j.j.A.j.j.d.<.<.3.*.<.j.G.!.j.A.j.j.d.p.3.3.p.j.j.d.A.Y.c.j.d.d.j.c.c.j.j.d.r.<.3.j.j.<.*.3.<.<.r.7.7.j.c.j.j.j.j...*.p.<.7.j.<.<.<.j.!.c.d.j.j.j.d.j.G.<.!.p.<.j.7.3.3.<.j.!.Y.Y.!./.#X/.c.p.j.j.d.3.j.Y.#X!.c.r.<.d.c.G.!.c.d.j.c.c.j.j.j.j.7.r.Y..XA.j.G.&X,X&X!.G.Y./.`.!.j.d.3.<.*.<.j./.!.G.#X.Xj.j.!.`.!.j.3.7.<.<.3.p.A.!.!.c.j.j.j.j.!.!.j.+.j.!.!.c.d.j.j.d.j.j.j.G.!.c.p.j.!.`./.!.!.`./.;XG.!.!.V.j.3.p.G.A.3.j.d.j.d.j.r.j.G././.d.<.j.!.A.V.A.j.A.V.j.a.#.3.A.r.7.c.G.V.3.j.V.V.!.Y.j.d.p.<.<.<.*.( } <.3.7.3.<.<.} } +.3.c.G.V.j.7.j.c.A.!.j.d.j.p.d.d.3.3.r.r.<.r.p.3.7.j.r.<.r.<.*.<.7.3.d.A.G.V.j.j.V.G.!.!.p.j.!.!.G.G.V.j.j.V.Y.G.V.A.G.!.G.j.j.V.Y./.~.c.j.d.j.j.d.p.7.r.V.c.j.G.!.!.!./.Y.Y.!.A.c.A.Y.!.G.c.c.V.c.A.A.j.A.Y.!.!.!./././.`..X`.!.Y.!.G.c.+.p.G.!.c.r.7.r.j.A.!.G.c.A.!.!.!.!.!.!.!./.`..X;X#X`./././.!./.!.!.j.c.!.G.G.`.j.7.<.+.d.V.!.!.A.j.r.7.p.j.j.3.<.*.<.*.} j./.c.d.3.p.Y.V.r.j.V.j.j.7.<.} <.j.!.G.G.A.j.V.G.3.<.*.7.V.G.A.A.A.!./.c.V.d.! j.;X!.Y.G.j.+.<.j.!.j.V.+.D U 7.!./.c.j.V.j.<.A.!.A.j.d.2.} ! +.7.<.<.<.*.7.j.*.R ..<.......<.d.j.G./.V.V.A.Y.j.*.7.`./.!.G.!./.`.`..X!.!.!./.!.A.G.!.!.A.j.j.A.!.G.j.<.<.3.<.+.! R ! *.( ! ! ! <.r.<.d.j.j.p.7.r.j.c.c.j.r.p.",
"#X!.!.G.A.Y.!.!.j.j.j.c.p.<.j.G.!.!./.!.!.!.Y.A.A.j.V.V.d.p.j.j.d.A.G.j.j.G.j.+.r.j.r.j.j.d.A.!.!.A.r.3.d.j.j.V.j.7.p.j.j.A.A.Y.G.A.d.j.c.j.3.p.p.<.<.r.r.<.p.Y.G.p.j.V.!..X!.A.j.j.c.G.G.V.c.j.V.A.V.j.c.!.Y.p.<.A.!.c.j.c.V.V.!.j.j.j.j.j.j.3.d.j.*.*.r.j.!.G..X!.V.A.c.7.<.<.j.j.j.Y.!.Y.!.!.V.V.V.G.G.V.d.<.<.3.7.<.+.<.r.<.<.p.j.p.j.V.V.c.d.p.<.p.j.r.d.j.<.7.7.j.V.p.d.G.d.p.c.&Xj.j.`.A.3.V.V.p.r.+.r.!.!.G.G.c.c.V.j.p.7.*.*.*.p.7.G.!.!.V.7.7.j.c.j.*.<.3.j.A.A.V.j.<.3.p.!.#XY.j.V.!.!.`.`.!.!./..X`.Y.V.<.+.<.<.j./.G.`./.<.! j..X!.#Xj...<.<.<.<.3.j.G.V.p.<.<.p.p.Y.!.A.V./.&X!.j.G.j.j.g.c.!.!..XA.V.d.j.!.!.Y.!./.;X;X.XY..X.Xd.Y.V.A.V.r.} r.7.r.j.V.j.j.j.Y.!.r.0.Y.[.!.L.V.j..X~.A.A.j.V.Y.7.7.j.V.j.<.7.j.A.!.G.7.3.<.*.<.<.} 3.d.r.p.l.d.<.<.+.*.<.r.c.!.Y.j.j.G.G.3.<.<.<.p.r.r.r.7.3.r.j.j.r.p.p.d.V.j.r.r.<.3.j.j.7.r.c.!.j.7.j.V.c.c.Y.A.G.Y.V.j.c.j.j.A.!./.!.G.A.G.Y.Y.j.V.Y./..XY.j.j.7.p.j.c.c.j.j.c.c.V.Y.!./././.A.G./.!.c.V.G.!.Y.Y.A.A.Y.G.c.c.c.G.!./..X.X`.#X#X;X;X/.!.!.!.G.d.Y.!.!.G.j.c.A.!.!.!.!.c.V.!.!.!.!.!.G.G.!./..X&X.X/././.!.!.!.!./.V.V.!.A.G./.j.7.p.r.f.3.j.V.j.A.c.j.j.7.j.<...! +...+.G.&X/.7.<.<.V.A.<.<.Y.V.j.3.3.*.<.<.r.V.A.!.!./.V.+.} <.<.7.j.A.Y.V.G.!.!..Xj.N <./.`././.A.<.<.A./.A.j.<...! R ! j.j.3.7.<.} d.j.j.j.3.+...! ..j.d.d.p.*.<.j.<.D ! *.! ! ( *.r.j.c.c.A.!.!.!.G.G.`.#X!.!.Y.!.!./.`..X!.Y.Y.!.!.c.j.j.j.j.p.r.j.Y.V.r.<.r.r.3.+.! U ! } ! ! ( *.r.j.j.j.d.j.j.7.7.j.j.j.d.7.3.",
"!.A.c.j.j.A.!.!.Y.V.j.c.p.<.p.j.V.!.!.!.!.!.G.V.!.A.Y.Y.j.j.c.j.j.!.!.A.A.Y.j.<.r.j.3.3.r.3.j.j.G.G.j.7.p.j.j.j.j.7.7.7.j.A.A.!..X!.j.j.d.d.3.r.p.<.<.r.p.7.p.j.c.<.<.p.j.A.V.j.p.j.A.G.V.j.j.j.V.A.c.7.r.G.Y.r.7.A./.!.Y.c.j.V.!.j.j.j.r.7.7.+.<.r.<.<.r.j.A.!.!.V.p.p.j.r.<.r.j.V.V.G.G.V.!.!.G.A.A.!..X/.A.p.<.r.<.<.+.*.7.<.<.r.j.j.d.j.V.j.7.<.r.p.7.r.p.+.3.j.j.j.7.! ! <.d.A.d.r.j.!.V.G.j.Y.G.7.r.( ! r.j.j.c.r.3.d.p.p.j.3.<.*.j.+.r.V.Y.^.c.d.V.G.j.*.! 7.!..XG.j.j.j.7.r.A.!.Y.j.j.A.j.!.`./..X.X!.!..X!.j.7.3.3.j.G.c.#XY.N h <.!.Y.7X/.<.3.r.j.A.A.Y.Y.A.c.r.r.V.j.j.G.c.#X.X/.j.<.!.j.d.d.j.!.!.!.A.j.d.j.Y.V.c.!.!.#X`.j.j.`.;Xj.d.G.!.j.<.} d.r.d.j.A.V.!.!.!.Y.<.<.p.V.!.`.c.0./.~.G.!.!.!.~.j.<.j.j.j.<.<.7.j.`.!.r.*.+.*.p.<.<.d.d.<.<.j.j.<.d.r.3.7.d.j.A.A.G.Y.`.!.D v ! <.<.<.<.<.<.<.3.c.A.d.V.V.j.V.A.c.j.r.r.j.j.p.3.7.!.j.7.j.!.A.j.A.c.V.c.d.j.A.j.A.!..X#X`.!.A.G.!.Y.A.G.!..X#XY.V.j.p.d.d.j.j.j.j.V.V.V.A.Y.!.!.!.G.A.!.Y.j.c.A.!./.`.Y.I.!.G.j.V.A.!.!./..X`./.&X.X;X;X.X`..X.X/.!..X!.!.G.c.Y./..X&X`.!.V.V.!.!.Y.!.!.c.c.Y.!.!.#X#X`./.!./.!.!.!.!.c.c.V.j.j.c.r.j.V.p.3.+.7.j.r.j.c.c.A.j.j.j.<.} *.<.p.!.&X`.r.<.*.c.!.r.p./.!.c.j.G.V.j.<.3.A.A.G.!.!.j.( } p.3.7.d.A.Y.A.!.#XG.Y./.Y.&X#X/.!.!.!.c.d.V.!./.A.!.!.A.! y ! c.7.+.( ! <.7.j.d.! D ! U ! j.c.c.c.j.<.<.*.R ! +...*.<.<.p.G.Y.c.!.`.!.G.V.A.!.A.Y.Y.Y.Y.!.!.!.!.Y.j.j.A.A.c.j.j.j.j.d.j.V.G.j.r.3.d.p.3.+.! U ! ! ! ! ! +.<.r.j.p.<.r.j.r.7.p.7.<.<.2.<.",
"!.I.V.V.j.A./..XY.j.p.j.j.j.c.p.c.Y.`..X/.!.c.p.!.G.!.!.V.c.j.7.p.c.G.!././.Y.A.d.j.<.<.p.j.V.j.j.c.c.r.7.d.r.<.p.r.7.<.r.j.j.!..X!.V.j.p.j.j.j.d.3.3.d.j.p.3.3.d.+.<.j.j.j.p.3.<.j.G.G.V.j.d.c.j.V.c.7.r.!./.d.j.A./.;X.Xj.p.c.!.j.j.A.c.A.A.p.d.7.<.} 7.c.j.G.G.j.p.j.A.j.7.3.d.c.V.G.V.c.Y.!.G.!..X.X/.Y.V.V.d.j.r.<.<.+.<.<...*.p.j.3.<.7.<.<.*.7.<.+.j.A.<.3.V.V.V.p.! ! +.*.r.} s j.`.V.!.V.G.V.3.j.} N D ..3.c.j.p.j.d.7.3.3.<.*.c.+.*.3.<.G.j.r.j.A.j.<.+.p.Y.!.!.c.r.<.c.j.V.A.j.r.3.<.!..X!.!.;X;X.X&X`..X/.!.j.d.V.c.7.G./.V.j.V.A.!.!.Y.<.<.<.j.V.C.j.j.c.Y.j.p.j.r.<.r.7..X!.!.j.j.!.j.j.j.j.!.!.A.!.d.7.A.!.Y.!.&X;X/.A.j.!.!..Xc.j.A.!.!.j.} r.j.j.p.r.j.`.;X;X!.<.1.p.a.A.!.V.l.d.c.j.Y.!.Y./.G.7.A.A.V.r.<.<.j.V.V.<.<.<.p.G.j.} *.<.<.d.Y.!.A.c.j.<.*.7.j.c.Y.!.d.d.!.r.d.A.r.j.p.<.<.p.7.r.Y.j.7.G.Y.r.p.j.V.j.r.r.j.Y.A.j.7.7.r.p.j.V.j.d.j.7.j.j.j.!.`.G.!.!.`.#X/.Y.c.V.G.!.!.!.!.&X;X/./.j.G.Y.d.r.c.V.c.A.V.j.j.j.Y.`..X!.Y.!.G.j.A.Y.!./.`.G.V.!.c.7.c.Y.!.!.!.!.Y.G./..X#X#X`..X#X`.Y.!./.A.c.A.A.!..X.X#X/.!.A.A.`./.G.!.!.G.A.!.!.G.#X&X#X`./.`./.!.Y.Y.j.d.d.r.r.<.+.c.V...} ..3.j.r.<.r.r.c.j.d.j.j.<.7.d.A.#X.X!.r.*.<.j.c.j.Y.!.V.d.d.`..X!.A.!./.!.A.G.!.j.d.V.!.Y.Y.E.Y.G.G.#X`.!.!.!./.;X/.`.!.!.!.!.j.j.!.;X!.!.!.#Xr.s C j.<.} <.<.<.<.j.3.( R *.( ( j.j.j.c.!.7.! <.<.( ! ..<.<.*.3.A.!.c.G.!.A.A.Y.A.!.!.c.A.G.G.G.G.Y.Y.c.3.<.j.V.A.!.!.j.j.j.V.Y.G.j.r.r.j.j.r.<.( R ! ..+.( ! ..%.<.j.j.*.+.<.<.3.3.*...<.3.<.",
"c.c.Y.!.G.!.`.`.!.G.j.<.*.r.d.j.!..X;X&X.X!.j.7.V.G.A.V.A.V.j.d.j.j.A.Y.Y.!.Y.j.j.j.7.r.j.j.V.d.3.j.j.3.<.j.G.r.<.0.j.j.j.V.!.G.Y.l.3.a.c.c.c.d.j.j.7.7.j.j.r.<.<.<.7.c.c.r.<.7.3.r.j.V.j.d.p.d.r.d.Y.j...p./.A.j.!.&X.X`.c.<.j.j.<.j.~.!.+X~.7.j.3.7.3.7.G.Y.j.c.A.j.j.j.<.<.<.j./.!.A.j.j.!.`.`././.!.!.!.!.A.7.<.7.p.<.<.3.r.<.! <.p.7.3.} ! ( r.r.<.j.Y.A.j.V.j.N.[.;Xj.<.} <.j.N > ] #Xl.C.W.D.#.} i.0.+.] +.<.j.V.j.i.7.<.<.*.| <.d.j.p.0.p.A.G.j.j.c.p.<.} <.g.<.<.l.j.7.!.L.j.j.c.*.r.A..X.X#X!.!..X/..X`..X&X`.Y.Y.!.G.j.r.c.c.j.A.c.r.V.G.j.r.r.p.d.j.j.V.G.G.j.<...<.r.7.} <.j.A.c.<.p.c.j.j.d.j.j.A.Y.c.j.!.`.!.&X;X`.;X!.j.c.V.j.j.j.Y..X!.p.7.j.G.j.<.<.j.c.Y.!.j.R <.3...V.c.3.7.7.! ( j.j.!.d.3.R 7.Y.!.j.3.3.j.c.j.<.*.j.G.j.j.p.<.7.p.j.!.!.<.! 3.r.*.c.r.j.j.j.j.7.<.j.<.<.p.j.r.<.p.j.j.G.!.j.r.p.7.3.d.j.3.<.r.p.c.G.V.c.r.7.p.r.d.j.p.j.j.j.j.c.c.!.#X.X;X.X!.!.`.!.!.!.A.!.G.G.!.&X;X!.!.A.V.c.c.A.G.V.j.G.G.Y.j.A.G.!.!./.!.Y.A.V.A.Y.!.!.!..XG.d.3.3.V.!.!.!.!.V.3.r.!.#X#X#X#X#X`.!.G.!.!.G.j.j.V.!.!.#X`.#X`.G.G.!.!.!.`.`.G.j.V.!.!.`.`.`.`.`.#X#X!.j.j.j.j.j.j.j.<.*.7...! ..<.r.r.7.r.j.p.p.j.7.<.+.r.V.Y./.&X.XG.V.j.y.7.a.G.!.!.3.7.G.#X/.!.!.!.`.G.G.c.j.r.A..X;X`.!.!.!.G.G.!.#X!.!.!.!.#X#X`.`.G.V.V.j.j.!.5X#X!.!.j.j.! } <.*.<.<.<.r.7.<.<.} ( ! U ! } ( ..<.!.j...+.*.*.<.*.<.+.<.p.d.j.V./.!.G.!.G.G./.Y.A.!.!.!.!.!.!.!.!.j.7.p.c.!./.!.!.!.G.V.V.c.A.j.j.j.<.*.! N C D } p.+.R J B } 1.7.<.<.3.7.r.p.r.3.r.7.<.",
"!.!.!./.!.!./.#X&X!.!.j.r.<.<.p..X&X.X/./..X!.c.G.A.V.c.j.p.7.d.j.j.j.j.j.A.G.c.!.G.7.7.c.G.V.d.j.G.c.d.j.Y./.c.p.j.j.j.j.L.!.G.l.r.#.1.j.C.!.!.j.j.j.j.j.r.<.<.r.7.d.V.A.j.j.c.d.j.j.j.j.j.j.d.r.r.c.r.( d.!.c.p.A././.`.L.d.A.!.a.j.L.!.~.!.V.j.d.d.*...d.j.r.d.c.r.7.r.<.<.<.c.!.V.j.j.j.A.V.c.G.`..X/.!.!.A.j.3.d.j.j.j.j.j.d.*.<.<.#.<.*.} <.c.l.1.3.d.j.j.j.j.G.#X:XD.p.<.a.C.<.B !.1.m 7.).V.! F | | ! ~ | >.j.!.~.!.j.5.<.<.3.r.r.r.j.c.j.Y.A.j.j.c.j.r.! } p.i.<.j.N.j.[.[.C.j.j.<.l.!..X/.;X;X`.#X`.!.!.`.&X.X!.!.!.!.V.d.j.d.d.c.j.7.d.c.V.c.j.d.7.3.j.G.Y.c.d.<.+.} p.f.*._ <.j.j.3.<.<.<.j.V.!.Y.c.#X!.c.G.!.!.#X&X#X;X!.p.p.j.j.j.j.V.!.c.<.<.p.j.j.3.7.p.7.j.A.c.<.<.<.<.A.<.! c.p.7.p.p.} c.G.j.<.<.j.!.c.<.<.j.A.G.d.3.j.V.j.j.c.j.c.j.j.A.j.! N <.G.c.!.j.j.d.j.j.p.%.p.3.3.p.r.p.r.j.p.<.j.!.7.7.p.3.<.j.A.j.r.r.<.<.r.j.c.d.7.r.<.7.p.p.j.j.A.A.Y.!.`.`.!./.&X.X.X#X!.Y.!.!.!.A.c.V.!.!.A.A.!.c.j.V.!.!.G.V.A.V.G.c.A.j.A.A.A.G.Y.A.c.c.A.!.!././.G.d.<.<.j.A.V.c.A.c.d.j.!.`.#X#X`.#X#X`.!.j.j.j.j.V.G.!.!.#X#X#X#X!.!.!.!.`.`.`.G.j.V.!.#X!.!.!.!.!.`.`.G.j.p.j.j.p.p.j.V.r.p.*.} <.<.<.r.r.j.j.<.r.Y.j.*.7.j.Y.!./..X!.V.G.Y.G.j.d.Y.#X`.7.d.!.#X/.Y.Y.!.!.A.c.d.j.p.A./.#X`.`.`.!.!.!.`.`.!.!.!.!.#X#X`.`.G.V.G.V.j.!.;X#X!.G.7.7.<.p.7.<...*.<.+.( ..*.+.} ( ( ( ! ! <.U <.<.( <.d.p.r.7.<...<.7.r.j.c.!./.!.Y.A.G.G.j.U.!./.!.!.!.!.!.Y.j.p.j.c.Y.!.!./.!.j.c.j.j.V.A.j.d.+.R N J ( R } 0.1.! R Y F ( 3.<.<.<.<.7.7.7.7.r.3.*.",
"`./.!./.!.Y.^.#X`.!.`.!.V.7.<.d.`.;X&X!./.&X.XG.!.!.G.A.j.<.*.r.d.d.d.r.7.j.V.c.!.!.p.3.c.A.j.p.j.j.d.p.j.Y.!.j.0.j.D.C.G.).[.W.c.j.3.r.j.V.~..XY.A.c.G.G.j.3.7.<.3.p.j.V.V.V.A.j.j.d.j.c.V.V.c.V.d.j.d.3.V.!.p.#.0.j.V.!.!.A.`.;XG.j.V.!.D.V.!.j.j.p.....j.V.7.7.c.r.<.<.<.3.j.!..XY.G.P.j.V.j.3.j.!..X/.!.!.V.7.*.p.r.3.r.<.j.j.<.7.d.j.j.7.<.3.j.r.#.<.r.a.a.j.V.D.L.~.C.g.<.<.7.V.!.;X5.U o.G.j.! ! #.! ! ] ! ] i.!.$X~.j.<.<.7.j.j.<.<.l.Y.!.`.!.V.A.Y.A.j.j.#.i.G.C.G.D.j.!..XY.j.c.p.A.!.V.c./.#X/..X/.G.G.!.#X&X`.!././.Y.c.j.j.j.c.c.V.p.j.j.j.d.<.<.<.<.j.j.3.<.p.p.<.3.d.7.+.3.j.d.j.j.<.+.p.j.!.!.c..X/.A.G.!.!.`.!.A.!.A.p.j.!.!.G.j.A.!.A.p.r.j.j.A.d.d.j.7.j.Y.G.<...*.3.!.<.C r.`.Y.d.7.<.!.!.!.G.<.f.!.j.<.r.c.V.Y.c.d.j.A.V.V.j.A.c.p.r.j.7.! ..r.Y.p.r.7.c.c.j.V.j.7.c.j.j.c.7.j.p.j.d.*.r.j.+.3.d.p.r.A.!.c.r.d.7.1.7.d.j.d.3.p.d.j.j.j.V.A.Y.!./..X&X.X!.!..X`.#X.XG.j.G./.`.!.V.j.G.!.V.V.!.j.p.j.A.c.j.j.c.j.A.V.A.j.A.!.V.A.A.A.V.c.A.Y.!..X`.!.G.d.d.c.G.j.j.j.c.c.A.G.!.!.!.!.!.`.`.!.p.7.p.V.!.!.!.!.`.`.!.`.`.!.!.!.`.!.!.G.V.G.!.#X#X`.`.`.`.#X#X!.M.j.G.G.p.<.j.!.j.7.*.*.r.7.<.w.G.!.n.<.3.Y.V.<.7.r.r.j.Y./.G.p.j.c.V.r.<.V.`.Y.d.A./.&X.X!.Y.`./.Y.A.j.V.V.!./.!.`.#X#X`.!.!.`.!.!.!.!.!.;X#X`.!.G.j.V.V.j.V.!.`.!.j.<.} +.<.+.<.! +.<.! ( <.<.! ( } ! R N N ( N N N n U <.d.j.r.<.! ..<.<.j.j.A././.j.j.Y.j.3.Y.!.!.!.!.G.A.!.G.j.j.c.A.!./.!.Y.G.V.G.A.j.j.j.j.3.} U N R ..J ! 1.d.! | <.D ( r.p.7.7.j.j.j.c.7.3.<.} ",
"!.!.!.!.!.G.G./.Y.!.!.!.j.<...*.j./.&X/.!..X`.A.!.!.Y.Y.V.7.<.p.p.j.j.p.3.r.j.c.G.Y.c.j.j.j.j.j.j.j.3.3.p.d.d.<.+.0.D.!.).[.!.j.r.j.j.l.l.C.!..X!.c.r.j.A.d.<.<.<.p.j.G.!.!.!.!.V.j.p.j.Y.!.!.!.!.j.j.d.7.d.j.3.p.j.j.j.A.V.j.L.#X!.j.C.!.j.i.D.Y.d.<.*.j.#X!.r.7.!.A.7.<.( } 3.G.#X#X.X!.V.V.A.d.j.A.!.G.A.c.j.+.+.r.p.r.7.r.V.d.3.7.d.j.c.j.7.3.r.1.<.p.c.c.j.N.!.G.j.j.p.<.! ~ } p.j.W.G.g.] i.<.o.<.0.} ! o.~ +.p.!.!.C.p.<.3.1.j.d.*.7.C.G..X;X.X!.!.!.A.j.g.#.0.W.L.V.L.!.!..XG.j.G.j.L.Y.d.d.A.!.!.!.!.G.c.G./.&X&X`.!.!.!.!.!.G.V.V.G.`.G.V.j.r.<...} <.7.j.d...! 7.j.p.3.j.j.3.d.j.r.j.c.<.} <.r.G.!./.!.Y.V.Y.!.!.!.!.j.j.p.<.j.L.c.j.c.V.A.c.j.j.j.j.j.r.p.j.p.j.c.j.<.+.+.} Y.!.r.j.d.<.R <.Y.V...<.A.7.3.p.<.<.j.A.j.G.V.j.c.A.V.V.j.Y.A.p.r.p.<...*.*.j.<.*.7.c.j.7.3.3.3.j.7.7.j.*.<.<.j.A.d.j.d.7.r.7.7.3.p.d.<.! <.d.7.<.<.7.r.3.j.c.V.j.j.V.!.`..X&X#X;X#X!.Y././.#X.Xc.r.j.!..X!.Y.V.Y.!.A.V.V.j.j.c.c.j.V.!.Y.G.Y.c.V.c.!..X!.G.V.V.A.A.A.A.!.#X!.`..X!.!.Y.Y.j.d.j.V.!.Y.j.V.V.V.j.V.!.!.G.p.p.j.G.!.!.!.!.!.G.V.G.!.!.G.!.#X!.!.!.!.!.`.`.#X`.`.`.`.#X#X!.!.`.#X!.p.<.j.G.p.*.( +.d.j.*.<.V.c.j.<.7.j.d.<.7.3.<.<.d.j.p.<.7.3.3.<.<.V.!.j.j.!./..X#X!.Y.`.!.Y.G.j.Y.!.`.!.G.!.`.!.!.!.!.!.!.!.!.!.`.;X#X!.!.G.V.G.G.V.V.G.G.V.j.j.! ! ! } 3.+.<.#.( r.j.+.J } ..U D N c J C N n J R +.A./.G.d.+.<.*.<.d.p.p.Y.Y.3.r.!.V.p.A.G.Y.!.!.c.j.G.V.j.j.A.Y.!.!.!.G.I.j.r.7.p.j.c.p.*.} <.*.} ! N R <.r.! #.0.! ..<.r.7.p.A.A.c.G.r.7.<...",
"!..X`.!./.!.!.!.!.!.Y.Y.V.3.*.<.*.c.!.Y.Y.`./.A.A.G.V.V.V.j.j.c.j.j.j.j.d.j.c.j.c.j.Y.G.j.j.A.c.c.j.7.7.r.r.p.7.+.<.j.!.[.).l.<.<.7.j.A.G.G.A.C.!.d.<.r.A.c.d.d.r.j.V.G.!././.!.!.c.d.V./.!.!././.V.j.j.3.<.r.c././.Y.A.A.j.d.j.G.G.j.C.!.V.p.C./.j.7.7.A.#X!.d.j.&X#XY.j.<.( } 7.A.!.`.!.j.d.j.p.p.j.j.j.j.c.j.j.j.p.c.V.d.j.d.7.j.j.7.r.j.d.<.1.p.d.j.A.!.Y.G.j.).!.N.7.+.~ Y +.<.} ! j.N.<.>.0.>.~ <.1.} } >.1.0.j.V.C.j.j.j.0.<.d.r.<.c.!.C..X&X`.!./.!.j.r.p.<.<.j.l.j.V.[.;X$Xc.a.C.j.!.!.V.Y.G.Y.!.!.Y.!.V.V.Y.`.&X`.!.Y.!.!.!.!.Y.c.A.!.V.j.j.d.p.<.<.j.A.Y.j.} ! <.c.V.c.j.j.d.j.p.<.p.j.p.*.<.p.A.G.`.`.G.c.Y.!.!.!./.`.G.j.7.r.j.j.A.G.A.V.j.j.j.j.d.j.j.V.A.j.j.j.r.r.3.7.( d.!.A.d.! ! R j.`.d.R +.7.3.<.+.+.<.j.!.A.G.V.j.j.c.j.r.r.Y.!.c.j.j.r.<.( ! 7.3.<.r.r.<.7.<.<.<.d.<.<.p.<.3.<.j.G.j.V.j.V.j.<.<.<.*.7.3.R *.r.<.( ..3.j.7.r.r.7.7.d.c.!.!./..X`.#X`.c.j.A.!.;X;XG.d.j.G./.!.Y.j.A.!.c.c.c.A.G.A.j.j.G.!.!././.c.c.V.`..X/.Y.V.c.V.V.A.Y.!.`.V.G..X`./.!.V.d.d.c.!..X!.j.j.j.j.j.j.V.V.j.j.j.V.!.!.G.!.`.!.G.j.j.G.V.V.!.!.j.j.j.G.!.!.G.`.!.`.#X#X`.`.!.!.#X#X!.j.j.!.!.3.( R ! r.j.<.<.7.<.<.7.j.V.<.! ..<.<.+.+.+.+.<.d.3.7.p.j.!./.A.V.!.Y.!.`.!.c.G.!.!.G.j.Y.`.#X!.V.G.!.!.G.!.!.!.!.!.!.!.#X#X`.!.G.!.!.!.!.G.V.V.j.7.<.p.} } } <.j.r.<.} <.!.!.+.( ..! D ! ( R ! ! ' } d.<...!..XY.j.<.<.+...r.<.*.j.j.} <.!.!.G.V.V.A.!.!.c.j.G.c.d.d.j.c.Y.!.G.!.!.j.3.<.d.A.!.d.+.} p.Y.d.! D ! 1.<.U ( <.! ( ..3.r.j.Y.G.j.A.j.j.p.3.",
"/.&X&X#X&X;X`.!.!.!.A.!._.c.j.G.j.G.!.!.!..X/.G.G.A.l.z.j.j.j.V.c.j.j.c.V.Y.G.j.j.7.c.A.p.j.c.j.!.Y.j.p.d.p.j.j.g.a.j.W.).!.j.} <.1.j.C.!.!.c.p.p.<.} +.r.d.d.j.r.d.j.j.j.A.Y.G.!.c.p.j.!.V.j.c.!.c.d.j.j.d.s.j.!.~.G.A.C.j.j.c.D.l.p.a.V.V.D.[.Y.j.d.d.j.A.c.c.!.;X#X/.!.c.r.<...7.j.A.V.p.3.r.r.p.j.j.p.p.c.Y.A.Y.j.c.j.*.<.*.a.!.A.*.+.r.d.<.<.1.7.d.C.L.V.j.j.!.G.l.#.Y ! o.1.7.<.} i.j.a.j.j.<.! +.<.>.<.>.7.7.1.5.a.j.j.V.r.<.d.r.p./.#XY.#X#X/.!./.!.j.p.0.>.! <.j.p.j.)./.!.p.1.c.l.!.!.!./.G.A.!.Y.G.!.G.V.c.!.`.!.!.!./.Y.A.!.!.Y.Y.Y.j.d.p.d.j.d.j.A.!.!.j.*.*.p.A./.G.c.c.A.V.p.<.d.Y.A.7.7.d.c.j.V./.V.A.!.`.!.!..X#XY.A.p.<.<.3.G.!.!.!.!.!.!.V.r.<.r.j.j.7.3.7.3.3.<.j.r.r.7.3.<.<.p.j.!./.!.G.V.*.<.<.+.*.<.j.Y.A.A.c.j.j.j.p.<.3.j.V.j.d.d.r.r.*.<.r.7.<.<.<.7.c.c.j.3.d.r.p.p.r.j.j.j.d.3.d.c.j.j.3.r.7.<.j.G.3.r.d.<...<.r.V.7.<.<.<.d.A.A.A.!.!.`.`.!.c.*.} <.j.`.;X!.V.V.A.!.!.!.j.c.G.c.c.c.A.A.c.j.j.j.j.A.!.!.j.j.A..X`.!.Y.A.A.c.j.V.!..X`.c.j./..X!.!.c.j.j.A./.#X!.c.V.j.j.V.V.V.j.j.p.j.V.G.G.G.!.#X!.!.V.V.V.V.V.!.;XG.j.V.!.#X#X`.!.G.!.#X`.!.!.G.j.!.#X!.G.!.`.!.r.+.R ! 3.r.<.<.*.<.3.3.d.j.<.! } <.<.+.+.} } <.j.p.d.c.A.Y.!.!.Y.!.Y.Y./.!.j.c.!.!.G.j.Y.`.;X!.j.V.!.`.!.!.!.G.G.!.!.`.;X#X`.!.G.!.!.!.!.V.7.<.V.p.} +.+.<.+.} r.<.} } d..X`.j.*.! C N ! <.+.} ! <.p.!.r.! j.j.p.p.} ..} } 7.<.+.p.r.} *.G.`./.A.A.G.!.!.A.c.G.c.d.r.r.p.c.G.J.G.c.c.c.c.c.j.G.V.<.} 7.!.c.! U ~ 0.*.Y ! ....} +.r.j.A.!.!.A.A.V.c.j.j.",
"Y.!./.#X&X;X/.V./.!.G.!..XV.j.Y./.`..X.X`./.!.V.G.A.V.V.j.p.r.c.Y.V.c.c.c.A.G.j.j.<.p.j.<.<.7.7./.!.c.j.j.d.r.3.j.D.W.C.V.!.C.7.3.1.p.l.L.~.A.j.j.j.7.<.7.d.j.j.d.j.j.d.j.V.G.G.G.A.j.d.V.c.d.j.Y.c.r.p.j.j.3.<.j.V.j.j.d.1.0.d.D.a.5.i.a.j.G.`.j.p.j.j.c.c.j.A.#X.X!.Y.!.A.j.<.*.<.d.j.j.p.7.j.V.V.Y.A.d.r.j.A.d.j.r.d.p.<.<.r.c.G.<.! } 7.j.c.j.7.<.7.j.j.j.d.j.j.j.V.5.! U #.<.<.j.7.<.V.V.l.j.5.+.<.<.1.p.1.<.<.>.+.5.j.j.j.p.r.c.a.a.`.#X~.&X#X!.!.`.!.j.p.0.7.0.N.g.} <.j.d.V.p.3.V.V.!.A.A.Y.V.G.!.Y.!.!.G.A.V.!.`.!.!.`.`.V.j.!./.!./.Y.A.V.j.j.j.d.7.p.Y.!.c.3.d.c.V.Y.V.j.j.G.A.j.c.A.G.A.p.p.p.c.c.A.!.A.Y.!.`./.!..X&X!.!.V.p.r.7.A.G.A.!./.`./.V.3.<.7.j.j.7.7.p.p.7.<.3.7.p.<.r.7.<.d.A.!.!./.`.j.<.*.+.+.+.<.d.j.c.c.j.j.j.c.d.<.r.d.p.<.*.*.<.7.<.r.p.j.j.<.<.j.V.c.j.7.d.7.7.3.3.7.d.p.3.3.p.V.j.j.p.j.p.3.j.V.j.d.d.<.*.<.3.j.3.<.3.p.A.!.Y.G.`.!.`.#XG...N C ( 3.Y.`.!.!.Y.G.Y.!./.V.V.Y.V.V.j.j.V.!.!.!.G.V.j.j.A.d.j.A.`..X!.!.!.!.A.j.c.!..X.XY.V./..XY.!.A.A.V.G././.R.c.V.j.j.!.!.G.V.V.j.j.G.G.!.!.!.`.!.!.!.G.V.V.G.G.#XG.j.j.G.`.#X`.V.j.j.G.G.V.V.j.j.G.`.`.!.`.!.j.j.7...<.7.*.*.p.} <.<.} +.r.7.<.r.p.3.3.d.3.+.*.r.p.j.j.V.A.G.!.!.!.!.!./.!.G.G.Y.G.A.d.G.!..X!.V.V.!.#X!.!.`.!.V.!.!.`.;X!.!.!.!.`.!.V.V.j.<.+.G.G.7.<.<.7.+.! <.*.<.7.j.!.!.c...! ! U ! <.*.! D ( d.V.<...<.*.r.j.<.+.....7.*.<.j.d.<.<.j.!.!.Y.Y.G.!.!.G.c.V.c.j.j.j.p.j.V.V.p.7.j.c.A.V.j.c.j.<...<.r.<.! ! | 3.<.! ! ..*.+.+.7.j.A.Y.G.A.G.G.A.c.j.",
"d.r.c.!.`./.G.d./.;X/./.`.G.V.A.!./.#X;X.XG.j.j.c.c.A.!.G.p.r.A.!.!.G.j.p.j.c.c.V.3.p.r.*.+.*.7.c.A.j.c.Y.V.d.<.<.G.~.j.7.l.!.N.d.p.d.r.a.l.d.d.d.j.p.3.d.V.A.c.j.j.j.j.l.V.G.G.G.!.V.j.G.!.A.A.!.!.V.3.3.7.3.7.3.a.0.r.3.#.<.r.j.<.0.V.j.p.a.j.j.r.d.j.!.!.V.c.Y.G.A.!.!.!.A.7.3.r.j.j.j.d.d.G.G.A.G.A.j.j.G.!.r.<.+.<.r.p.7.j.G.r.R +.V.A.Y.`.~.Y.C.j.a.r.j.A.l.g.p.`.!.<.U ! o.+.7.>.<.0.] 1.7.1.<.<.>.1.j.j.<.p.0.<.p.j.l.l.f.j.!.d.7.!././..X`.!.!./.Y.p.<.j.g.V.;X~.1.<.1.r.Y.c.r.V.V.!.j.V.A.V.!.!.Y.!.!.A.A.Y./..X!.!..X.XV.j.!.!.G.!.G.A.G.A.G.Y.j.r.3.j.G.j.r.A.!.c.c.V.j.p.j.r.p.!.!.j.j.j.c.p.V.I.A..X!.!.G.A.!.Y.!.!.V.G.j.d.j.d.c.!.A.V.G.!.!.Y.j.7.r.p.p.7.r.r.<.d.r...} 7.3.r.+.<.7.r.c.G.V.A.j.j.7.<.<.*.j.A.j.j.c.c.j.j.c.d.<.<.<.<.<.*.*.<.r.7.c.j.V.G.3.*.p.Y.V.A.V.Y.j.p.d.3.+.<.<.r.d.7.d.c.A.p.d.j.j.Y.A.j.r.r.<.<.<.3.j.7.3.d.j.V.!.!.!.!.V.!.#XA.! n ! <.j.!.!.!.!.!.A.j.!./.G.G.!.A.V.j.j.Y.#X&X/.Y.Y.j.j.j.p.j.c./.#X.X!.!./.!.A.c.V.!./.!.Y..X.Xj.V.A.G.A.G./.!.A.A.V.j.j.!.`.!.V.G.V.G.!.!.!.!.!.!.G.G.!.!.G.G.!.G.`.!.V.V.V.!.!.!.G.j.j.j.V.V.V.G.G.G.!.!.!.!.G.j.j.j.3.j.j.} +.j.d.r.3...*.p.7.<.<.3.3.r.j.d.<.<.r.j.j.j.A.Y.G.!.G.Y.Y.Y.!.!.!.!.Y.Y.!.V.!..X#X!.G.V.!.`.!.!.`.!.V.!.!.#X#X!.G.!.!.!.V.j.V.G.j.p.7.j.j.7.7.<.! } 3.d.A.G.d.p.p.<.} 3.j.<.} <.<.U ! ! <.! n R ! ! <.j.*.} ....7.<.d.c.j.j.7.p.Y.A.Y.Y.G.Y.!.A.j.j.j.A.!.Y.j.j.c.c.7.p.A.G.!.`.Y.V.<.! } +.( U D } ..<.3.( ! | ( ( +.3.j.A.A.A.Y.!.!.Y.G.A.",
"7.<.+.<.G.!.Y.A.!./.`.!..X&X!././.G.A.;X&Xr.<.d.d.d.L.G.d.d.j.A.C.l.A.G.a.7.j.c.Y.C.v.7.*...( *.d.r.r.G.Y.c.c.3.r.A.c...3.!.$Xj.d.c.j.c.j.7.r.<.<.7.j.j.r.c.!.G.j.V.c.p.7.d.c.V.c.!.!.G.c.G.!.z.j.!.`.G.p.3.<.*.<.7.d.d.p.3.<.1.7.d.V.c.c.0.| 3.3.p.<.d.!.`.!.j.V.!.!.!.!.Y.c.c.j.d.j.j.3.<.r.c.c.p.p.G.V.p.j.c.<.+.7.j.j.3.<.G.Y.<.+.Y././.;X!.A./.!.j.7.<.7.r.C.A.a.~.;X!...( <.! <.....3...| *.#...<.r.<.A.G.c.p.j.c.c.V.l.j.d.A.Y.p.r.G.!./..X`.!.V.G.j.} } >.g.V.c.C.7.! +.G..XA.j.c.p.r.j.!.V.!.!.!.&X.X/.V.A.G.Y.!.!..X&XG.d.j.!.!.G.G.A.!.A.A.G.Y.(.G.r.3.<.3.p.d.c.j.7.d.d.r.3.<.j..X.XG.j.j.j.d.j.V.c.Y.A.Y.G.G.Y.A.!.!.!.d.*.*.V.A.!.!.Y.G.Y.!.`.Y.V.j.<.<.3.r.c.c.j.A.c.<.( 3.<.3.r.7.p.<.7.j.d.p.r.7.3.r.c.r.+.7.j.A.!.Y.<.<.j.7.<.<.<.*.+...+.<.r.7.j.j.j.A.l.7.V.#X!.j.c.G.j.3.+.*.7.j.r.p.j.j.G.V.j.d.j.r.3.j.V.r.d.<.<.<.p.V.V.j.j.G.Y.A.!./.!.`.c.A.!.!.G.j.!.`.!.!.Y.`.!.!.c.V.c.Y.Y.G.!.!.Y.7.c.!.`.!.!.!.!.G.V.A.d.j./.#X`.!.!.!.V.A.!.A.j.V.!.G.A.`..X!.`.`.!.!.!.!.!.A.j.j.c.V.Y.!.!./.!.!.G.G.!.!.`.!.G.j.V.`.`.!.!.G.!.!.!.G.V.V.G.!.G.!.j.p.j.G.!.!.!.!.V.G.!.j.p.V.V.Y.!.d.j.Y.j.j.G.G.j.3.V.A.7.<.} *.3.r.7.c.A.p.p.j.j.7.3.j.V.A.Y.!.!.Y.V.A.V.c.A.A.Y.Y.!..X.X#X;X`.;X#X#X#X#X!.!.G.!.`.!.G.V.!.G.!.!.p.j.G.!.p.7.<.p.7.<.p.j.3...<.r.!.!.j.3.<.+.<.G.Y.j.<.+.! <.p.+.7.<.N C <.} 3.! <.j.7.+.<.j.Y.!.G.A.d.3.j.A.V.c.c.V.V.V.V.A.Y.!.`.Y.j.p.p.j.d.d.p.!..XG.Y.V.<.! ! ( U C ! <.*.} <.<.! D ! ( <.j.c.c.V.V.A.!.!.!.G.V.",
"d.d.<.} d.#X;X.X/..X&X/..X;X#X;X!.!.j.l.j.<.<.a.*.<.A.Y.p.0.j.L.c.<.7.C.j.1.a.G.G.c.A.j.<.} } <.c.j.c.~.!.c.c.C.L.Y.!.l.c.c.A.C.j.c.V.Y.V.d.d.d.<.<.r.j.3.7.j.j.r.j.j.r.7.d.j.j.G././.!.V.A.!.c.<.d.Y.!.A.d.<.+.1.r.c.l.d.d.1.<.1.d.c.l.d.<...0.r.d.3.r.A.!.!.G.!./..X#X#X!.V.V.G.c.V.j.r.d.d.d.c.<.<.V.c.<.7.j.<.<.r.j.j.d.r.G.&XV.p.Y.!.!.&Xc.3.G.Y.V.j.d.j.d.C.!.Y.!.;X&X3.| <.! 1.<...<...*.1.<.+.<.<...j.A.7.3.j.L.C.c.l.r.j.A.Y.j.j.V.G..X.X!.Y.V.c.r.} <.<.<.i.5.5.<.} +.C.!.V.j.c.d.<.<.V..X`.d.G.,X&X#X!.Y.Y.Y.G.!.`.&Xc.V.c.c.G.Y.G.Y.!.!.!.A.c.G.!.Y.d.p.7.<.<.r.p.r.j.d.r.0.<.j.!.!.Y.Y.Y.G.V.V.V.c.V.j.j.c.G.!.G.!.!.`.!.c.d.A.V.!.G.c.c.!./.!.!.!.c.3.<.<.3.d.j.j.V.j.3.*.<...7.c.r.j.<.<.j.j.d.r.+...<.V.c.3.7.r.G.Y.A.7.3.p.3.3.<.<.*...} +.<.3.1.3.3.3.j.l.j.A.A.r.<.j.!.V.p.d.*.7.d.r.7.3.<.7.d.7.7.j.c.j.c.j.j.d.<.*.*.<.j.j.j.A././.Y.Y.!.G.`.!.!././.!.A.!.V.V.!.!.#X`.!.V.j.j.Y.!.!.!.!.A.c.!./..X/.!.!.Y.c.j.c.c.G.`.!.c.V.A.A.j.c.!.A.j.j.Y.!.!.`.`.!.!..X`./.!.!.!.!.Y.Y.!.!.`.#X.X&X#X!.G.G.!.!.!.!.G.p.j.!.!.G.!.!.!.!.!.G.G.G.V.G.G.V.p.<.p.V.!.!.!.!.!.#X;X!.j.V.G.Y.Z.j.Y.!.!.G.j.V.c.V.`.A.<.*.( *.r.d.7.j.A.j.d.3.3.<.<.r.p.j.Y.!.!.A.j.j.c.c.j.Y.!.!.!.`.`..X;X`.`.`.!.j.j.!.!.`.`.!.V.p.j.!.!.G.G.j.V.!.!.j.7.j.3.....3.j.j.7.r.7.r.r.<.7.d.<.7.A.j.7.<.<.<.j.G.7.A./.<.U +.<.3.*.j.!.j.<.3.V.!.`./.!.j.3.p.p.p.3.<.d.V.G.G.G.!.!.!.j.<.<.<.r.j.j.j.Y.!.c.G.A.3...} ( ! ( *.+.( } ( ! U D U ( 7.j.A.V.A.A.A.Y.!.Y.G.A.",
"j.c.j.r.r.c.Y.V.j.A.!.!.!..X/./.`.`.j.( ! } r.c.+...j.G.r.3.d.c.j.| #.c.l.7.d.Y.j.d.Y.Y.0...*.j.!.c.G.~.!.j.d.Y.!.A.`.~.Y.7.<.j.p.j.c.c.j.j.p.p.r.<.<.3.} +.p.j.7.j.j.d.p.j.j.d.j.!.!.G.A.V.G.G.7.r.j.Y.!.V.d.3.<.*.l.j.p.j.7.1.d.j.d.j.d.<.*.<.j.j.r.r.d.G.!.Y..X.X.X.X#X!.!.!..X!.!.j.r.c.j.p.A.7.3.A.G.p.r.d.7.3.3.7.j.j.j.A.G.c.j.Y.Y.!./.3.p.!.!.G.V.V.!.!.;X`.!.Y.$X$Xc.j.3.! #.<.3.j.r.0.r.0.r.d.3.| 0.r.| <.r.V.c.c.Y.c.r.c.G.G.!.G.c./..X!.!.G.j.<.+.<.! ! <.<.<.7.i.7.j.A.A.j.V.l.3.3.3.!.!.j..X;X!.;X!.G.V.Y./..X.X/.G.`.Y.j.A.A.c.Y.!.!.!.!.G.A.G.Y.A.A.j.<.<.<.7.d.d.j.j.j.p.j.Y.c.G.!.!.Y.Y.G.V.j.Y.j.j.d.j.j.z.j.G.!.!.!.A.G.j.A.c.j.j.A.!.!.!.A.V.r.3.3.r.j.j.c.7.<.<.<.p.7.d.p.r.j.<.<.j.c.p.3.<.<.<.j.G.j.3.<.c.!.!.j.3.<.*.<.<.<.<.+.+.<.3.p.a.<.<.<.7.j.c.G.G.d.r.V.!.V.r.d.*.3.d.r.p.3.+.<.p.*.! *.<.*.r.j.p.<.<.7.3.3.j.j.d.j.G.!.!.!.!.Y.`.`.#X`././.!.!.c.c.G.!..X.X!.G.j.j.A.G.G.!.Y.G.A.!.!././.!./.!.j.j.Y.!.G.G.V.c.j.c.c.d.j.!.V.d.V.G.!.!.!.!./.`.`..X`.!.!.!.!./.G.G.G./..X`..X`.j.j.G.`.!.G.V.j.<.p.G.!.!.!.!.#X!.G.!.`.!.G.V.G.j.7.<.7.j.!.!.!.#X`.!.!.V.j.j.j.p.7.j.!.V.V.V.*.r.p.V.#Xc.+.<.*.<.c.!.j.p.c.A.Y.p.j.j.A.V.j.j.!.!.A.j.j.j.Y.Y.A.!.!.!.!./.!./.;X!.!.!.j.} 7.!.!.!.G.j.j.p.j.!.!.G.G.j.j.j.G.j.j.d.<...} ( <.7.r.r.<...} +.p.!.j.7.j.d.<.<.r.p.!.Y.j./.;Xc.<.7.3.d.j.`.&XY.r.<.j.!..X/.A.r.<.7.d.3...} 7.A.!.Y.G.!.!.!.d.<.<.<.<.N.G.j.A.V.j.A.A.c.d.<.! ! *.<.! ( <...R ( ( ! ( 3.j.V.V.V.V.V.G.Y.G.A.V.",
"j.j.j.j.p.d.p.<.<.7.j.A.!.!.A.A.Y.~.l.*.( #.r.V.r.~ <.d.7.r.d.p.r...*.d.d.r.d.j.0.3.Y./.j.*.3.L..XL.!.!.~.L.r.C.r.1.!./..Xl.<.j.j.j.A.j.j.V.j.c.j.d.c.j.3.d.A.j.c.A.A.j.j.j.j.d.V.!.Y.A.A.j.j.j.c.p.7.d.A.Y.Y.A.<.! a.j.r.c.d.j.V.l.3.d.V.j.r.<.p.j.d.r.j.c.A.Y.#X#X.X.X`.Y.Y..X.X!.G.r.3.j.V.j.A.j.j.A.!.G.c.j.r.7.<.<.r.V.Y.!.<.7.j.A.G.^.`.d.!.#X.X!.!.G./.&X5X.X.X`..X`.[.!.Y.( ( <.l.~.c.3.3.p.j.j.r.<.7.*.a.c.r.r.a.0.c.V.p.G.G.A./.!.c.Y..X`./.j.*.} ..} #.+.5.p.1.5.i.p.j.A.!.A.A.G.l.G.!.Y.j.p././.p.Y.#X`.V.j.c.G.!.`.!..X!.A.Y.A.V./.A.G.!.!./.!.V.j.A.!.Y.d.<.<.<.d.r.d.j.j.j.V./.!.!..X/.!.!.!.A.j.d.p.d.j.j.c.G.!.A.V.j.A.Y.!.r.<.7.j.A.V.j.A.G.j.V.d.7.3.d.j.d.j.j.j.j.j.c.A.V.<.3.r.<.p.j.p.7.7.d.d.r.j.G.V.p.7.p.!.!.j.<.*...! ..*.<.<.*.3.d.c.d.<.<.<.<.r.d.p.!.Y.A.c.A.j.<.<.3.p.j.d.j.j.7.p.j.3.<.r.<.( *.3.<.! +.j.j.d.j.j.d.j.G.!.!.!.!.A.A.G.!.!.!.!./.`.!.G.G.Y./.`.`.!.j.j.V.c.V.G.A.G.V.Y.G.!.Y.!.&X.XY.!.!.V.j.j.G.!.V.V.V.j.j.!.V.p.V.G.!.!.Y.!..X`.!.`.`./.!.!.!.!.Y.A.A./.`.!./.!.p.j.G.`.!.G.j.j.7.7.j.V.G.!.!.#X!.!.!.`.`.!.G.G.V.j.7.<.j.!.`.!.`.G.7.p.!.!.!.V.3.3.G./.j.d.d.*.+.} r.!.j.<.d.p.} r.Y.j.p.V.!.#XV.G.!..X`.Y.j.j.j.j.7.j.A.Y.A.G.V.A.Y./.#X`.!./.!.G.G.j.<.V.#X!.!.G.j.j.j.E.!.G.!.`.!.V.7.j.V.G.<.<.7.<...+.<.3.d.7.+.+.*.r.G.j.d.V.A.j.j.c.V./.A.j.!.;XY.j.3.! +.7.A.G.j.<...3.j.G.V.j.7.<.<.j.3.*.<.j.Y.!.!.!.j.Y.!.j.<.<.<.<.V.Y.A.V.j.j.V.A.G.c.3.! J } } D ( d.p.*.3.3.} ! ..3.j.j.j.j.V.G.Y.G.A.V.",
"r.j.j.3.<.j.A.d.j.p.p.V.Y.A.V.c.V.A.j.7.<.*.3.G.V.( ! #.<.0.r.<.<.| *.1.<.1.r.0.0.7.Y./.j.<.3.L.Y.c.A.j.A.A.3.r.<.| d.C./.l.#.<.V.j.A.V.V.A.c.G.c.j.V.j.p.j.!.Y.G.!.Y.c.j.c.c.j.Y.!.V.V.V.j.j.c.r.r.7.r.j.Y.!.!.A.<.C.Y.j.j.0.r.l.c.d.c.G.c.c.j.7.d.d.7.p.j.V.!./..X;X;X.XG.A./.Y.V.V.p.<.d.j.V.V.j.d.j.A.Y.A.A.r.7.<.<.r.A.!.!.<.r.j.A.A.!..X!.!..X.X&X`.G.!.`.;X&X.XG.3.j.,X&X`.<.#.r.C.`.L.p.<.3.0.3.*.r.j.<.r.C.<.<.d.a.G..XA.#X!.j.A.!.Y.!.Y./.!.7.( <.j.7.7.0.0.i.1.<.7.l.p.j.C.j.a.d.r.j.!.j.j.j./.;Xd.( !.&X!.d.<.<.r.Y.!.!.G.j.3.<.<.p.V.A.V.G.`.!.V.j.p.Y.!.V.d.<.<.7.A.G.A.c.j.j.!.`.#X;X/.G.!.!.A.j.e.d.V.V.p.r.j.j.!.G.j.c.!.`.p...+.j.!.Y.j.j.G.j.V.j.<.*.p.j.3.<.j.A.G.V.r.j.Y.V.3.<.<.V.j.<.p.V.<.j.j.d.G./.G.j.j.A.j.<.} +.*.( +.<.p.<.*.<.7.j.3.*.1.<.+.<.<.*.j.V.V.r.r.p.<.7.c.j.A.d.d.V.j.d.p.7.d.G.j.<.3.r.<.R ! 7.7.7.d.j.<.d.c.G.G.G.V.j.A.A.G.Y.G.c.V.Y.!.U.A.!.!.`.!.!.j.j.V.A.G.G.j.c.V.!.!.!.A.G..X`./.^.j.3.j.!..X!.Y.Y.Y.c.A.!.G.j.j.A.`.#X!./.`.!.!./.`.`.`.`.!.Y.!.!.!..X`.!.!.Y.p.V.G.!.`.!.G.!.!.V.j.j.G.!.!.`.`.!.G.G.!.!.!.G.G.G.j.p.j.!.`.G.V.j.<.p.`.#X!.V.p.j.!.&XG.p.<.<.<.*.j.!.V.d.A.A.*.+.<.<.r.j.c.c.!./..X#X#X/.c.3.d.j.<.j.A.j.<.j.V.G.!.`.;X/.c.d.G.G.G.V.j.!.`.G.!.G.V.j.j.j.V.V.!.`.!.j.<.<.7.p.} <.3.<.r.j.3.r.<.} ! } *.7.A.j.V.Y./.!.!.!.Y.A.j.r.V.`.!.d.<.! ! +.3.7.7.<.( *.3.r.7.d.c.r.+.<.*.*.3.j.j.j.j.c.j.V.G.j.r.j.d.p.j.A.G.A.c.j.V.V.G.A.j.<.( } ..! ! p.j.<.<.7.<.! +.7.c.c.j.j.A.!.Y.G.V.c.",
"3.<.<.3.r.j.V.c.Y.j.j.Y.!.V.j.r.l.j.r.<.<.#.<.!.Y.<.( ( ( *.<.<.<.} +.<.*.<.p.a.j.j.L.Y.j.<.<.j.3.0.j.0.0.d.<.<.3.~ } *.j.0.*.7.<.<.j././.j.3.r.j.p.7.r.r.r.j.Y.j.c.c.d.p.j.V.V.G.G.j.j.j.j.V.G.r.j.j.d.d.j.!./.C.<.A.~.G.A.j.c.j.Y.!.Y.j.3.d.c.d.j.j.3.7.p.j.G.Y./..X&X.X!.!.&X!.Y.!.G.j.j.j.j.V.j.j.j.A.V.V.!.r.p.r.r.r.j.c.j.7.d.V.Y.Y.Y.!./.!.`.`.&X#X!.!.`.;X~.j.<.v ! ~.9X!.r.j.c.l.Y.Y.c.1.7.3.<...j.A.r.<.j.<.<.j.d.c.#XV.#X!.c.A.!.`.#X!./.c.+.! 3.c.7.<.p.7.0.a.7.j.~.A.l.C.A.V.c.j.j.V.7.p.p.A.;X/.j.R *.d.c.c.j.V././.!.!.j.<.p.V.j.A.!.A.A.!.!.j.j.3.V.!.!.V.d.r.p.j.A.G.!.G.Y..X#X#X.X!.!./..X!.Y.j.j.c.j.<.<.c.A.G.G.V.V.Y.`.j.<.7.j.c.!.A.c.!.V.c.d.<.+.d.c.7.3.j.j.d.p.} ( 7.j.p.<.3.c.j.<.j.!.*.r.d.3.j./..X/.`.A.<...} ..<.<.<.3.j.7.<.r.p.V.r.3.1...( *.1.a.p.j.j.3.7.3.*.d.A.7.j.j.p.c.j.p.r.<.<.j.r.*.<.<.*.U ! *.<.3.3.7.<.1.<.r.A.!.!.Y.!.!.!.`.!.c.j.V.!.!.Y././.!.V.j.c.j.A.A.G.G.j.V.V.G./.!.G.!.`.!.A.V.3.4.c..X&XY.!.Y.!.G.Y.!.Y.A.V.G./.`.!.`..X!./.|.`./.`..X!.A.G.Y.!.`.!.!.`.!.7.j.!.!.`.`.`.;XG.j.p.V.!.`.!.!.G.G.G.G.!.!.!.V.j.j.j.j.G.`.!.G.p.p.<.j.!.I.V.j.c.A.!.`.!.p.} ..*.<.j.A.7.*.3.7.<.+.*.<.j.G.J.G.#X.X`.!.!.!.A.r.j.V.<.j.V.p.<.p.!.!.Y.G.!.Y.j.p.V.!.!.G.G.!.G.G.j.V.G.j.j.j.V.!.`.!.j.p.<.<.+.+.} <.<.*.j.A.d.c.A.3.*.<.7.c.!.!.!.!.;X.X&X;X!.r.j.j.j.d.r.p.p.<.} ..<.<.3.<...<.d.r.<.7.Y.c...} <.7.d.p.<.*.*.<.7.<.<.( *.p.d.r.j.c.A.G.V.c.V.A.j.j.j.r.*.! R R ..r.d.<.*.r.p.<.r.j.!.Y.j.j.G.!.Y.G.A.V.",
"j.} ! 3.G.c.r.r.j.j.c.!./.Y.c.3.0.p.a.r.d.3.*.l.G.p.<...| #.*.7.7...| +...<.j.j.V.c.l.j.j.7.*.r.1.r.V.d.3.a.r.0.c.r.<.*.a.<.*.<.} *.p.!.!.d.<.+.r.p.p.j.A.j.7.d.<.7.r.3.7.j.c.c.Y.Y.A.c.p.7.j.j.A.c.j.p.p.d.V.!.C.a.A.Y.V.A.C.C.c.!.[.G.3...*.a.j.j.j.r.7.p.r.j.G.!.!.!.`..X#X;X&X/.`.`./.!.V.j.j.V.!././.!.c.!.d.j.j.c.d.3.p.7.r.j.V.Y.!.!.!.!.!.#X.X.X#X`..X#X[.j.3.r.! #.<./.#XL././.c.V.A.j.p.r.p.r.+.j.c.r.1.j.d.d.d.<.7.Y.A.Y.V.A.!.Y.!..XA.j.*.! } <.p.<.1.j.7.<.i.a.V.!.A.j.j.A.C.j.l.j.r.<.j.G.!./.G.Y.<.U +.G.!.!.`././.!./.G.d.j.A.j.A.!.A.j.Y.G.d.d.r.c.!.!.A.V.A.A.j.G.!././.!.!.Y.!.!./././..X#X`.!.Y.j.j.3.j.!.!.j.A.A.G.A.G.p.d.V.j.p.A.G.G.!.p.p.5.<.7.A.A.r.j.d.7.+.<.<.<.r.j.j.c.7.7.p.3.7.j.<.3.r.<.r.!.#X#X#X!.d.3.*.*.7.3.+.+.7.<.<.j.z.Y.j.j.0.| #.3.r.G.V.j.j.7.p.7...j.A.} p.V.j.j.p.r.d.p.r.d.<.! ! ! } ! ..3.d.j.<.<.c.j.p.j.!.#X.X/.!.Y.A.`..X!./.`.!.!.!..X/.!.j.p.G.A.A.A.G.Y.V.!.A.V./.Y.V.!.!.!.j.V.j.j.G.!.!.A.G.V.G.G.Y.!.G.Y.Y.!.!.!.!.`.#X.X/.`.!.!.!.!.!.V.c.G.!.!.A.Y.#X`.7.p.G.!.G.!.#X!.j.p.p.!.#X`.!.G.j.G.!.!.!.!.!.V.j.j.j.!.!.!.!.G.j.p.7.j.!.G.!.`.!.!.!.G.!.j.( ( <.r.A.C.3.*.<.3.j.j.d.p.V.!.!././.!.G.j.d.j.j.j.!.Y.<.j.j.j.d.d.A.!.A.j.A.!.!.G.!.`.`.!.!.!.!.!.V.!.#X!.G.V.j.V.;X!.<.<.p.j.<.<.*.7.j.r.j.j.d.!.r...*.+.<.V.!..X.X.X&XA.A.!.!.j.!.!.j.( ! <.p.3.! ! } *.3.7.<.3.V.c.<.+.j.V.*.+.c.A.A.j.7.<.<.<.p.3.<.*.<.j.V.A.j.j.V.A.A.A.A.G.!.G.A.A.j.<.( } <.d.d.3.3.j.j.r.j.c.Y.Y.c.c.G.G.Y.G.G.G.",
"c.j.7.3.7.<.<.d.j.V.G./..X.X#XA.7.j.j.p.j.d.<.j.j.a.r.<.<.7.r.c.7.+.~ ! ! <.j.d.c.c.d.7.j.d.<.r.r.d.C.j.3.r.p.7.1.d.j.p.c.3...! ..<.<.p.p.7.3.+.<.j.j.j.Y.c.<.<.! +.<.<.<.p.j.j.A.!./.!.j.r.j.j.!.d.<.3.d.d.j.j.!.A.L.V.j.c.G.A.C.V.L.j.<.*...<.r.p.j.d.j.j.p.c.G.Y.Y.!.`.#X`.`.#X!.!.!.#X;X!.j.p.!.,X;X;X`.c.j.j.j.V.!.c.p.c.c.c.c.V.A.!.!.!.!.!.;X#X`..X#X#X/.Y.j.c.!.A..X! 3.;X!..X$X!.!.!.d.a.3.0.0.( 7.j.d.j.j.C.l.<.~ ..j..Xc.3.V.!.V.A.Y.Y.p.} <.r.3.3.<.p.j.<.! } 7.V.V.A.j.d.V.j.1.j.j.p.j.c.c.!./.j.c..X! *.!.G.G.&X/.G.A.!.!.G.c.V.A.V.Y.d.3.c.G.j.j.d.j.A.G.j.A.!.!.G.!.G.!.!.Y.Y.V.j.j.Y.!.V.c.A.V.Y.j.r.r.r.j.!.V.V.G.Y.!.V.j.<.r.A.G.j.c.j.j.A.<.<.<.<.j.!.j.<.d.j.d...<.<.j.j.j.V./.r...r.7...} <.*.r.r.d.!.`..XV.!.!.c.3.<.j.p.<.*.<.( ..r.3.r.d.c.d.<.r.a.1.j.V.j.d.3.j.d.*.j.Y.! s./.A.j.r.7.<.7.p.p.*.! +.<.<.<.7.d.V.V.3.<.3.c.Y.!.!.!.!.^.!.G.j.G.!.!.`.`..X/.Y./.!.!.V.c.A.A.Y.!.!.!.A.!.!.c.!.c.j.!.Y.Y.V.!.G.G.!.V.V.j.V.j.V.A.A.A.c.A.Y.!.!.!.`.#X.X`.!.!.!.V.c.A.A.j.c.G.!.G.d.j.!.!.j.p.G.!.j.G.=X!.G.V.j.`.;X#X#X`.V.!.!.G.G.G.!.`.G.j.G.`.`.G.j.V.!.j.<.V.`.!.`.`././.Y.j.j.p.! ! +.<.j.p.<.*.<.7.V.V.d.3.A.#X/.`.!.A.V.j.<.<.d.c.#X!.<.d.<.j.V.r.j.Y.!.G.Y.!.G.c.V.G.!.!.!.!.!.!.!.!.`.G.V.V.7.p.!.j.} <.7.p.+.<.+.<.j.j.p.r.<.V.<.+.p.<.+.j.Y.`.&X/.V.U N *.Y.!.!.c.<.! } <.<.3.+.( *.<.7.r.<.3.j.G.d.} 7.j.<.<.V.A.c.d.r.p.p.r.<.<.r.3.7.j.j.G.V.j.c.V.A.A.A.Y.Y.j.d.j.j.<.} ..<.j.j.d.j.A.j.3.p.d.j.c.j.V.G.A.G.G.Y.Y.",
"Y.G.!.p.<.r.7.d.G.j.Y.!.!.`.!.Y.G.W.V.j.D.V.a.i.a.p.<.+.5.g.j.V.p.#.<.>.! } g.j.j.p.<.<.i.p.<.p.l.G.c.r.p.j.j.d.<.<.p.d.j.j.<...3.*.<.+.( <.p.<.r.Y./.G.j.A.G.c.<.*.<.+.( ..<.j.c.d.A./.!.j.r.c.!.G.<.! r.r.j.j.G.Y.c.d.p.c.!.G.V.A.j.d.<...+.+.r.V.A.A.c.c.d.A.V.A.Y.!.`./.!.Y.!.G.G./.&X.XY.A.j.!.!./.&X`.V.j.d.d.Y.!.j.c.!.!.Y.V.j.j.G.!.!.G.Y./.;X;X#X;X;Xj.A.!.Y.G.`.&X!.c..X&X;X#X.X#X!.V.j.j.7.j.j.7.j.d.c.7.j.<.( <.+.<.!.c.<.*.d.G.!.V.j.p.7.r.d.j.7.<.i.1.<.p.V.j.a.j.j.j.a.L.r.A.j.3.<.j.G.Y.Y.!./.!././.V.j.c.A./.#X!.j.c.!.c.7.p.A.j.d.7.<.3.j.c.d.<.j.j.c.!.A.j.V.j.c.j.V.!.A.A.j.j.p.!.!.Y.d.j.V.G.A.d.3.r.d.c.!.!.!.!.`.A.c.j.G.A.V.Y.!.j.<.*.*.<.<.<.A.!.3.j.r.p.*.<.*.+.j.j.3.<.j.j.j.Y.Y.! R r.r.*.p.j.r.G.!.r.<.<.<.r.7.<.d.7.r.3...+.*.} <.7.p.a.j.p.j.j.V.A.7...<.l.j.<.j.c.D N p.A.G.d.<.<.3.3.*...! ( *.<.<.p.V.<.7.j.r.<.3.A.Y.j.A.!.Y.Y.A.c.c.G.!.`.`..X!.!.&X!..X&X!.Y.A.!.!.!.!.G.!.Y.A.A.j.d.c.!.!.G.!.!.Y.A.p.r.V.G.j.j.A.j.r.d.V.A.G.!.!.`.`.`./.G.!.!.p.d.V.j.V.V.j.V.j.3.7.V.!.j.j.c.G.A.!./.!.!.`.;XY.c.#X.X!.!.Y.G.c.j.G./.`.A.j.A./.`.!.G.!.G.G.G.A.Y.`..X!./.!.V.j.!.d.*.<.} +.3.} ( +.+.j.V.G.<.<.G.!.!.!.Y.Y.#Xc.p.d.<.A..XA.r.<.r.c.A.j.W.!.!.Y.!.A.j.A.C.C.!.G.+X~.!.#X!.!.D.V.C.j.5.7.G.p...+.<.3.*.C ! *.j.j.+.+.<.} U 3.p.3.<.d./.;X#X/.!.p.<.7.3.d.3.<.+.( <...<.3.} +.<.<.<.<.7.j.j.!.V.r.<.7.*.<.p.3.7.3.*.<.p.7.3.3.r.7.3.d.V.V.V.V.V.j.d.c.A.c.V.c.7.<.6...! 7.p.7.r.j.p.d.A.r.3.<.<.r.j.j.c.Y.!.!.!.!.",
"A.j.c.c.V.G.j.j.!.7.j././.!.A.Y.L.j.V.!.!.V.l.N.j.0.+.+.p.N.j.7.<.+.5.0.o.+.i.j.i.5.<.<.j.j.7.g.j.A.j.r.d.C.!.!.G.j.j.r.p.j.r.<.} *.<.<.+.<.j.d.j.!..X`.!./.`.!.j.3.<.+...+.*.7.r.3.c./..XG.r.d.!.#Xj.} 7.<.p.G.Y.G.d.d.j.c.Y.G.Y.!.A.j.r.<.<.*.p.j.c.j.j.!.c.A.A.Y.!..X#X`.!.G.!.!.!.!.!.`.!.A.A.!.A.c.G.G.c.c.j.d.G./.V.j.A.Y.Y.A.c.j.A.!.!.A.G./.;X,X/.!..XA.!.`././.`./.!.!..X`./.`..X.X`.!.d.j.p.j.V.j.c.j.V.j.A.d.<.<.+.! j.G.j.+.3.!.!.p.j.G.j.3.p.3.+.<.i.7.5.p.N.C.N.V.c.j.j.~.c.c.r.0.j.Y.!.!.A.c.!./.#X#X!.Y.G.j.V.!.!.G.V.j.p.7.r.d.j.p.j.V.j.j.j.3.*.d.d.7.p.l.c.c.j.j.j.j.V.l.j.j.c.j.A.j.c.d.j.G.G.Y.V.j.d.j.A.!.!.A.j.!./..XY.Y.!.G.!.Y.j.<.+...<.<.<.<.<...V.A.+.} <.<.! +.3.p.+.r.j.V.!./.<...c.A.j.V.c.r.j.!.*.D N ! d.A.j.j.<.<.<.} } *...+.<.<.g.D.N.C.j.C.r.<.<.r.V.c.d.G.d...! *.*.j.j.7.*.<.<.<.<.<.+...! ..7.V.<.<.j.7.<.7.A.V.j.A.Y.Y.G.c.j.V.Y.!.!.!.Y.Y.!.#X/.;X;X.X!.j.c.V.A.!.Y.!.!.j.c.G.V.j.G.`.!./.!.G.c.d.d.V.j.d.j.!.G.j.c.G.Y.Y.!.!.!.!.!.Y.c.G.A.<.7.G.E.V.V.j.j.j.c.j.c.!.c.d.V.!.G.!./.A./.`.&Xc.p.!.`.#X.X/.G.c.c.G.G.A.!.A.A.!./.!.!..X.X.X#X`./..X`.Y.A.c.p.<.j.j.j.V.<.} <.<.*.<.<.d.c.G.<.<.j.Y.!.A.!.G.!.d.<.3.3.!.!.d.<.r.j.A.Y.A.!.!.!.!.!.A.j.c.!.L.!.L.#X!.C.L.L.D.V.C.G.N.g.p.<.<.*.*.*.<.<.! } 3.Y.Y.<.! } ( ( ..+.<.<.3.Y.;X.X/.#X`.!.A.r...+.( ! ( 7.*.*.p.*.( *.3.p.p.<.*.j.!./.c.*.*.! ..7.<.<.<.} ..7.d.c.c.V.j.d.j.V.V.j.j.c.j.p.j.j.3.j.j.<.} ( R ! p.j.c.j.7.*.3.j.<.<.*.*.7.j.j.V.Y.!.!.Y.G.",
"G.p.j.c.c.j.p.A.!.*.+.A.`.!.!.#X!.j.V.`.!.!.!.!.C.i.+.+.i.V.j.<.+.5.V.C.7.+.7.l.p.7.1.<.<.<.#.<.a.j.r.<.r.A.!./.c.<.+.} *.r.<.} *.d.V.j.r.p.j.V.V.Y./.`.`./.`..XY.j.r.3.3.3.<.r.3.<.d.A.G.V.j.c.j./.!.j.V.d.c.!.!.A.r.d.c.j.j.V.G.!.!.!.c.j.c.r.3.p.A.j.d.!.A.c.G.!.!./.`.`.!.!..X#X!.c.c.!./.Y.j.G.G.c.V.V.A.!.A.j.Y.#X!.j.c.!.!.Y.A.j.c.G.!.G.A.!.;X;XY.A.`./..X.X#X#X!.c.c.!.&X.XY.!.`./.`.!.A.G.j.j.c.c.Y.V.j.Y.;X.Xr.<.<.( 3.j.j.+.<.Y.!.r.d./.Y.d.p.3.<.r.<.5.g.j.j.G.!.`.c.L.A.A.!.A.r.p.!.G.j.A.G.c.G.!.!.!.!.`./.A.G.~.Y.`./.A.p.7.j.A.G.Y.!.`.`.`.!.G.p.V.V.<...7.j.j.d.j.j.j.V.A.j.j.c.A.V.r.d.7.r.!.!.!.!.j.7.r.c.Y./.Y.V.Y././.j.j.!.!.!.G.d.<.+.+.+.<.7.<.*.<.j.j.+.<.3.+...7.r.<.<.d.j.j.j.j.<...V.!.`./.G.p.<.G.A.<...<.A.;X#XV.<.<.7.+.R +.r.r.7.5.a.D.G.!.j.a.d.7.r.j.Y./.A.j.<.7.<.} R <.<.*.*.*...*.p.d.<.( R ..p.A.<.3.d.3.j.G./.Y.V.Y.Y.Y.!.c.j.c.Y.!.!.!./.!.G.!.`.;X.X`.!.V.G.G.V.V.V.G.Y.c.V.!.Y.j.A.`..X.X!.A.j.j.j.V.j.r.j.!.!.A.A.Y.!.!.!.!.G.V.j.j.d.j.j.*.*.c.V.7.r.7.<.<.p.j.j.!.j.r.c.!.G.Y./.!..X/.#XY.V.!.`.#X.X!.G.c.A.G.A.V..X!.A.A.Y.!..X#X`.`./.!.G.!./.Y.c.j.r.*.j.c.A.A.r.r.j.j.r.<.3.j.A.j...<.j.G.!.!.!.G.Y.j.*.<.d.!.7.! ( 3.7.7.j.j.V.!.!.Y.G.j.3.3.j.j.l.g.!.!.C.V.!.D.D.G.D.j.p.<.<.<.} ( } <.7.<...<.j.V.3.( } <.<.*.+.<.<.<.G./.c.A.!.!.d.r.d.<.J ! ! <.j.<.+.j.r.*.3.7.<.7.7.r.A.!.`.!.r.3.} ! <.<.7.r...! <.j.G.Y.!.Y.A.G.!.!.A.A.G.V.j.j.j.<.j.j.r...( ! *.j.j.A.7.! ! <.j.7.<...+.3.j.c.A.G.!.!.G.V.",
"j.7.j.A.c.r.3.c.,Xj...p.!.`.#X,X;X`.`.[.!.!.!.G.C.7.} ! +.j.G.j.<.p.j.N.a.<.7.j.l.j.j.p.<.+.<.<.r.0.<.<.j.!.!.L.+.! ! ..3.c.j.+.+.j.G.c.j.j.V.Y.!.G.Y././.!.!..XY.c.c.c.j.d.p.c.j.j.j.j.p.p.j.Y.p.j.!.!.!.c.!.Y./.!.j.j.G.j.p.j.c.G.!..X!.!.!.j.3.j.!.j.*.A.A.G.Y.!.Y.Y.!.!.`.`.&X;X.XV.j.Y.`.!.!.`.`./.`.`.`.#X(.!.!.`.!.j.j.!.Y.!.Y.c.c.G.!.!.Y.Y.!.!.G.!..X`.!.!.`.`.G.d.d.G.#X.XA.!.`./.#X!./.`.Y.V.j.c.!.!.A.c.G.Y.p.3.j.<.+.} *.<.<.j.A.c.c.!./.!.c.d.j.d.a.a.j.N.j.l.W.!.j./.C.C./.d.<.1.G.j.3.j.A.c.c.c.G.!.!.!.!.!.!.V.V./.`.Y.j.3.r.c.V.`..X!..X#X!.V.c.A.!.c.<.<.7.j.7.7.j.j.G.!.j.d.A.V.j.r.d.7.3.G.!.!.!.j.<.<.p.d.c.V.!.Y.G.c.<.r.A.!./.G.7.+.+.<.*.7.d.3.3.j.p.+.} 7.j.7.3.j.j.3.d.j.j.j.d.<.( J <.!.,X;X!.d.! p.Y.V.V.7.<.!.!.7.U ! 3.<.! <.c.d.1.1.p.j.j.L.j.i.j.V.V.a.r.C.G.d...<.<.<.*.d.p.7.3.<.*.*.7.p.<.} *.7.d.j.*.7.j.r.3.j.Y.c.j.G.A.A.Y.j.p.c.Y.G.Y.!.G.Y.G.!.`./.c.!.`.Y.G.G.G.G.A.V.A.Y.!.!.A.V.G.Y.`./.!.V.j.c.c.c.j.p.j.Y.Y.A.Y.!.Y.I.Y.Y.V.j.p.d.j.j.j.p.7.j.d.<.d.j.7...*.j.!.#X/.A.G.!.Y.Y.`.;X&X!.!.!.!.#X`./.!.!.Y.A.G.L.A.Y.!.Y.c.c.G./.;X&X.X`./.G.j.V.G.c.p.7.<.<.V.A.j.<.*.G.A.r.7.<.p././.r.! 7.G.c.!.`.j.j.j.r.! R *.p.( R +.7.*.+.r.j.p.G.!.G.Y.c.r.7.+.7.j.7.N.W.G.V.V.j.l.l.g.i.7.<.d.7...( ( ..<.<...( } ....! ! *.*.<.*.! R +.j.<.+.r.j.j.<.*.j.j.C ( <.<.<.+.+.7.j.<.7.<.( <.c.!.!.!././.c.V.r.<.7.r.c.V.7.+.3.j.A.Y.!.!.!.!./.!.!.!.!.Y.G.!.G.d.3.d.7.<.*.<.3.j.G.A.*.J ( d.V.d.3.*.*.7.j.A.!.!.!.!.G.j.",
"p.3.p.c.c.j.j.G.&X!.<.<.V./.&X#X#X;X#X~.!.W.G.!.!.g.] Y +.W.;X~.p.7.<.5.a.p.5.1.5.j.V.l.7.<.7.p.p.1.+.<.!.;X/.V...+.<.3.r.d.r.} 3.G.!.c.c.V.A.G.!.V.A.!.!.A.A.!.c.j.A.G.V.j.d.c.G.Y.A.j.p.3.r.j.c.p.c.!.A.p.G.G./..XG.V.G.j.j.j.j.V.!./.!.!.`.j.j.V.!.r.! j.!.`.!.!.!.G.G.!..X#X&X&X;X`.G.!.`..X;X&X/./..X#X.X.X#X;X`.A.j.j.d.j.G.!.!.G.V.Y.!.!.G.Y.Y.G.Y..X`.Y.Y.!.!./.G.j.j.c.!.`.A.!.`.#X;X!.!.#X.X!.Y.!..X&X`.j.<.r.<.} r.7.*.! <.d.c.!././.G.!.!..X/.V.j.d.G.j.a.l.V.j.N.L.G.Y.c.;X!.! *.<.j.j.r.p.j.j.c.c.G.!.G.j.A./.!.7.j.Y.V.V.A.j.j.c.!.;X;X!.!.&X/.j.r.3.A.!.p.+.<.j.d.r.j.j.!.!.j.p.V.j.p.7.d.j.d.j.!.!.Y.j.3.7.d.p.p.j.!.!.Y.j.3.p.r.V.Y.c.p.r.j.j.7.p.p.<.<.j.7.( <.<.d.A.j.7.r.j.j.p.7.d.j.r.p.*.+.Y.&X#X!.j.! <.p.V.!.r.} d.G.j.<.+.<.7.<.d.c.<.#.>.i.l.g.j.i.i.C.!.V.*.~ a.G.a.} *...<.3.c.c.V.p.p.r.<.<.<.<.....3.p.j.<.j.c.<.*.p.V.j.j.G.V.V.j.r.7.c.G.V.c.G.!.!.!.`.!.V.3.G.&X!.A.V.Y.!.A.j.c.!.!.G.A.Y.Y.A.!.!.!.A.V.A.V.j.j.j.c.!.Y.G.!.!./.!.!.!.A.j.j.A.j.r.p.j.d.3.<.*.d.j.d.<.+.p.Y.!.`.!.G.j.V.!.`.#X&XY.G.Y.!.`.`.`.`./.Y.A.G.A.j.V.Y.!.V.A.!.`.&X`.`.`.&X/.V.A.Y.j...} ( ..j.j.r.<.( j.r.+.<.3.j.;X`.p.( j.c.<.<.j.7.7.r.<.! C ! } } } 3.p.<.<.d.j.p.!./.!.!.Y.c.j.p.j.L.g.j.j.N.G.W.D.G.l.7.<.5.<.p.j.r.+.( } <.+.+.} ! ! ( } ! ! ! +.<.! ! } 3.! +.r.7.3.<.<.7.<.! <.7.+.! <.d.7.r.+.*...} p.Y.!.!.!./.`.V.Y.c.j.j.A.!.~.j.r.d.j.G.!.!.!.!.!.!.!.!.!.!.!.!./.!.j.*.7.p.3.3.r.j.j.G.c.} U *.p.p.<.+.! ( <.7.j.Y.!.!.!.A.d.",
"p.p.j.j.p.3.p.G.V.!.r.<.V.!.`.!.!.;X;X;X;X`.L.[.;X!.<.! <.D.!.j.j.j.p.7.7.7.<.<.i.L.`.[.!.j.j.j.d.<.} <.L.[.C.3.+.r.d.d.p.j.j.p.c.!.!.A.A.Y.G.V.j.p.d.A.A.j.d.j.p.7.d.j.c.c.j.j.c.c.j.j.j.r.r.7.G.A.G.Y.G.<.j.!.A.!.c.j.j.j.j.j.j.j.c.G.G.!.`.G.A.G.Y.j.*.c./..X/..X`.!.!.`.#X.X#X!..X;X#X`.#X#X.X.X.X`./.!.`.#X`.#X!.c.j.V.j.d.V.!..X!.G.G.Y.A.A.!.`.!.!..X!.V.!.Y.!.!.Y.A.V.j.V.!.Y.!.`.&X;X!.!..X#X.X!.`.;X9X;XV.7.j.r.} <.<.3.<.j.G.Y.;X#XG.V.!.c.!.&XA.j.j.V.j.j.V.C.j.j.!.~.Y.Y.7Xj.! C.j.V.A.p.p.A.!.!.Y.Y./.G.j.c.`..Xj.7.c.j.j.c.A./.!.`.!.A.3.! j..XV.3.! <.j.3.} +.G.c.d.p.j.Y.A.r.7.3.j.j.p.r.V.c.A.!.Y.G.G.V.V.V.c.c.V.!./.`.G.j.3.j.A.V.d.d.j.j.j.3.p.d.p.<.d.7.+.j.d.j.G.j.<.3.3.<.3.<.r.d.7.!.!.!.!.r.j.Y.!.3.7.<.j.G.r.+.3.j.Y.G.j.r.d.r.r.d.<.| ! +.V.C.G.a.0.A.!.A.r.<.j.A.3.} <.*.<.<.j.j.V.j.j.j.d.<.......<.p.j.j.7.d.p.....<.j.j.d.j.j.d.c.r.3.d.j.j.c.Y.!.!.!./..XY. .+.d.!.!.!.!.Y.A.c.V.!.!.G.Y.!.Y.!.!.!.!.Y.G.G.A.j.c.c.!./.!.!.!.!.!.G.V.j.p.7.d.V.j.7.<.d.p.*.+.+.7.<.p.j.p.j.G.A.G..X`.V.j.G.!././.!.!.!.!./..X.X#X/.V.j.Y.G.j.j.G.!.G.!.!.`.&X!.!.!.`.!.j.j.A.j.} ..( ! r.p.j.c.<.+...<.p.c.A.Y.3.3.+.r.r.! ..3.<.3.3.<.} ! +.<.+.<.3.3.<.7.j.j.<.A.Y.c.V.A.V.V.j.g.C.j.j.p.j.!.!.!.G.j.<.>.<.<.r.A.r.! ! *.3.} ! ! ! ( *.<.+.! ( +.3.3.j.<.r.3.7.j.7.*.+.+.( R } <.<.*...G.`.j.3.*.<.+.*.j.!.Y./.!.Y.!.V.Y.j.j.!.!.!.Y.c.j.j.j.Y.!.!.!././.!.!.G.Y.!.!./..X!.j.*.7.d.r.<.r.j.V.j.d.*...<.<.<...! R ! +.<.d.A.A.!.!.c.7.",
"<.7.j.A.d.+.+.r.!./.3.d.`.!.!.!.G.#X[.`.;XL.o.! o.7.5.o.#.p.j.p.j.D.D.g.<.<.0.7.j.!.W.G.C.g.p.p.j.d.1.0.V.C.3.~ } 7.<.<.r.d.j.p.j.G.Y.c.V.!.!.A.p.7.r.j.j.r.r.d.p.7.r.r.j.A.c.c.j.j.p.j.j.j.A.V.Y.!.`./.!.d.c.!.j.j.7.3.r.d.c.j.c.V.c.G.!./..X/.A.!.!.!.V.!..X/./..X#X/./..X#X`.`.j.c.!..X#X&X#X!.`.;X;X&X.X#X;Xc.c.V.G.Y.!.Y.c.V.!.`.!.V.A.G.A.!.`.;X.X.X`.G.G.!.G.A.G.V.c.c.j.j.C.Y.!.`.#X.X!./.`..X`.!.!.`.;X`.r.+.j.Y.j.7.<.3.<.V.V.j.!.V.<.j.!.d.j.!.j.j.G.W.W.V.V.D.g.p.L.!.!.Y..X3.r.!.V.!.!.d.d.!.`./.!././.!.G.c.A.!.G.d.V.c.V.j.p.!.!.!.j.d.<.R +.A./.j.} +.3.7.<.<.G.j.p.3.j.c.7.+.+.*.j.V.c.j.V.j.!./.!.G.Y.!.Y.Y.!.A.A.!..X#XG.n.<.7.j.d.<.r.j.j.j.<.7.p.j.r.r.7.<.j.G.!.C.*.+.p.r.! <.r.c.c.<.j.V.;X!.J 3.G.G.d.r.+.3.7...( ( } r.r.7.7.A.A.r.<.<.+.! o.j.V.).G.j.j.!./.!.j.a.l.c.<.7.7.d.3.j.V.Y.c.j.c.j.<...+.*.<.<.*.7.<.7.j.c.<.3.c.A.c.Y.Y.G.G.j.p.j.j.j.A.!././.!./..XG.c e ! Y..X/..X!.!.!.Y.!.!.G.!.!.!.!.!.!.!.!.!.!.!.G.G.Y././.Y.G.!.!.!.!.!.G.j.d.j.G.A.c.7.p.j.d.7.<.j.d.j.c.G.Y.!.`.!.!.#X.XA.V.!.!.!.!..X#X`..X.X!.!.G.d.d.A.G.j.c.A.!.V.Y.!.!.&X/.V.V.Y.c.<.3.j.7.<.j.<.! p.j.j.!.c.<.*.<.j.Y.V.j.<.j.7.<.*.R R ! } *.*.} } *.*.<.*.<.<.<.<.3.7.r...j.j.<.7.j.G.!.C.j.D.N.N.7.<.1.5.i.7.<.+.+.+.>.3.j.*.D U <.7.*.J J R ( +.<.*.! +.<.3.<.V.p.j.j.<.r.j.p.1.<.<.! <.<.+.*.<.!.`.V.p.d.d.*.+.j.V.A.!.Y.V.G.A.G.p.p.A.j.j.j.j.7.p.j.A.!.!.!././.!.!.Y.!.!.!.!.!.!.j.<.3.3.<...<.p.d.7.p.3.<.7.7.7.<.+.} <.7.r.j.A.V.c.G.c.r.",
"<.*.<.j.j.<.<.p.!.j.J 3.;X/.!./.!.;X`.~.;X!.U r r ] l.a.<.<.0.l.l.l.j.7.<.a.j.p.j.G.p.5.p.0.a.j.G.Y.G.L.!.A.3.( } 7.<.<.G.!.Y.j.j.Y.!.G.G.!.!.A.A.c.j.j.j.j.j.A.A.j.j.p.j.A.A.A.A.G.V.Y.Y.Y.`.#X/./.#X`.Y.j.Y.A.V.d.<.<.7.j.A.A.Y.!.Y./.#X.X.X!.!.#X`.;X/.!.#X`.!.`..X!.!.`.#X.X/.7.<.j.!.#X;X#X.X!.!..X;X&X.X!.7.<.r.!./.!.G.c.V.!.!.V.j.V.!.!.`.#X;X#X#X`.Y.`.!.c.j.j.j.d.j.j.7.d.A.!..X#X.X#X`.`.#X#X/.A.j.j.d...! *.j.d.7.p.7.( j.A.j.j.d.7.G.!.j.j.p.r.A.A.~.!.j.j.!.!.j.l.G.!.j.A.j.c.1.r.!./.V.V.!.Y.Y.!.!.G.G.!.j.7.V./.!.G.V./.Y.j.!.`.!.!.~.!.j.} } V.G.<.<.p.V.G.p.c.V.j.d.G.G.3.*.<.3.j.p.G.`.Y.3.G.#X!.A.V.G.V.V.!.V.Y.`.&X!.p.j.+...r.7.*.<.d.j.j.p.3.+.3.+.<.7.d.G.d.7.p.*.<.j.d.<.j.p.A.!.<.7.*.c.j.U A.!.r.<.3.r.V.j.*.<.<.*.d.j.p.3.G.`.d.+.+.i.j.j.p.<.C.D.j.V.V.l.L.C.a.c.!.G.j.p.j.<.3.p.V.A.j.j.j.7.*.<.<.+.( ( r.*.+.3.j.7.7.V.A.j.V.A.c.A.V.A.!.!.G.A.Y.G.!./.Y.!.!.R h 3.&X.X!..X/.!.!.!.`.!.A.Y.!.!.!.!.!.!.!.!./..X`.!./.`.!.c.c.G.Y.A.A.G.G.j.3.3.d.j.c.3.7.V.Y.c.<.j.j.7.*.<.d.V.!.Y.+.7.`.!.Y.`.`.!.!./././..X`.A.A.c.r.r.c.V.c.Y.`.#XG.G.A.c.!.V.7.p.A.V.7.r.j.p.7.A.d.} j.V.j.j.G.d.<.! <.A.V.A.d.Y.7.*.<.( ! ! ( +.+.! ( +.( } } <.*.....( ( <.j.!.G.3.<.j.A.Y.!.N.j.<.5.p.p.1.<.1.<.+.<.>.| o...<...! R ! <.r.<.} ( ..*.<.<.( <.j.r.! p.j.A.d.! } d.p.3.j.j.7.j.3.! ! ! 7.j.j.j.c.j...} r.p.r.c.G.Y.!.V.j.3.j.j.3.<.p.r.<.<.j.A.!.!.Y.!.!.!.!.!.!.!.G.V.G.V.p.j.r.<.<.*.3.p.7.<.<.*.+.+.<.7.<.*.+.3.p.7.p.j.p.r.c.c.d.",
"<...<.7.r.<.<.V.!.G.( <.p.+.A..X&X!...<.!.!.r.h R !.!.0.<...<.c.W.l.j.j.g.g.g.7.d.c.c.j.d.7.<.r.A.!.`.`.!.A.r.+.<.<.} ( d..X&X.X!.A.!..X`./.!.A.Y.G.!.Y.j.3.p.c.N.L.!.!.G.!.`.!.V.L.A.Y.L.V.Y.Y.!.`.`./.!.Y.G.!.V.j.p.r.r.j.!.!.!./.!.A.!..X!././.&X.X`.#X.X/.Y.V.!.V.*.!.!./.`.;XY.d.c.!./.!..X;XG.p.<.<.<.*.! J ! p.#X;X`.!.G.!.#X.XY.V.V.A.G.!..X&X;X;X.X!.!.!.c.c.c.d.j.G.A.j.r.V./.!./..X.X/./..X/..Xj.<.} } ..<.*.+.p.G.A.p.<.G.!.r.p.V.c.j.V.A.d.<.d.G.c.j.<.*.A.j.V.j.V.!.!.p.3.!.A.+.r.!./.G.j.3.V.Y.Y.!.d.!.j.<.p.Y.A.G.c.j.!.c.d.!.Y.Y.!.V.G.Y.G.!.G.A.V.j.p.V.V.3.<.c.&X`./.!.j.V.A.r.j.j.!.;X`.V.V.!..X!.j.A././.!.j.j.!.!.*.} Y.<.( d.7.} <.j./.j.j.j.j.<.<.j.V.c.G.j.3.*.<.} 7.d.r.j.d.j.V.<.! <.!.j.p.G.`.j.} <.j.!.V.<.p.7.j.A.Y.V.<.r.j.d.3.<.7.<.d.r.! <.d.V.j.3.} 3.p.<...!./.!.7.r.r.j.V.Y.A.V.j.p.<.<.7.p.*.+.......+.3.d.j.d.A.c.d.j.c.j.j.c.A.!./.!.!.!.!.Y.!.Y.Y.Y.j.!.!.`.!.!..X.X!.!.!.!.!.A.A.Y.!.!.!.!.!.`.#X.X`./.!.!.Y.V.j.j.c.A.V.c.G.Y.j.d.r.<.3.p.c.l.c.V.r.<.A.j.7.( +.<.<.A.!.y s !.&X&X#X!.!.!.!.!./.`.!.Y.c.A.r.7.c.3.*.V.;X#X!.G.V.V.V.j.p.p.j.G.G.<.7.j.j.7.j.V.j.j.!.#XY.j.j.! *.Y.r.V.+.+.! ! } ! ! 3.j.p.<.+.} <.3.<.<.<.! ! +.! ! <.j.!.G.7.<.3.j.!./.7.<.r.<.<.7.7.<.p.<.+.3.7.<.*.<.3.2.<.! ..<.p.<.<.} ! ( 3.3.J <.G.d.<.j.Y.Y.c.} *.3.3.<.d.<.*.3.<.! +.<...d.c.3.V.c...( <.*.( r.!.!.G.V.p.d.c.<.} ..<.<.+.r.V.!.G.!.!.Y.!.!.(.!.!.!.j.d.V.Y.A.c.p.p.V.V.j.c.j...} } +.*.} } <.<.<.<.3.r.d.r.<.<.j.A.A.",
"<.( } ....( } j.!.!.j.c.<.! j..X#X!.R N <.Y.!...#.Y.A.3.<...*.3.g.7.5.i.j.V.N.p.d.G.Y.j.j.d.p.r.p.j.7.<.j.V.d.<.+.p.d.<.<.j.Y.!.!.V.V.!.!.!.G.c.A.G./.`.V.d.j.G.j.a.D.#X#X!.G.D.d.A.G.A.j.d.j.d.j.Y.!.!.!.!.!.!.V.p.7.r.d.V.!.!.!.#X.X!.`./.V.G.`.#X!.!.#X/.A.7.U *.<.N d.#X/.!.;X#X`./.!.!.!..X`.p.! C D ! U N C a N !.;X`.#X!.!.#X.X!.G.A.A.Y.j.G./.#X&X`.!.Y.!.G.A.j.p.A.`.!.c.r.d.c.j.A.`.!.Y.!./.A.j.3.<...( *.p.r.<.d.Y.V.d.3.G.!.7.3.G.!.r.r.j.j.3.p.c.j.j...! j.7.j.j.j.V.Y.7...j.j.! <.Y.!..X!.<.3.V.Y.j.7.d.7.<.<.A.Y.j.c.j.G.G.j.c.j.G.G.V.!./.!.Y.A.r.p.j.j.c.r.*.r.Y.&X!.!.!.V.Y.!.V.Y.Y.!.#X!.j.p.G.!.Y.G.!.!.!.G.c.j.V.Y.<.U c.c.+.3.r.<.7.j.!.A.d.j.V.d.j.V.j.7.7.j.c.c.A.<.<.d.3.V.G.d.j.A.j.V.#X!.A.G.!.Y.j.V.r.c.c.d.V.j.j.j.r.d.} } <.p.7.3...! +.7.+.7.j.c.j.w.} } <...U r.r.j.<.j.j.A.!.A.Y.A.j.3.<.+.} ! <.<.*.*.*.<.7.j.A.j.A.j.j.!.!.A.c.A.Y.!..X!.G.Y.G.c.Y.Y.G.G.c.#X#X/.G.G.`./.Y.!.!.!.!.A.A.!.!.!.!./.`./.`..X`.!.A.Y.G.j.j.j.j.j.j.c.Y.!.V.j.j.r.d.C.Y.V.j.d.d.V.Y.p.<.} 3.j.j.`.;X! C A./.#X&X!.!..X.X!.!.!.!.G.V.j.r.d.j.7.3.V.!.!.G.V.G.!.!.V.7.} } j.G.7.<.<.j.j.A.j.3.j.`.`.`.G.G.*.*.7.U ! ( *.%.! ! } } <.p.<.<.7.<.r.3.*.p.<.! } p.3.<.d.p.!.!.7.+.*.3.d.j.r.p.d.<.} *.<.<.d.r.<.<.r.7.3.7.<.! ! ! *.+.! <.<.*.( ( r.j.*.<.j.3.<.j.G.p.} ! *.( R ..j.<.( +.! <.V.<.<.A.j.d.j.p.<.<.r.<...j.!.c.p.<.*.7.j.<.( ( <.3.r.V.!.!.c.A.A.A.G.c.j.A.!.A.r.r.A.Y.V.p.j.c.V.V.P.!.!.( ! ! ! ( ! } +.*.<.<.<.<.<.<.<.r.A.!.G.",
"} ! ! ( ( ! R <.j.j.j.c.<.*.!./.!.;XG.j.G.!.!.j.<.j.a.<.<.<.<.*.+.>.<.0.g.N.N.j.p.A.G.j.j.j.j.j.V.c.<.} j./.j.+.( p.c.r.<.<.j.c.j.j.j.A.!.!.!.!.A.G.!.!.j.r.j.Y.j.0.j.[.#XG.j.j.j.!.!.A.j.a.j.a.7.V.Y.A.Y.!.!.!.G.d.7.d.V.Y.!.Y.!.#X!.c.Y.A.d.Y.!.`.Y.!.`./.A.r.( 7.j.h ( .X!./.!.!.!.`./.`.!.G.V.r.<.p.Y..X!.j.<.r y A.7X/.!.!./..X.X!.!.Y.G.Y.G.`.#X`.!.A.c.V.!.!.!.V.j.G./.!.j.7.7.j.d.c.`.V.j.c.A.r.+.*.7.<.} +.7.3.<.V.!.j.p.p.A./.j.p.A.!.j.d.j.c.j.j.j.p.A.<.( j.7.j.j.<.r.Y.j.3.j.<.! <.&X#X.X!.<.p.d.*.7.V.c.7.3.r.!.!.j.Y.c.Y.!.V.j.j.Y.V.c.!./.Y.V.j.p.7.r.r.3.( ! 7.V.!.V.V.G.A.Y.Y.!.!.A.j.V.c.d.p.V.V.A.Y.!.V.j.b.Y.c.r.j.r.! d.d.<.+.p.r.j.c.A.j.<.r.V.c.c.c.7.*.3.A.!.A.G.7.j.!.j.G.!.d.c.!.j.j.`..X!.V.G.!.j.d.r.j.j.r.j.p.p.3.} 7...*.d.c.r.3...} 7.G.7.3.d.d.V.V.<.} <.<.U +.<.j.7.V.Y.!.`.!.A.j.7.+.+.<.<.*.*.<.+.+.<.<.<.7.c.d.d.7.7.A.Y.j.j.c.A.!.`.!.Y.!.!.A.Y.!.!.G.7.d.!.Y.c.V.!.Y.G.`.!.`.!.Y.Y./..X`.Y.!./.!.!./.!.A.c.A.V.j.j.V.A.c.j.V.G.c.d.d.7.+.1.l.V.A.C.0.<.j.d.<.p.j.c.j.r.c.;X/.G.`.!.!.`.!.!..X#X/.!.`..X.XG.p.p.c.j.r.p.j.G.!.G.G.!.!.!.j.7.! ! 7.j.<.<.7.7.3.d.3.+.c.#XG.c.j.j.<.r.j.} ( ( <.d.<...<.<.<.<.<.3.j.<.*.<.<.p.} U ..j.r.*.<.} j.V.3.*.r.p.<.<.7.3...R ! <.j.<.j.j.<.<.7.p.7.7.} J D N } *.( +.*.( R R 3.c.3.*.r.<.+.<.<.} D *.d.+.! <.d...} +.} r.G.r.7.c.V.j.p.p.j.c.j.<.7.c.A.j.r.<.*.<.3.<.*.<.p.c.Y.`.#XG.d.r.r.7.r.3.<.7.d.<.+.d.!.j.*.} j.Y.G.A.Y./.!.<.! ! ( ( ..*.} } <.<.<.<.<.<.3.<.j.j.r.",
"! ! ! ! ....( <.G.d.d.c.j.V.!.V..XG.} <.#X&XA.*.*.3.3.7.3.1.3.*.>.5.j.V.j.j.j.j.3.d.j.p.p.j.A.G.!.Y.d.3.V.!.V.3...r.j.j.j.V.V.j.j.G.Y.Y.Y.c.c.!.!.Y.G.c.3.<.j.!.~.G.V.G.W.G.D.G.A.!.!.A.j.j.l.c.j.G.A.j.j.c.A.Y.!.j.j.V.Y.!.!.Y.A.Y.V.j.j.A.G.;X.X;X`.!.`.`./.Y.`.#XG.h D /..X#XA.j.j.Y.!./.d.C h R d.`.,X7X,X#X!.U N 7.#X;XY.Y.!./.!././.!.G.!./.#X#X!.j.d.c.!./.Y.!.!.A.c.V.G.A.j.A..XY.A.`.j.<.j.Y.G.d.A.A.<...*.<.+.<.A.!.j.p.p.j.!.!.V.Y.G.V.j.j.j.j.j.j.p.j.j.j.Y.j.c.A.7.j.Y.Y.c.j.! z R G.;X,X.XB.!.j.<.<.A.Y.r.<.7.A.j.c.!.A.A.!.V.j.j.Y.V.j.A.!.G.j.p.V.j.r.<.*.( ! 3.d.V.j.j.V.V.A.c.V.A.j.7.p.j.c.V.j.c.c.V.A.c.j.A.V.A.7.p.d.3.!.d.3.*.7.r.d.d.j.d.*.3.c.V.c.j.r.7.d.Y./.V.c.j.!.&X;X!.G.Y./.V.} ! !.`./.c.G.!.c.p.r.G.j.<.p.<.<.*...r.*.7.Y.!.r.r...*.p.!.*.! *.<.c.G.3.*.d.r.( +.r.V.j.G./.`.G.!.!.c.r.} } <.<.<.*.<.<.<.r.3.<.<.p.p.j.3.3.j.V.j.d.j.j.A.!.!.!.`./.!.!.!.`.!.7.*.G.A.j.c.!.!.!..X!.!.!.V.V.!.!.!.G.Y.!.G.G.!.!.G.j.d.r.r.p.j.V.V.A.!.Y.j.d.c.j.<.d.c.j.V.!.j.p.C.<.( 7.c.j.p.3.j.c.!.Y.Y.j.j.!.!.!./..X#X#X#X#X;XY.p.j.Y.V.p.p.d.j.!.G.G.!.!.!.p.<.+.<.p.p.j.V.!.j.<.7.3.*.j.Y.<.! p.Y.c.p.3.+.*.( *.3.3.! ! <.+.( ! <.j...( <.c.p.<.3.d.p.<.+.<.( p.d.<.<.j.d.! J *.<.+...*.*.+.*.r.j.<.} <.p.3...+.7.p.! ! ! U *.*.( ! ! <.j.7.7.r.<.*...+.<...j.V.d.d.p.7.*.r.7.<.r.A.V.A.V.!.j.j.c.V.V.p.<.p.c.j.j.j.j.p.7.*...*.7.c.!././.!.Y.p.<.<.....<.<.+.+.! ( c.!.r.J } c.G.A.G.G.G.V.<.( } *.*.3.r.<...3.p.7.<.<.<.r.*.7.p.<.",
"! ! ! ! <.d.p.c.!.!.!.Y.A.G.A.d.;XY.+.7..X#XV.+.<.<.r.j.p.<.1.<.p.j.G.`.[.G.j.j.<.<.r.d.j.V.Y.!.!.Y.G.j.<.<.7.7.+.3.j.c.G.!.!.j.c.!.!.!.G.j.r.j.!.Y.G.j.r.j.!.`.C.V.j.p.a.j.V.G.Y.C.V.c.l.j.j.l.G.!.A.j.j.d.j.c.!.A.A.Y.Y.Y.!.Y.V.j.A.c.j.A.!..X#X;X.X!./.!.!.Y.`.`.7.f C A.`.!.7.*.3.d.p.r.! y a ( !.;X/.G.!.#X;X!.Y.! } #X!.A.!.!.Y.!./.!.Y.!.!.!.!.A.j.j.A.!.Y.V.A.!.A.j.j.j.j.j.G.`.p...r.*.<.j.G.!.j././.j.<.d.p.<.r.V.G.V.!.V.d.A.!.V.V.j.A.G.V.j.c.A.c.j.*.A.G.!.V.c.G.A.G.G.c.j.V.*.n J +.j.!.&X/.!.V.j.A.r.j.r.3.<.7.r.A.A.A.G.c.j.A.j.V.c.c.c.G.!.c.p.V.Y.c.3.0.d.r.d.j.A.V.j.j.j.j.j.<.p.p.7.p.j.j.d.j.V.V.j.V.A.G.!.G.!.c.d.r.j.;XV.<.3.3.<.<.*.c.j...<.j.j.p.p.7.r.r.j.!.c.j.j.!.V.!.j.<.c.!.j.3.*.7.V.!.Y.!.!.j.r.<./.G.<.7.} U J <.p.*.*.j.G.7.p.<.<.7.V.<...r.j.d.j.<.<.V.j.<.<.d.j.V.A.!.!.<.c./.G.j.<.+.<.+.+.<.<.*.*.7.7.<.<.<.r.c.j.r.j.j.j.j.j.j.V.Y.Y.Y.!.!././.!.!.Y.j.7.V.c.3.<.c./.!.V.Y.!.G.c.j.G.Y.G.A.c.V.G.G.!.!.!.c.p.7.d.j.j.j.A.!./.Y.j.j.A.j.<.3.j.a.j.A.j.d.Y.j.( ..7.j.j.d.j.G.A.j.V.j.j.!.!./.#X#X`..X/./..XY.j.c.!.!.c.d.d.j.G.G.!.!.`.`.V.7.<.j.V.V.!.G.!.G.<.<.r.*.<.r.} } r.V.A.j.<.<.<.! *.<.p.! U 7.} +.! +.p...( *.p.*.3.G.V.*.! ! } ( 3.<.( *.c.p.J R <.<...*.<.! J <.p.j.<.R ! } ! ( +.V.&Xj.*.R N } +.*.<.<.<.7.<.7.3.+...+.<.j.p.d.r.p.V.7.<.7.j.7.! ! p.p.Y.!.!.V.G.!.V.j.7.+.*.p.<.<.3.p.p.<.} ( <.j.Y.`..X`././.j.r.p.<.<.<.*.+...} <.v.G.r...<.j.p.p.d.r.7.3.! U ! *.<.d.c.d.<.p.p.<.<.*.<.r.*.3.d.2.",
"3.p.p.r.G./.Y.!.!.`.`.!.!.G.V.j.V.`.!.G.V.j.j.p.<.<.r.C.j.<.3.3.j.j.N.`.=X~.j.7.3.3.d.A.!.!.!.!.!.A.Y.A.<.} *.*.<.r.c.V.c.A.A.j.c.G.!./.!.G.j.j.G.Y.!.V.c.Y.!.A.p.j.l.D.W.W.!.`.!.j.j.c.c.j.r.a.A.Y.Y.G.V.j.d.j.G.G.!.!.A.A.!.!.c.d.c.j.7.j.c.c.A./.!.!././.!.G.Y.`.j.! } j.!.G.d.7.j.d.( ..3.( ( j./.`.A.p.d.A.Y.V.,X7.! Y.!.Y.!.!.G.!.!.!.!.!./.G.A.!.!.!.G.V.V.c.c.c.j.d.r.7.d.c.Y.G.+.U <.7.3.j.j.j.} j.!.G.A.A.c.j.A.!.G.A.`.!.c.V.A.j.j.d.A.!.!.V.A.A.j.p.r.j.3.j.G.j.c.V.j.A.c.j.Y.V.7.j.Y.*.<.&X&X`.A.j..Xj.j.7.p.j.j.c.j.7.d.j.r.p.c.d.j.c.A.V.Y./.Y.j.A./.!.r.p.A.A.Y.Y.!.A.j.r.7.7.r.7.j.J.V.c.j.j.r.d.V.A.j.c.A.V.V.!.V.j.c.j.j.`.d.( d.d.3.<.+.V.j.+.<.r.r.7.7.<.*.<.<.j.3.+.<.j.<..XY.<.<.3.r.G.V.<.j.!.A.j.7.*.<.r.#X!.r.j.<...*...d.<.( <.j.3.<.<.<.<.d.3.r.r.r.<.<.+.<.V.c.d.3.j.j.j.c.G.G.+.j.`.E.A.j.p.d.p.V.<.*.} } *.3.7.3.} <.j.j.j.j.j.j.j.c.V.Y.!.!.G.!./.#X`.!.!.Y.j.7.j.c.3.} r.!.Y.j.G.G.G.V.V.G.Y.G.c.j.j.V.V.G.!.!.!.j.j.G.!.V.j.V.A.!.A.j.j.j.7.+.<.j.V.j.j.j.j.`./.r.7.d.V.!.j.d.G.j.j.A.V.j.!.!.!.&X#X!.!.!./.&X!.A.A.!.!.G.j.j.j.!.G.G.!.!.#X`.j.7.!.`.!.!.j.V.c...*.7.+...3.<.<...+.j.A.d.<.<.*.r.r.j.+.} A.7.( ( *.d.<...+.7.<.<.!.G.<.<.+.( ! <.*.( 3.G.c.*.} <.<.( } ..} ....<.<.} R ! ..! } ! +.A.j.p...D ! *.r.V.j.3.<.+.3.3.+.( ! ..r.p.....} <.+.<.3.<.! U C <.d.A.j.j.!.!.!.A.c.d...! ..! ! } <.<...( 7.c.!./.`.`.`.`.`.j.7.j.j.3.<.! ! *.p.j.d.r.r.p.7.7.<.p.d.<...} ! U ! *.<.p.c.V.r.d.<.+.*.<.7.j.<.<.j.r.",
"c./.`.!.#X;X!.`..X;X`./.!.Y.Y.j.j.V.j.p.d.A./.Y.7.<.1.V.V.0.7.r.a.l.C.L.!.D.g.i.j.d.j.!./.#X#X`.!.V.V.G.j.r.r.7.j.G.!.Y.c.V.A.c.A.A.!.`./.!.G.V.A.Y.Y.V.A./.!.7.<.0.j.G.!.!.!.!.Y.j.j.j.j.j.r.r.j.G.Y.G.G.A.V.G.!.!./.!.V.G.!.!.g.r.p.3.<.d.j.j.j.!.!.Y.!.!./././.;X#XV.j.V.!.!.V.7.j.r.J ! j.j.j.V.Y.!.Y.j.j.A.3...`.;X!.!.Y.!.!.!.!.Y.!.!.!./..XA.A.`..X/.Y.V.c.j.d.j.j.r.3.3.3.j.c.p.+...<.<.<.j.j.V.! 7.j.V.!.j.j.Y.!././.G.c.j.c.A.A.V.j.j.j.G.A.j.j.7.*.<.A.j...r.A.j.c.j.j.A.Y.A.G.j.d.!.9Xc.j.#X.X/.j.<.j.j.j.3.j.j.A.V.Y.p.d.j.j.A.!.Y.j.c.G.A.Y.!.Y.G.!./.!.d.j.G.Y..X!.Y.V.d.r.p.d.d.d.c.A.c.d.r.7.<.d.V.A.V.A.G.c.j.A.<.7.G.!.c.Y.d.+.j.j.3.p.r.c.c.3.7.j.j.c.A.p.<.<.+.p.<.} } 3.r..X!.p.3.<.p.G.c.c.V.G.j.<.*.} *.! <.3.*.3.+.6.j.! j.j.*...r.*...<.r.r.d.p.j.7.r.<.<.*.<.j.c.c.<.d.r.d.c.j.A.j.d.r.( +.*.<.<.*.j.r.*...+.<.d.j.d.<.<.p.j.c.G.c.j.j.j.V.Y.!.!.Y.!.!./.!./..X!.j.d.j.!.Y.p.j.!.!.G.j.j.j.j.j.j.j.j.A.j.c.V.j.G.!.Y.!.j.j.A.!.V.j.j.j.G.G.c.j.p.3.7.r.r.d.#.<.j.j.Y.!.V.G.V.G.!.Y.!.`.!.!.!.G.d.A.!.!.!././.!.j.j..X!.A.c.A.V.V.c.d.j.G.V.V.j.G.`.`.j.p.!.!.j.V.j.!.A.3.<.7...} <.7.<.<.d.c.j.*.! ! r.<.<.3.! ( j.j...<.<.7.+.( ! <.7.+.c.V.<.<.<.! ..<.+.+.j.!.A.r.R } <.7.3.*...+.*.*.+.( ! } ..} ..! ! <.<.<.} U +.r.c.!.!.c.r.} <.p.<.+.( ( +.+.! *.! } r.j.<.( C } ! d.j.j.3.j.Y.A.G.G.Y.j...( } ..+.*.3.3.*.3.V.!.!.!.!.Y.Y.!.!.7.<.j.d.3.<.! U *.j.c.<.<.r.d.3.3.r.V.j.<.<.*.*.+...+...*.p.V.j.j.<...3.d.d.j.3.3.j.d.",
"A.#X&X!.`.#X/.&X.X.X!.!.A.j.A.p.7.j.G.Y.j.j.A.A.j.<.<.l.G.a.3.7.p.!.#XG.a.0.j.G.V.c.V.Y./.;X,X#X/.!.Y.V.d.7.p.V.!.!.Y.V.j.V.A.j.j.j.!./.!.G.Y.Y.A.Y.G.j.G.&X/.r.<.g.j.j.L.!.W.L.C.j.j.0.r.d.r.r.j.Y.Y.c.V.Y.!./.`.#X&X!.G.!./.!.V.c.j.7.7.j.d.p.V./.!.j.7.7.c.!.!.!.V.r.d.G.A.V.!.7.j.A.<.p.!.A.j.A.!.!.G.j.A.&X!.d.G.;X;X`.Y..X`.`.!.!.!.!./..X;XY.G.`.!.V.j.c.d.<.<.j.c.p.3.d.3.j.c.d.j.c.7.! *.j.j.c.! <.<.d.A.<.d.!.G.!.&X`.c.j.V.c.c.A.j.d.d.c.j.j.d.*.} <.V.V.r.j.j.r.!.!.V.A.!./.!.d.<.j.A.j.<.r.c.G.! i ! 7.p.d.V.<.d.A.Y.3.<.7.d.V.!.!.A.c.G.V.V.G.V.!.!.!.Y.G.!.!.!.#X!.G.V.j.j.A.G.G.A.!./.!.A.c.j.j.j.V.G.Y.!./.!.!.G.<.j.!.!.j.A.G.j.c.j.+.j.V.V.A.r.7.d.j.!..XA.7.*.<.V.V.j.<.r.A.j.3.r.c.j.<.! D r.p.V.A.c.p.| ! ! ! ..<.<.} p.A.( d.c.3.( +.! ` ! <.r.*.( <.<.c.j.j.d.r.C.Y.!.r.<.<.r.Y.j.G.!.<.( N ! <.r.<.+.j.3.....*.<.j.c.r.d.<.<.r.V.!.j.j.j.c.c.A.Y.G.A.!.!./.`..X!.j.j.A.A.#X/.j.A.!.A.d.j.d.j.c.j.p.7.7.!.!.!.Y.A./.&X!.Y.j.j.c.Y.G.V.j.A.!.!.A.p.<.<.p.c.0.p.#.a./.z.a.V.G.`.!.!.`.!.!.!.A.j.7.d.r.c.!.!.G.!.#XG.! U j./.c.j.d.r.j.j.3.<.j.j.j.j.j.!.!.!.G.`.V.<.G.G.`.j.3.2.*.( } <.+.V.!.!.j.<.<.<.<.<.U *.r...! ..<.<.<.! ! ( +.} <.d.<.`./.<.<.3.7.+.+.! +.G..XA.p.<.<.3.r.<.( } <.<.<...( } +.+.+.*.<.<...U ! ..<.7.j.j.j.Y.Y.r.U ! <.*.<.<.+.U v U p.( <.`..X3.+.! ! ! r.U ! j.A.d.3.p.A.!.p.} +.*.<.<.+.<.<.<.c.!.!.!.Y.!.Y.Y./.!.3.+.r.3.<.r.<...<.d.r...<.j.p.....<.j.r.+.<.<.7.<.+.( ! R <.c.A.j.<...r.j.7.3.3.<.d.p.",
"/.!./.`..X#X#X#X#X.X!.!.!.G.A.!.!.A.5X.XA.j.Y.c.V.a.3.3.c.V.<.<.j.l.L.N.#.! 7.W.!.G.Y.!.!./.#X/..X/.`.V.p.j.r.7.7.j.G.A.V.c.V.Y.G.G.!./..X`.G.!.#X`.Y.A.V.G.!.V.C.V.j.V.l.j.!.!.j.j.a.d.d.3.7.<.r.c.!.!.V.c.G.!.`./.!./.!.!.`.G.V.c.j.p.d.j.d.r.j.A.j.! ! <.<.d.j.j.3.<.<.d.Y.G.A.A.G.Y.G.c.c.V.c.!././.!.c.7.r.V.V.G.!.`./.`..X#X!.G.A.Y./.#X;X;X!.!.!.V.j.p.j.j.p.r.p.d.7.<.p.r.j.j.3.j.d.7.<.<...<.3...} <.7.7.} 7.!.j.A.!.!.!.c.!.Y.!.c.j.c.r.j.c.!.7.r.p.G.j.A.j.d.j.j.c.A.Y.j.G.A.A.V.7.d.j.d.A.c.G.7.h a 3.j.p.j.G.j.j.Y.c.A.+.} A.!.c.G.r.j.j.r.!.G.A.G.!.G.A.Y././.`.;X!.d.j.G.!./././.#X#XG.A.G.j.j.G.j.A.#X!.j.V.c.V.Y.A.j.!.j.d./.j.j.7.*.*.<.r.j.V.j.<.r.G.G.c.d.d.<.r.Y..X!.7.V.!.G.<.*.Y.j...} N *.V.j.!.7.3.<.! <.! ( ( ! ! ..V.j.c.7...3.+.<.r...3.<.<.3.<...3.<.!.A.j.Y.`.Y.7.<.3.<.<.j.j.3.*...+.*.d.j.d.j.j.p.*.+.! <.d.3.j.V.j.j.<.3.A.G.c.c.G.!.Y.!.G.c./.#X!.j.G..XY.j.j.`.#X!.j.c.c.3.3.r.c.j.p.V.V.3.*.G.!.!.j.j.G.!..XY.p.j.V.j.p.d.p.c./.!.j.<.<.7.c.j.p.r.j.A.A.c.j.V.!.!.!.!.Y.G.Y.!.A.p.d.j.j.V.Y.V.A.!././.V.r.V.!./.A.3.7.j.p.p.<.<.7.j.j.7.V.!.V.j.j.7.+.j.!.!.G.A.j.<.} <.<.+.j.A./.!.3...<.} } ( ! ..} U D N C R ! ! ! ! ! 3.p.<.G.j.*.( *.7.+...! ! 3.d.<.7.d.} p.<.<.....d.j.7...( } +.+.} +.j.<.! } <.d.c.j.G.G.j.r.j.<.! ! } ..<.p.<...J +.! ! *.j.j.<.<...! ! *.! ..y.p.*.3.j.j.3.<...R } j.p.( D <.d.j.A.&X`.!.!.j.j.!.j.<.<.*.<.d.<.} } ( +.} } r.p.<...} ..*.r.p.<.3.r.p.+.J +.<.r.d.j.j.<.} p.j.<.<.7.p.p.7.",
"/.!.!.!./.&X;X;X`..X`./.!.G.G.!.A.c..X!.!.c.!.&Xj.j.d.r.j.j.3.d.j.a.j.g.<.<.g.G.`././.`./.!.A.r.r.j.!.Y.V.V.p.*.*.7.j.c.A.V.G.!.Y.G.Y.G.!.!.G.!.;X;X`.G.r.7.c.A.C.D.G.L.G.!.).G.p.a.3.r.p.r.d.p.r.c.G.V.c.G.!.!.!.!.!.!.!.Y.!.A.A.j.r.7.r.j.j.d.7.r.p.3.r.j.p.d.<.<.<.<.p.j.c.j.c.A.G.A.A.Y.Y.A.A.!.!.Y.!.G.d.7.!.!.!.!.!.!.`.&X#X/.!.!.!..X&X;X.XA.c.j.c.j.p.j.d.c.p.*.+.<.<.<...<.3.+.7.7.p.j.r.<...+...*.3.7.r.<.j.A.3.j.c.V.c.j.c.d.A.A.c.V.c.V.d.j.<.j.j.c.r.j.p.p.j.j.c.j.j.r.V.Y.V.c.d.d.V.Y.`.!.#XA.! *.7.V.c.A.!.!.!.Y.V.V.r.<.r.j.V.A.j.V.j.7.A.c.j.j.G.G.G.Y.!.!./.;X!.p.d.V.!.`.`.!.!./.A.A.A.d.j.!.7.r./.!.j.V.A.A.A.j.V.A.Y./.!.c.r.3.<.+.+.<.7.j.j.<.j.A.j.d.j.d.j.j.Y.G.V.p.j.Y.Y.r.<.G.V.j.V.....c.c.!.7.r.d.r.p.+.( ! ! ! } r.j.j.r.} <.<.<.j.....3.p.<...*.3.<.r.j.j.c.A.j.j.j.j.<...p.c.r.*.*.3.r.j.j.j.V.V.j.3...( <.p.p.j.j.p.r.<.<.j.V.c.c.G.!.A.!./.Y.!.;Xp.C <.;X`.V.!.!.!.!.Y.Y.c.r.j.c.Y.G.V.G.A.j.p.j.Y./.A.c.A.G.!./.V.j.j.p.d.d.7.3.j.j.p.r.p.j.V.j.d.d.j.d.7.p.c.A.A.V.V.G.Y.!..X/.G.j.c.c.d.d.d.V.c.Y.`.&X&X.X/.!.!.G.7.7.d.j.Y.j.7.<.p.<.} j.!.V.p.j.7.} <.j.j.<.d.p.+...<.<.} <.j.!.!.<.! +...! ! +.r.3.+.<.+.U J ! ! } *.*.<.+.U +...} ! ! ( } *...R ! +.<.d.p.*.<.<.<.+.7.j.!.j.<.} +.<.<.<.} <...! ! 3.A.A.g.V.A.j.r.j.<.( *.! U ! <.+.<.! ! ! } } *.<.+...J ! ! ..U +.p.7.+...<.<.+.+.! R +.3.<.*.! } } ..!./.!.!.!.V.j.j.7.*.....3.V.d...! ! +.....7.r.*...<.<.<.j.p.! ! <.<.*.! <.<.3.7.+.3.<.<.r.p.<.3.j.V.A.c.",
"!.!.Y.Y.!..X.X!./.`.`./.!.A.c.G.r.7.c.j.!.j.A.&XY.V.r.<.<.3.<.7.j.g.j.j.a.a.N.!././..X#X#X.XA.<...r.!.!.!.!.c.<...<.3.j.A.V.c.G.!.!.G.c.V.A.c.V.!.`..X`.c.r.j.Y.j.p.N.G.G.~.!.j.r.d.p.r.3.1.a.j.c.G.G.V.G./.`.!.V.!.G.Y.Y.V.A.V.j.j.p.d.j.j.j.j.r.<.d.G.!.!.Y.G.d.A.j.d.d.r.p.d.G.V.j.j.c.j.p.3.c.!.Y.G./.`.!.G.`./.!.!.!.Y./.&X.X`.!./..X&X;X;X.XG.d.7.j.j.d.j.j.!.V.<.*.r.r.<...7.j.<.r.r.j.Y.j.d.*.<.r.p.d.7.<.<.j.d.+.p.V.c.d.j.j.r.A.A.V.!.G.!.V.A.j.!.c.7.<.r.d.j.j.d.j.7.d.<.j.!.V.j.d.r.A.!.!.!.;XY.*.3.( 7.j.V.G.G.Y.V.j.j.d.7.<.<.j.j.G.!.V.j.Y.G.c.V.!.!.Y.A.A.G.!..X!.j.j.A.A.!.!.`.#X&X!.!.V.7.p.A.G.7.A.Y.j.A.Y.V.j.c.`.G.!.&XV.!.j.V.j.d.d.d.c.!..Xj.j.d.<.7.V.Y.j.p.V.d.d.7.<.d.c.j.<.c.Y.c.A.7.j.j.<.j.<.<.j.V.j.7.<.} ( *.<.p.3.<.j.3.d.d.*.<.<.R ..7.} ..d.j.<.+.5.p.A.Y.3.j.p.p.+.! 3.j.7.+.} <.3.7.3.<.7.<.d.3.( } <.p.j.j.<.<.j.j.d.j.j.c.c.A.G.A.!..X/.&X;X! h <.;X!.j.A.!.!.!.Y.A.d.<.j.#X.X/.Y.A.A.Y.!.j.V.!.c.p.j.A.!./.G.j.j.j.j.j.c.p.3.3.7.d.c.Y.Y.j.d.j.j.j.p.c.!.`.!.j.j.j.c.A.!.!.j.p.A.Y.j.d.r.7.3.j./..X#X#X!.V.A.V.d.p.r.7.A.G.7.<.<.} ! 7.V.j.<.<.<.} <.<.<.} r.3.( } <.+.! *.<.j.A.<.! <.j.*...<.d.<.*.<.*.! ! ..( ! } ..! ..N R ! ..*.*.<...*.<.! J ! ( +.3.*.! } <.<.G.A.A.j.<.*.<.3.7.7.( ( ! ! } d.Y.j.V.A.j.p.<.j.r.7.<.! J ! +.( +.! ! ..<...} 3.3.<.3.! N U J ( +.! R J ! ( ! ! R ! ! ! } <...} <.j.G.A.G.G.j.A.!.j.j.d.p.<.<.p.<.+.! ! ..} ( 3.7.<.} <.<.*.3.<.J J ! R ( ( <.<.<.3...<.3.r.p.p.r.d.j.Y.!.!.",
"Y.!.!.!.`..X!.G.Y.Y.G.G.G.j.j.C.7.<.r.r.c.7.*.<.j.a.*.( +.<.#.*.j.j.j.N.j.i.j.G.!.!.`.`.#X;X!.j.c.G./.`.!.!.A.d.<.<.7.j.G.j.p.j.!./.!.G.V.V.c.j.Y.Y.!..X!.V.A.Y.j.<.j.V.l.N.j.7.r.j.C.j.<...1.j.c.V.c.j.V.Y.Y.A.j.G.c.V.G.j.j.c.j.j.j.G.G.V.c.V.j.<.7.V.!.!././.!.&X!.A.V.p.r.d.c.r.3.j.c.p.<.3.c.!.!.!.!.!./.#X`.`./.!.G.A.!..X.X`.!./.`.#X&X&X#X`.j.<.r.j.j.j.j.j.j.p.r.3.<.7.+.p.j.3.r.<.r.j.d.j.*.<.d.r.r.<.<.<.r.<...d.!.!.j.j.Y.A.!.c.A.#X!./.!.!.j.Y.j.7.7.d.c.A.j.j.V.j.A.j.d.A.j.7.r.r.!.!.A.!.#XY.7.3.r.p.j.!.Y.V.c.d.j.j.p.p.d.3.d.G.V.G.c.j.G.A.j.j.!.!.G.V.G.Y.G.Y.A.j.!.Y.j.j.!.#X#X.X!.!.G.j.A./.!.3.j.!.Y.!.!.A.G.!..X!.!.G.d.V.j.j.7.3.j.j.j.c.j.r.j.7.! J <.A.A.c.A.j.j.7.r.j.j.j.j.A./.j.<.7.c.*.D +...! <.A.j.p.3.+.( <.7.p.d.p.Y.A.V.j.<.+.j.! } <.( +.j.p.3.r.c.<.j.j.! <.j.A.d.<.r.j.7.*.<.<.*.<.7.p.d.d.p.<.} ..<.d.j.p.! +.j.G.A.G.!.`.Y.G.A.Y.!.Y.!.;X#X! R /.;XY.Y.c.A.j.j.j.j.p.r.A.#X`.#X#X!.!./.!.j.j.G.j.7.j.G.!.!.V.c.Y.G.p.p.!.Y.j.d.c.G./.#X`./.Y.G.!.!.c.c.Y.#X!.j.j.j.p.j.G.p...( d.A.j.d.p.7.<.r.!.!.Y.!.!.G.V.V.G.!.j.<.3.V.+.} 7.+.} 7.j.p.<.<.7.<.<.7.p.7.G.j.} ..<.+.( <.} <.j.p.<.j.!.c.<.#.<...} <.} R ..r.*.! ! } ! ..R ..+.+...! *.! } 7.7.+.} ! ! r.<.! ..r.d.A.d.p.r.7.7.7.7.4.<.*.! ! ! *.A.!.d.V.j.7.+.! <.<.3...D ! <.3.} } R ! +.7.*.( <.<.*.<...} 7.} ! ! ( ! ! ( ( ! ! U J U } ..} ! J *.!.c.c.V.j.r.A.!.3.j.r.7.<.<.*...3.( ! } ! ! <.7.<.<.*.3.7...( ..} ! R +.<.r.7.p.d.<.<.<.7.7.3.3.<.3.j.Y.!.",
"G.!.`.`.`.`.`./.!.!.Y.A.j.7.r.c.p.<.<.<.p.r.*.! #.<.#...#.....+.j.j.C.G.j.i.p.j.Y./.`././.`.!.Y.#X/.!.!.!.!.!.A.j.d.d.c.G.c.j.c.!..X#X`.!.Y.!.!.!.!.!..X#XG.j.d.j.<.g.j.g.j.g.a.d.c.A.j.<.*.3.j.j.j.j.j.c.j.j.V.A.G.j.c.A.j.d.j.j.V.Y.!.V.j.j.A.A.c.p.p.j.A.!.`.#X.Xj.p.V.G.G.Y.d.r.r.j.j.r.p.G.c.G.!.!.Y.G.!.;X!./.`.`.!.Y.!.`.&X`.!.!.`.#X&X&X#X#Xj...<.d.j.j.7.3.r.j.j.<.+.7.r.c.A.p.j.<.3.p.d.c.<.<.r.<.3.3.3.*.3.<.<.j././.!.A.`./.!.A.!.#XY.!.!.!.j.c.j.7.r.d.j.j.r.d.G.A.!.A.d.j.j.r.7.j..XY.V.!.Y.j.d.r.A.d.d.j.c.A.c.r.j.j.d.A.G.j.B..XV.G.j.d.j.c.j.c.A.A.c.G..X#X!.Y.G.c.Y.A.d.j.Y.`./.!.Y.!.Y.G.`.&X&Xj.c.V.j.A.G.`.!.!.V..X#XY./.!.j.7.<.7.G.!.V.d.+.<.r.j.d.( J *.V.!.`.#X!.7.j.V.<.<.G.!.A.j.+.p.j.<.! r.7...<.G.G.c.p.<...<.j.d.V.V.c.V.j.j.j.d.r.} <.p.<.3.p.<.<.p.!.<...7.*.j.V.Y.j.<.r.j.p.3.3.<.! R ( +.<.r.V.r.r.<.7.j.<.<.R ! r.Y./..X`..X!.Y.A.Y.!.V.A.!.V.+.<.&X#XY.`.G.c.j.d.7.d.j.j.A./.!.`.&X`.`..X!.c.j.G.V.j.V.Y.!.!.G.V.Y.G.7.3.A.j.r.d.G.!..X&X.X;X/.!.`./.A.j.j.Y.A.j.d.d.p.j.!.p.! ! p.A.j.c.V.c.p.7.j.A.A.!.&X!.V.V.!.`.j.} } p.+.<.j.7.+.p.j.j.7.j.V.7.} <.7.d./.V.+.! ! } +.*.( *.j.c.j.j.V.V.<.+.<...<.j.p.} <.d.<.! ! R D R ! <.<.+.( J ! ! ( p.j.<.} ! ..<.<.<.r.c.G.j.r.r.<.} +.<.<.<.<.( ! ! } r.G.A.d.7.<...} R } ! +.! N ! <.r.<...U ! ! *.*...*.*.+.R <.r.r.U D R ! ! ! R U } <.! D N +...U ! ! +.G./.c.<.<.7.j.A.7.j.7.<.<.3.<.+.3...! ..( ! <.7.3.<...<.3.} ! +.*.} ! <.<.r.3.<.<.d.<.<.7.<.<.<.} } <.d.j.",
"!.!.!.!.G.G.!.`.!.`.`.!.j.<.r.Y.A.r.3.<.<.j.j.*.*.#.} *.<.*.<.<.j.j.N.G.D.j.0.a.A.!.`./.!.!.Y.!.#X/.!.!.Y.G.G.c.V.c.j.j.A.A.Y..X#X;X;X&X!.!.`.`.A.!.!././.V.d.3.<.<.p.i.p.N.G.G.A.l.j.p.7.p.d.c.j.d.j.V.c.d.j.Y.!.Y.j.V.c.p.d.j.Y.!.!.V.p.7.j.Y.!.!.c.p.d.j.Y.!.&X`.d.<.d.A./..Xr.c.V.d.7.3.j.`.Y.G.G.!.!.!.!.;X!./.#X;X.X!.!.`.;X#X/./.`.#X&X&X/.!.r.} *.3.p.p.3.r.p.j.j.7.<.r.r.j.j.3.p.<.3.p.p.j.7.d.j.3.<.7.p.<.r.7.p.L..X|./.G.`.!.Y.!./.Y.A.V.A.!.G.A.j.r.p.j.j.j.p.r.j.d.j.j.j.c.!.V.r.j.!.r.r.G.V.r.<.+.j.j.j.7.7.V.I.A.r.<.r.A.j.7.V.!.c.V.d.r.p.j.V.!.!.G.c.A.`.#X#X#X/.V.V.c.c.!.!.Y.!.Y.A.G.c.c.!.G.`.j.c.j.j.j.j.G.G.j.7.!.V.*.d.<.! ( *.3.d.c.c.j.+.! R <.!.j.! ! j.!.`.#XV.*.A.G.<.( !.!.7.d.3.<.p.<.} <.r.r.7.d./.A.p.7.7.j.!.G.j.c.j.V.j.j.j.d.<.*.7.j.j.p.p.r.j.p.!.c.<.d.j.Y.j.c.<.! ..7.7.7.*.+...} *.<.<.j.!.j.V.j.d.c.<.<.} ! <.A./.`.G.j.A.A.j.c.Y.!.Y.j.3.7.<.Y..X!.!.c.G.A.V.j.j.G.V.c.!.Y.!.!.!.`.#X`.!.Y.!.A.V.Y.!./..X!.A.A.G.c.j.V.d.r.d.V.!.!.`.`.`././..X`.!.Y.!.Y.G.c.j.p.r.j.Y.c.*...c.!.G.!./.G.j.p.7.j.!.!.!.G.c.j.V.Y.j...+.7.7.j.!.p.+.p.j.j.7.j.!.V.<.<.+.3.!.A.3.! C ..7.} } <.p.j.j.d.j.3.*...<.+.7.Y.Y.c.j.7.} ! ( R D J ! ....} ..R ..( R } *.} ( } <...<.7.r.p.c.j.c.Y.<.U ! +.<.*.<.! } ....<.3.<.3.7.<...( J R J ! ..C U ! *.*...R ! R } +...( ! ! <.3.*.*.J R ..*.! J N N +.j.<.! N } ! J 7.r.*.<.!.p.} 3.j.3.7.j.j.c.j.<.<.<.} ....! +...} <.7.<...+.} +.*.! ! ! } ( <.<.j.V.j.j.7.<.<.r.<.<.*.( ( +.<.7.",
"!.!.!.Y.A.j.V.!.!./.`./.Y.j.V.#X/.V.j.<.<.p.r.+.*...( <.r.7.d.j.p.p.p.j.j.i.<.<.c.!./..X.X!.!./.;X&X/.!.A.A.V.7.c.A.V.j.c.c.Y..X;X&X.X.X!.G.!.!.c.!.G.c.c.c.V.c.p.j.a.i.g.j.D.D.A.j.j.d.j.A.c.c.j.j.j.c.j.p.j.Y.!.Y.V.G.j.r.j.G.Y.!.!.c.p.p.c.Y.A.Y.c.j.p.j.!.A.!.`.A.d.p.j.Y.A.<.j.j.p.p.d.V.`.#X/.!.!.!.!.!.!.!.!.#X;X#X/.!.`.#X.X`.`..X#X.X`./.c.*.<.<.<.3.3.*.7.r.3.r.p.r.3.r.j.j.3.d.3.p.j.3.<.<.c.Y.p.<.<.d.7.j.j.c.!..X!.!.G.`.!.!.Y.A.j.Y.A.A.G.A.A.V.j.c.Y.A.G.G.j.j.3.<.r.G.!.`.!.d.j.V.+.<.Y.Y.j.<.*.<.r.j.<.+.3.r.p.<.<.r.j.7.<.d.j.r.d.3.<.<.d.j.G.!.!.A.V.A.G.!.;X&XY.Y.A.V.!.!.G.G.A.V.c.p.p.j.3.<.+.j.!.!.!.j.3.!.V.V.!.p.! D N ! ! <.<...<.j.A.3.*.! ..j.j.<.7.c.!.!.j.} ! !.&X`.j..X#Xr.7.3.( <.*.( *.j.!.V.j.!.j.p.j.j.V./.!.Y.Y.G.!.!.!.r.<.d.7.d.c.j.r.7.d.V.j.V.V.c.!./.!.Y.Y.r.( } *.*.<.+.<.3.<.r.p.<.r.!.c.V.j.j.V.j.d.p.<.7.d.j.V.j.c.j.j.r.p.A./.!.j.j.G.d.G.#X!.Y.j.c.c.A.j.j.G.A.V.j.G./..X#X&X.X!.`./.!.A.c.V.G./.`.!.V.V.Y.Y.G.Y.V.A.V.A.!.!./..X/./..X.X.X/.!./.`./.G.j.j.p.p.j.c.<.*.c.G.j.A.A.G.j.V.d.d.!.A.j.A.c.c.V.!.c.<.3.j.V.!.!.j.<.p.j.<.} +.j.!.j.7.+.! <.+.} C v ! <.*.<.r.7.j.G.A.Y.7.<.....} *.p.p.c.r.7.*.! ! ! ( ( +...! ! +.J ! ! J J U ! ....+...<.<.<.*.7.3.j.#Xr.! ..<.+.( } 7.<.*.( ( ( ( <.! R U R D R U ..*.! ( U ! ( ! ! +.! } ..! D v N ! } ! ..J U } <.} ! U R <.d.<...( } ! U 3.3.! C 3.+.+.A.Y.+.R } +.p.7.( } ..! } ( ! +.+.+.7.7.<.*.7...( +.} } } ! ! +.! r.A.j.d...( ..*...} ..( ..+.<.7.",
"!.!.!.`./.G.A.G.;X#X`..X`.G.V.!.A.j.d.<.<.3.<.} ..<.0.V.j.<.7.d.i.p.a.j.j.5.>.<.c.Y./.&X;X.X/.#X`.&X!.G.A.!.!.d.j.G.G.c.j.d.j.A./.!.G.!.Y.c.G.V.c./.!.V.c.V.V.j.V.D.a.j.G.l.D.!.j.r.j.j.G.!.L.L.V.A.G.V.j.j.V.!.!.A.A.Y.j.r.G.`.c.Y.!.G.V.V.G.Y.V.c.c.A.j.G.#XY.G.!.j.7.7.j.A.p.<.p.p.j.A.V.c.!.`./.!.!.!.!.!.A.Y.!.|.&X.X!.!./.`././.`..X`.!.!.#Xd...7.p.<.<.<.( <.7.<.r.j.p.<.<.7.r.<.7.*.<.d.j.*.<.V./.c.3.r.j.j.!.c.A.!./.A.Y.G..X.X#Xc.7.7.j.V.!.!.G.V.j.<.c.J.d.j.V.c.j.r.<.7.!.!.Y.!.j.V.G.<.d.!.Y.7.+.3.p.7.d.p.j.c.r.3.p.G.j.r.j.d.p.d.7.j.y.7.<.r.p.j.c.G.Y.G.j.p.c.#X&X`.&X!.j.A.Y.Y.A.G.G.c.3.<.3.! r.*.j.j.<.d.A.A.d.*.j.A.A.l.} ..V.7.<.*.} 7.V.j.<.<.} ! <.3.} ( <.j.!.7.U ( !..X;XV.A.`.c.3.<.} ..+.*.3.V.Y.j.r.!.A.A.`.!.G./.!./.A.V.G.!.&Xp.r.c.7.r.A.A.d.r.j.A.!.j.r.c.G.Y.!.G.!.V.3.<...} *.*.<.3.<.d.A.j.j.Y.V.j.j.j.j.A.j.p.7.j.j.p.j.V.!.A.j.3.7.j.G.!.A.!./.j.Y.Y.j.G.V.V.c.A.j.d.j.d.j.d.Y.`..X#X&X.X!.!./.`.G.V.j.j.G.!.c.j.A.A.c.c.G.j.G.G.G.!.!.Y.!.!.!./.`.#X.X/.!.!.!.Y.V.V.c.j.j.c.<.<.V.c.7.r.3.V.<.V.d.<.c.j.j.j.j.j.c.!.A.<.<.V.!.!.`.V.7.7.p.<.+.+.j.j.<.<.} } } ! } ! U <.d.r.j.j.p.V.`.!.!.A.d.+.( ! ! ( R } ! r.7.C c N N } <.3.<.<.3.! ! +.*.<.( ! ( ! R ( *...<.<.p.7.j.r.! U +.<.! U ! j.<.7.p.r.<.( } ..( ( +.! R N U ! } <.! ! ! ! ( +...+.*.+.! N ! ! <.<.+.U ! ..! C D R ! +.*.( +.*.! R ! <.3.3.*.! U ! d.A.<.R R } +.! J ( +.! <.( ! } +.+.7.r.<.<.3.+.! U ( 3.<.<.<.<.J <.j.7.<...! ! ( ( +.*.+.+.+.<.j.",
"!.D.!.#X#X`.W.j.[.).!.W.L.V.j.D.L.j.j.7.7.l.j.<.+.7.V.C.5.~ +.p.j.i.j.j.7.<.<.5.j.!./.!..X&X#X!.!.!.!..X.X!.Y.G.!.c.p.d.j.j.j.Y./.G.G.!.!.V.A.!.G.Y.A.G.Y.G.A.j.l.j.<.p.j.7.j.j.d.d.j.l.V.A.G.G.G.Y.A.j.j.V.A.A.!.!.!.c.7.3.j.Y.r.j.V.j.G.`.!.!.j.r.V.`.!.A.!.!.!.j.d.p.d.c.c.c.7.7.r.j.V.j.c.!.!./..X/.Y.G.Y.G./.Q.!..X.X!.!.`.!.`.;X/./.Y.G.V.G.d.<.<.p.3.( ..<.r.7.r.A.A.!.p.7.<.<.7.d.<.! <.r.j.j.<.7.<.3.<.j.j.!.G.! ! d.p.!.c.c.!.G.7.3.V.G.V.G.!.!.j.j.j.c.j.p.j.c.j.j.p.d.j.!./.!.G.j.A.G.!.!.A.j.<...3.<.<.p.Y.!.j.d.j.7.<.V.G.p.<.3.j.c.V.j.d.<.p.7.p.3.j.A.j.s.3.<.j.G.G.!./.!.G.A.V.c.d.j.j.3.<.r.r.c.A.j.} } j.Y.Y.*.! ..c.&XA.( d./.j.<...<.r.G.!.N.i.>.! o.<.#.o.( 7.c.d.*.<.!.p.7.( ! c.V.<.7.*.+.! *.c.Y.G.j.<.Y.Y./.!.!.j.Y./.!.!.`.!.!.`.j.3.;XG.A.!.j.r.p.7.j.A.V.G.j.j.!.7.j.Y.j.c.d.<.*.7.r.r.<.<.r.V.`.A./.A.p.7.j.V.r.*.<.r.c.V.j.d.j.A.V.d.j.j.j.A.Y.c.c.G.V.j.V.c.j.j.V.Y.B.d.r.j.j.<.d.V.!.`.!.!.!./.!.!./.`.!.V.c.!..XY.A.A.!.Y.j.Y.Y.c.c.!..X.X.XV.Y.!./.`..X.X.X/.`.!.A.A.Y.G.G.!.!.r.<.<.+.+.<.7.j.j.c.j.+.p.V.j.j.3.V.c.d.<.<.<.c.V.A.G.d.<.r.3.Y.!.7.j.r...} ..+.*.<.<.3.r.3.<.<.7.p.j.A.j.<.7.j.G.c.*.! ! ..<.d.<.j.d.*.( N n R *.r.1.*.R R ..} ( <.7.7.*.! ..<.7.7.j.V.Y.j.V.p.<.! ..<.! } j.Y.j.!.j.p.3.<.+...! ! } ..( ! J R ! ( ! ....R ..r.! ( U ! ! U ! ( <...R ! ! *.! U } } ! R ! ! ! ..! n D <.3.*.! N D ( r.c.r.*.<.*.+.*.} ( +...+.! ! *.<.<.<.<.*...+...! ( ..<.r.r.7.( ! ..r.*.*.( } ! ( *.<.<.3.<.*.7.r.",
"!.G.L.!.!.~.!.N.~.!.C.j.l.j.j.V.j.0.1.<.<.N.N.a.1.p.l.j.0.#.#.<.<.o.<.0.7.<.>.>.j.!.!.`.&X&X.X!.Y.!.`.#X.X!.Y.G.!.!.V.j.c.V.V.A.G.Y.Y.!.`.!.!..X!.A.j.j.j.j.Y.G.W.D.6.7.<.+.<.<.<.a.c.G.V.j.j.j.V.G.G.c.j.j.j.j.c.V.A.V.j.p.p.j.p.p.j.c.G.!.!.`.A.j.A.#X.X!./.#X!.c.p.7.d.p.p.!.j.3.<.d.A.c.j.V.G.!././.A.c.G.!.`.!.!..X&X/.!./.!.!.&X`.!.V.A.A.j.3.<.<.j.c.<.} <.r.r.j.!.`.#Xj.<.<.3.p.V.j.<.*.j.c.c.<.*.<.V.!.!.j.;X/.N C 7.! 3.d.d.d.c.j.r.j.j.V.!.!.!.G.G.Y.j.j.j.A.A.j.j.j.j.G.`./.!.!.A.c.`.Y.c.<.+.<.r.j.j.d.j.c.V.V.j.j.p.3.d.j.j.d.r.j.j.j.c.V.d.r.*.3.d.r.j.j.j.j.3.r.j.V.G.!.!.Y.A.G.j.7.d.c.r.<.7.j.G.V.r.! ( d.V.c.!.j.j.j././.j.G.Y.p.d.3.<.a.!.r.o.p.j.+.! <.1.+.<.r.j.j.j.j.Y.7.( D U j.j.+.*.<.r.<.*.p.c.A.V.j.G.!.#X`..X!.!.!.!.V.j.G.`./.!.V.&X`.!.j.7.j.V.d.j.j.j.Y.c.c.Y.7.3.d.j.G.c.7.( <.j.j.3.p.j.j.Y.c.j.j.3.<.c.V.r.2.r.p.c.Y.V.j.d.j.d.d.V.!.G.A.V.d.r.j.c.c.A.Y.Y.Y.Y.Y.c.j.j.j.j.<.j.j.j.A.Y.!.!./.Y.!.!.!.!.G.G.!.!.A.V.c.Y.!.c.V.j.j.j./.;X#X.X!.Y.!.!.!./..X.X.X.X`.!.Y.Y.c.d.d.Y.7.( } <.3.3.p.j.c.A.A.r.V.G.j.7.p.c.7.<.! *.j.j.j.j.c.d.3.d.j.c.A.+.<.<.+...( <.<.<.<.r.p.7.<.7.j.d.j.A.V.j.j.A.G.j.<.` ! ..d.<.*.7.7.<.+.J C ! ..<.+.+.} 3.7.! ! *.3.p.<.+.7.p.j.A.G.j.d.<.p.7.<.( ..+.} <.d.d.c.Y.} C ! +...+.J C D D ! ..( C N J R ..<.....<.( ! U ! R R } R ! D C ! U } ( ..3.<...! R U U ..} U J ! ! ( } J ! } <.r.<.} *...! ! ! ..+.} <.( ( +.<.*.*...( ( +.*.+.+.+.<.p.j.<.R D ! <.} ! *.<.} ( 3.j.j.7.*.+.<.<.",
"#X).!.!.!.!.!.W.~.!.N.g.j.j.j.N.a.<.#.| <.j.j.j.<.1.1.<.5.0.0.7.5.+.<.j.l.j.<.+.d.A.G.!.`.!.!.Y.c.V.Y.!.`.!.!.!.V.G.V.c.A.A.V.A.G.!.G.V.!.!.!.`..XV.p.p.<.<.V.G.!.!.N.a.<.} <.<.<.r.V.!.L.l.j.j.V.G.G.j.r.3.e.j.j.p.p.j.V.c.j.j.j.j.A.Y.G.A.!.;XY.V.A././.G.G.!.!.!.c.r.j.7.3./.A.r.<.j.!.Y.V.!.Y.!././.A.j.A.!.`.Y.G.!.`.!.G.G.!.!..X`.!.j.G.!.A.7.<.<.d.G.j.3.3.r.r.d.!.!.!.3...<.7.r.j.c.<.<.<.7.j.r.r.7.c.G.r.<.!.`.*.7.!.<.! <.<.<.j.j.<.+.p.A.!.G.j.c.G.G.j.G.Y./.!.j.r.j.j.V.!.!.!.!.j.p.Y.c.V.d.<.7.j.A.A.V.j.r.7.V.A.p.j.d.3.<.r.p.<.<.r.r.j.j.r.j.7.j.j.<.7.j.j.j.7.<.j.c.V.G.!.Y.G.!.Y.7.r.A.j.<.<.d.j.d.<.+.<.p.V.c.r.<.V.V.!.A.j.7.<.+.r.a.<.r.c.B l ! j.p.#.5.5.+.r.j.j.c.!.A.!.!.j.<.<.V.V.<...<.c.j.d.d.j.V.A.!.!.`.`.A.!.!.!.G.!.3.! V.;X&X&X/.`..X!.j.p.j.j.p.p.p.j.Y.j.p.j.r.*.+.<.j.A.A.} ! r.d...r.V.r.p.3.<.r.<.7.G.Y.j.c.c.d.j.A.V.c.V.A.d.p.c.Y.V.j.j.j.j.A.!.Y.G.!..X.X!.A.j.c.c.j.j.7.j.p.d.j.A.G.G.Y.c.G.G.A.G.A.G.!.`.!.E.j.G.!.!.!.V.A.c.!.&X!.!.#X!.!././.`.#X&X#X`.`.!.!.!.A.j.j.!.A.3.<.j.j.3.j.p.d.r.j.j.!.!.j.7.j.c.7.r.<.<.A.j.d.r.j.p.<.j.G.A.!.+.} *.+.+.! R ! ! ( ..<.3.3.d.j.<.( <.d.j.V.j.j.<.+.<.( ( 3.<.3.<.*.! J C J ! } 3.r.7.<.d.*.! R U ! <.+.( 3.j.V.G.V.p.3.*.7.d.+.! ..( ! <.V.V.Y.!.<.N D R ..*.U J J N R *.} ! U ! ! } 3.r.3.<.<...! <.+.( *.! ..+.*.<.! +.} } <.<.+.} ( ( } <.<.( ! ! R ! ! ! ! ( ( ! ! ! } ..! ! ..p.3.} <.( ..+.<.<.*.( ! <.<.*...+.+.*.<.3.! J ! ( 7.} J 3.7.<.+.d.Y.V.p.<.+.<.<.",
"$X`.`.).G.C.!.!.!.!.N.g.j.D.G.L.7.<.o.} <.l.V.G.N.j.<.o.<.p.a.5.p.<.7.j.C.V.j.a.V.Y.G.!.!.!./.!.G.A.G.!.Y.j.j.Y.A.A.A.!.!.G.A.!.!.`.Y.j.j.!.`./..X!.V.d.<.<.j.c.D.!.G.j.<.} <.7.3.1.p.C.!.Y.C.c.Y.Y.G.c.d.r.j.c.A.d.r.j.V.c.j.c.V.c.G.!.Y.A.!.#X/./.!.!.!.Y.A.!.Y.#X/.j.j.d.7.A.j.p.r.j.V.j.j.!./.!.!.!.Y.V.G.!.!.Y.Y.!./.Y.V.V.!.!.!.!.G.j.!./.Y.j.j.p.7.c.A.j.V.V.c.j.!.!.Y.<.*.r.j.d.p.3.+.3.j.7.r.r.j.r.<.p.<.*.r.j.r.<.<.*.R ! } <.p.3.<.7.3.j.G.c.j.c.G.!.V.!.!.#X.Xj.r.j.c.M.Y.!.!.A.j.j.!.V.A.V.V.V.A.!.!.G.j.3.*.c.A.r.j.V.p.<.p.d.<.7.c.V.V.*.+.A.A.Y.d...2.d.<.<.7.p.j.G.A.G.!.!.A.!.!.3.<.G.!.c.j.j.j.c.j.j.j.j.!.`.+.R j.!.(.r.j.j.j.<.<.<.+.<.V.} s h } j.j.1.+.| <.<.<.d./.A.!.#X!.j.p.j.c.j.<.3.j.Y.!.Y.Y.c.j.G./..X!.d.A.G.!.G./.p.#.!.5X!.j.c.A.A.j.c.Y.j.7.r.j.c.G.A.3.} <.<.*.+.*.*.d.!...! *.<.! 7.p.! ......<.3.j.G.G.A.A.d.7.7.r.7.d.c.j.G.j.c.Y.V.c.G.Y.G.Y.!.V.j.A..X&X.XY.j.V.j.j.j.j.d.j.j.j.j.j.c.c.j.V.G.Y.Y.V.V.!.`.!.A.j.j.c.c.V.j.d.r.G.`.Y.!.;X!.!./.`..X#X#X!.`./.!.Y.G.A.A.G.A.Y.p.<.j.c.j.j.j.p.*.<.r.!.V.7.d.c.j.<.3.3.d.!.j.j.d.j.p.<.d.!.&X#X<.*.r.3.*.R D U R R ! <.d.V.G.G.3.U ! 3.j.G.7.<.! ! ..+.( U ! *.( ! ! R ! ..*.*.<.3.<...d.<.3.<.( <.c.c.d.V.V.j.j.7.<.+.( ..d.<.<.3.<.} 3.G.!..X`.G.} ! N U } ! ! ! C R ..} ! ! ! R ! <.7.*.+.<.<...7.3.U ! ..r.j.r.<.} 7.*...*.*.+.*.*.+.+.r.3.} } *.+.+.} ..*.*.} ! R ( *.*.! ! <.j.p.+.<.( *.<.3.p.7.*.+.d.d.3.<.*.+.*.3.+.C J +.+.7.} N ! +.*...<.j.r.3.<.} *.<.",
"~.D.G.!.!.D.L.!.`.`.L.j.V.G.G.G.j.1.| ! #.g.j.G.#X!.j.<.<.i.p.5.5.+.<.0.g.j.N.G.Y.!.G.!.!.Y./././.!.!.Y.j...} f.Y.Y.Y.!.!.G.A.!..X!.!.A.j./.;X!.Y.#XY.d.p.r.p.j.V.C.G.C.i.<.a.j.0.<.<.j.L.!.C.j.V.c.j.j.d.d.j.j.j.r.r.j.V.j.j.j.V.j.j.V.Y.!.!.!.!.`.!.G.!.!.!.!.!.`.#XY.c.j.p.j.d.j.c.j.d.3.p.G.`.G.A.!.!.Y.Y.G.Y.Y.!.#X.X!.A.A.G.Y.!.A.V.j.!.Y.d.p.G.c.7.V.G.7.A.V.G.A.!.!./.c.j.c.!.!.c.<.( r.!.j.d.p.G.7.<.G.V.A.p.p.j.*.} A.r.! *.V.p.( 3./.p.c.Y.!.G.A.G.!.A.!.Y.!./.c.j.c.V.V.!.!.!.G.V.Y..XA.<.! 7.A.V.Y.A.c.r.3.+.d.j.p.p.A.j.<.3.<.3.j.V.A.A.<.<.!./.!.j.<.3.7.} ( 3.V.G.!.!.!./.Y.V.!.!.j.j.!.`.!.A.c.!.!.c.V.c.j.!..Xj.<.A.V.j...3.3.V.j.3.*.<.#.c.Y.<.! <.V.j.<.! Y ! ( ..j.;X!.j.V.!.G.j.7.p.c.j.7.7.V.!.!./.V.p.j./.`./.V.!.G.Y.!.Y.Y.G..X.X3.( p.j.j.r.j.!.V.r.d.Y.!.!.j...! ..<.*.<.3.} ..p.! +.<.<.*.p.+.C } *...*.3.j.p.r.j.p.3.r.d.7.<.7.p.<.A.p.j.G.V.j.c.V.j.j.V.j.3.j./.;X`.!.Y.Y.c.j.A.V.V.G.V.d.r.j.c.c.c.j.c.!..X!.G.!.Y.Y.A.V.c.d.r.d.<.<.<.Y..X!.!..XA.A.!./.`.`.!.j.V.V.V.V.V.V.c.j.A.V.<.} r.!.!.Y.A.V.r.<.<.j.d.<.j.c.j.3.<.7.V.!.A.A.j.j.j.<.7.c.G.Y.<.p.!.V.j.3.+...} ( *.r.j.c.V.!.j.} ..7.j.c.j.<.U D J ! ! N N R C ! 7.j.j.7.7.<.} *.<.! p.c.<.3.<.j.Y.V.d.j.j.r.7.<.<.<.<.<.+.r.p.<.7.r.<.*.j.`.!.j.! ( N z ! ! ! R N N ! } ! J N N ! <.<.! ! *.j.*.<.3.N D <.3.j.j.<.<.V.3...( ( +.<.*.} ! ..+.R C N N D R ! ( +.} ! R ! } +.! } ..} *.<.<.! ..+.<.r.7.<.3.3.d.j.j.p.<.3.j.<.U R ..U +.} N N ! <.+...*.*.p.<...+.*.",
"!.j.g.W.`.`.~.!.`.`.!.C.G.L.G.G.!.D.<.! +.p.j.G.`.L.a.<.<.5.0.7.0.7.j.j.j.j.j.j.G.Y.G.Y.V.c.!.!.!.!.A.Y.!.c.j.!.V.Y.!.Y.!.!.!.!./.Y.!.!.A./..Xg.d.!.d.*.p.d.r.p.N.j.V.C.j.l.G.N.d.r.r.j.V.A.c.d.d.d.p.p.j.j.j.r.3.<.r.j.c.j.j.j.j.V.V.c.c.c.G.A.A./.!.G.!.`./.!.!.Y.!.!.c.j.j.j.j.G.G.V.j.d.j.Y.`.G.V.G.Y.G.A.j.j.A.!.#X.X!.A.A.A.!.!.!.Y.A.`.G.<.7.A.j.7.!.!.<.j.p.j.c.A.A./.!.j.c.!..X`.j.<.d.c.j.V.j.j.*.+.!.!.V.7.p.j.<.3./.Y.} *.^.c.*.3.A.j.V.!..X!.A.V.Y.!./.A.V.G.c.j.c.V.!..X!.!.!.!.!.G.c.} N ! p.p.j.d.p.<.3.<.7.3.p.V.!.Y.V.d.r.c.!.d.d.c.j.G.!.!.V.G.j.j.j.<...+.p.!./.!.!./.Y.V.Y.`.!.!..X.X!.G.c.G.V.j.j.j.j.c.j.3.7.c.p.p.r.p.( <.7.j.d.r...3.Y.D.p.7.<.<.5.<.#.<.<.p.c.!.d.<.+.!./.!.j.d.V.G.j.r.j.j.G./.G.j.V..X.X#X!.Y.j.A.A.j.Y./.`.!.*.( j.c.G.p.<.j.c.d.p.c.c.j.<.+.<.<.p.7.3.r.<.3.j.*.j.A.p.<.<.+.( 3.<.<.<.3.d.<.+.r.<.e.j.j.7.<.3.r.r.c.<.7.c.j.7.7.r.p.d.j.j.7.r.A.`.G.!.!.!.V.j.A.c.A.Y.V.j.d.j.c.j.j.p.r.A.#X.XY.Y.!.!.A.G.G.j.j.V.j.j.j.!..X/.`./.Y.A.Y.!./..X!.j.r.d.V.Y.Y.A.j.<.A.V.p.*.<.j.Y.V.r.j.j.d.<.p.j.p.V.c.p.7.<.j.A.j.G.!.c.c.G.j.7.r.d.Y.j.V.!.<.7.j.3.<.+.<.j.G.V.p.<.j.p.*.<.r.j.c.Y.j.*.( ! +.d.3.D ! ! ( d.!.`.j.<.*.+.<.3.! <.j.r.c.c.A.A.j.j.j.j.p.j.<.<.<.<.<.( *...( 7.p.! J +.j.d.} D R D N U ! ! R N N ! <.} ! N N D ( <...C ! j.<.! <.! +.d.<.r.c.j.d.Y.p.R C D ! ..} U N D R J D J J ! +.R ( <.<.+...+.+.! ! <.+.R ( <.r.<.<.<.<.7.p.j.c.r.7.7.d.j.j.d.j.r.! ( *.R <.7...N ! 7.<.} ..<.V.r.<.<.+.",
"!.l.j.L.).#X+X!.L.L.D.G.!.!.!.[.`.!.i.! >.j.j.!.!.j.<.+.+.+.<.<.j.j.L.C.j.l.j.p.Y.!.Y.G.j.j.!.!.!.Y.j.d.A.G.c.c.G.!.!.!.`..X`..X!.G.!.!.G.!.!.d.j.j.+.! r.j.d.3.a.j.V.j.7.j.V.a.j.d.a.p.j.V.c.j.j.j.j.j.c.Y.A.j.c.j.c.V.A.V.c.c.j.!.!.G.j.p.V.G.Y./..X`.`.`./.!.Y.G.!.Y.j.j.j.c.j.c.j.j.j.d.j.A.!.G.G.Y.A.A.A.V.V.V.G.!.!.G.A.G.G.!.!.!.Y.j.`.!.7.3.j.j.p.Y.!.p.j.7.j.V.A.c.!.!.j.V.!.!.`.!.j.j.c.j.!.j.7.} +.V.c.p.3.r.p.j.A./.c.} ( d.V.j.d.<.<.j.!./.!.G.Y./..X#X!.Y.Y.G.A.j.!.!.#X/.!./.!.!.d.j.j.<.3.r.3.j.j.d.<.j.j.j.3.j.G.j.j.V.d.p.!.!.j.j.j.V.Y.d.j.j.!.A.V.j.j.<.} 7.!.!.!./.!.Y.A.G.!./..X#X#X`.!.G.c.j.V.V.G.!.j.r.j.G.A.j.c.G.c.<.<.<.A.j.7.<.3.d.j.i.<.! ! <.7.i.7.j.!.!./.Y.!.!.!.!.A.G.j.c.!.!.V.j.j.G.!.G.c.!.&X/..X!.c.j.A.c.V.!.!.`.V...<.j.j.A.j.3.p.r.<.<.<.<.<.} +.r.3.j.j.d.p.j.A.!.j.Y.!.j.<.<.3.d.d.<.7.8.<.p.<.+.p.7.7.j.p.<.<.<.7.j.A.7.d.G.j.7.r.j.r.d.j.j.7.<.r.G.A.G.G.!.G.c.A.V.A.A.G.V.j.d.d.j.c.j.d.j.!.`.Y.c.G.Y.j.j.G.G.Y.A.Y.!.V.J././.`..X.XY.A.Y.!.#X`.c.j.c.Y.!.!.Y.d.+.j.c.j.r.<.<.7.d.<.7.j.j.<.j.c.d.G.j.<.<.+.d.j.*.j.!.G.A.!.A.j.p.r.A.d.p.j.! <.j.G.c.j.V.!.!.r.! *.7.<...<.r.d.c.c.!.3.! R ! +.! J ....! 3.`.;XY.<.! *.3.<.! +.<.r.j.d.p.r.j.!.Y.+...<.} } ..<.<.<.( ! ( 7.7.} } ( } ..} } U ! } R D R ! J U +.7.! ! J C c N *.<.C J <.7.! *.3.j.G.r.*.<.p.r.V.p.} U J ! ! R C n C R U R ! U ! ! R ! ( ..( ( +.*.} ..3.<.( *.7.j.V.V.V.V.j.c.G.Y.j.7.<.p.A.V.j.j.r.+.3.j.<.j.c.3.R } <.( ! ..*.j.3.<.<...",
"!.L.G.D.G.!.!.G.!.!.W.!.!.!.!.`.V.V.<.B ! :.+.<.!.a.+.} } | <.7.p.p.j.7.7.N.G.G.G.Y.A.j.3.r.G.!.!.&X!.d.j.A.G.!.!.!.!.`.#X!.!..X/.G.A.Y.Y./.`.Y.!.j.} } j.G.j.<.j.L.~.j.+.i.j.<.a.r.<.<.0.c.C.j.c.c.j.7.d.G.A.j.Y.!.!./././.!.G.Y.!.A.A.V.c.Y.!.V.G.!..X`.!.!.!.A.!..XG.j.V.V.c.c.j.j.j.j.r.7.c.j.c.!.!.A.G.!.`.`.!.V.c.V.A.Y.!.G.A.A.G.j.7.!.!.j.3.j.A.j.V.V.c.j.<.j.A.G.j.V.V.A.`.`.V.Y./.G.V.j.p./.Y.j.d.d.j.c.c.j.<.( <.j.V.Y.c.p.r.j./.!.r.3.c.!.!.A.V.!.#X`.&X#X.X/.!.!.j.!.A.!.!.!.G.j.V.d.p.c.G.V.7.<.j.Y.Y.p.!./.`.j.!.&Xj.d.A.d.d.!.A.V.j.r.p.d.+.j.V.Y.G.d.3.j.r.<.G.G.G.!.!.!.Y.G.G.`.`..X#X&X.XY.c.c.V.!.V.A.!.j.p.G.Y.j.j.c.j.p.j.3...V.p.*.r.r...p.5.<.+.#.7.j.W.<.3.A.V.A.!.`.!.#XG.j.Y.V.j././.!.!.!.`./.V.V./.!.!.`.!.V.V.!.V.V.!.!.;Xj.! r.j.3.3.r.V.V.<.! <.( ( <.^ ..<...7.7.p.r.7.p.A.r.j.!.!.c.7.d.j.7.<.<.3.*.3.<.<.j.j.7.j.p.p.j.7.3.c.j.7.j./.G.r.p.j.c.V.V.V.j.<.7.Y.!.!.Y.`./.Y.!.!.G.G.Y.G.d.<.7.V.!.`.!.A.Y.!.Y.V.c.A.d.j.Y.!.!.j.c./.A.j.!.Y.V.G.;XY.j.c.Y..X#XA.V.c.A.!.!.!.A.r.c.j.d.p.r.3.p.A.j.j.j.V.7.j.j.<.j.A.j.j.3.d.r.! <.!./.Y.!.G.c.j.A.c.! R 7...3.p.V.A.G.!./.Y.7.! <.3.*...<.<.*.<.+.!.7.R ( *...J D ! ( ! <.#X;Xj.{ D +.3.<.( +.( *.*.} ! ! <.j.3.+.( *.! ( *.r.p.*.! ( } <.7.<.+.! ! } *.p.} ( +.r.! ! ! N N ( *.U C R ! N N <.....! *.c.*.<.V.V.V.j.<.+.p.r.j.3.r...( } ! ! ! R U ( ! R D N J ! } ! ! ! ! ! <.3.3.<.<...+.<.7.j.V.V.Y.Y.j.j.j.d.7.p.j.G.!.G.V.Y.j.7.j.A.7.c.j...<.<.<.R R *.<.r.3.3.7.<.",
"~.G.j.j.!.!.j.j.<.p.j.C.!.!.!.`.!.p.W ! | N m D <.g.>.} <.<.<.<.<.7.<.<.7.V.!.i.j.c.j.0.#.0.!./.!.G.!.!.!./.!.!.!.!.!..X/.+.J p.!./.V.c.Y.!./.`./.A.3.<.r.V.V.<.p.G.c.!.p.d.a.#.*.<.+.( <.j.7.3.c.!.A.3.r.d.3.p.A.!.!.`.#X/.!.!.G.A.c.G.!.A.c./.*.} j..X/.!..X/.A./.!.!.A.j.V.j.j.V.j.d.j.j.j.Y.A.j.Y.!.!.`.!.!..X`.Y.A.G.A.A.!.!.Y.!.!.j.3.d.c.A.G.Y.Y.Y.A.c.j.7.d.d.j.j.p.j.j.j.`.!.r.3.p.j.V.j.c.!.A.V.A.p.j.d.r.<.<.+.p.<.<.j.A.c.!.Y.j.j.V.<.<.G.!.j.G.;X/.#X7X7X,X#X&XG.j.Y.3.7.j.j.c.V.!.G.j.c.!.G.d.7.V.Y.!.A.,X#X;X;X;X#Xj.3.V.j.<.j.Y.!.!.G.j.d.c.!.V.j.!.c.<.r.p.<.j.G.Y.!.`.!./.!.A./.;X&X`./.!.G.c.Y.!.!.G.d.j.c.<.<.j.p.r.!.!.j.<.j.p.j.V.3.<.7.! ( #.<.1.0.<.l.!.V.j.p.d.j.*.j.!.!.Y.!.!.j.<.p.!.`.Y.Y.A.A.Y.G.!.!.!.#X!.A.A.!.G.A.j.3.A.c.! ! <.r.c.A.!.Y.+...! ! +.<...7.p...<.p.d.7.3.7.p.7.3.j.p.d.j.7.r.+...<...+.<.} <.j.7.<.p.c.j.V.r.d.j.3.3.p.G.r.7.c.c.7.r.c.G.c.j.V.!.!.G.!./.!.!.!.Y.A.G.!.!.d.<.7.j.!.#X`.A.Y.Y.j.A.G.j.d.c.!./.!.V.G.!.Y.!.`.!.j.p.Y.!.Y.!.`.`..X/.j.j.V.!.!.!.`.Y.c.c.V.d.j.j.7.G.!.!.Y.V.j.r.<.3.<.p.V.V.3.3.d.! ..Y./.!.G.V.j.!.!.V.<.<.j.A.G.c.V.`.#X!.V.c.c.<.p.7.+.<.j.j.d.<.! 7.d.! ..<...! U U } <.3.G.j.3.U N } 3.+...! ! } } ! } <.<.*.} +.<.<.! +.3.j.<.R ( ( ..<.j.7.<.! ! R } 7.! ! +.3.} } } } ! N N ! R R U ! ! ! ( j.! D +.( <.j.!.Y.!.<.<.d.<.7.d.7.j.+.! R R ..! ! ! ! C N D N ! *.! +.*.R ( <.( +.<.3...( 3.d.<.r.<.7.V.c.G.p.<.3.j.j.A././.!.G.j.7.3.j.c.j.3.<.p.3.<.! ! r.j.3.<.j.c.7.",
"~.G.N.j.l.j.7.<.<.j.C.G.!.).~.!.W.j.! U } ! N m | +.] +.<.<.>.! <.j.V.p.} <.N.j.3.j.j.3.*.c.&X!./.!.!.!.L.!.!.!.!.`.!.`.G.! C 7.G.!.A.j.c.G.`.`.!.!.j.7.<.7.d.<.j.A.j.~.j.j.d.+.3.<...! +.j.c.p.j.j.d.<.<.3.<.3.G.!.!.!.!.!.!.!.!.G.A.A.A.c.G.`.3.<.j.!.!.!.&X&X!.`.!.!.Y.V.A.c.c.c.j.j.Y.!.Y.!.V.j.Y.!.!..X!./.!.&X#XY.c.j.j.c.Y.G.Y.Y.j.p.j.G.G.V.c.V.A.V.j.r.j.c.j.d.d.p.d.7.j.!./.G.d.r.p.j.Y.G.!.A.!.!.j.j.j.j.p.p.p.c.<.+.!.!.V.G.c.<.3.j.+.*.j.!.G.!.#X`.`.`.Y.V.p.!..Xj.V.3.3.j.G.A.c.!.Y.j.j.j.j.p.d.A.`.Y.d.Y.c.!.!.!.!.j.p.A.c.p.V.!.!.;X;X/.j.j.A.j.d.Y.A.7.r.7.<.c.`.!.!.!.!./.!.A.#X;X.X!.Y.G.A.G.!.Y.V.j.<.7.c.p.<.d.j.j.j.!.!.3.A.p.7.*.( ..<.<.<.*.#.+.*.| j.!.c.j.j.j.r.! ..7.`./.!.!.j.3.p.G.`././.V.j.G.G.!./.G.G.d.r.p.A.j.G.7...c.!.7.} D 7.j.G.G.d...j.j.<.<.+.R +.j.p.A.A.j.<.<.7.r.p.c.j.3.} <.3.<...*.3.7.7.3.*.*.3.<.3.d.d.r.d.<.3.<.3.3.p.!.j.j.j.j.7.p.c.z.j.c.G.Y.!.G.Y.G.j.j.V.A.j.j.Y.Y.r.} +.3.V.!.A.r.r.d.j.A.!.j.d.d.j.G.Y.V.G.!.G.V.Y.!.!.!.!.`.`.`./.!./.G.j.d.j.!.#X`.!.Y.G.G.G.p.d.j.3.p.G.~.!.A.j.r.7.p.p.7.r.j.j.<.<.+.*.j.c.G.Y.A.p.V.j.!.Y.c.V.!.`.!.!.`.`.`.!.A.V.7.d.p.7.j.A.V.!.Y.3.<.+.R ( ! ! ( +.R ( <.*.j.<.*.R R *.<.} ! ( } ! U D R ! ! } J ( ! <.3.7.>.7.} *.} ( *.3.V.r.2.( ! ! ..+.! ..+.+.! *.*.! R J R R C R ! ! } ( ( <.! N ! ..d.V.V.j.3.! 3.c.7.d.d.j.Q.<.! ! R ! ( J J R ! ! ! J ! *.! ..+.! ( <.<.*.<.<.<...<.p.j.7.<.+.d.j.G.j.3.j.A.c.A.!.!.G.j.+.} *.p.V.j.r.<...*.3.<.<.p.3...*.r.c.j.",
"V.j.C.V.l.l.j.j.7.j.L.!.!.!.!.W.!.!.p.#.<.#.! ! o.] <.g.p.7.0.| <.j.!.j.~ ! a.V.r.c.c.1.*.L.:XY.G.G./.!.V.V.C.L.Y.!.!.!.G.*.( j.j.G.V.j.7.j.!.!./.#X/.A.r.7.p.<.3.a.p.!.A.!.!.A.Y.V.c.7.<.c.Y.V.r.<.<.*.( } +.<.G.c.G./..X&X#X!./.A.j.V.G.Y.G.V.c.j.c.G.A.A.!.#X#X.X!.!.G.c.A.V.!.A.p.j.!..X!.G.j.d.Y.!./.#X/.`.j.!.!.V.c.Y.!.G.!.Y.G.V.p.7.j.V.c.j.j.c.c.j.j.j.G.!.A.c.j.A.!.A.j.V./.`.V.r.d.c./././.G.!./.j.j.!.G.j.j.j.A.d.j.Y.Y.G.c.p.} ! d.<.<.r.!.#X&X#X;XV.7.N k c r.!.r.p.p.j.!.`.!.A..X.XG.j.p.<.+...<.G.j.3.r.<.j.p.p.`.A.A.Y.G.j.j.Y.!.!.j./.!.j.V.j.p.G.G.j.d.7.<.V./.!.!.!./..X!.d.j.G.Y.!.!.Y.V.A.!.G.V.j.3.3.j.7.j.7.d.V.r.<.d.7.j.d.j.<.<.<...<.#...*.+...~ j.#X!.!./././.c.A.!.)./.!.G.j.j.j.G.c.!.!.c.j.!.`..X#X!.!.c.j.d.V.c.c.p.d.V.j.r.*.R } +.7.7.*.+.Y.!.j.3.} R *.j.r.d.p.p.<.<.3.*.+.<.p.<.! 3.p.3.*.r.p.c.V.d.p.r.<.r.j.A.A.c.V.j.d.3.j.j.p.G.V.j.j.A.d.j.c.j.h.Y.!.A.!.!.!.Y.j.j.c.j.j.j.!.!.r.! ( <.j.!.j.<.*.<.A.!..X!.c.r.7.c.Y.V.7.j.j.d.j.V.Y.!.!./././.Y.!.Y.p.j.r.7.j.Y.!.!.Y.p.d.d.*.3.j.<.+.j.!./.Y.c.j.j.A.V.<.<.c.!.p.( +.<.3.<.p.j.r.*.r.G./.!.Y.j.r.A.#X;X.X/././.!.!.A.r.3.r.V.V.c.Y.Y.7...} <.7.( ! ( <.J ! } R +...+.( ( <.} +.( ....+.( ( ! C ! <.! R D } <.<.} <.R *.<.7.r.<.j.3.} ! T } ..( ( d.7...( 7.7.! N C ! U N ! +.( } ( ! ( ( C ! p.`.&XY.3.! U d.c.<.<...7.V.<.! ..! ( ..J D J *.<.! U ! ! U ! } ( ( <.r.*.+.<.<.<.<.7.d.3.p.*.d.A.Y.V.d.V.Y.V.G.!.Y.V.j.7.3.3.7.r.3.+.! N ! <.<.3.p.<.( ( <.j.j.",
"g.p.C.C.j.j.N.G.p.a.l.!.[.).!.`.!.!.j.<.<.o.] >.} ] <.j.7.<.p.<.o.0.j.p.<.+.<.p.0.c.!.V.3.c.!.7.<.a./.[.U.L.!.`.!.!.!.G.c.*.) r.r.j.j.d.<.p.V.G.Y././.!.G.G.A.r.1.3.3.V.d.l.!..X;X;X&XY.c.A.c.j.<...p.c.7.<.3.r.j.j.!.;X`.V.A.#X;X/.A.A./.#X!.c.c.j.j.j.j.c.!.&X#X!.!.G.c.j.c.A..XG.r.p.Y./.Y.V.j.j.G.!.!..X/.!.p.A.Y.c.V.!.`.!./.!.A.c.d.r.d.j.j.c.A.G.j.7.d.G././.!.G.c.V.!.Y.b.c.!./.A.d.j.A.!..X.XA.c.c.p.p.V.G.V.j.V.j.d.j.c.c.V.7.<.( ! j.r.<.+.r././.G.!.;X!.N a k <.Y.V.d.j.c.!././.`.#X!.V.c.j.j.3.+.3.r.p.3.+.} j.j.V.A.j.c.j.j.j.7.j.;XG.*.Y.!.j.V.A.j.G.G.c.c.j.r.G.!.!.!.!..X`.A.7.3.j.A.!.`./.G.c.G.A.A.A.p.d.j.<.+.! ! 7.r.! ..j.<.r.j.7.<.3.<.r.*.*.d.d.1.( a.~.!.!.G.G.!.!.!.!.!.!.Y.V.c.G.!.!.j.Y.!.V.c.!./.!.!.!.`.!.A.d.c.A.j.j.G.j.<.+.! R ! ! *.3.p.j.`.G.d.<.+.+.r.c.<.} r.V.j.*.<...<.r.7.<.} <.j.j.<.j.p.V.G.j.c.V.p.j.p.A.!.!.Y.c.j.<.p.j.r.j.j.c.j.Y.c.V.V.j.j.!.!.V.!.!.!.G.j.c.c.d.j.c.!.G.3.( +.r.j.!.d.7.3.<.G.&X`.!.j.+.} 3.j.7.r.j.c.j.j.j.c.V.!.Y.Y.!.!.!.Y.p.<.7.3.*.p.G.j.p.d.j.p.<.d.c.3...p.Y./.!.G.A.G.!.!.3.+.7.V.j.*.<.7.*.! <.<.....j.,X;X/.G.j.*.j.;X;X`.!.Y.!.Y./.!.c.r.r.c.A.A.c.7.*...<.j.V.+.! C ! C +.r.( *.+.+.( ! *...d.<.3.<.R ..7.3.U R <.( ! ..<.( ( +.3.U D +.j.p.+.r.3.R D J ( } ..3.!.A.( ! 3.d.! N U ! J N ! +.( ! ! ! ..+.R *.c.`.&Xc.3.} } d.<.! *.( 3.3.*.*.+.! ! ! ! ! J 3.j.( U ( J U ! ( ! ( *.3...} ..<.<.3.<.<.7.A.7.V.!.Y.V.d.d.V.G.!.!.!.A.A.V.j.r.<.*.*...! N U ..*.<.r.<...( ..3.7.",
"W.V.L.j.+.] +.5.+.} >.a.D.!.!.!.N.j.<.! ! ] ! ~ ] } <.p.<.>.5.<.<.7.<.<.j.j.<.<.<.j.!.j.~ <.V.G...3.L.!.Y.Y.!./.#X#X/.Y.j...! <.<.<.3.p.+.<.3.r.Y.!.!.!.!.!.G.3.j.r.7.j.3.r.A.~.#X/.G.c.!.A.3.3.r.+.d.G.j.j.j.j.j.c.!.#X!.<.N ! j.!.!.!..X`.G.!.c.j.d.r.d.j.Y.#X!.Y.!.!.V.j.A.!.!.V.p.d.A.!.G.V.j.j.G.!.!./.!.Y.j.Y./.Y.j.j.V.A.!.!.Y.Y.A.c.c.V.A.!./.!.j.3.p.G.`.Y.c.A.c.j.A.c.G.!.!.Y.A.j.j.c.V.!.!.j.p.r.<.3.d.c.V.V.A.j.p.d.A.c.j.+.+.<.*.j.G.Y.j.j..X.X!.!.;XG.N h n <.c.c.A.j.j.Y./.&X!.7.7.j.V.c.V.j.7.7.3.j.j.<.<.G.G.A.3.<.r.r.j.j.d.V.#X`.p.V.j.j.!.!.!.Y.G.G.!.Y.c.Y.!.!.!.!.!.!.Y.c.Y.!.!.A.!.`.!.V.c.c.c.j.r.j.G.7.+.p.<.<.d.3.<.r.7.j.j.p.<.*.7.3.*.*.c.Y.c.1.j.!./.!.G.V.G.Y.G.!.!.!.Y.j.c.!.!.G.A.Y.!.!.!.!.!.Y.!.A.!.Y.V.p.c.!.Y.Y.A.r.j.j.U v ..+.3.p.A.G.!.j.j.d.p.d.A.!.V.j.r.c.j.} ..} <.j.r...! ! p.!.<.7.r.j.V.j.j.A.j.j.3.j.V.Y.G.V.d.*.*.j.d.d.j.G.j.G.V.j.j.j.V.Y.!.V.!.!.Y.j.7.p.j.d.c.V.Y.j.<...3.j.j./.d.j.c.<.c.#X,X!.j.p.r.d.j.j.Y.A.A.G.V.j.V.G.!.!.!.`.`./.`.Y.7.r.7.! *.j.7.p.c.j.j.j.Y.!.j.3.d.!..X!.V.j.j.V.j.<.3.<.7.j.d.3.<.! J +...( *.A.;X#X!.d.p.<.G.&X/./.G.d.j.j.!.G.j.<.<.r.V.!.G.3.( ! <.r.p.} ! U ! D <.p...3.<...*.( <.7.A.<.*.} N ( 7.3.! ! ..} ! *.*.! +.<.<.! N R 7.<.! <.3.U C ! ( ! <.r.G.V.+.! <.d.+.! ( ! J N R } ( ! ! ( ( R R r.Y.Y.!.d.<.<.+.*.! ..j.r.q.*.} <.<.! U D ! ! N ..j.! C } ! ! } ( ! ..3.3.( ( ..3.d.r.<.*.p.!.7.c.Y.c.j.<.r.c.!.!.!.A.A.!.Y.j.<...<.p.p.<.( } <.<.3.p.<.+.*.} +.@.",
"!.G.L.j.#.} >.g.j.g.p.p.j.!.).G.a.j.0.! Y } } } +.#.#.1.1.<.7.<.5.5.+.+.j.j.<.<.| p.L.3.J ( j.!.j.d.V.G.L.!././._.#X#X!.d.} ..r.d.r.7.j.7.d.<.7.Y.!.!.!.G.G.G.p.c.p.d.V.j.j.c.P.V.j.r.3.c.j.+.<.d.<.r.c.G.G.j.j.j.V.G.!.&XG.U n 3.!.!.c.A.j.p.G.!.!.c.d.p.j.c.G.V.A.`..XY.G.Y.!.V.c.c.V.G.G.V.j.j.j.G.!.!.!.Y.c.d.c.Y.G.j.j.j.j.V.G.!.!.!.G.c.c.G.Y.!.!.A.j.j.A.A.r.<.j.c.c.G.c.V.!.!.A.A.V.j.j.j.V.c.d.d.p.3.7.j.V.Y.!.`.!.!.c.Y.V.c.3.r.c.7.3.j.!.!.Y.!./.!.`.#X<.v N ! A.G.<.A.j.V.!.!.#X/.<.! r.c.j.j.A.p.3.3.j.g.r.p.A.j.p.7.<.3.p.j.c.j.j.`.`.p.A.A.!.!.!.`.!.!.!.`.`.Y.!.!./.!././.!.!.!.;X;X!.j.V.Y.Y.A.V.V.j.d.7.c.Y.<.! <.+.+.7.p.3.} <.V.V.c.j.j.G.j.<...j.L.Y.l.A.!.A.Y.Y.G.A.Y.C./.Y.!.Y.j.j.!.!.V.A.G.Y./.#X`.`.!.!.c.A.A.!.c.A.Y.!.!.V.d.Y.Y.+.! } <.j.d.d.7.j.j.d.j.j.p.j.j.j.j.j.j.j.<.p.<.7.7.<.} +.*.p.Y.<.<.3.d.c.j.j.A.V.j.d.j.j.G.G.!.A.p.<.j.d.7.p.c.p.c.c.j.j.c.c.A.Y.G.Y.!.!.j.3.r.j.j.G.A.G.c.7.3.j.!.Y..Xj.G.!.p.j.!.#Xj.r.j.c.d.j.A.Y.A.A.G.V.c.V.A.!.`./.`.`./..X`.A.r.r.( } r.7.A.c.j.j.A.!.!.A.j.j.!..XY.p.*.*.r.<.<.V.z.3.c.Y.d.<.! U <.<.*.<.c.!.c.p.<.3...c.&X.X`.A.*.<.<.V.V.<.+.....p.G.c.r.<.} <.*.*.! R } <.! ..<...d.<.} ! ! <.j.V.<.<.<.D ( ..+...! } *.! ( ( +.p.+.! ! ! ! <...U ! } ! U } ( ! <.<.7.<.<...*.7.*.} +.! ! D ! ..! U U } C z C r.G.j.j.<...*...( ! <.p.<.<.<.+.<.p.} N C ! } N ! 7.! D +.3.<...! J ( <.*.} ! +.j.c.r.<.r.V.!.3.j.V.j.p.*.d.V.!.G.c.j.j.Y.!.j.<.+.r.c.c.p.<.<.r.p.j.c.3.<.<.+.+...",
"D.L.!.G.j.<.<.j.V.j.a.<.1.V.!.N.<.1.a.>.W ! } | #.+.| +.+.<.0.1.g.a.j.j.V.W.V.V.l.Y.l.J n <.C.!.Y.C.Y.!.!.$X&X;X!.`.%X!.7.! ( 3.r.<...3.3.j.} ( r.c.A.A.c.G.!.A.j.r.j.C.j.r.r.0.d.j.p.<.r.d.<.r.j.j.V.!.&X.Xc.j.!./..X!.&X;X!.!.;X,X!.r.r.7.r.V.!.A.j.d.p.j.G.G.V.V./.!.c.V.V.c.p.j.V.G.A.V.j.j.j.c.G.!.!.!.Y.j.p.d.j.j.j.V.Y.G.A.!.!.Y.Y.V.j.j.c.c.V.G.Y.G.A.A.j.7.<.d.d.j.V.j.V.!./.!.V.A.G.V.c.c.j.j.V.j.j.j.j.A./.`..X!.#XA.V.j.G.c.j.A.j.3.d.!..X/.!.!.!.`.&X<.R ( 3.`.V.*.c.c.c.Y.G.!..XG.7.G.!.A.c.j.*...r.j.r.3.7.r.j.j.p.<.<.d.j.j.j.3./.`.j.!.!.#X!.Y.!.!.`.`.`.`.!.!.!.!.!..X.X!.Y./..X`.Y.c.c.c.V.Y.Y.A.j.j.d.A.!.3.( ( ( 7.V.j.p.<.j.!.V.r.d.j.c.j.r.<.j.l.j.d.c.G.A.!.!.!.A.G.c.!.A.!.G.j.j.!.!.c.G.Y.A.!./.!./.!.G.c.A.Y./.A.A.A.V.!.G.j.c.j.7.p.} *.c.j.3.<.j.j.c.G.j.j.c.j.p.j.j.7.r.*.<.*.3.*.+.+.3.c.j.r.+.3.3.c.G.V.j.j.j.d.j.V.j.A.j.j.c.j.d.j.3.<.3.p.<.d.G.A.A.A.M.V.Y.Y.Y.Y.Y.V.j.c.G.V.!.V.G.!.c.d.V./.`.`.V.!.!.A.Y.A.j.3.3.j.j.j.j.c.j.j.G.Y.V.A.G.c.!..X!.A.!./.!.G.c.<.r...+.j.p.G.!.A.V.Y.!.!.Y.V.c.A.V.j.r.*.*.7.r.r.j.c.<.p.!.A.p.+...j.d.r.r.c.G.r.3.r.V.<.c..XY.Y.j...<.+.p.7.3.<.<.+.3.p.<.<.j.7.d.*.<.! C ( r.+.<.j.j.!.r.} ! ! +.p.3.} *.*.! ! ( <.<.! R ! ! R ! <.j.d.j.r.<.} <.+.! ! } ( ! +.} ! *.( ..} ..( ! ..} ( *.( } D } <.} ! ! $.*.! } j.!.c.p.<.( *.....<.*.( ! <.p.<.+.<.} N C *.<.! } r.<.<.p.j.p...U R ! ( } ..( ..p.V.d.7.j.G.!.p.c.j.j.d.r.p.j.A.c.j.d.p.G.Y.j.3.<.r.j.j.j.r.p.j.j.A.V.r.7.<.*.<.3.",
"+.0.G.!.G.g.<.j.<.<.o.] | p.L.!.5.} <.<.] ! ! ! <.<.#.+.! +.j.g.#.>.j.j.p.N.D.G.A.Y.3.c J !.;X!.Y.Y.`.~.Y.L.G.L././.`.!.d...+.7.d.7...<.7.A...! *.p.j.j.d.j.G.j.0.7.V.Y.j.7.0.r.j.j.p.<.r.A.j.p.A.!.!.A.!.!.A.!.;X;X5X#X/./.A.!..X.XY.j.d.j.j.A.V.j.d.p.p.V.!.Y.G.c.Y.j.7.p.p.7.<.7.j.V.c.c.c.V.j.c.G.!.!.!.Y.j.c.A.G.j.r.j.!.!.!./.!.A.V.c.c.G.j.j.c.A.Y.Y.A.c.c.c.c.V.j.j.!.G.!.!.#X!.j.j.Y.V.G.G.V.G.!.A.V.A.G.G.Y.j.7.7.!.V.j.j.G.A.d.j.c.c.Y./.&X#X!.G.!.!.!.c.d.<.p.!.j.j.A.G.G./.!.V.j.3.j.V.!.!.G.3.! ..c.A.j.j.r.} <.j.r.<.<.j.c.c.A.7.<.`.`.Y.d.!.G.V.A.!.&X#X/.!.!.!.!.Y.!.`..XY.A././.!.Y.Y.A.j.c./.^.V.j.j.j.!.#XV.( ....j.`.!.c.j.j.V.p.! <.r.} +.7.<.j.d.3.<.j.Y.!.!.!.!.G.Y.j.Y.A.!.Y.j.j.G.G.j.c.A.c.A.G.G.!.!.!.Y.!.!./.G.Y.!.!.!.!.G.c.d.d.j.! ! j.j.3.<.j.p.p.d.<.<.V.c.r.7.r.7.j.<.3.3.j.<.3.<.+.G.j.+.*.7.7.!.!.V.d.<.<.<.c.Y.A.A.<.+.3.d.V.j.p.j.c.V.r.c./././.Y.j.V.!.!./.V.d.j.c.!.`.!.Y.j.c./.Y.d.j.!.`.!.V.Y.Y.!..Xc.*.7.d.r.r.j.V.d.<.d.A.j.d.c.G.j.!.#Xc.p.!.&X!.d.j...<.! ! j.j.G.A.V.c.A.Y.!./.!.c.p.<.7.d.p.r.j.j.3.3.j.7.<.j.d.<.} ..d.7.3.7.j.d.7.d.j..XA.G.c.<.7.p.<.p.....J } +.+.+.7.7...<.p.7.j...<.<.R ..r.*.3.c.L.`.d.<.+.! ! <.} ( *.( <.+.+.3.<.U J ! <.*...! <.j.G.7...R } } 3.p.p.*.! } } } *.! ........! ! J D ! R ! N } r.+.} <.<.<.( ! +.c.p.*.} ..<...#.7.+.! ..<.7.<.R J } +.......! ..3.r.j.V.7.3.! R *.<.*.7...( ! <.j.c.j.j.j.Y.c.G.j.7.d.c.<.3.j.j.j.j.d.G.V.V.j.r.<.<.d.V.j.j.c.j.j.j.3.7.+.*.p.j.",
"} <.j.D.~.V.1.N.V.<.<.<.0.C.!.`.V.7.#.~ ! ! ! W ! +.o.} ! } 7.<.! } <.<.5.j.G.j.V.j.! ] L.$X).!.!.#X!.Y.G.d.j.!..X&X.X!.!.<.C d.j.r.<.<.r.r.<.} ..+.7.j.7.d.V.r.<.<.g.G.j.r.j.j.Y.c.p.j.Y.!.!.!.!.!.c.j.G.!.G.V./..X;X&X/.<.N +.Y.&XV.<.j.c.p.V.j.+.d.V.7.d.A.G.A.r.j.3.1.p.7.3.+.<.3.j.j.j.G.c.d.r.Y.!.Y.`./.j.Y.!.!.A.r.j./.`.!.!.!.A.A.!.!./.V.j.7.j.A.c.V.c.3.!.!.G.j.j.Y.!.G.A.V.Y.V.j.!.Y.A.G.G.Y.!.A.V.!.A.V.d.<...+.p.p.d.d.c.A.j.r.j.G.`.`.!.!.!.j.d.Y.Y./.!.p.3.c.!.V.V.c.V.Y.G.c.j.+.r.Y.!.c.<.<.7.7.c.A.V.3.<.<.<.j.<.<.3.<.r.j.j.Y.j.Y.!.r.! j./.V.V.!.`.!..X!./.!.Y.Y.#X!.c.A.c./.!.!.c.Y.G.j.G.!.A.c.p.+.*.A.!.p.} ..*.j.!.Y.<.<.d.V.r.+.3.r.<...<.<.r.d.j.} <.!.`./.!.!.!.!.A.G.c.`.!.V.c.V.Y.j.j.A.G.A.Y.!.!.!.!.Y././.!.!.G.G.V.j.V.!.Y.j.j.7.*.! <.d.<.3.j.j.r.r.<.<.7.j.r.p.r.7.V.j.! ! <.<.p.<.! j.r.*.7.3.r.c.G.G.V.<.+.j.!.j.j.c.r.+.<.j.V.d.V.!.V.c.V.d.!.#X`.!.Y.Y.!.c.j.Y.j.j.A.!.!.A.j.c.Y.!.~.d.j.A.j.!..X!.V./.!.c.3.*.3.r.r.A.Y.j.<.<.*.} <.3.r.r.G.`.Y.A.!.!.G.j.G.Y.3.<.<.r.G.G.V.V.j.Y.Y.Y./.c.d.3.7.7.j.j.j.j.<.<.d.r.<.r.7.3.*.} ( r.r.3.c.j.Y.d.j.j.G.A.c.7.! <.p.3.<.<...U U U ( ..<.3.....7.*.j.<.<.d.3...} ! r.V.V.Y.j...} } *.<.<.*.<.<.7.p.*.} 3.R h ! <.( D N *.7.r.r.( N r.3.U +.d.! ! ( ( ..<.! } <.r.<.<.+.! ! ! C R ( ..j.<.! 3.( ( ! ! } <.<.( } } *.*.*.*.+.! ! <.3.} ! ! <.c.<.} +.( *.3.r.j.j...*.! ! <.3.p.j.<.<.<.<.7.j.c.c.j.G.G.A.j.r.j.V.7.3.r.j.j.p.d.c.A.j.<.+.<...<.j.V.p.<.*.r.j.3.3.( +.<.r.",
"} <.<.<.p.j.g.V.j.7.g.j.N.L.V.l.~.C.p.<.+.o.+.~ <.#.! Y Y ] 1.<.1.<.>.<.1.j.j.j.j.l.p.j.).$X#X`.~.`.!.~.G.j.C.~.`.#X&X.X&Xj.! j.j.j.j.r.<.<.<.<.+.} } <.3.p.j.r.3.3.c.j.p.r.p.V.Y.G.G.!.#X`.!.!.!.A.d.d.!.&X!.r.j.`.;X.X`.7.s 0 C V.!.7.<.<.<.p.r.<.c.!.A.A.A.c.Y.c.!.c.d.V.j.7.<.7.d.A.c.j.V.c.<.7.!./.!././.Y.!.!./.!.A.!.#X`.V.G.Y.Y.G.A.V.c.Y.V.j.V.G.V.j.d.<.d.p.j.c.V.A.j.j.G.G.!.Y.c.A.A.G.G.G.!.!.A.c.I.A.c.d.r.<.<.j.j.p.7.r.j.V.j.c.Y.`.!.!.`.`.G.j.j.!.`.!.j.c.!.!.Y.j.G.G.G.V.j.V.A.Y.G.G.j.3.7.r.! <.j.!.j.7.p.3.3.+.7.p.+.+.3.j.Y.!.!.G.V.p.A.!.!.A.!./..X&XA.Y./.`.!.`.!.!./.!..X!.Y.p.j.V.j.V.d.A.p.7.3.<.3.d.7.<.....d.!.`.p.<.7.c.j.*.<.7.<...! <.j.j.r.! 3.`.V.!././.!.!.!.V.Y.`.`.!.A.A.G.V.c.!.!.!.!.Y.!./.!.A.!././.!.Y.A.j.<.<.j.Y.!./.V.3.} +.*.+.3.r.3.<.r.3.*.+.c.V.V.*.U N U <.3.<.p.Y.d.} p.3.+.7.p.r.d.j.G./.!.c.G.Y.j.j.G.Y.G.G.A.j.r.c.!.Y.!.!.V.Y.Y.A.Y.!.!.!.G.c.G.j.l.!.`.!.c.j./.!.!.;Xj.<.7.Y.!..X#X/./.;X!.p.<.3.j.j.Y.`.!.*...( ! <.<.<.*.c./.!.!.!.V.j.p.A.!.j.r.d.j.Y.V.c.!.V.A.G.Y.!.p.<.+.3.r.r.r.Y.G.j.d.p.} } r.p.<...<.+.<.7.p.V.j.j.V.G.c.V.7.r.j.<.<.3.<.+.*.p.V.+.R ! ( <.r.3.<.j.p.Y.3.+.7.7.<.<.R +.j.d.<...( +.*.<.<.<.7.7.*.*...( } *.R N ( d.7.<...<.R U ! U ! `.`.} J <.<.} } ! ! +.U +.j.j.7.<.} } <.<.J +.<.( p.<...<.3...( ..*.<.*.R ! } *.+.( } ..( ( ..+...<.+.<.c.j.<.<.} ! ( <.r.<.! +...<.j.j.j.d.r.V.d.*.r.A.!.!.A.!.!.c.r.<.r.p.<.3.p.j.j.p.d.c.j.r...! *.3.r.c.G.j.<...<.<.+.<...+.<.7.",
"<.1.<.| 5.j.j.a.1.p.C.!.!.!.j.0.j.L.G.j.+.W | +.o.| ! ! } | o.] } +.<.<.7.7.p.N.G.!.!.).`.~.[.).[././..XL.j.L.[.`..X.X#X;Xj.! r.c.G.!.j.+.} *.<.+.<.<.<.3.r.c.A.G.c.G.d.r.c.c.`.#X/./.!.!.!.V.!.!././.!.!.!.!.j...r.7.r.!.Y.} v h 7.!.A.j.d.7.<.<.<.d.A.V.V.j.d.j.A.`.G.d.V.j.j.r.j.c.Y.A.j.j.j.d.d.A.!.!./.!.Y.V.j.V.G.Y.`.&X/.j.c.!.!.!.Y.A.A.!.A.j.A.!.!.!.j.3.j.j.j.j.j.j.c.A.!.Y.Y.!.V.c.A.Y.A.A.!.`.!.V.G.c.G.c.j.r.p.j.p.j.j.d.j.c.j.j.A.Y.Y.!.!.V.j.j.j.c.Y.A.c.Y.!.G.A.j.!.`..X!.7.7.c.!.j.p.p.<.c.`.j.<.c./.c.r.j.d.<.7.V.c.<.<.7.d.A..XG.j.!.!.G.G.`.`.!.!..X`.j.c./..X`.`.!./..X.X'.!.Y.r.p.j.V.Y.j.7.( } r.j.j.j.d.r.<.<.j.Y..XA.p.<.j.A.p.7.p.<.! +.j.V.j.<.} j.#X!.!.!.Y.V.!.!.j.!.j.j.!..X/.Y.Y.Y.!./.`.`.!.!..XY.j.!.#X.X.X/.!.!.p.+.p.c.c.Y.j.*...<.<...<.<.+.3.c.c.<.( j.V.V.3.! n ! d.<.+.p.r.<.! ..<.<.j.j.j.7.7.c./.`.!.Y.V.c.V.G.!.`./.Y.c.p.j.A.V.!./.Y.V.j.d.G.!.!.!.Y.V.C.d.j.Y.`.!.c.G.!.3.<./.c.d.j.c.A./.&Xc.*.&X`.#XG.3.d.I.A.Y.c.! } +.! ( ! ( ..r.V.A.A.A.p.<.7.Y.`.G.V.Y.!.!.V.j.!.Y.G.G.A.c.<.<.} <.r.+.+.A.j.j.V.j.*.+.7.<.} r.j.3...<.p.r.<.*.j.A.j.c.3.<.d.7.<.p.V.c.j.G./.7.} } ..+.j.A.d.G.j.!.j.<.<.<.7.7.R ..j.d.+.! <.! ( <.*.+.j.p.+.J ( <.} ! } ....j.j.j.7.<.U U ..U ! G.!...N <.<.+.+.R J ..J ! j.j.j.7.*.3.j.r.! ! ! C <...( +.r.! J ( } } } D ! } +.( U U ! ! ! J D ( j.3...r.7.<.3...J U *.3.( <.7.<.r.j.3.+.( <.Y.j.+.j.G.j.p.<.c.G.c.r.<.p.p.<.7.d.j.j.d.j.j.j.r.+.U +.c.c.V.A.j.r.<.<.+.( +.*.+.<.3.",
"j.p.p.p.V.N.p.| +.0.V.!.~.!.V.p.p.G.D.G.j.<.7.#.] | } } | ] ~ } 1.j.j.p.1.+.+.7.`.[.!.`.`.(.`.`..X`..X$X!.j.C..X`.!.!./.#Xj.! <.V.A.!.A.7.3.r.*.*.p.j.c.d.d.G.Y./.!.G.d.V.`.`.;X;X`.!.j.j.V.j.!.!.G.Y.!.!.!.!.V.3.! z N <.7.3.3.<.r.c.A.G.A.V.c.j.7.7.j.G.V.j.j.p.j.A.c.d.G.V.j.p.d.j.V.G.!.`.!.!.A.V.c.V.G.V.G./.V.j.j.V.!.!.j.7.j.!.&X.X!.G.!.G.V.c.V.Y.`./.V.r.!.!.c.r.r.c.!.!.!.!.!.Y.A.V.V.A.j.j.G.!.G.j.p.j.!.Y.V.j.V.V.r.j.!./.!.!.Y.V.G.Y.G.G.j.3.3.r.7.7.j.c.V.!.V.p.g.A.A.Y.&X.Xd.p.A.A.r.7.p.<.j.#X.XY.Y.!.j.<.p.j.j.d.j.r.<.7.3.<.r.G.j.j.!./.Y.!.`..X.X`.&X#XA.G.`./..X&X/./.!./.!.G.Y.c.c.V.V.Y.Y.G.p.3.d.j.j.d.<.3.+.r.A.Y.#X;X.X3.j.V.j.7.7.<.! *.p.p.d.p.p.Z.V.`.Y.!.Y.A..X;X!.A.<.<.3.c./.!.!./.!.!./.&X.X/..XV.d.!.&X`./.!.Y.A.j.<.p.7.<.d.p.7.<.d.j.d.7.<.<.3.A.A.<.! <.<.<.3...<.V.j...*.p.3...! R 7.c.d.+.j.7.7.c.G.Y./.`.Y.!.!.Y.Y..X#X!.G.j.j.V.V.!.`.Y.j.d.p.A.!.Y.G.V.V.V.j.d.A.!.!.Y.!.G.7.r.c.3.j.j.j.G.`.#X<.h j.3.V.A.7.V.`.V.d.<.R ..7.+.! N ! *.<.r.r.j.V.j.d.c.!..X!.A.!.!.!.c.j.Y.A.A.A.d.3.+.<...<.r.<.*.c.r.d.A.c.<.*.<.r.j.G.j.+.! d.Y.d.<.<.d.j.7.d.3.<.7.+.} *.r.j.V./.!.d.<.r.<.+.j.!.r.c.7.Y.Y.r.<...<.3.} <.<.<.+.! +.C D } ! R 3.7.+.( ..*.! ! 7.7.! r.j.j.3.3.( ! ( J N J R D C <.! ( +.! C } C N ( ( <.<.} *.<.} R J D D d.} ! ..r.! N ! R ! ( J ! ( ..! D U ! ! ! U N ! p.<.( +.! } <.+.! ! 3.p.+.d.r.<.j.A.3.*.+.+.d.7.<.G.!.p.*.<.j.c.V.j.j.j.j.7.r.j.j.j.j.j.j.j.j.p.! *.Y.A.c.d.p.j.j.p.*.( ..+.( ( *.",
"G.j.j.j.!.G.j.} o.p.j.V.!.!.D.j.j.!.j.g.p.p.D.j.<.7.p.1.+.] } <.a.j.p.<.5.p.j.W.).$X~.).#X`.`.+X`..X.X.X/.j.j.`..X!.G.!..XV.3.j.A.A.!.!.Y.!./.c.7.j.A.!.A.!.!.r.j.!.V.V./.#X;X`./.!./.c.V.!.A.G.!.c.j.Y.!.!.Y.j./.c.+.3.c.j.j.V.A.j.c.Y.V.j.c.V.c.7.<.j.!.G.d.d.d.p.r.j.c.!.A.j.p.p.r.<.7.Y.#X.X!.Y.V.p.r.j.V././.c.p.p.j.c.j.3.<.j.!..X!.j.j.j.Y.A.A.V.A.!.Y.p.r.Y.!.j.d.j.A.Y.V.A././.c.j.A.A.Y.j.d.A.!.!.j.7.d.A.V.A.A.V.A.j.c.#X;X.X/.G.j.G.Y.j.r.r.j.A.A.r.G.!.Y.!.`.G.d.c.Y.V.G.&X.XV.j.p.7.3.r.V.j.d.c.V.Y.j.c.Y.V.j.j.d.3.<.*.<.3.<.<.<.p.c.!..X`.`.&X!.j..X&X&X`.!.`.#X/.#X;X!.!.Y.`.!.j.Y.!.`.!.j.j.G.Y.V.j.j.j.c.G.Y.<.R <.c.V.!./.!.c.j.j.j.7.p.j.p.j.V.j.j.j.j.Y.d.j.r.V.Y.A./.;X!.c.!..Xj.p./..X!./.!.!./.#X`.!./.Y.j.!.;X&X#X!.G.r.p.p.j.<...<.r.c.<.3.c.c.r.<.<.<.V.A.j.7.r...<...} 3.G.r.( *.<.j.d.3.*.r.j.3.<.7.<.<.j.j.j.!.&X!.!.!.G.Y..X.XA.p.7.d.c.A.Y.Y.j.d.j.j.G.!.G.A.j.d.p.7.3.j.A.V.A.V.G.Y.!.c...p.j.V.Z.!.&Xj.D j.U ( j.j.G.!.d.7.3.( +.7.<...U ! ! ( <.r.c.!.Y.V.Y.!./.Y.j.V.Y.!.V.c.A.d.r.j.p.<...<.+.*.7.j.j.j.7.d.G.j.*.! } 3.c.r.3.} ! <.<.<.j..XY.c.p.r.<.p.j.<.<.+.+...<.A.!.<...<.r.3.c.!.r.j.3.j.c.p.7.+.( +...<.+...<...} U ! <.+.! <.7.7.} ! +.<.<.7.3.<.<.7.p.p.G.d.*.! ( ( N c N U <.N C ! ! N R N n U ( <.3.<.<.<.+.+.<.<.<.A.*.( +.c.c.+.<.} ! } D U ! ..( ! ( +.+.+...R ! ,...( +.! } *.3.<.+.<.<.} *.+.( r.c.r.r.3.<.<.*.p.!..X!.Y.d.r.<.d.c.j.j.j.j.j.j.j.c.V.j.d.d.j.V.<.<.Y.G.V.j.j.V.G.j.<.*.<.*.( ( *.",
"W.C.V.j.!.!.!.j.p.G.V.N.!.!.G.V.j.!.L.j.j.l.!.!.!.!.+XL.0.<.<.7.j.V.j.1.<.1.j.!.D.+X[.[.#X!.W.L.!./..X.X[.C.j.~..X/.G.Y.`.!.A.!.!.!./..X.X;X;X.Xj.j.!.`.!.`./.<.j.!.G.Y.!.!.#X^.!.`.#X!..X;X/.!.!.A.G.!.Y.c.j.j.&X;X.X`.`.!.G.d.G.Y..X#XG.j.j.r.j.<...r.G.j.r.7.r.d.d.A.j.G.j.j.j.j.j.<.+.j./..X!.c.d.<.7.c.!.#Xc.r.3.p.j.j.j.d.r.j.G.G.j.p.d.j.!.Y.!.!.Y./.G.r.p.Y.`.A.c.V.j.c.j.d.Y.Y.r.p.Y./.Y.j.j.A.!..X!.A.V.j.r.j.j.3.p.V.Y.`.&X;X&XG.j.A..XA.7.<.j.G.c.3..X!.V.G.!.A.d.j.V.A.Y.!.V.j.r.! +.<.3.A.`.G.j.p.r.<.p.`.#XV.p.r.r.r.3.<.<.3.d.r.j.!.&X;X#X.X;Xj.*.!./.V.7.d.G./.!.!./.j.G.Y.`.!.A.!.!..X`.A.j.!.V.j.c.A.A.A.Y.!.d.! +.j.c.j.c.p.j.p.p.j.p.d.j.V.!.!.V.Y.p.p.!.A.d.j./.#X!.!.#X!.<.V.&X!.V.!.`.!./.`.`././.!.Y.!.`.Y./.&X&X.XA.d.j.j.Y.V.p.3.<.7.3.! +.d.r.<.*.+.3.G.!.Y.V.A.7.<.3.d.p.j.d.<.7.d.Y.Y.d.r.<.<.*.j.r.r.p.G.c.p.Y.!.Y.!.`./.!.!.!.V.d.3.r.j.c.V.V.j.d.V.V.G.Y.G.G.j.3.<.<.<.j.V.j.j.d.A.A.A.Y.<.<.c.j.j.Y.`.!.j.!.<.<.V.j.j.j.3.3.d.*.+.<.*.} J J C ! 3.V.!..X`.A.G./.`.!.V.A.!.!.!.G.A.7.+.r.Y.G.p.<.*.<.<.c.a.3.<.j.!.G.3.} ( ..( <.r.p.r.<.<.c.&X/.7.<.3.p.+.<.p.j.c.j.j.<.! 7.A.<.! ! 3.p.j.c.3.p.d.p.<.<.j.3.( ! ! r.7.7.j.*.! ! <.j.V.p.<.<.<.( } p.A.A.j.<.} <.<.<.d./.V.3.*.+.7.} N ! ..<.N v D R v N C ! +...<.<.+.*.<.+.*.d.j.7.7.<.! ! c.G.<.3.<.+.+.! U ! ..} ( ....} } } ( +.<.} ( ..! } ( <.7.<.<.+.( ..+.R } <.<.r.<.<.( ..7.d.j.Y.!.3.3.3.j.V.j.c.V.j.c.j.j.V.G.A.j.3.3.j.r.p.G.!.Y.!.Y.V.V.d.<.3.3.<.} ( +.",
"G.G.G.j.L.j.!.).G.).N.g.N.j.j.j.p.!.#X#X=X;X[.!.~.!.[.!.j.l.V.j.j.j.V.a.+.] <.j.V.`.[.`.!.!.C.a.V.G.`.#X.X!.c.!.!.!.A.A.!.!.!.`..X`.`.`..X&X&X#XG.G.!..X!.!.`.A.!.`.!.G.c.A./.!.`..X.X.X;X;X#X.XY.A.j.j.V.G.A.A.!..X`.!.!.!.!.j.`..X;X.XA.j.j.7.c.j.3.p.c.z.j.r.7.V.c.G.p.j.p.d.V.G.!.G.c.!.#X;X!.j.r.<.p.!.!.!.G.j.j.c.V.c.j.V.j.c.c.j.j.j.V.A.Y.V.!.!.Y.`.!.c.c.!.#X!.A.j.7.d.A.r.j.j.p.j.G./.V.j.j.j.j.Y.!.!.Y.V.d.j.d.<.7.c.j.!.;X5X;X`.Y.A.!.Y.j.3.r.j.j.j.c.r.3.d.c.d.3.<.p.j.d.7.7.p.j.<.3.j.p.j.!.!.c.d.p.3.<.V.!.c.j.V.j.r.7.d.<.<.j.j.!./.!.!..X!.!.7.<.Y.Y.j.+.<.j.Y.Y.V.!.r.V.!.!.G.A.!.!./..X!.V.Y.j.c.G.!.!.G.V.V.j...<.r.p.d.V.V.<.<.3.r.7.3.r.j.d.d.d./.j.r.Y.c.<.d.!./.Y./..XY.!.G.Y./.Y.G.!.!./.#X#X/.!.!.G.Y.!.!.`.!.!.c.<...j.j.!.c.d.j.<.p.*.! 7.p.*.3.r.<.<.c.!.c.r.!.j.*.d.G.p.p.j.j.A.Y.!.!.+.<.<.r.} <.j.A.V.!.A.j.Y.!.!.!.;X;X/.Y.Y.!.!.j.j.V.V.V.Y.!.c.G.A.G.Y.Y.Y.V.7.<.7.p.c.A.j.A.r.V.j.7.!.j...r.j.d.G.Y.A.G.G.d.d.c.j.c.G.j.r.j.<.<.3.+.! D ! } d.A.!.G./.#X!.!.`..X/.!.!.!./..X!.Y.j.<.r.!.#X!.<.<.p.<.r.<...<.!.`.!.j.3.<.<...c.p.<.3.7.j.A.7.v h v ! r.<.3.j.p.d.7.V.V.<.d.!.A.7.} *.<.<.<.! <.d.<.} <.V.p.<.*.! r.7.<.r.! C U <.p.A.j.( ( } 7.*.p.V.G.c.+.N <.*.+...7.+.+.<.R <.! N ! ..<.! N N U N N ! <.<.( *.+.( ( *.*...+.+.*.+.p.<.! 3.+.P ! +...*.*.} ! ! ! ! ( ! ! ! ! ! *.r.<.( ! } ! D ( *.<.<.<.<.<.<.! *.3.*.3.<.*.( ..*.+.<.j.j.r.j.A.!.!.j.V.A.c.A.A.c.V.Y.!.Y.p.+.<.d.j.G.!.!.Y.V.d.d.3.<.r.<.<.} ! ! ",
"V.N.G.V.G.#.j.!.!.!.p.<.1.<.<.<.} l.~.C.j.V.G.!.| } j.L.G.`.!.j.7.<.5.p.<.<.j.H.!.~.~.~.!.!.!.g.j.j./.&X.X/.!.!.A.Y.A.A.!./.`..X&X.X/.`.&X&X#X.X!.!.A.!.!.!./.`.!.!.!.A.j.G.!.G.!.!.!.`.&X.X#X;X.X.XG.d.V.!./././.!.!.!.Y.Y.Y.G./.`.#X`.c.p.7.<.V.Y.c.c.c.j.j.3.c.!.j.c.p.G.j.r.A.A.#X;X&X#X/./.Y.c.c.p.p.A.!.G.!.G.V.V.j.p.d.c.c.V.A.G.Y.!.A.j.V.j.A.c.c.!./.Y.Y.G.!.!.G.j.<.3.G.7.r.c.!.!.V.c.!.Y.A.p.<.d.A.A.!./.G.V.j.d.j.G.c./..XG.j.A.!.A.A.Y.V.j.j.j.p.j.p.<.r.V.G.j.j.j.c.V.d.d.j.p.3.<.7.A.c.d.j.c.V.j.d.j.r.j.A.c.V.G.V.<.3.V.d.7.G.G.!.c.<.r.!.j.j.3.j./.!.!.c.c.A.!.A.V.`.j.Y./.!.G.j.G.!./.#X!.d.r.7.V.!.!.A.A.Y.!.3...3...R ! d.Y.<.r.d.r.3.3.p.j.c.7.<.!.j.7.j.7.*.r.A.!.!.&X`.j.A.V.j.V.V.!.;X!.`.#X`.!././.!.G.d.!.#X!.Y.c.7.p.7.r.Y.r.<.d.<.7.j.<.p.<.! r.j.} +.j.!.d...!.!.*.*.<.R ! <.7.d.<.7.Y.+.*.! 7.} ..*.j.j.j.j.d.!.!.!.A.!..X/.!.Y.Y.Y.j.j.V.V.c.A.!.Y.Y.V.G.!.Y.Y.A.<.<.7.7.r.d.d.Y.r.V.c.<.V.c.3.V.j.3.V.c.c.!.j.j.j.j.j.V.G.j.d.!.7.<.<.] ! ( j.G.`.`.V.<.j./.!.!.!././.!.!.!.!.`.!.!.Y.j.3.j.!.!.*.<.c.3.<.<.<.G.!.!.Y.Y.p.+.<.+.p.<.} +.+.d.V.R z J ..+.<.( } <.p.3.( d.`.G.G.!.!.!.<.! ( ..+.! ( <.+.+.3.c.r.d.d.( <.( R <...R R <.<.p.3.! ..<.<.U +.p.<.+.<.3.} <.<.R ! U ..r...7...N J J ( <.! N U J R +.3.*.! +.<.( ! +.*.( ! U <.p./.G.3.} ! N R ( R ! ( ! U R R ! } ( ! +.} ! +.j.j.} ! <.<.! ! } } <.+.} <...! j.V.} } ! +.+.*.+.<.j.A.j.d.j.j.c.A.V.c.j.j.G.Y.V.V.Y.!./.V...( d.A.G.!.!.A.V.j.c.j.j.V.d.7.<.} } ",
"<.j.a.C.L.<.#.j.~.l.j.C.j.<.} ! U <.j.<.! ! j.p.! +.A.!.!.!..Xl.<.<.c.<.! r.!.#X`.#X+X!.L.~.!.j.!.!.0.0.j.a.l.j.0.j.L.C.l.j.`.=X~.Y.!.`.`.`..X[.&X[.`./.Y.V.Y..X`.Y.V.V.c.A.!./.Y.Y.j.c..X;X&X&X.XY.G.G.V.!.!.G.!.r.3.p.c.A.j.V.!.`.`.G.p.3.<.3.j.V.j.7.p.r.<.<.j.j.V.d.r.Y.Y.p.d.r.Y.;X;X`.!.!.!.j.A..X!.G.Y.A.A.G.Y.!.d.<.d.A.p.V.A.Y.A.j.V.c.7.7.j.j.j.c.G.Y.G.Y.!.G.c.j.j.j.j.3.p..X&X!.!.Y.Y.G.c.r.<.d.G.!.!.j.p.r.3.j.!.!.!.!.!.Y.} 3.&X7.j.!.A.!.c.d.7.j.N.j.j.D.[.j.j.N.Y.!./..X#XL.<.#.c.j.j.j.j.V.V.V.V.7.j.<.+.3.<.d.j.p.<.j.c.d.G.G.V.j.p.j.G.A.V.!.V.V.!.G.j.!./.!.Y.!.!..X!.!.!.!.3.j.!.!.d.p.3.+.3.V./.`.G.V.Y.j...} *...! R } j.d.c.c.j.d.j.G.Y.V.r.<.7.r.<.*.<.3.d.c.Y..X/.$XV.!.G.j.!..X!.!./..X`.&X.X!.j.j.!.d.3.V..X!.!.&XY.j.<.c.A.j.j.<.*.3...p.p.! <.A.7.<.<./.&X<.7.<...( ! D D ..p.j.j.<.`.G.<.! ..7.7.p.3.d.j.3.3.p.j.c.V.!.!.!.Y.V.!.Y.j.j.j.j.j.c.G.A.c.A.Y.A.c.c.c.j.<.7.r.d.j.p.c.j.j.Y.Y.j.p.V.Y.j.j.!.!.Y.!.j.V.G.G.j.A.c./.G./.Y.+.<.! D ! j./.V.A.!.4.*.Y.Y.c.c.G.!.!.!.V.A.!./.`.!./.j...j./.j.j.d.d.j.d.p.c.G.G.r.j.!.d...<.+.<.*.R *.c.j.V.A.j.<.<.A.r.<.3.<.3.*.+.<.j..X`.Y.<.*.( R <.<.C ..<.} +.<.<.r.( U R <.R C *.j.! ( ! +.3.! ..*...! R ( ( +.<.} 3.R *.r.<.} U D ..+.7.r.! ! ( U ( ( N <...! <.<.<.( *.<.( ^ ( ! ( ! ..3.<.j.j.<.! ! ! ! +...( ( U } J } <.! ( ! ! ! U R ( r.....r.<.3.<.+.+.<.3.<.+.( *.j.V.7.<.<.p.4.+.<.d.j.j.j.j.j.j.!./.V.d.j.c.V.!.Y.G.!.A.G.j.! <.Y.A.c.V.G.c.G.3.7.j.d.j.p.r.<.*.R ",
"} 1.7.V.~.j.i.j.l.G.W.j.<.+.~ ! ! 5.D.j.1.<.V.j.<.d..X.X`..X$Xc.7.3.p.j.j.V./.#X[.=X*X!.!.!.j.o.a.j.<.<.#.~ <.1.>.j.G.j.7.5.!.!.~.!.!./.!.!././.#X`.`./.!.A.Y.`.#X!.!.Y.j.j.j.c.!./.Y.!.&X&X.X`..XA.A.V.7.<.j.G.j.7.p.j.j.j.d.j.G.j.j.d.3.*.<.d.V.j.d.p.p.r.7.p.<.<.j.Y.`.#XY.j.d.7.3.c./.!.G.G.c.j.Y..X!.!.!.c.V.A.G.!.V.j.c.j.j.A.A.!.G.j.j.j.j.j.G.G.c.c.A.A.c.j.j.c.j.j.p.r.j.j.A..X!.V.!.!.A.c.f.<.*.d.!./.A.j.V.c.p.j.Y.!.Y.!.`.!.<.<.!.!.V.r.<.p.3.d.p.7.C.N.j.N.W.a.j.j.<.#.l.!.A.Y.A.d.Y.Y.A.j.V.G.A.j.c.7.j.j.j.d.r.j.j.7.+.r.j.j.!.!.Y.Y.G.G.Y.Y.A.A.c.G.!.p.+.p.!.!.G.!.!..X.X&X!.Y.j.G.A.A.d.j.G.Y.A./..X#X`.!.!.j.3.7.p.*.( +...<.j.A.A.V.c.j.Y.Y.V.<.! ..7.p.7.3.*.*.7.G.;X!.!.;X`.Y.d.d.V.A.!./.#X!.!..X/.c.p.r.*...d.!.!.!.`.Y.G.V..X!.j.c.d.r.V.p.j.c.j.G.!.j.<.r..X/.+.( ! ! ( ( ! ! ..3.c./.j.!.`./.3.D C p.G.r.j.G.3.*.3.<.V.c.!.!.G.c.c.G.G.j.d.j.c.V.G.A.V.c.A.G.V.j.j.j.r.+.j.j.3.p.r.3.j.Y..X!.r.+.3.V.G.c.!.A.c.Y.V.j.G.Y.j.c.j.Y.j.Y.!.r.G.r.R J 3.G.!.G.!.d.d.Y.d.7.r.Y.!./.!.Y.!.!.`.#X/..XV.*.j.!.j.<.<.r.3.r.j.d.j.A.j.c.!.j.<.<.*.<.} ! r.Y.Y.!.G.j.j.j.G.d.r.7.! ! <.p.} ..Y.`.j.! ( <.*.<.<.( ! *.<.*.+.<.3.7.+.! } ( %.c.!.<.J ! +.<.! } *.<.J ! <.( ( ! N ! +.+.r.j.3.R C *.! +.<.} ! ! N J ( C <.<.( } <.<.+.} ..} +.+.! ..} } <.*.p.p.<.R ! ! J ! ..} ..( ! J *.3.} <...*.( ! ( ( <.! ! } ( *.<.<.<.<.p.r.<.( ! <.r.d.c.V.*.+.+.7.c.j.j.j.V.V.c.A.G.j.r.d.j.V.!.!.!.Y.j.d.<.! *.A.`.Y.<.! ( 3.N h D } <.<.<.<.<.! ",
"+.<.#.i.!.!.l.j.7.p.g.o.] <.o.] +.<.j.j.p.7.D.G.j.c.!.j.*...a.d.<.r.3.V.!.D./.#X+X=X[.).[.L.<.Y j.!.!.D.7.! +.<.<.j.G.g.7.7.L.C.!.!.!.!.C.c.L.!.!.!.!./.!.Y.!.`..X`.#X.XG.j.V.A.!..X!.!.&X;X,X5X`.c.j.j.<.<.d.j.j.d.j.j.j.j.p.j.!.j.r.p.r.<.3.j.V.j.p.r.3.7.r.7.V.j.j.V.G.V.d.c.j.j.<.p./.`.V.j.r.j..X;X!.!.!.j.c.G.A.A.V.V.V.r.j.j.j.c.j.d.d.p.c.G.!.!.V.V.!.!.A.j.d.j.j.7.<.<.p.j.Y.#X!.G.G.j.j.j.c.j.d.A.!.!.j.d.p.p.7.j.G.Y.V.G.!.`.Y.p.c.;X/.<.! } *.j.7.<.j.l.C.j.j.<.a.j.h s N J N *.!.!.c.c.j.p.j.G.A.p.c.p.p.j.j.j.j.V.d.3.<.j.A.Y./.!.j.A.!.Y.V.G.A.j.!..X/.j.r.A.`.Y.Y./.!./.G.!.V.c.Y./.G.Y.V.V.c.V.!.!.G.!..X.X!.Y.r.7.d.*.( <.*.<.r.j.V.!.!.A.A.V.!.p.....<.7.7.7.r.7.c.!.&Xr.<.!.`.`.!.j.c.!.!.`..XV.d.Y.G.p.3.+.} ! <.V.!./.`.!.!.!.#Xc.<.d.c.V.!.j.3.r.Y.`.!.G.!.!.!.d.*.( *.<.<.*.} } +.<.r.Y./.<.R j.!.p.( V.A.j.Y.!.7.( <.p.j.j.j.Y.V.j.V.A.Y.c.j.j.j.c.c.j.j.c.G.G.A.A.V.j.r.7.Y.A.7.j.j.p.j.`.#XV.<.! } j.c.j.c.V.j.!.!.c.A.!.j.r.7.V.j.!.V.3.G.c.( R 3.A.j.p.j.7.r.j.*.*.7.!./..X`.!.!.V./.`.!..XG.*.<.r.c.7.3.<.} <.j.7.r.c.j.j.c.r.*.! ....! ( 7.j.Y.!./.Y.!.!.!.d.3.<.<.+.7.j.<...j.A.*.! <.p.} ! <.<.} <.7.*...*.<.V.<.! ! +.3.j.!.<.C ! ..*.! ( *.3.( d.j.} ^ } C J <.<.p.j.3.! N ! ..( <.*.+...! } <.( r.7.} U } <.3.} ( +.<.*.! ! +.+.r.<.<.<.<.! ! R C ! 3.<.+.+.R R <.7.} *.+.+.} +.3.<.<.( ! U +.<.+...( ! *.<.<.! N C R ( 7.p.+.*.3.j.V.d.3.p.A.G.G.A.V.j.7.r.3.j.!.!.!.V.7.*.+.*.3.V.`.j.h 5 h <.! n ! <.*.+.<.*.*.( ",
"l.5.[ >.N.!.!.V.<.} | W } V.V.j.<.>.<.>.<.<.V.!.j.j.L.j...U ! ..7.G.V.A.!.Y.!.`.;X;X[.`.=X!.i.<.~.;X;X!.5.! #.i.<.0.i.<.<.<.j.<.j.V.L.V.j.j.c.L.A.A.Y.!./.!.!.`.!./.&X;X`.!./..X/.&X`./.;X;X7X7X;X.X!.Y.G.A.c.d.V.c.j.j.j.j.j.p.p.7.<.3.<.*.<.3.<.<.3.<.*.d.c.r..X.X!.j.<.<.3.j.r.j.V.j.`.;XG.j.7.c././.G.G.!.A.Y./.!.A.j.j.j.p.c.c.p.r.7.3.r.<.j.V.G.Y.Y.!././.G.j.j.j.j.r.7.j.j.d.j.!.#X`.Y.p.j.c.Y.Y.G.Y.Y.c.c.j.r.7.r.j.Y.!.A.j.j.Y..Xj.<.A.,XV.3...r.V.3.j.5.7.i.7.p.<.7.p.c z N N N <.`.;XG.A.j.<.3.c.V.r.j.j.3.3.<.3.j.c.r.7.<.j.!./.`.Y.c.A.!.!.A.Y.!.A.Y.!.A.V.!.;X;XA.!.#X;X`.r.j.!..Xc.!.d.c.V.c.j.c.!.!.Y.!.!.A.G.&Xd...*...+.<...<.j.c.j.j.j.j.j.j.c.j.j.d.3.3.j.G.r.d.!.!..Xp.<.!..X#X/.j.c.#X#X#X/.c.7.c.p...3.3.+...<.p.Y.&X&X#X.X!.!.p.( <.j.j.c.j.<.3.G.!.j.<.c.A.j.<.r.<.<.<.<.*.! ! ( ..<.j.!.v * 8 *.V.7.d.j.j.p.j.V.r.7.c.r.<.7.A.A.j.!.!.G.G.G.A.j.j.j.d.j.c.G.G.Y.!.!.c.<.j.Y.j.j.!.!..X!..X/.j.<.} +.p.7.p.A.!.c.G.`.j.d.G.j.j.j.j.3.p.j.} <.<.! J ( <.! ..<...<.j.3.7.p.Y.c.!.`.Y.!.V.!.!.Y./.!.3.+.+.r.V.p.} +.7.j.V.p.j.j.j.d.r.3...+.<.( +.<.<.V.G.!..X`./.`.j...*.r.7.+.} <.<.( R R ! r.p.( ! <.<.<.7.<.<.<.<.3.A.c.<.+.7.r.<.j.<.( +.+.*.( <.3.d.<.7.<.! ! ( ! <.c.7.r.3...R D ! U N D U R ! U R +.! *...! D } 3.*.! ! +.<...! R } ! <.( ( +.+.U J U C ( j.d...( ! ( 3.<.} *.<.<.+.<.d.<.( ! +.! ..+.+.<.<.( } *.<.( R ! ( } 7.j.r.j.V.A.V.j.p.j.j.A.G.G.Y.A.p.3.*.7.V.!.!.A.7.*.+.7.j.c.!.j.n 0 c 3.3.( 3.d.<.+.*.+.<.+.",
"V.>.! <.C.#X=X`.j.<.1.} ~ N.W.j.5.+.} ! >.<.j.!.V.j.d.p.1.<.<.#.Y.;X&X!..X.X!.`.#X$X!.!.`.!.l.V.#X=X[.C.>.W | 7.<.>.+.} #.o.<.! <.d.V.c.j.l.L.!.A.G.!./.`.`.`..X!.!.`.&X`./..X.X&X;X`..X&X#X`.!.#X!.j.j.!./.!.!.!.!.A.j.p.d.d.7.3.p.d.c.j.p.j.j.<.*.<.<.<.j.!.j.<.r.G.j.<.7.d.j.j.r.c.*.7.;X`.!.Y.Y.Y.A.V.G.!././.&X.X!.A.d.j.d.V.G.j.r.7.r.p.<.p.c.c.Y.!.!./.G.j.j.j.A.G.j.j.Y./.j.d.c.!.`.!.Y.!.V.c.c.c.V.j.r.j.c.V.j.j.d.c.Y.A.r.j./.5X&XA.`.;XY.A.3.r.j.<.j.<.} ! ~ p.0.0.j.0.<.3.3.3.A.#X!.!.!.c.<.<.j.A.j.j.c.p.p.<.+.7.j.r.3.<.d.Y.!.!.Y.!.Y.!.!.V.A.!.Y.`.!.G.!.;X,X&X/..X#X;X.X3.j.`..Xj.G.p.c.!.!.V.A.d.j.A.!.c.*.+.V.j.( ( +.<.7.+...7.d.r.p.j.j.j.V.<.f.G.G.d.r.j.Y.7.3.!.!.`.Y.c..XY.!.G.d.G.;X.X!.!.V.d.V.7.! <.d.3.r.d.7.j.!.Y.!..XY.!.G.7.3.7.<.3.<.} ! +.<.! C ! <.<.( d.7.3.3.7.d.<.! ! ..<.c.!.d.s s } j.r.<.<.d.3.7.j.d.j.V.d.7.r.G.Y.V.Y.G.G.G.Y.Y.V.V.V.j.d.c.A.A.G.`./.c.r.c.Y.d.j.`./.`..X`.!.A.j.r.3.<.3.j.!.#Xc.j.!.d.<.j.j.j.j.j.<.<.j.( ( *.! U R ! +.+...! *.j.7.7.j.d.+.j.!.G./.!.!.A.d.j.V.p.<.<.7.A.r.} <.r.p.G.V.G.A.A.j.r.r.<.1.r.<.p.j.j.!.A.G.!.!.`..XA.3.3.r.r.+.( r.j.<.} ..! ..7.<.+...! ( 3.<.<.3.+.7.A.V.<.+.d.j.3.V.j.r.7.<.<.<.j.j.j.*.! ! R J ! 7.!./.j.j.j.<.! C C R C D J ! } R N +.( ..! ! U ( *.! } *.3.3.<.<.*.! R ( ! ..<.+.D ! } ! ( j.A.7.<.! ( <.+.( *.r.p.3.r.j.+.! ( p.p.*.*...7.d.*.} +.} R R +.*...3.p.r.V.A.j.j.j.V.A.j.c.j.j.G.G.j.3.*.3.j.A.G.j.7.*.<.p.j.j.A.!.j.+...+.} ! <.d.<.+.*.*.3.3.",
">.D U <.V.;X;X;X!.N.l.<.o.h.j.o.<.+.o.! <.<.7.j.p.a.<.+.<.C.Y.Y.&X&X&X#X&X&X`.&X`.[.!.W.!.G.V.!.`.!.!.l.<.} >.5.1.<.<.#.>.} >.! } p.C.A.L.!.[.$X!./..X.X#X.X.X.X!.!.!..X`.`..X.X;X.XG.Y.!.!.!.V.Y.3.R ..V.!.Y.`.`.;X#XY.p.<.7.7.7.r.p.G.V.3.j.V.d.<.3.r.r.c.!.!.<.<.j.G.j.j.d.7.G.<.j.! } .X/.A..X!.V.A.Y.Y.A.V.!.`./..X^.j.r.7.j.V.j.d.p.p.d.<.V.G.j.j.G.Y.!.c.r.j.A.!./.V.j.!.&XY.c.j.V.!.!.!..XV.d.j.A.G.A.j.j.V.V.c.V.c.c.G.V.j.!.&X;X;X.X#XA.j.!.j.<.7.3.d.1.} } } 7.p.V.+XY.j.j.j.*.3.Y.C.!.!.A.p.<.p.A.C.!.Y.j.j.r.} <.j.p.p.p.z.!.!.Y.!./.G.G.G.j.j.A.A./.!.#X;X;X.X!.;X;X/.`..Xj.G.!.c.p.V.c.G.!.A.<.*.3.<.j.!.`.j.<.<.j.<.<.<.*.3.7.3...7.r.d.c.j.j.j.7.p.G.`.!.V.c.j.<.} j.!.#X`.Y.!.A.!.!.G.!.#X!.G.G.A.j.A.d.( ..<.+.p.A.r.3.d.j.Y.!.j.Y.`.c.r.p.7.j.3.+.} ! *.<...! +.! U 3.j.j.c.A.!.A.d.j.j.j.V.r./.j.p.c.Y.p.( +.r.d.p.<.<.j.d.7.r.j.Y.!.G.G.Y.!.G.G.!.!.!.Y.c.j.j.c.j.c.!.!.j.<.3.V.c.V.;X;X/.#X!.V.d.r.r.3.<.<.p.!..XV.c.`.Y.r.d.7.d.j.j.j.j.r.<.<.p.<.+.} <.7.<.<.( ..3.r.j.Y.p.! r.!.!..X.X/.G.7.<.r.r.<.<.j.r.<.<.7.r.p.j.!./././.G.j.j.7...+.*.j.!.!.#XG./.Y.G.!.Y.Y.A.V.....<.*.+.<.<.<.<.#.( ..<.7.7.! +.p.*.*.} R r.G.j.<.<.p.d.<.V.!.p.<...<.3.A.c.p.! <.3.! N ( V..Xj.j.j.7.*.<.( N Y R J J ! +.! C } ( } U } ..} ..( <.3.7.3.7.p.3.U ! *.} <.r.<.( *.<.! R 3.c.d.j.<.*.<.*.+.<.d.j...+.<.+...+.d.j.+...! 3.c.7.<.3.*.! ! <.3.<.3.3.r.A.A.p.d.A.Y.Y.j.j.7.<.p.j.p.3.r.p.p.j.V.j.r.<.<.<.r.j.j.!./.j.7.( +.<.<.r.3.3.7.<.3.3.",
"} A ! o.7.~.;X=X#XW.j.7.j.G.j.#.<.<.<.} 7.5.#.#.p.c.j.c.j.c.d.d./.`./.`.V.j.!.&X=X#X!.W.D.V.C.G.`.G.j.g.<.>.1.p.<.5.7.<.+.] <.~ | j.Y.!./..X#X#X.X#X&X&X#X`.`.`./.!./..X`.`.#X&X;X!.d.j.G.!.`.`.!.<.! <.j.c.p.7.p.!.&X`.j.<.7.r.7.p.r.j.d.+.<.3.7.<.<.p.j.G./..X#XA.G.Y.A.j.3.<.j.<.j.d.d.!.c.*.j.c.c.c.G.V.d.r.Y.!.!.!.!.j.r.3.c.A.V.c.j.3.7.<.Y.!.j.j.c.c.G.j.p.c.Y./..XG.j.A.!.A.V.j.G.!.j.7.j.7.p.A.Y.G.Y.!.!.!.A.A.!./.!./.j.j./.;X&X;X;X`.7.r.!.j.r.d.j.j.1.} <.<.<.p.!.;XL.j.1.| B B <.V.!.Y.!.A.3.3.j.V.!.!.c.d.3.<.r.A.G.G.!./..X!.G.!.#X!.Y.G.V.V.Y.G.p.d.!.!.!.G.j.`..X!.!.#X!..X`.G.G.!./.!.!./.d.p.7.*.7.A..X.Xj...3.r.r.<...<.j.p.} r.7.3.r.7.<.<.3.3.A.&X.X!.Y.V.( } c.!.&X#X`.!.!./.G.A.Y.!.`.#XY.Y.A.A.j.*.! ..( <.V.j.7.d.j.`.j.<.j.Y.p.<.j.c.p...( +...*.3.<.*.*.} ! <.V.j.j.c.!.G.Y.#X.X!.!.j.j.<.} p.!.<.U 3.7.3.r.<.3.j.+.R *.d.A.!.G.V.!.!.A.V.!.!.!.Y.c.j.j.j.d.j.A.V.r.r.7.V.c.A.&X&X`.#X!.r...*.<.<.7.p.7.c.!.A.!.;X#XV.j.r.j.c.j.j.7.<.7.3.j.j.7.} <.<.r.d.*.} r.A.!.A.d.( +.c.!.`.!..X.XG.d.j.j.7.<.<.+.<.d.j.G.!.Y.!..X#X;X#X/.`.!.3.*.<.A././..XG..X!.!./.V.A.V.c.<.<.r.3.*.! R ! } 3.<.+.+.p.G.j.c.d...( ! ( p.V.V.r.p.d.r.+.d.!.7.+.( ..} j.j.7.} j.V.+.N ! d.A.<.+.*.! R <.3.! U ! ! R } ..! R ! U ! N ( ..R ! <.<.*.+.} ..<.+.D ( <.*.j.j.7.<.....! U } <.*.<.d.r.p.3.7.<.p.7.R D ! ( *.( +.*.<.<.<.j.!.p.*.+.} ( ( <.r.d.d.<.j.Y.G.j.j.Y.G.c.r.p.<.<.3.7.<.<.j.j.d.c.A.j.j.d.....+.<.3.d.A.j.p.*.r.<...<.<.d.r.<.<.<.",
"a.o.+.! ] D.;X;X$XG.<.7.D.l.7.1.p.a.p.o.0.i.#.| p.3.*.a.p.<.| 1.Y.&X#X!...D A..X+X!.C.j.p.p.g.a.!.N.N.N.g.7.7.7.<.p.g.<.>.+.<.] *.c.!.~.[..X/.!..X#X#X#X`././.`./.!.`.#X/.!.`.#X;X!.j.c.!.!..X.XA.r.p.c.j.r.+.C N <.G.!.c.3.p.j.*.r.3.7.<.} +.! *.<.3.p.j.G.!.Y.G.j.d.j.A.A.d.d.d.<.r.c.j.j.j.*.<.j.A.V.A.A.A.!.!..X!.G.V.d.j.j.A.A.V.Y.c.7.p.j.c.!.c.c.A.c.V.p.j.V.G.!.#X!.V.Y.V.j.j.j.!.#Xr.D U ! <.V.j.p.V.`.Y.`.!.!.`.!.!.`.j.p.G.#X/.!.Y.3.( 3.V.7.d.j.r.p.1.U #.+.o.g.~.G.d.r.F b N k N *.3.r.A.A.<.*.p.c.c.!.c.<.<.p.j.V.;X&X#X.X/.G.G.#X;X.X!.!.Y.!.!.G.A.j.Y.A.!.Y.7.Y./.`.!./.Y.!.Y.!.V.A.!.Y.A.`.j.j.G.V.Y.G.!.#XA.<.<.3.3.p.3.3.r.~ N +.*.*.3.<.*.( ! ! p.!.A.j.j.j.j.Y.;X/.!.!.`./.Y.j.<.r.!.!..X`..X.X!.G.A.7.} <.j.d.!.V.p.r.p.!.r.*.d.V.*.! r.V.j.! U ( } } <.<.7.d.g.3.*.c.p.c.d.A.V.V.!.A.V.`.A.! h r ! #Xr.( <.d.3.r.d.r.d.<.J <.c.c.c.p.<.j.G.j.c.Y.!.G.A.A.j.j.j.p.d.V.V.r.p.d.j.r.V.`./.;X.X!.<.! <.7.<.d.Y.j.j.G.G.!.`.!.Y.p.<.7.r.7.d.<.<.7.<.j.!.A.<.<.7.j.j.( U 3.j.3.3.<.! U 3.!.!.j.A.#X.XG.A.c.<.+.( <.j.j.A..X;X/.A.`..X.X.X#X;X.X#XV.c..X.X!.!.A.G././.&X/.A.3.7.3.d.r.<.j.r.! ( <.d.j.j.7.<.j.c.!.7.( ! <.j.j.d.c.<.<.<.p.7.j.!.p.*.} } R 3.j.p.d.j.c.j.<.J ..Y.j.! ! <.} ! U U N ! ! ! ..! N N N c N v ( <.} 3.j.r...( ! } <...} *.<.<.!..XM.<.....<.+.<.*.! ( <.<.<.<.<...*.( <.! ! ( <.! ! ( <.<...r.j.<.} +.! <.3.d.j.c.c.<.r.j.j.j.j.j.d.3.*.3.7.3.7.3.*.+.7.3.<.r.j.j.j.j.7.<...+.+.<.j.c.j.7.j.<.! +.*.7.*.} <.<.",
"~.!.5.~ <.j.~.3X!.W.N.a.l.V.j.!.D.D.j.o.! } <.<.r.( } <.<.p.j.0.!.`.#X!.d.R 7.!.!.N.l.V.<.5.1.<.a.i.j.D.j.j.g.<.<.j.g.>.} } +.<.<.!.;X;XV.3.c.V././.&X;X;X;X/.!.!.!.!.!././.`.#X#X.X!.!..X/.Y./.A.j.G.j.<.7.r.<.<.j.V.j.j.c.G.Y.r.p.j.G.j.3.*.<.3.p.c.G.c.V.!.Y.c.7.7.j.V.j.p.3.<.<.3.3.+.<.d.r.7.r.d.j.!.!.G.#XG.!.Y.G.j.d.V.Y.c.A.V.A.V.c.G.G.!./.A.d.c.j.c.r.7.A.G.V.Y.G.V.Y.d.j.d.j.V.Y.j.Y.c.7.7.j.p.<.3.d.r.!.Y.A.V.j.Y.`.!.j.j.!.p.R U d.d.j.V.j.A.p.7.<.V.j.1.} j.!.7.#.( 3.<.N b k c n N } c.G.j.r.7.j.A.Y.!.p.<.c.!.!.#Xc.<.j.#X`.A.!.`.`.`.A.V.!.!.G.A.j.A.G.!./.!.#X`.!./.`..X!.V.!.!.G./.c.j.Y.V..X!.G.!.Y.G..X/.G.7.3.*.3.j.r.<.7.! ( ! +.<.7.d.d.*.} <.<.<.7.7.r.c..X#X!.G.!..X.X!.c.r.A././.&X;X#X#X&X.XA.3.7.V.Y.V.j.p.j.p.<.j.! ! d.V.A.j.*.<.r...U ..<...r.!.!.!.&Xj.<.3...*.j.A.!.!.<.r.;X`./.p.N q h r.j.+...*.3.7.p.3.j.3.*.r.j.j.j.3.<.j.Y.!.j.c./.`.!.G.A.Y.d.<.p.j.j.V.j.7.p.<.j.;X`.!..X!.V.p.d.j.j.d.c.G.p.d..X!.G.3.<.<.} ..<.<.3.7.7.d.*.7.j.A.j.<.p.7.<.<.R +.7.+.+.+.J N } <.Y.V.V..X#XV.A.j.3.! } p.!.!.!.#X`.5X;X=X%X#X`.`.#X#X.X!.!.!.A.G.!.Y.A.V.`.&X.X/.V.j.r.r.3.r.!.!.3.<.3.G.c.j.<.*.<.<.V.j.( <.*.3.j.j.c.<.<.7.<.<.d.V.<...! ! N ( 7..X`.3.( ..V.7.J ( 3.<...<.! ! <.<.( <.3.<.*.( N N N J U N ..r.} r.j.*.! 3.<.! R U R <.( j.5XY.j...} *.*.7.<.+.} <.p.*.} ( *.r.<.} +.*.! <.d.<.7.3.<.} R <.7.*.j.A.j.j.j.c.V.j.3.<.r.j.p.V.d.! ..+.<.r.<.3.d.<...} <.7.p.d.7.<.d.j.r.*.<.<.<.p.j.j.j.j.7.} ! ( +.*.*.<.<.<.",
"#X#XG.j.j.l.G.`.!.!.).!.G.G.L.).~.!.j.#.! } <.p.0.<.<.r.j.A.!.G.G.!..X!.j.*.V.&X!.j.p.j.5.0.p.j.<.<.W.$XG.V.V.7.+.<.>.o.+.<.5.j.V./.#X#Xc.d.!.Y.V.G.!.!.!..X/.!.!.Y.!./.`./.!.!.!.!.G.A.!.!.Y.!.Y.V.A.c.V.Y.j.d.j.c.G.!.A.j.j.V.r.p.d.d.r.3.3.7.j.j.A.!.Y.Y.!.A.p.j.Y.!.c.d.3.<.@.+.<.3.<.7.j.d.p.j.d.j.Y.d...3.A.!.j.d.j.j.j.j.j.Y.c.p.j.!.`.G.A.V.c.j.G.A.G.<.<.j.!.`..XG.p.p.p.V.A.A.V.G.d.V.j.j.j.r.3.j.V.c.A.!.c.p.j.c.Y.!.!.p.6.!.j.D N <.A.!.!.j.c.j.c.c.~.!.N.5.W.=Xj.<.| a.A.d.r.*.7.l.r.j.!.!.A.7.( +.d.j.G.j.7.d.G..XA.+.C ..!.`.!.!.G.Y.!.V.V.A.j.j.V.c.A.Y./.#X.X#X/.!.#X.X!.G.c.G.!.!.!.p.j..XY.!.G.!.!.!.j.7.j.A.Y.j.*.! *.<.3.d.! *.*.<.r.d.j.d.<.<.<...<.A.Y.A.!.&X&X.X`..X;X`.!.j.<.j..X;X&X;X;X#X&X.Xc.r.j.A.Y.j.3...r.j.r.Y.<.} 3.j.V.c.p.c.j.7.<.j.V.A.A.p.G.!.!.j.7.j.j.j.G.`..X!.<.! 7.d.V.c.+.h f ! c.!.<.<.<.<.p.<.3.<.7.d.d.7.7.r.d.j.Y.Y.c.!..XY.A.Y.G.A.d.d.!..X/./.j.<.d.c.G.!.c./.Y.V.G.N.j.d.r.7.j.j.7.p.G.c.!.Y.G.j.*.*.3.7.d.j.c.j.3.j.j.V.c.d.j.p.r.c.+.R ! U N J N N ! <.!.j.&X;X/.j.G.A.d.*.<.V.#X#X#X!.p.j.;X#X`.`.`.`.`.`.!.Y.!.Y.V.Y.!.G.j.j.Y.^.!.!.A.j.<.3.7.r.Y.!.p.7.V.A.3.r.<.+.<...r.3...r.<.+.3.d.3.+.7.j.7.<.<.j.} ! <.....d.j.&X/.<.! ! c.c.*.} *.! ! <.3.<.p.j.U } 3.<.<.} D N n ! C N ! <.7.7.<.( R *.( n N N ! ( ! j.!.....( J } ..*...+.( ..3.......*.7.<.+.<.<...p.Y.V.j.d.*.( ( d.j.<.c.!.!.Y.j.j.A.d...( <.<.<.j.j.+.*.+.} 3.3.p.j.p.3.<.<.<.<.*...*.d.d.3.+.<.<.3.p.p.d.p.d.7.<.*.<.+.} ( ..<.<.",
"`.#X[.`.`.!.L.[.#X!.+X`.W.G.W.W.!.G.g.<.} +.i.C.d.a.j.Y.!.~..X#X`./.!.j.3.<.V.Y.#X!.p.1.7.j.j.V.i.<.!.=Xj.a.D.j.<.#.>.<.5.1.j.~..X.X/.!.j.p.V.d.j.V.G.j.j.!./.!.G.Y.!./.`./.!.!.;X;X/.!.&X.Xj.<.j.j.r.7.A.!.c.V.!.V.V.!.V.<.+.7.3.7.7.<.<.<.3.7.r.r.p.j.V.Y./.A.r.A.!.!.j.d.j.d.<.3.r.r.3.p.d.3.<.p.3.d.A.3.! ..c.G.d.r.V.V.d.<.p.G.V.p.p.Y..X!.V.j.d.r.j.c.c.<.<.7.j.G.!.c.p.j.p.j.c.V.j.Y.c.c.7.c.c.<.+.j.!.A.!.!.p.*.p.A.Y.V.G.j.j.!.V.j.d.Y./.!.A.j.j.<.<.<.l.!.`.j.i.a.<.1.d.r.d.a.d.<.0.c.j.A.!.!.!.j.<.p.7.3.d.j.c.j.j.`./.j.r.V.!.!.Y.!.A.!.!.j.r.<.*.p.c.A.A.G.!.%X&X`.;X.X.X/.!./.G.c.j.c.c.<.p.G.7.3.G.V.A.!.A.<.d.G.!.G.d.3.d.c.d.<.<.p.7.<.7.c.G.d.r.j.p.+.7.!..X!./..X.X.X`.`.&X`.!.V.<.7.!..X`.`.&X`.#X/.j.j.Y.Y.!.!.V.d.V.j.7.!.!.j.V.V.A.A.j.j.Y.A.Y.!.!..X!.*.! 7.7.3.p.j.A.A.V.!.!.c.7.R N ! d.j.p.<.7.j.c.j.3.p.3.<.j.*.+.7.j.A.c.3.+.7.c.j.Y.V.p.j.G.j.j.A.G.V.c.V.!.`.#X.X3.+.d.j.c.A.c..X!.j.Y.G.p.7.p.d.j.d.p.j.V.p.!.&X;X!.7.<.r.p.j.V.d.3.<.j.d.V.!.!.A.7...j.<.} ..! D U Y R } j.#Xc.Y.A.d.<.j.V.V.c.j.!.#X#X;X!.<.7.;X#X`.`.`.`.`.`.!.Y.!.!.!.!.!.V.c.Y.!.!.G.G.V.3.+.<.p.j.A.j.+.<.3.4.! <.<.<.7.d.j.p.<.j.<.! ..<.p.( } r.c.j.3.7.R ! d.*.r.c.3.j.G.<.<.( <.<.( ! *.*.<.} 7.r.j.*.! ( *.....*.! U R *.! C ! ..4.7.j.<.+.3.*.C J D U U R r.7.N U ! ! <.3.<.+.<.} ! ..( ..*.+.<.<.+.*.<...r.!.G.j.7.*.<.r.!.Y.p.c.!.!.!.j.p.A.p.} } r.d.7.p.3.+.*...<.d.d.j.j.d.r.7.r.<.*.+.( <.V.j.<.( ..+.<.3.<.<.<.r.j.j.p.r.3.<.7.r.7.<.",
"!.!.~.`.+X!.!.$X[.!.[.~.!.!.).!.!.L.j.7.1.<.7.N.p.7.c.~.!.Y.!./.!.!.!.A.j.j.j.<.W.=XW.p.p.N.G.G.N.7.V.W.1.<.j.j.7.<.1.7.<.+.a.`.;X;X`./.G.j.c.d.p.j.c.p.j.!.`..XY.G.Y.!././.!.!.&X/.G.Y..X!.p.} <.<.+.<.j.j.p.A./.j.d.c.j.} ! 3.3.7.r.p.r.7.<.<.<.3.<.<.7.c.!.j.r.j.j.j.j.j.G.A.V.V.c.j.d.d.7.+.3.p.3.j.!.V.V.V.c.j.r.j.V.c.j.3.j.Y.G.V.j.c.G.c.A.A.V.7.j.j.j.j.<.+.<.d.j.c.c.V.G.c.j.j.j.!.Y.j.3.G.!.j.<.r.j.d.G.!.j.<.7.c.j.r.d.Y..X!.c./.!.G./.!.!.c.j.*...*.<.0.p.<.<.0.<.p.j.<.<.<.d.r.j.L.j.j.V.Y.!.A.j.c.3.<.r.c.!.A.j./.`.`.&X;X!.c.G.!.`.!.j.<.r.r.<.r.d.c.j.j.A.Y.!.j.`.`.!.A./.;X!.G.j.j.c.r.p.p.<.d.c.d.A.`.#Xj.d.V.c.j.j.A.!..XY.j.j.j.3...} j.Y.<.+.<.<.<.V.&X;X.X`././.#X#X.X#X!.#X&Xc.p.!.;X&X;X!.!..X!.A.Y.`.!.G.`..X/.`.j.*.Y.`.G.c.7.r.!.!.!./.!.`.`.!.!.!.j.p.G.G.A.G.j.r.d.V.V.j.d.V.d.} 3.7.3...<.d.p.7.+...<.<.3.c.<.*.j.c.!.G.7.+.<.d.j.G.j.<.<.d.j.j.j.A.A.Y.c.p.j.!.!.7.*.7.3.r.j.p.j.G.j.A.j.r.r.d.j.d.7.7.j.d.3.G..X/.G.7.3.p.d.j.j.d.7.7.V.j.c.c.c.G.d.! <.<.<.r.+.! } ( U U <.G.j.j.d.7.<.j.j.G.`.`.#X#X`.;X`.V.#X#X`.!.!.!.!.!.!.#X!.!.&X#X!.G.j.V.`.`.!.j.j.V.r...} <.j.j.} N ! *.*.( 7.3.3.p.c.c.d.1.j...R ! } j.7.3.r.j.r.<.3.J *.A.7.A.V.<.<.j.+.<.! ( +...! *.p.j.! 7.j.V.} +.*.<.<.3.d.<.R ! ! ! D ( <.( c..Xc.*.} } J ! N J ! ( *.<.D ! ! D } *...<.r.p.r...! } } R } ..*.<.3.<.r.j.j.j.3...3.N.&X`.A.G.G.j.V.j.d.j.3...<.V.!.!.j.<.*.+.( r.j.r.<.<.<.<.<.d.7.7.3.+.r.!.V.<...+.*.<.3.<.*.+.3.j.c.c.c.j.j.A.V.d.<.",
"`.!.!.!.`.`.).;X!.`.G.<.a.D.).!.`.!.j.p.j.a.i.l.c.l.!..XG.V.A.j.7.r.c.V.j.V.j.*.| L.).G.j.j.!.+XV.a.j.j.0.<.i.a.p.7.7.7.<.>.p.!.!./.!.!.`.!.Y.!.7.r.j.d.j.!.`.&X!.!.!./..X.X/.!.!.j.p.j.A.c.p.r.7.<.7.A.G.r.7.c.c.d.r.j.c.7.<.j.r.7.p.c.V.j.7.3.j.A.j.3.<.j.c.<.3.7.<.j.V.c.V.j.V.Y.Y.V.j.j.d.p.c.j.d.j.V.G./.Y.c.7.3.j.d.d.V.d.c.c.j.V.!.G.c.7.! ! d.p.d.j.A.G.p.<.*.<.p.A.!.G.G.j.c.A.c..X!.p.r.Y./.G.c.A.c.d.c.!.Y.7.<.r.3.*.3.V.;X;XY..X/.!./.!.Y.j.A.j.d.7.<.| } +.<.5.<.7.*...*.<.d.r.d.j.j.7.j.G.V.V.j.7.( <.7.j.G.V.j.!.!.Y.!.`.G.j.A.A./.`.j.7.d.d.3.<.<.r.<.7.r.r.3.( j.`./.c.!.!.j.c.j.j.V.V.A.V.p.c.j.d.!.A.G.j.r.!.!.V.Y.!./.#X&X7X&Xj.7.3.+.r.G.7.+.! ! 7.!..X&X#X.X!.!.`.`.!./.A.!.&XA.7.A..X/.!.!..X#X`./.`./.!.!./.!.`.;Xc.3.`..XG.G.j.d.!.!./.!.!./.!.G.V.Y.`.!.!.!.!.Y.j.<.c.!.c.d.7.A./.A.!.Y.j.( ..p.d.j.j.*.<.<.<.j.<.} d.j.A.j.7.7.r.p.j.A.j.7.7.j.V.c.c.V.A.Y.j.3.c./.A.r.*.<.3.7.3.+.<.r.d.j.d.c.V.j.j.G.j.d.j.7.p.G.!.!.!.j.j.c.j.d.7.r.d.j.Y.c.j.<.*.V.V.<.<...*.*.R } 3.<.! N U <.j.3.<.<.<.V.c.G.`.;X;X`.!.#X!.!.;X!.!.!.!.G.!.!.!..X!./..X`.!.G.j.j./.!.V.3.<.j.j.*.! ( p.A.7.! ! 3.7.<.d.r.d.j.c.c.j.j.j.....<.3.j.j.j.d.r.3.*.<.R l.`.j.G.d.<.*.} ( 3.! U <.j.c.7.7.d.+.j.p.j.<.<.d.V.d.7.p.<.( ! C ! ( ( } ..Y.5X!.<.! } } 3.! U <.*.( <.! } ( } <.<...*.<.p.j.+.( ..*.R } ! ( <.<.3.r.*.<.j.d.7.j.A.!.Y.G.A.j.<.p.j.j.p.<.<.j.j.A.!.G.j.3.+...7.r.+.( ( ( +.*.3.3.r.7.+.7.Y.c.3.*.<.<.<.r.3.<.7.<.<.r.c.A.c.j.Y.Y.c.r.",
"#X!.!.V.V.G.N.L.j.G.] i ! j.`.!.`.).j.<.p.p.5.j.Y.~.$X/.A.Y.G.r.*.<.d.p.<.d.d.r.>.0.j.V.l.1.G.).V.j.p.7.7.<.<.i.7.<.p.N.V.j.j.j.*.p.c.!./.!.A.G.j.j.V.G.!././.&X!./.`..X&X#X!.G.c.j.j.A.c.p.d.A.!.c.V..X!.j.j.j.3.d.j.A.!.V.j.j.3.<.<.j.c.j.p.p.j.!.Y.j.j.j.c.<.j.d.3.c.Y.j.j.j.d.A.!.G.j.p.j.!..X!.A.c.j.j.V.j.j.+.<.j.d.r.c.j.r.j.p.d.j.c.j.*.h r ( <.} <.V.c.d.+...<.r.G.!.V.3.r.G.!.V.!.A.7.A.!.A.r.j.!.!.c.p.A.Y.r.<.7.3.<.<.d././.j./.`.!.!.V.A.Y.!.7.<.7.0.<.<.<.+.! ! +...<.<.<.j.0.,...7.<.G.G.7.r.j.7.} +.<.r.Y.!.c.G.c.j.j.Y.V.p.j.7.p.!.!.A.j.r.3.<.} +.*.<.<.+.! D p.!.`.V.A.A.r.r.G.j.c.j.V.!.G.j.3.<.!.<.3.d.r..X#X`.;X,X#XY.c..X`.p.r.V.j.p.V.j.7...+.j.V.j.Y.`.`.`.!.!.j.d.Y.!..X;X`.A./.;X/.!..X;X;X&X;X.X!.!.`..X!./.#Xc.d.#X/.j.Y./.!.`.!.`.V.G.!.A.V.j.j.G.`.!.`.OX/.V.j.!.!.V.c.j.c.!.A.V.j.p.+.<.A.Y.c.d.p.7.<.} 7.<...<.p.p.<.<.j.j.j.G.G.j.d.d.j.j.j.!.A.j.j.j.j.`.;XY.d.j.j.3.<.r.<.<.<.d.j.j.Y.!.c.c.#X`.!.V.p.j.V.j.!./.G.V.G.V.j.<.*.r.c.Y.V.V.3.<.p.p.+.<.<.<.} R } <.<.+.( ..} +.+.! U } V.A.A.!.`.`.`.`.#X!.G.#X`.`.`.!.!.!.`.`./.`.`.!.!././.!.G.!.G.r.! ! *.<.<.} ! <.Y./.p.+...<.7.p.<.7.j./.!.!.Y.j.} 3.Y./.A.p.7.3.d.j.3.*.( Y.`.A.j.<.<.<.U <.j.U c U 7.G.j.<.3.*.<.....} } j.!.r...+...+.3.! ! *.U R j.Y.d.<.} ! +...r.+.N ( } R ..R R ..} } ( U ! ! *.p.3.+...<.! +.( ! ! ! <.7.( } d.j.G.A.c.d.r.j.j.3.+.p.V.c.3.+.<.j.p.3.j.c.j.e.+.<.p.7...} ..} +...<.<.r.p.<.3.V.j.3.<.3.<.<.r.7.7.!.c.j.j.A.G.G.G.!.!.G.c.",
"[.!.!.p.<.7.>.<.<.p.! h 5.!.3X=X=X;Xj.| #.+.} <.3.j.j.d.c.G.V.j.r.d.j.j.3.d.7.d.N.<.<.g.7.] j.j.j.V.j.5.1.<.<.j.p.5.j.!.`.!.V.j.*.<.j.Y.G.A.A.V.A.V.!./..X#X`.#X/.`..X#X&X&X/.G.p.j.!.!.c.7.7.j./.Y.A.!.!.c.G.G.r.l.A.G.!.G.j.j.3.*...<.p.j.j.j.r.j.j.j.c.j.j.p.j.j.r.A.!.j.j.j.p.c.A.c.d.<.p.!.;X.X!.G.A.j.p.j.c.<.*.p.r.7.j.3.p.G.A.j.p.p.7...N s ..<...<.s.d.<.R ( p.j.Y.!.p.<.d.!.`.j.c.d.<.`.#XV.<.7.G.A.r.<.r.j.7.7.j.j.r.r.7.j.7.( j.j.<.c.V./.`.A.( ( r.0.<.<.p.7.<.>.} ( <.*.~ 0.<.*.<.7.p.G.j.} <.d.j.+.! ! <.A.V.7.7.7.j.j.G.j.<.r.7.<.j.c.A.V.j.j.d.<...<.3.3.<.( ( <.c.!.j.j.j.d.p.!.G.A.p.<.V./.!.} <.Y.+.3.7.<.V.G.c.!.#X.Xj.! ..r.r.j.G.A.r.p.j.r.<.7.Y.G.j.!.!.!.`..X!.p.7.Y.!.Y.Y.!.Y.!.!.!.`.#X/.`.&X&X`./.!.`.#X!.!.!.j.d.Y..Xp.j.!.!.!.!..XY.V.!.G.j.j.3.3.j.G.!..X!.j.j.A.c.c.A.c.j.j.p.7.<.p.d.r.c.G.j.j.7.<.3...3.r.d.j.p.7.<.p.j.j.j.A.G.j.d.r.r.j.j.V.c.p.p.r.p.G./.G.j.Y.Y.<.+.d.p.*.<.p.j.j.A.A.j.V./..X!.V.p.c.j.d.G.!.j.r.c.!.G.r.<.j.!.Y.r.j.p.1.<.<...*.3.j.<.+.! ..} ....7.+.U <.( ! } j.j.c.!.`.#X;X;X;X#X`.#X;X#X`.!.`.#X#X#X`.`..X.X!.!.!..X!.j.d.<.! ! ! } +...} +.j.!.p.( ! <.p.r.! ..j.&X#X`.!.j.( p.!.#XG.p.j.j.j.p.<.*.<.j.c.j.j.d.*.+.} d.G...R C J <.<.( ..! ! ( ! R R d.V.3.<.<.! U 7.} R ! R 3.!.A.( ! ( +.7.} 7.<.D J ! ! } D J ..<.<.<.! ! ! <.j.V.<.! } J <.*.*.! <.j.V.d.7.j.Y.Y.V.j.r.2.r.r.<.<.j.c.j.<.( } r.j.3.j.d.r.3.+.7.j.r.*.<.<.<.<.+.<.7.d.j.d.p.c.j.d.p.j.a.3.r.r.r.d.p.p.d.r.3.r.j.j.c.c.c.",
"!.!.`.j.7.j.j.j.Y 7.j.j.;X`.#X#X$X3XC.} } } ! >.<.3...*.j.j.3.l.V.j.7.<.<.d.r.c.j.+.<.j.<.W g.a.0.V.D.j.g.p.j.!.[.G.W.#X+X!.!.).j.<.j.j.7.j.!.Y.j.j.Y.!.#X;X&X&X.X.X`.`.#X&X`.!.A.!.`.!.j.3.<.3.j.V.V.Y.Y.G.!.Y.c.!.Y.A.!.Y.V.G.r.<.+.*.r.c.J.A.7.3.<.d.j.d.p.p.<.r.4.c.!.c.j.7.d.j.d.d.p.<.3.Y.&X!.V.j.G.d.<.A.#Xj...+.<.7.j.3.c.!.Y.G.A.V.j.3.! N <.r.j.j.r.V.j.! ! d.j.G.!.j.7.j.!./.j.V.j.j.G.!.G.d.j.V.j.<.<.<.0.3.j.!.c.7.r.+.7.r.<.Y.j.%.j.Y.Y.p.j.d.r.*.o.} >.p.j.j.a.+.7.G.c.<.0.+.+.a.c.j.d.+.( 7.c.c.j.+.<.V./.A.r.j.p.G.A.A.p.*.p.j.j.A.A.A.p.<.d.V.d.<.3.p.p.r.<.j.<.j./.j.} +.7.r.7.j.!.V.*.r.!.!.7.V.`.+...! ( d.d.+.+.3.G.c.( } *.!./.!.!.j.3.7.d.<.3.!..X.X.Xj.j.c.!.!.V.j.c.3...} 3.d.d.p.j.;X`.c.G..X`./..X/.&X#XG.V./..X!.G./.r.j.G.!..X/.`..XV.!./.V.d.3.3.j.!.!..XG.7.j.7.7.7.3.2.<.*.<.<.r.d.7.} 3.c.j.j.r.r.V.7.3.d.c.c.j.p.j.V.j.3.7.j.V.j.j.r.d.V.d.<.d.7.7.<.! } r.j.<.7.p.<.<.p.7.<.<.<.j.c.d.7.<.p.G.!.G.j.7.V.Y./.;X#Xj.3.j.`.`.j.3.j.!.j.U +.<.} <.p.d.<.<.j.<.<.3.7.3.<.( j.A.p.+.+.*...<.*.j.#X#X`.`.#X#X#X#X#X#X!.!.!.!.#X`.!..X!./.;X`.j.j..Xj.*.*.<.<.3.*.<.} *.7.r.j.V.3...*.3.r.r.} +.d.&X`.!.!.G.7.A././.d.<.V..XY.d.<.<.p.3.*.*.<.d.D N ! j.&X!.j.J N 3.*.J R ( ! +.} ! <.j.r...j.A.*.D ( R J v ..`.c.<.r.....<.r.! <.<.*.! ( } *.R U } 3.p.r.} ....t.c.j...! *.! 3.*.( <.j.!..X.XA.j.!.!.V.V.V.j.7.*.( } 3.3.<.<.+.+.j.j.j.!.j.3.7.*.<.j.<.} <.7.<.<.*.<.7.j.A.A.j.j.p.j.z.V.j.<.<.<.<.<.+.*.<.<.<.<.<.7.p.j.V.",
"j.g.j.7.1.L.[.).g.0.).:X3X3X#X#X+X8XW.<.+.<.i.g.j.N.V.j.G.j.<.p.C.j.1.>.o.7.C.j.7.o.<.<.<.<.<.N.j.j.3.a.Y.Y.Y.#X`..X/./.&X`.!.`.A.<.r.j.r.j.G.A.r.r.V.!.`.#X&X.X&X#X/.!.#X;X.X!.!..X!.d.p.<.} <.r.j.A./.A.p.j.d.c.G.!.j.j.Y.!.Y.j.r.7.3.<.r.V.A.7.<.p.A.j.<.3.r.r.<.*.c./.V.d.j.j.A.p.3.j.j.j.A.c.c.j.c.c.r.3.j.j.c.r.*.<.j.j.r.j.j.G.!.V.V.p.j.3.r.7.p.V.!.!..X!.<.} 3.<.j.!.G.c.j.A.G.j.d.j.j.G.V.A.A.j.j.j.7.7.<.r.j.j.A.c.<.<.! +.<.<.r.j./.`.V.<.] W 1.j.p.7.( <.r.G.Y.3.j.A.V.c.d.j.d.7.V.Y.j.d...d./..X!.!.j.`.#X`.j.j..X!./.#XG.7.j.G.V.!.!.Y.j.7.<.7.V.d.c.c.G.Y.j.d.j.7.p.A.Y.j.( <.7.<.j.!.!.V.r.j.A.<.p.r.<.<.R <.A.j.V.G.V.!.G.<.j.G.Y.Y.#X`.p.<.<.j.j.j./.#X!..X!.A.p.V.7...<...*.} ! J J +.j.V.`.G.p.j./.`./.#X&X`.!.j.j.G.!.!.#XA.d.d.G.`..X`.!.!.j.j.j.p.G.`.A.Y.!./.`.Y.3.+.3.<.<.<.! ! <.*.+.7.<.+.} ..p.j.p.7.<.7.r.p.d.<.3.p.j.j.j.p.7.+.3.7.p.V.r.p.V.3.*.p.d.p.7.+.R ! 7.c.j.p.3.d.r.r.+.d.3.d.V.7.3.} } <.A.G.j.p.d.G./.,X#Xj.r.Y.!.c.p.} ( 3.<.<.j.7...r.G.G.V.j.3.7.3.r.<.R ! *.d.p.<.( p.V.V.<.+.V.#X).#X;X#X;X5X!.#X;X!.G.G.!.!.!.!.!.Y.`.;X&XA.7.j.7.! ! 3.7.d.j.<.( <.r.7.r.<.! N | j.j.0.<.*.j.`.!./.Y.!.c.Y.!.!.j.7.V.V.G.G.<.r.!.r.<.<.<.j.+.} <.r.!.G.V.+.D ..*.C ! ..} r.p.} ( r.<.<.+.7.7.<.r.! J n r.;X3.! *.+.} <.<.<.<...! ( +.} <.+.! <.r.<.V.7.( j.c.<.*.} R <.<.<.*.<.j.A.Y..X&X!.Y./.!.V.p.7.p.7.+.} <.} *...<.7...j.c.Y.c.r.p.3.*.<.j.7.! ..r.3.3...*.3.<.j.A.c.j.j.7.<.j.3.+.*.+...( ..<.3.<.<.<.<.<.3.d.j.",
"l.j.G.l.g.G.).`.7.+.D.#X).`.!.L.!.!.C.<.<.G./.!.!.G.j.5.i.a.5.g.j.0.<.} ! <.D.N.<.>.<.<.i.p.<.j.p.d.r.j.A.V.A.~.!././..X.XA.j.!.!.3.p.j.j.G.G.d.j.d.j.V.!.#X&X.X.X.X.X.X`..X.X/.;X`.j.+.<.<.+.<.r.c.!./.r...3.7.j.j.c.j.p.d.j.j.3.3.7.7.3.3.p.d.<...7.c.7...<.3.j.p.r.G./.A.j.j.d.j.7.<.r.7.7.7.r.<.r.j.r.<.p.V.r.j.r.<.j.V.c.c.j.j.j.A.j.j.r.j.j.j.d.c.!./..X;X!.j.<.3.3.c.#X!.V.j.V.Y.j.7.r.p.j.d.j.Y.G.V.j.r.c.d.d.j.j.V.V.r.p.~ <.*.! 1.j.j.!.G.j.j.<.j.G.!.7.<.c.!.!.j.( <.j.7.j.j.r.j.j.j.A.G.Y.p.c.!..XY.7.d.!.!.#X#XG.j.A.A.!.Y.j.A.`.!.G.G.!.Y.j.3.r.c.c.A.Y.`./.c.j.A.j.7.c.#X/.3.<.r.<.7.V.!.j.*.+.r.+.+.7.j.j...<.j.!.A.j.d.!./.d.j.!.<.! <.p.<.<.3.<.c.V./.&X#X;X.X#X`.!...J 3.c.!.A.+.C D *.d.j.G.V.j.j.c.V.!.`./.A.p.+.<.G.!.A.Y.A.G./.#X/.!.`.`.!.A.A.c.j.!.`.Y.Y.G.!.#X`.p.! ! <.<.*.U D } *.*.+.*.3.p.r.p.p.<.<.<.p.c.p...} 7.j.V.j.d.p.j.p.7.<.<.j.r.r.A.d.<.A.j.j.c.c.7.*.<.j.c.V.j.j.7.j.d..XV.d.j.p.d...( <.c.V.j.r.r.j.j.!.`.!.j.j.r.<.7.( R *.<.r.Y.G.c.A.Y.Y.G.j.3.*.<.j.<.D ! 3.j.j.p.j.j.c.j.<.3.!..X!.`.`.`.`.;X!.;X#X!.`.`.!.G.V.!.G.Y.`.`.`.!.j.j.j.<.<.d.p.p.p.<.! +.+.*.<.<.( D +.a.j.c.c.d.j.A.Y.!.G.!.A.G.A.j.7.<.V.c.r.7...<.j.d.d.<.+.V.A.V.} <.!.V.r.( J ..+.! } ( ( 7.r.( ( <.( U D ( <.3.! N D U <.A.*.U U ( *.<.*.<.r.+.( ..+.! +.*.} c.3.( 3.<.( 7.r.*.U ( ! <.<.3.r.r.G.G.G.!.A.d.V.!.G.j.<.7.j.j.7.<.<...<...<.r.*.j.c.c.j.r.r.7.3.d.j.d.} +.<.<.3.*.*.<.*.r.j.7.3.p.j.<.j.<.<.3.3.<.3.+.+.7.j.d.3.<.3.<.<.<.",
"+X+X;X`.j.g.j.V.>.Y >.1.<.j.j.7.a.i.l.j.!.#X!.V.G.j.<.] ~ <.5.0.g.g.5.#.! #.g.7.o.5.j.j.D.V.<.>.<.0.c.G.c.j.l.Y.!.Y.!.&X$Xj.p.!./.p.r.p.p.V.A.d.j.A.Y.Y./..X!.V././..X.X/./.`.!.Y.!.j.+.<.<.+.<.j.j.!.!...J <.j.j.p.j.j.j.j.j.V.7.r.p.j.d.<.<.3.r.} *.p.<.} <.r.c.j.j.A.V.j.p.3.3.p.r.p.p.r.j.j.j.<.j.V.3.<.p.j.c.Y.j.r.V.Y.Y.`.Y.c.j.A.j.c.r.r.<.7.j.V.!.G.V.V.A.c.p.7.r.A..XY.G.c.V.Y.Y.c.d.r.p.7.d.Y.!.V.j.r.c.p.p.d.d.A.!.G.j.1.L.G.<.3.p.3.0.p.g.V.g.j.p.p.+.*.G.Y.j.3.! ..p.3.r.3.*.3.7.<.3.j.G.j.j.A.!.j.! 7.A.V.!.`.!.c.A.V.!./.A.G.!.G.j.j.!..X!.A.!.!.!.V.j.G.A.j.j.c.G.d.j././.G.r.7.3.<.j.!.Y.r.} ! <.! <.!.!.r.p.7.7.3.7.<.j.A.r.d.#Xj.+.R R 3.A.Y.c./.Y.A./.&X;X!./.#X/.3.<.!.;X&XV.*.! ..3.<.+.<.7.r.<.*.3.G.!.Y.d.3.<.p.V.j.c.`.!.!..X.X!.!.`.!.`./.!.!.!.`.#X/.!.Y.!..X&XY.7.+.7.j.7.+.} } ..( ..<.d.V.j.r.3.3.7.*.*.p.<.! <.!.c.A.j.p.r.G.V.3.+.*.j.j.j.G.V.r.d.d.j.V.c.7.+.+.<.3.3.<.r.<.r.j.!.j.<.<.p.j.<.+.p.V.c.j.7.7.p.3.*.r.p.<.<.+.*.3...R ....<.j.V.A..X/.!.j.7.<...<.p.*.C +.j.Z.p.3.j.j.j.d.p.V.#X`.!.V.7.p.!.;XG.V.!.!.#X;X`.V.j.^.Y.Y./.!.!.Y.j.<.<.*.<.7.3.<.*...+.....} } *.*.+.r.j.L.!.C.j.d.c.!.!.G.!.!.A.j.p.<.! p.c.j.j.<.<.<.r.c.p.+.j.G.Y.+.r.Y...C N N N J R R ! ( <.<.! ( <.! J J ! ..7.<.! ( <.7.7.*.R ..7.d.3...<.j.*.( +.+.! ....( c.r.U ! ! ! ..*.<.! <.<.<.<.r.7.} p.<.3.d.<.<.j.Y.!.S.j.j.!.!.j.<.*.( +.! +.7.*.p.A.j.p.r.7.<.3.r.p.p.} ..3.r.j.d.3.<.+.3.7.} } 3.p.<.d.<.<.p.j.d.<.*.<.d.j.r.7.p.<.*.*.3.",
"!.!.).G.5.~ ! o.} U ! ! +.V.D.0.j.0.N.`.:X!.0.<.W.j.a.<.] <.5.<.i.j.0.>.! ] <.+.~ j.W.V.!.G.<.| ( <.A.!.j.d.j.Y.!.G.Y.&X;XA.j./.Y.7.3.<.*.3.d.j.c..X&X.X&X#XG.j.`.!./..X!.!.!.j.d.!.`.V.j.d.<.r.j.p.A.Y...U 3.j.p.r.r.r.j.A.j.c.j.j.j.c.c.7.<.j.j.+.*.7.3.7.j.d.c.j.j.A.j.p.j.p.3.r.d.d.3.3.j.c.p.<.r.c.7.<.p.j.p.j.d.p.j.A.Y.!.Y.A.j.V.c.A.r.*.d.A.!.Y.!.!.!.A.V.A.j.d.d.p.j.r.j.V.V.c.G.A.j.7.r.7.d.A.!.G.j.p.j.d.j.p.3.d.A.V.d.d.[.:X`.V.r.3.j.i.7.j.j.j.<.! +.<.c.d.r.c.d.3.d.j.r.*.<.<.*.<.r.j.A.j.j.c.!.7.n } 7.j.V.p.j.!.V.V.!./.!.A.G.Y.A.A.!..XY.G./.!.!.c.p.j.c.j.j.r.c.A.j.r.r./.c.<.<.<.c.`.&X/.j.<.j.! <.~.!.d.d.*.( <.j.j.j.d.<.<.3.7.j.<...A.&X`.!.;X#X`.;X,X#XV.A.Y.j.<.j.`.&X!.j.<.*.<.<...! +.+.*.( ! +.j.A.V.<.7.j.V.j.r.j.#X/.Y.!.!.A.!./.G.Y.!.!.Y.!.!.G.V.A.Y.Y.G.!.Y.d...r.j.p.j.j.<...U ! } <.3.<.<.<.p.A.<.! ..+.( j.#XA.G.G.V.j.c.V.3.! +.j.c.j.j.j.r.j.A.!.Y.d.r.3.r.+.<.+.} <.} 7.V.A.c.3.<.r.r.*.+.j.c.j.7.<.<.7.<.*.*.<.*.<.<.....<...<...} 3.p.j.`.&X!.c.r.*.} ( d.p...r.V.V.3.+.+.<.p.j.c.!.!.G.#XV.} ! 7.G.7.7.V.V.`.;X`.V.V.G./.Y.!./.Y.j.3.} +.<.3.7.7.*.( ! <...} } ! ! ( +.j.0.c.C.j.p.3.r.!.Y.A.!.G.j.d.j.A.<.<.p.j.j.<.! ..*.j.j.r.3.<.7.! <.r.D C C v N ! ! ! +.+...+.} ( *.! ! } ! ..3.r.! ! 3.d.7.+.! <.r.p.<.} <.j.+.( *.*.} <.+.} j.A.+.} *.<.<.<.p...7.3.7.j.Y.V.....! ! <.<.3.c.!.!.G.G.!.!.!.j.+.3.+.+.! *.d.3.7.j.p.7.7.7.3.<.+.<.3.} ..r.j.A.A.j.p.r.d.3.} +.3.<.<.j.3.<.<.7.3...+.3.j.p.<.7.j.p.7.<.7.",
"`.!.V.j.j.<.>.>.! ! ! ~ 5.V.j.j.V.p.j.#X=Xj.C.j.~.l.g.7.>.<.p.#.o.<.<.o.! } <.<.i.).+XV.C.N.<.+.! ! 0.j.p.j.V.!.!.!.!.`..XG.V./.j.<.3.3.*.+.<.j.!.;X;X.X;X;X!.V..X!./.`.!.!.A.j.j.!..XY.G.j.<.r.!.j.`.;XG.j.c.j.d.j.j.3.p.A.V.c.j.j.j.V.A.d.r.c.j.r.p.j.j.j.j.<.p.<.r.A.c.d.j.V.d.r.7.p.7.p.A.A.j.r.7.d.p.<.<.r.3.7.j.V.c.V.V.j.p.j.j.j.p.A.j.<.V.G.V.p.r.c.!.!.V.V.j.c.j.<.<.7.d.A.G.c.V.c.d.d.!.!.!.!.!.A.r.+.r.p.j.p.*.*.3.<.d.j.j.G.;X`.p.7.g.<.~ +.} <.<.#.3.3.d.3.7.Y.A.d.<.7.<.*.3.r.7.p.<.<.3.7.j.A.Y.<.D +.p.!./.c.c..Xj.j.c.!.#X!.!..X#X.X/.!.V.A./.Y.A.G.Y.`..X`.Y.<.+.A./.Y.c..Xr.J ..<.!.;X;X;X`.!.j.! 7.G.j.7.d.+.} <.d.j.p.r.<...p.7.A.V.p.G.!.Y.#X;X`.!.!.!..XG.V.G.j.<.p.Y.Y.A.G.r.<.+.<.<...( +.+...} ..*.7.c.p.j.V.!.!.G.G.!./.!././.A.A.!./.!..X/.!./.G.p.7.3.j.A.V.c.c.r...p.j.<.7.V.V.p.} ..+.*.*.*.<.<.r.r.<.( } +.<.A.`.!.!./..XA.p.j.7.7.j.j.j.V.c.c.V.j.V.Y.j.3.7.<.*.<.r.r.<.+.U <.A.c.Y.j.<.r.3.*.<.d.j.p.<.+.+.3.<.<.*.<.<.*.*.! R } ..<.*.+.3.3.<.#X#Xj.d.p.*.+.! j.A.7.<.<.3.+.( +.j.!.!./.!.A.V.#X#XV.p.p.G.V.`.G.p.V.`.!.!.;X#X#X!.!.!.A.j.3.+.! <.<.<.3.<...*.+.! ! <.<.+.*.r.j.+.<.p.d.d.#.! <.<.7.j.G.A.Y.#X.Xj.<...*.<.....<.*.<.r.j.<.! } } <.7.p.!.3.! <.<.....+.( ..<.3.<.+.! ( +.} *.3.r.! ! <.d.3.! R ! *.<.<.*.3.j.3.7.7.*.( ..! ! <.j.*...+.*.<.+...<.r.d.d.d.j.p.( <.} U +.j.j.c.V.G.!.#X#X#X#X!.j.j.<.+.} <.j.r.<.3.<.<.<.r.j.3.( ..<.*.+.7.d.j.A.j.r.j.j.*.+.<.<.+.<.p.<.<.3.r.3.*.<.3.d.j.d.p.d.j.r.( R ",
"!.l.<.<.j.N.j.7.+.+.} } <.#.>.j.G.i.j.!.j.<.+XV.~.p.+.>.+.<.g.<.} <.7.g.i.<.<.| j.`.).V.D.C.7.#.! C ! } <.j.A.!.~.`.!.G.V.j.j.!.!.j.j.d.r.r.d.A..X#X.X`.&X#X!.j.G.G.Y.!.!.!.!.Y.A.V.p.<.j.j.7.d.p.7.A.!.G.Y.j...*.p.r.( ( <.7.d.p.p.j.V.V.r.<.7.3.r.j.V.A.V.j.j.<.<.3.A.A.d.j.j.j.r.<.7.d.j.G.c.j.j.3.3.d.p.7.j.j.j.Y.!.A.Y.Y.d.3.c.c.j.3.c.!.V./.Y.V.V.V.G.!.`.V.j.j.A.A.7.r.A.V.j.d.j.Y.A.j.c.!.`.`.!./.!.j.<.*.3.j.j.<.*.<.<.1.a.! N ..0.*.#.j.<.<.5.! #.g.l.r.3.r.<.<.r.3.<.<.<.<.p.3.<.3.<.<...( } r.7.+.N J <.p.j.c.A.V.!.c.V.G.#X,X/.j.j.G.Y.A.Y.A.V.Y.d.p.!.#X;X;X#X!.d.j.!.`./.Y.G.r.<.p.<.G.#X#X#X!.`.3.! d.V.r.<.j.3.p.7.d.j.r.d.d.3.j.r.j.7.*.j.#X;X.X.Xc.!.;X.X/.j.c.G.c.7.V.!.j.r.j.3.<.+.<.r.<.! *.*.<.7...( 7.!.&X!.G.!././.!./.!.!.`.`.G.V.!./.!./.!.Y.!.j.+.! <.7.M.Y.A.j.j.d.j.c.<.! 7.Y.A.3.+.<.3.7.r.7.3.r.! *.*.+...<.A.!./.!.`.;X!.7.j.r.V.V.<.<.j.j.c.G.j.j.!.j.p.j.r.3.<.<.p.r.<.( r.c.7.j.r.+.<.<.<.<.j.Y.V.j.d.r.j.j.d.*.<.+...*.} ( +.+.<.<.3.3.*.} `.V.} ..7.7.<.( *.j.<.} } <.<.*.j.!.#X.X.X/.V.A.G.#X!.!.!.`.j.j.V.p.j.!.!.!.;X#X&X&X.X!.V.p.7.*.! *.<...*...} +.<.<.<.3.<.( <.Y.C.7.3.r.r.0.*.~ 3.7.d.j.!.G.A.`.`.A.3.<.7.7.p.j.d.3.} ! <.*.( ! <.c.Y.`.&Xj.r.<.N J <.3.<.<...! r.+.( ..<...3.3.+.J J ( <.7.<.7...<.<.<.+.<.j.j.a.<.! ! ( ..3.V.Y.j.p.<...3.r.<.*.3.j.j.3...3.<.7.*.U ( d.j.r.3.j.!.!.G.G.!.!.G.j.<...} <.d.7.+.7.r.<.<.7.d.<.R ! <.<.*.<.<.3.j.r.7.j.p...<.r.7.3.3.7.<.r.d.j.7.3.7.d.j.j.j.p.r.c.j.<.+.",
"j.j.#.+.g.C.G.V.j.p.<.o.o.o.<.l.).N.C.N.<.W j.7.[.p.o.<.>.>.a.a.i.j.C.~.!.g.<.~ 5.g.p.g.!.).l.<.! J ! R | a.j.Y.!.!.V.p.r.r.j.Y..X!.!.V.V.Y.!.`./.!.`..X!.c.p.3.j.j.d.j.!.!.!./.Y.j.<.+.d.c.r.j.<.+.d.V.V.c.3.! <.7.r.<.<.<.*.p.p.r.j.A.c.r.<.*.j.c.c.V.A.p.<.7.7.r.r.c.G.j.j.j.j.r.<.7.j.d.p.<.j.j.p.3.p.r.<.r.p.d.V.A.V.!.`.A.d.A.A.G.r.j.!.!..XA.c.!.#X&X#X/.!.Y.V.A.j.7.d.V.A.r.<.r.c.V.c.V.!././.!.!.Y.j.7.7.j.Y.!.j.d.p.<.j.V.<.C J <.j.d.j.+.1.V.o.! <.<.p.p.d.3.<.<.+.<.3.*.<.j.p.<.p.d.<...} ..j.d.+.! ..<.p.r.3.c.A..X!.!..X;X`.j.<.+.3.7.<.j.c.r.r.+.j./.&X#X`././.Y..X.X#X#X#XV.c.V.V.<.j.!.`.#XY.V.r...j.A.c.j.A.A.V.p.p.p.*.<.3.<.( *.3.<.( 7./..X!.G.J *./.!.A.3.V.d.r.<.c.!.7.d.j.p.3...( <.<.+.<.+.<.<.+.<.c.!.&XY.j.j.c.j.A./.!.!.!.G.Y.Y.Y.!.!./.!.!.`.Y.r.<.j.p.j.V.j.d.j.j.d.j.<.! *.d.3.*.! ( ..<.7.<.7.j.<.<.<.+...<.r.c./.!.Y.Y.V.r.j.7.G.A.3.d.A.c.!.!.p.r.Y.G.j.j.7.p.j.d.j.j.p...<.+.+.d.d.+.*.+.7.7.c.!.V.j.c.j.d.j.G.7.p.3.*.<.<.<.j.p.r.d.r.<.<.7.A.j.<.+.j.!.7.! J <...} 3.A.G.A.V.j.!.!.!.!.c.p.p.!.j.V.`.G.N r U } 7.!.#X#X;X`.!..X`..XY.<.*.<.+.d.j.7.*.( ! ! *.7.<.+.} ! <./.!.Y.j.a.3.1.a.d.V.c.V.j.!.Y.c.!.!.G.j.Y.Y.A.!.Y.V.r.*.U R ! } J R j.`.A...+.!.( R ! <.} } *.! } j.*.+.<.<.+.p.7.<.! R ! ! +.p.p.r.j.<.( ! *.j.V.c.7.+...} <.c./..X`.Y.7...p.A.r.*.<.j.G.j.<.j.j.<.+.! ..r.p.3.} p.!.!.j.j.j.j.V.p...} } ..3.<...<.r.<.<.7.3.} R ( <.<.<.3.<.*.p.d.j.V.p.<.7.p.j.G.V.j.3.p.d.p.*.<.7.j.c.j.3.<.7.j.j.7.p.",
"C.~.j.<.1.p.j.l.j.j.5.+.<.a.C.V.!.D.V.0.7.D } j.G.7.#.7.<.+.j.W.V.C.D.`.).j.7.<.7.<.~ <.D.`.l.} ~ ! #.~ ( <.0.A.!.Y.p.<.3.p.j.Y.G.!..X!.!.`././.Y.G././.j.*.*.<.j.d.<.<.G.!.V.Y.j.j.7.3.j.p.*.3.<...d.!.G.7.! R d.7.r.j.c.<.! <.p.3.j.Y.A.j.r.<.j.j.j.G.!.d.+.3.<.3.<.7.j.j.j.j.3.7.7.j.V.j.p.3.7.j.j.j.c.c.j.j.<.p.j.c.V.!.!.c.j.c.j.Y.j.c.!.!.Y.r.*.3.G.;X;X.XG.!.A.j.d.r.j.j.V.j.d.p.p.d.V.Y.Y.Y.A.A.Y.V.j.j.j.A.`.&X!.!.G.j.V.j.r.*...j./.C.<.m ! V.<.] | ~ 7.j.p.<.<.<.<.3.j.p.<.r.r.( } r.p.<.3.7.!.!.j.j.7.} <.7.<.j.j.`.;X/.#X`.7.! ..*.r.<.( r.j.r.d.p.Y.;X;X&X#X`..X.X;X;X&X.X;X!.`.!.r.*.j.G./.;X!.j.V.<.j.G.!.!./.`.Y.r.7.j.7.7.p.<.+.<.r.G.c.d.!..X#X&XR +.&XY.j.<.G.r.7.<.j.d.<.!..XA.j.*.! ..+...3.+.....+.j.!.G.c.7.3.j.d.7.j.!.!.`.!.j.A.!.!.!.A.A.G.!.#X`.A.j.j.d.j.c.c.V.A.c.<.3.r.3.p.7.! ( *...} +.+.( <.A.j.*...+.<.7.<.d.!.Y.j.7.d.p.V.<.p.j.d.Y.Y.j.!.Y.c.7.V.Y.c.p.*.3.3.3.j.j.3.( <.+.( j.G.p.7.3.A.G.r.c.3.*.7.<.+.<.7.<.c.j.<.<.*.<.c.d.7.p.<.! <.!.!.!.`.<.j.;Xd.! C ..R ! p.`..X.X!.p.A././..XA.<.j.#X!.!.#XG.N w ! p.j.!.#X`.`.#Xj.V.!.;X`.<.( <.! p.A.j.3...( } <.d.<...<.7.r.V.!.Y.d.r.0.p.A.L.!.Y.V.p.!.Y.j.A.j.j.A.`.Y.V.`./.A.r.7...R R +.D N 3.#XA.k C ;X( ! ! +.! } +.R r.j.*.+.+.( ( j.p.<.<.! *.} +.A.r.j.A.3.} <.d.A.Y.d.<.+.+.! +.j.Y.!.`./.d...p.V.<.! ! <.c.G.j.A.j.<.<.<.p.j.j.d...<.G.V.<.7.7.<.p.+.U R ! R ( } ! U ..+.<.r.3.....3.7.<.<.d.7.+.<.d.j.j.<.<.<.<.j.A.Y.A.p.j.d.d.<.*.*.7.j.p.*...<.j.j.<.7.",
"#X&Xd.} 3.7.} ( ..<.*.....<.c.!./.G.r.7.j.c.V./.W.7.+.! F #.G.!.W.!.`.+XL.j.l.N.1.*.! *.j.#XV.! J } 3.<.! ! 3.j.G.c.r.r.p.j.Y.A.j.c.!.Y.!.`.!.!.G.!.!.W.j.} o.j.j.<.} +.j.!.Y.j.<.<.*.d.c.j.d.} ( +.j.!.7.( R U 3.r.p.r.3.7.r.<.<.*.<.j.c.G.!.j.A.j.j.G.A.j.<...<.7.r.3.<.7.d.j.7.<.7.V.A.c.c.3.<.L.!.G.G.V.D.!.d.V.j.j.c.Y./.G.p.j.A.!.V.r.j.!.!.l.p.R ..Y.,X;XD.j.j.V.8.C.V.j.j.Y.!.G.V.V.V.A.G.Y.!.G.A.Y.G.V.!.;X.X#X.X!.!.A.V.V.j.r.<.j.!.j.! D #.j.p.<.<.<.o.<.<.<.<.3.7.7.7.V.d.3.<.<.p.j.j.6.p.c.V.j.7.j.V.j.7.p.<.r.c..X/.#X`.Y.<.<.7.j.j.j.p.3.G.p.r.!.;X;X`.!.&X.X/.&X;X;X&X;X;X.X;X#X!.Y.G.G.!./.`.!.!.c.V.!.!.#X;X/.A.3.7.j.j.G.r.p.j.c.!.#X!.G.!..X#XY.j.!.!./.7.J <.3.3.7.A.7.d.G.#X!.G.A.<.( J ( 7.3.<.d.j.d.<.G.!.3.j.c.<.7.A.G.j.c.!.V.c.G.Y./.!.Y.!.!.!.`.!.r.c.!.G.d.j.G.A.G.p.r.c.j.r.} ( *...( d.A.V.*.( <.<.7.r.3.} +.j.j.Y.!.c.<.3.j.A.c.A.G.j.p.j.V.j.j.V.c.!.V.!.!.r.<.4.+.7.7.<.<.d.3.<.A.j.p.j.A.!..Xr.r.j.<.r.*.! <.3.r.c.r.<.p.+.! <.<.+.j.p.! <././.!..XG.Y./.r...D | } 1.<.G.;X!.G.j.A.#X&X!.V.!.;X!.`.;X#XV.! p.!.G.`.;X!.#X;X!.<.+.7.Y.Y.<.7.<.U +.!.j.3.j.3.3.V.A.!.Y.j.!.M.c.d.c.j.3.+.j.Y.j.Y.Y.Y.c.d.A.!.j.<.} +.d.A.A.Y.`./.<.! ..} ! ! +.! <.!..X3.3.A.<.D U ! ..+.! ! d.p.! +.! D ..+.! j.*.! ! ( r.c.+.} j.<.( j.G.j.!.j.<.+.} ! <.Y.!.Y.Y.&X!.<.<.7.7.*.+.3.V.!.G.j.d.*.r.p.p.c.c.r.<.p.!.V.+.7.Y.j.*...U +.! ( 3.} ..*.( *.<.<.+.+.j.G.j.+.7.!.c.<.<.<.7.3.j.j.3.3.j.c.j.p.3.d.V.j.<.r.d.d.p.*.U ! <.d.a.*.( ",
".X`.7.! 3.r.+.( +.7.<.} ! *.c.`.j.p.<.j.`.#X`.#X!.l.j.j.0.j.`.[.L.G.!.G.j.a.l.G.~ *.3.r.7./.!.<.! ..<.+.! ( <.7.p.p.p.p.3.3.A./.A.A.!.!.!.Y.C.A.W.!.j.<.} ! #.j.j.<.+.3.c.A.c.j.3.<...<.p.j.V.d.r.<.V./.<.! ! ! <.7.d.3.+.<.3.<.<.<.<.p.d.p.j.s.j.7.r.j.c.j.d.3.7.7.6.3.3.7.r.r.3.p.j.c.c.G.G.<.i.G.W.L.G.N.N.V.!.!.V.j.l.G.!.c.j.G.!.!.d.*.<.p.c.j.A.<.! ^ j.:X~.g.<.5.a.V.l.G.c.!.!.V.j.c.V.j.A.A.c.j.c.Y.c.<.!.#X`.!.!.A.!..X`.L.c.c.7.<.j.j.| ! <.j.1.o.<.#.3.r.j.d.3.<.<.3.j.c.p.j.c.c.!.A.j.V.!.G.j.p.+.! j.!.A.j.p.Y./.;X#XY.Y.`.V.A.j.<.p.V.A.r.7.<.j.;X/.Y./.;X#X!.!.!.A.!./.Y.!.!..XG.!.`.`./.!././.!..X.X`.G.G..X#X!.d.3.7.j.c.j...<.!.!.!.!.`.`.`..X!.p.r.V.j.!.G.<...} <.7.Y.j.+.!.Y.j.j.!.j.<.<.7.p.<...7.V.!.j.V.G.d.c.j.*.<.j.V.d.j.!.G.j.V.A.!.!.Y.Y.Y.!.!.Y.j././.j.<.d.d.<.<.<.<.c.A.V.p.r.7.<.<.c.!.!.7...*.<.p.p.7.<.<.c.j.!..XY.7.3.j.j.j.A.G.j.j.A.A.p.3.j.V.!.j.V.!.d.<.j.d.j.r.7.<.j.j.*.7.j.V.j.c./.#Xj.3.r.p.7.} } } r.p.A.j.7.r.<.+.*.! R V.Y.7.<.!.;X!.!.Y.A.j.<.<.<.j.d.r.+.j.;X`.Y.!.G.!.!.!.A.<.j.!.;X;X#X#X!.`.!.!.`.`.!.`.;X!.p.<.<.<.7.<.c.p.D +.Y.j.<.!..Xc.!./.c.!.Y.c.c.A.p.j.j.c.j.c.V.V.c.G.G.j.j.Y.!.A.p.+.( 3.V.!.!.!./.r...+.! N C ! } ! <.Y.Y.j.d...*.<.<.} ! D ( c.<.C R ! J ! ( } !.j.} ( ..<.d.j...3.p.j.j.7.r.Y.!.j.<.! ..Y.;X!.d.<.c.G.3.} } <.<.<.r.j.V.c.j.d.r.j.d.<.<.<.3.3.7.j.3.+.d.!.G.d.7.} ..R ! <.*.*.J U ! } ....*.j.G.j.*.r.!.V.3.<.*.r.p.d.p.7.j.j.j.j.j.d.7.d.p.+.d.p.3.<.+.! ! *.3.j.r.<.",
";X#Xd.<.j.c.3.<.<.7.+.( } <.p.j.7.<.<.V.;X;X`.`.`.~.`.`.~.`.$X#X#X~.!.!.!.`.`.!.3.c.~.V.#.G./.7.+.+.+.} ! ( <.7.j.j.j.j.p.r.G.`./.!.!.[.!.j.d.j.!.!.a.+.] } 1.j.G.p.7.V.Y.j.d.j.<.<...*.<.r.j.j.3.3.Y.`.<.+.3...<.r.j.7.<.3.d.d.3.r.7.d.j.7.7.p.!.A.c.V.A.V.j.3.p.3.3.p.j.d.r.7.j.Y.!.G.j.A.G.3.a.j.j.V.V.j.j.j.!..X!.C.j.j.V.j.j.A.A.j.<.+.p.V.!.V.C.j.<.Y ! r.=X!.g.<.j.j.j.W.j.!.!.j.p.V.Y.V.j.Y.Y.j.p.j.c.p.G.&X;X#X!.c.V.`.;X/.G.c.r.<.r.r.1.<.5.j.7.+.<.>.p.r.j.j.<.*.7.d.c.p.<.r.p.p.V.p.*.p.A.p.<.j.j.<.G././.Y.V./.;X;X;Xp.r.!.A.Y.j.! r.G.!.j.<.<.j./.G.j.c.Y././.j.} *.j.&XG.!.!..Xc.!.`.!.!.G.!.!.!.`.!.#X/.!..X#X!.p.j.j.d.j.j...j..X!.j.V.!.!.!.&X/.j.G.G...7.!.!.r.<.d.j./.Y.R V.c.7.r.Y.d.3.3.p.*.( ..p.G.`.A.j.d.j.A.j.p.p.d.c.j.V.`./.V.V.Y./.V.V.V.A.G.V.j.V.`.!.<.! 7.r.<.r.<...j.Y./.!.Y.d.( d.`.V.7.*.<.<.7.G.A.p.3.2.d.j.A..X!.r.d.V.A.A.j.V.j.j.!.!.c.r.d.j.V.<.7.d.7.<.V.V.j.<.<.<.c..X7.+.3.G.Y.Y.!.j.j.+.<.V.7.! <.} *.<.j.V.d.p.r.<.7.U R A.!.7.*..X`.d.r.G.Y.d.r.c.j.!.j.<.! 7.!.!.`.&XY.V.j.d.j.+.U <.G.#X!.#X#X!.G.G.!.!.!.!.!.V.!.V.3.( ( *.j.<.D R r.j.r.G.!.<.A.,XG.Y.c.<.p.p.j.G.V.j.r.c.j.p.r.A.!.Y.!.`./.!.Y.r...3.Y..X!.c.A.7.+.+.} U ! <.<.+.( +.} C U <.j.A.j...J C ..c.<.J ! ..R D ! r.;X!.<.} 3.*.( <.} <.j.j.<.<.7.<.*...! U ! 3.V.!.j.r.V./.A.<.} *.*.7.d.j.j.c.j.p.d.j.7.<.*.<.r.<.7.<.( ..r.j.j.r.j.<.<.} +.7.<.*.+.<.<.<.p.<.} 7.j.<.} 3.V.c.p.<.+.p.j.j.r.7.j.j.3.3.j.j.3.p.j.*.7.r.<.*.*.*.<.3.3.j.d.d.",
"/./.A.c.!.!.d.<.G.j.*...*.+.*.*.<.<.<.c.#X&X.X#X#X$X$X#X+X`.`.[.$X#X+X#X$X;X#X).!./..XY.r././.<.<.*...( ! ! +.3.V.c.j.G.G.V.c.7.1.1.1.j.c.r.d.j.N.V.<.>.<.7.g.p.7.*.7.Y.!.c.j.V.p.d.3.<.<.<.p.j.<.r.A.j.+.p.A.r.d.7.r.r.r.j.V.G.j.p.p.j.j.3.*.+.A.c.j.j.c.V.j.3.p.7.3.j.c.j.d.d.c.!.`.!.V.G.`.!.G.C.j.C.V.j.V.j.G./..X!.C.c.c.j.j.A.c.d.3.3.V.!.~.l.p.V..XA.| D o.a.W.j.!.V.j.V.j.V.c.7.<.r.j.p.d.c.j.p.j.G./.!.c.G.Y.!.#X!.j.c.`..XG.p.0.j.A.a.<.<.o.7.7.>.1.| ..} d.d.7.<.3.<.7.3.*.<.+.<.G.A.7.r.p.+.} j.!.!./.!.`.`.Y.`.&X!.!.p.j..XV.c.j.3.!.&X&X`.!.!..X`.A.!.V.d.r.} c a z ! /.V.!.!.#XY.c.!.!..X#X#XA.j.p.N +.V.Y.#X&Xc.*.j.p.<.<.d.j.&X;X/.V.A.A.3.3.!.c.p.!.!.<...c.&XY.j.j.!.!./.+.7.z.d.j.c.7.r.*.7.+.+.r.j.j.j.d.c.V.Y.G.c.V.j.r.j.j.c.!.!.V.c.Y.!.c.G.Y.Y.G.j.j.!./.!.p.3.V.j.<.j.A.7.r.p.G.!.V.3.( d./.j.<.<.3.<.r.!.!.d.7.3.p.V.j.!.V.r.c.!.!.!.j.j.p.d.G.!.!.A.p.p.d.<.<.<.p.c.j.j.d.<.3.<.p.j.d.+.} d.G.c.7.! ..( } c.p.! <.+.! ! <.c.j.3.3.+.<.D } !.`.j.+./.V.3.<.G./.Y.G.A.A.!.3.+.! <.c.!././.!./.Y.7.j./.+.<.j.;X`.!.!.j.j.j.V.G.!.!.j.7.c.j.*.! ! } d.<.<.<.d.Y.!.G.j.c.#X;XG.A.V.7.<.+.!.j.A.c.<.j.<.} <.d.!././..X.X!./.j.*.<.!.&X!.j.<.} R ! ....*.d.j.p...! ( U U +.V.!.A.3...} *.7.} } r.j.<.! *.G.j.c...! r.3.( +.<.d.Y.j...j.!.7.*...! ! ( ( 3.!.!.!..X;X&X!.j.<...7.j.c.j.c.j.j.r.r.3.7.<.*.p.<.<...! <.3.p.c.j.r.<.*.7.j.c.j.r.p.0.<.3.c.7.( *.7.*.} <.p.j.j.p.( <.d.j.3.*.r.j.3.+.r.c.7.j.A.7.<.7.7.<...! ! <.d.d.d.c.",
"!./.!.!..X`.G.c.;X!.7.<.*.! ..3.r.<.<.j.`.#X.X&X#X=X*X`.`.~.!.`.[.=X=X~.G.V.!.[..X!.c.c.j.$X$Xc.d.3.<.<.*.+.*.<.j.G.Y.!.`./.j.! J ! ! <.7.3.j.j.7.<.! +.i.p.j.a...+.p.!.!.!.!.!.A.V.j.<.<.<.3.j.A.V.7.U J <.A.G.A.7.r.j.j.j.V.!.!.j.c.A.j.<.*.} r.r.7.7.j.A.V.j.j.r.7.d.d.r.p.j.c./..X!.c.A.#X;X+X!.V.l.j.p.j.V.!.!.!.Y.!.!.A.j.p.V.V.V.c.j.V.j.!.c.7.c.;X;X!.j.N } j.p.C.j.j.l.A.G.G.c.p.j.c.j.j.j.p.j.c.Y..X#Xj.<.<.d..X#Xj.j.A./.C.r.d.L./.Y.j.g.>.5.1.+.<.} <...r.<.<.3.3.( ( j.Y./.!.A.!.G./.V.j.7.<.j.A.!.G.Y.!./.`./.V.3.d.j.`.5XY.j.p.j.!.`.Y.!..X#X&X&X,X&XA.d...i 3 q a n r.7.j.c.!.Y.j.j.3.j.V.!.Y.!.h i *.!.!./.#Xj.*.j.d.+.! <.j.`.`./.!.!.A.<.*.c.3.*.3.p.p.<.<.c.G.j.+.!.V.Y.G.j.d.3.p.<.3.j.R <.G.c.!.G.r...+.j.A.A.j.p.j.j.r.!.Y.Y.!.!.A.A.!.!.A.Y.G.c.d.3.d././.!.p.<.j.d.<.j.Y.j.j.d.!.!.j.p.3.3.Y.!.c.<.+.*.p.Y.j.*.<.<.+.7.d.V.j.7.V.!.Y.V.j.c.r.r.j.c.G.V.j.j.j.3.<...p.A.p.3.3.<.3.3.7.+.r.j.<.<.j.<.! ! U ..! 7.j.+.+.} ! U +.j.d.<.<.*...D <.`.&XY.<.G.j.r.r.!.#X/.`.Y.V.j.( ! ! ..<.A.!.G.!.#X#Xp.<..X!.G.j.#X`.G.V.j.j.V.G.!.!.!.p.<.*.} R R ! R <.<.( r.r.( <.} C j.!.7.j.Y.A.3.! 7.c.h } !.7.7.( } <.3.G.!.Y./.;X/.&X!.d.j.!.&X!.c.*...R U ! +.<.j.V.c.3...3.j.<.U c.G.G.c.c.j.7.<.N ! <.d.p.p.j.G.U *.} R +.<.<.j.7.7.j.j...7.Y.V./.!.p.( ( <.7.<.c.G.!./..X`.G.r.*.7.7.d.r.p.7.j.d.p.d.r.( ! <.<.+.....<.*.<.c.V.j.<...r.A.j.j.j.d.j.*.+.d.d.<.<.p.3.<.7.3.d.A.j.<.3.j.A.p.<.p.j.j.<.d.V.r.d.V.d.r.p.r.7.+.R ! 3.c.j.j.A.",
"!././.!.!.Y.A.A.#XG.<.<.<.( } <.7.} ! p./.#X`./.#X#X#X+X[.`.`.@X=X;X#X!.G.l.G.[.Y.G.L.L.7.j.L.!.j.3.<.7.j.j.7.3.j.!./.!.!.!.Y.<.+.<.<.<.<.3.d.j.s.7.] 5.j.a.j.g.<.w.A.!.!./.#X/.Y.G.c.j.j.j.r.V.;X!.+.N ! *.j./.A.<.7.d.r.7.7.A.!.c.Y.G.p.7.7.3.j.j.j.p.j.V.c.j.c.j.p.r.<.*.<.j.G.#X`.V.r.d.!.!.`.!.j.a.p.0.j.G.!.G.C.j.c.Y.V.j.r.j.c.G.Y.A.c.p.Y.G.l.!./.`.#X;XD.g.i.<.0.p.j.V.j.j.G.G.j.c.A.j.j.V.j.A.G.A.`.#Xj.2.p.j.!.`.j.V.Y./.L.c.j.a.V.~.!.W.j.j.p.<.i.j.j.<.r.} <.j.A.j.j.!././.Y.A.!.!.!.j.j.A.A.j.r.j.G.A.G.#X5Xj.( *.G.!./.&X!.j.+.} !..X!.`..X`.&X;XY.<.U ! ! f 8 r r s D ! <.p.G.!.&XG.+.*.+.<.7.!.h +.&X#X#X`.#Xj.r.j.3.! n ! <.r.<.j.V.V.A.c.d.j.7.3.3.*.d.p.+.<.V.j.( Y.p.r./.Y.j.+.( ! <.j.R r.!.V.!.!.G.r.3.j.c.V.j.r.7.<.<.V.`..X!.!.!.Y.!.Y.!.Y.j.7.*.*.d.!./.G.<.( 3.d.j.V.j.V.Y.V.`.Y.j.A.j.r.c.d.<.( } ..Y.!.j.<.p.d.<.<.j.d.7.7.c.!.A.j.j.j.<.r.d.r.d.r.d.c.j.p.7.+.d.c.<.<.r.*.<.<.p.<.3.V.<.( <.} ! +.! <.R +.j.r.( ( <.+.7.c.d.*.+.<.-...j..X.XY.<.d.!.G.Y.#X!.V.G.V.V.r.! ( ( ! ..V.!.Y.!.G.`.Y.<.A.V.G.j.!.!.V.j.G.!.!.!.`.`.!.j.<...( ! ..+.J ! ! U c.j.n ! 7.! c.*.! !..Xc...N +.<.q C !.j.r.+.<.<.*.j.Y.j.c.!.j.3.<.<.7.c.j.<.+.} ..' U ! *.d.A.V.!.Y.3.<.A.Y.j.A.G.G.!.!.!.j.3.( ! ! } 7.G.!.c.! ( O.....! } j.G.j.G.Y.j.V.!.A.!.!.Y.<.( <.3...<.3.d.c.V.A.V.7.7.j.j.V.j.d.<.j.V.j.c.j.<...<.<...<.<.<.( ..j.d.p.*.( 7.V.j.7.7.7.A.j.<.j.G.c.7.3.7.7.7.<.p.G.j.A.V.V.Y.j.3.p.d.j.d.j.c.p.p.j.j.c.j.p.d.r.<.<.j.c.Y.G.G.",
"#X#X&X&X`.!.Y.Y.c.p.+.*.<.....*.+.J J 3.!.&X.X.X$X#X$X$X[.[.#X#X`.!.G.!.!.W.G.!.j.j.!..X<.*.d.V.d.<...3.j.j.7.7.j.Y.!.A.c.Y.!.j.*.*.<.#...*.<.d.N.N.5.j.j.7.j.j.7.p.c.c.j.!.#X/.!.Y.A.G./.G.d.Y..XY.3.} j.d.j.`.j.*.<.<.<.3.<.d.A.j.c.j.7.7.3.3.j.j.j.j.j.j.j.j.j.j.d.p.3.<.<.p.j.A.j.d.r.d.G.!.).!.j.g.l.V.!.).!.G.c.r.0.j.c.A.V.A.V.V.c.j.j.r.j.A.L.#X!.A.G.Y.=X!.l.g.g.j.p.j.j.c.Y.G.j.A.Y.j.j.V.j.c.G.Y. X/.7.*.j.j.c.A.p.j.G..X~.A.j.3.a.G.V.j.7.p.p.<.0.V.V.j.Y.3.p.p.d.r.j.j.j.A.j.j.!.!.V.j.c.Y.!.c.7.j./.A.Y.`..X<...j./..X!.!.!.G.<.} A./.!.#X!.Y./.!.`.A.+.! ! a 2 7 e f N +.<.p.A.!.!.j.<.G.G.j.<.c.j.`.#XG.#X#X;XV.<.<.( ( ! *.3.3.} 3.p.3.p.V.j.<.*.3.A.j.j.j.3.3.j.c.3.V.d.3.j.V.A.r.+.+.p.A.3.A..X!.!.Y.!.d.<.3.7.p.j.p.7.7.r.V.G./.A.j.c.V.V.j.!.!.c.p.3.d.V.A.V.A.j.7.j.A.A.A.c.j.A.j.A.j.d.V.~.j.j.( ! +.3...c.j.7.<.j.V.r.j.c.p.r.j.V.G.A.j.r.3.*.p.j.7.r.<.<.d.j.V.!.j.Y.!.<.p.j.<.d.j.r.( <.p.+.! ( ! ! ..<.<.! +.j.j.+.<.j.<.p.j.j.3.( <.+.<.c.#X#X!.r.3.&X.X&X#XA.j.j.r.Y.<...p.p.j.c.!.~.!.!.V.!.&X!./.j.j.p.!.!.G.V.`.#X#X#X#X`.!.V.7.+.*.*.<.3.( ..R R j.c.R <.&X.X!.R +.!./.!.7.! ..r.R +.!.G.c.p.*.! ! 3.j.<.<.<.( R ! ( <.j.3...1.7.3.+.U N ! *.<.<.<.7...( p.V.V.G.Y.!.!.G.j.j.j.V.<.} ..<.j.V.j.<.( } <.3...! r.G.V.!.!.!.`.`.d.3.7.G.A.*.*.d.p...<.p.j.p.d.j.<.j.!.Y./.Y.Y.p.j.G.j.G.V.d.3.+.*.+.r.<.<.<.7.Z.j.+.! ! <.c.j.3.<.! r.r.7.c.Y.A.3.<.3.7.r.3.d.V.d.j.r.<.j.j.*.} *.p.j.j.d.d.c.c.j.c.j.p.d.j.r.7.j.c.Y.G.G.",
"!.A.j.p.7.r.c.!.7.r.<.+...} <.3.<.! ! r.!.`.`..X;X#X$X#X).).+X`.W.V.j.D.!.!.!.$XA.<.r.c.+.r.!.!.Y.j.7.p.c.j.r.j.V.!.!./.`..X!.p.| ! | ! ! ( +.a.j.V.1.7.<.o.j.j.V.c.V.j.d.A./.!.G.j.r.p.V.j.<.V.!.!.V.j.#X!.!.`.A.3.7.7.j.G.j.c.G.V.c.d.d.p.<.*.3.d.j.j.V.j.p.p.3.p.j.j.j.r.r.p.d.3.<.r.j.j.Y..X).).j.j.G.L.!.!.&X!.c.r.a.A.G.!.G.Y.V.V.j.d.j.d.j.c.j.c.p.j.L.G.V.~.L.j.0.j.5.g.<.7.j.r.3.c.!.j.r.!.Y.c.7.<.A.Y.( N ! ( <.j.<.<.d.#X/.j.d.j.j.j.V.p.<.1.5.o.! #.3.3.A.3.p.<.<.r.r.<.3.G.j.d./.`.Y.Y.A.V.!.Y.j.!.!.Y..XV.<.<.!.`.<.A.!./.G.!.A.A.j.A.c.!.j.A.!.j.d.r.D D ..y ; e z ! r.!.j.p.j.V.V.3.} !.;X`.j.!..X`.!.!.;X!.;X!.<.*.+.j.Y./.G.V.<.7.3.+.<.j.j.<.<.*.Y.c.r.3.7.7.<.j.j.d.j.j.<.r.d.j.p.j.V.!.V.A./.!.!.j.j.3.*.r.d.p.j.r.7.j.V.G.d.!.j.r.j.j.c.j.Y.A.V.j.j.A.A.r.<.d.j.p.d.A.!.!.p.7.A.!..XY.c.j.l.V./.d.+.<.j.j.!.Y.A.c.!.!.A.!.!.j.j.A.A.A.A.j.r.<...j.V.r.r.<.3.<.7.!.&Xj.A.!.d.p.+.! G.#Xj.! 7.r.7.3...! +.+.7.<.+.<.7.j.7.A.<.! +.p.!.G.<.7.*.} *.A..X,X!.V.A.Y.`.!.V.G.Y.j.A.! } G.Y.&X;X/.!.!.!.!.G.Y.!.!.j.<.+.j.j.j.p.!.`.!.`.#X`.!.V.<.<.3.+.( <.*.7.} U *.3.! ! V..Xj.3.V.Y.!.A.R ! <.<.p.<.!./.A.j.<.! ! <.3.<.<.<.+.r.3.*.<.r.*.*.j.j.p.<.R C ! *.} +.! } } ! ..<.r.Y.!.!.!.j.<.p.Y.j.<.*.<.} ! ..} d...! +.7.<.} d.7.3.A.`.!.!./.j...R <.r...<.j.<...7.j.c.7.d.V.*.7.G.c.A.j.G.p.d.V.j.!.V.3.+.! ..+.3...+.<.p.G.j.<.+.+.<.d.j.<...! } ( <.j.j.d.*.<.p.d.d.d.j.j.<.*.R J r.c.} U ..<.c.j.<.j.!.V.p.7.p.j.c.A.V.j.c.V.A.c.V.",
"/.c.j.d.+.+.j.A.<.<.3.3.*.! } 3.<...<.j.!.!.!./././..X.X!.!.Y.C.V.j.G.!.C.a.j.[.G.+.c.!.7.j.#X&X&X;X/.!.!.V.G.!.!./././.!.!.!.!.a.U ! 1...} r.C.G.V.j.p.1.<.7.g.j.c.G.A.j.!..X/.j.7.*.<.d.7.<.d.j.A.!.`..X`./.`.V.*.p.j.j.G.j.V.Y.j.r.r.j.j.7...<.*.7.G.!.V.7.<.+.r.A.c.j.d.<.p.j.7.<.d.d.A.G.G.V.l.j.j.!.j.j.!.G.!.!.A.j.j.j.j.j.A.G.j.j.r.j.A.!.d.<.3.3.r.<.j.>.N.G.V.l.a.p.j.j.7.r.7.} <.V.p.3.c.V.7.! ( p.!.7.J +.<.+.j.!.!.c.!.C.0.a.3.j.0.j.j.a.<.+.! U ! +.<.j.d.r.p.p.c.V.j.7.c./.!././.!.!.!.!.!.!./.!.j.G.`.A.r.j.;X/.! ( <.<.d.Y.!..XG.A.V.G.j./.`.A.3.<.....! a i +.j.A.#X`.`.!.j.G.A.j.j.!.!.A.<.7./.A.p./.j.<.G.j.<.<.V./.V.!.j.3.+.+.3.j.r.p.d.*.<.<.j.A.!.3.} j.p.j.c.3.<.j.j.j.j.p.p.j.V.A.G.Y.!.Y.<.! j.j.+.<.r.p.j.7...*.7.j.G.`.Y.d.j.V.c.j.A.A.j.V.j.Y.A.r.7.p.p.} ( <.3.c.r.V.Y.j.j./.`.Y.c.!..X,Xj.! r.G.!.&X.X!.;X;X`.!./.c.j.A.A.c.d.3.3.d.d.A.j.c.j.d.<.<.*.3.A.c.d.!.d.j.j.! /.;X/.j.j.c.j.r.<.r.3.! ( +.U +.r.3.<.p.! ..d.<.<.j.3.} +.J ! r./.`.#XA.*.} !..X!.!.c.j.j.} <.#Xc.!./.j.!.!.V.!.Y.3.c..X;X( ! 3.j.p.r.Y.&X!.!.A.d.j.j.r.j.<.} *.( ! 3.+.U ..<.j.3.d.V.<.!./.`.`.G...! 3.r.j.c.V./.!.<.+.! ! +.d.j.j.p.( <.j.p.! R ..! j.!.!.j.c.} ! *.U ! R ! R ..R 7.!.`.!.!.^.j.+.<.Y.p...D D ! ! ..r.r.} ! ( <.3.p./.d.} 3.A.G.!.!.j.7.j.!.j.( } ..} ( <.j.j.3.3.3.*.*.7.d.3.j.A.j.j.j.7.c.c.+.} <.} <.<.<.<.*.3.j.r.3.3.<.<.r.7.<.<.*.( ..<...+.<.<.s.c.c.V.!.j.A.j.c.! N <.7.} <.<.3.r.V.j.j.p.j.c.<.} <.j.j.A.!.V.V.j.c.c.",
"A.j.c.c.p.7.j.j.+.+.3.j.d.<.*.3.7.<.7.A.!.!.!./.&X/./.~.!.!.!.!.j.p.j.p.#.! ! i.<.! c.;XY.!.;X#X;X#X/..X`.!.!.!.Y.!./.!.A.j.p.j.j.*.<.j.0.<.j.!.j.j.j.g.7.1.i.j.j.j.j.j.j.G.!.A.Y.r.<.r.j.r.3.d.j.c.!.#X&X`.`.#XA.<.<.j.V.Y.c.j.!.A.j.j.V.j.<.( *.<.<.3.V.!.V.<.<.z.A.j.c.c.j.c.j.j.r.j.d.V.A.Y.V.l.j.j.G.j.V.!.A.C.C.V.l.j.j.j.7.A.!.d.j.j.c.A.L.j.r.0.0.V.j.l.p.j.C.V.V.j.5.j.j.p.r.r.<.j.`.c.r.c.Y.c.r.3.j.!.7.v R d.j.Y.!./.j.c.r...0.r.p.<.g.p.i.<.<.<.+.+.} ..<.7.p.j.r.r.!.!.V.V.A.j.j.p.V.G.!./.!.G.A.c.U f N V.&XV.!.!.p.7.d.d.j.G.G.!.Y.!.!.!.c.!./.Y.!.!./.&X#Xj.j.#XV.!.&X!.!.#XY.Y.Y.j.<.7.3.7...<.j.p.p..XV.<.j.c.V.G.A.G.<.c.3.+.} ! <.j.3.7.G.p.r.*.p.d.j.<.<.A.V.A.A.7.<.d.c.!.!.V.j.d.r.r.j.c.A.p.<.j.!.j...3.! +.<.<.<.r.r.j.!./.!.j.V.Y.A.j.d.d.<.p.j.!.Y.p.<.<.3.<.<.r.<.<.j.j.3.<.d.!.&X&X!.!.&X;XY.3.j.!.`.`.`.#X#X.X/.A.!.!.V.j.Y.G.p.<.+.7.j.G.j.p.3.<.r.r.+...j.d...r.<.<.d.<.`.!.c.3.j.c.r.+.<.7...! J R N ..d.7.( } ( <.j.<...3.O.U +.! ( ( r.!.#Xc.U N p.!.!.!.j.j.!.*.3.Y.+.V.`.d.+.c.7.<.7.r.c.!.;X<...7.j.c.c.!./.A.c.r.<.d.c.c.!.c.<.7.*.! r.r.+.p.j.d.3.<.3.*.r.G..X;X#XA.j.V.7.j..X#X.X!.+.! R U +.<.p.!.V.3.n ! R C } j.<.7.!.j.<.!.V.j.A.j.! C D C *.*.j.!.Y./.`.j...R } r.<.! C C ! ( *.7.3.! U ..7.3.7.!.!.7.p.V.j.j.V.!./.!.!.!.j.<.<.+.N R r.V.p.<.<.*.<.3.p.d.j.j.p.p.p.d.G.A.<.<.c.c.r.r.*.! ! ..3.*.+.<.<.<.3.p.j.A.r.+.( +.*.<.r.3.j.G.j.j.V.p.c.c.V...J <.7.<.d.j.j.j.V.j.7.<.j.A.7.3.d.c.c.A.Y.A.j.j.c.j.",
"V.c.j.j.j.r.7.7.<.<.7.j.r.<.<.d.c.j.c.!./.!.Y.!.&X`.[..X/.!.!.Y.j.>.~ ! U U ! <.+.} j.;X!.G./.!.`.A.c.!.!./.&X`.!.!.`.Y.j.*.! <.Y.r.| *.3.<.<.a.<.<.5.7.1.5.j.C.j.j.c.V.j.G.!.Y.j.<.+.p.j.d.d.c.G.Y./.#X`.Y.G.!.!.j.d.V.G.G.A.c.G.c.j.c.c.j.3.+.<.<.+.( y.!.G.<.3.j.p.p.j.j.d.d.p.d.j.A.j.V.V.A.j.j.V.j.j.g.j.j.l.j.j.c.c.j.j.j.<.A.Y.3.p.c.!.!.A.j.a.3.3.!.!.Y.!.C.!.G.G.G.7.a.j.r.r.p.p.G.`.j.p.c.G.c.r.r.V.!.A.N n ! } 3.c./.`.~.C.7.j.V.j.r.<.<.p.i.0.p.<.>.( } <.<.r.j.7.<.V.!.Y.G.G.V.j.d.j.c.Y.A.j.c.A.V.( i i +.`.Y.!.;X!.c.c.V.G.Y.Y.!.j.Y.!.!.V.!./.`.!.!..X>X;X&X`././..X`.j.j.!.Y.A..XG.j.d.*.<...<.<.<.j.!.V.d.<.<.j.!.c.j.J A.d.<.+.R ! 7.....Y.Y.*.! ..*.<.<.d.G.j.A.c.r.7.r.p.V.G.V.j.p.r.p.c.Y.V.<.d.!./.j.*.3.( <.<.<.j.G.c.!.Y.!.!.Y.Y.!.V.3.r.d.7.j.j.!.Y.p.<.*.3.d.c.G.c.d.j.r...*.<.<.V./.!.!.oX#X.XG.d.j.G.`.&X#X/.;X.X..<.!.Y.j.G.j.p.r...*.<.d.*.<.<.} 3.j.<.! 7.<.D } V.} ! <.;XY.d.} *...*.<.V.Y.<.! ! ! C ( 3.7.*.<.p.V.Y.<.<.!.A.( N R r.+.! <.j.p.R N <.!.!.G.j.V.A.} <.&XY.!.V.} <.!.A.c.p.j.V.c.!.<.<.7.j.A.c.V.!.Y.!.c.7.p.p.3.<.7.} <.7.! *.<.7.<.A.V.V.p.d.r.3.V./.`.`.`./.!.V.j./.A.j.j.+.} 3.*.<.! *.!.!.A.j.j.3.} *.j.r.G.`.d.+.G.!.Y./.Y.*.J U N +.<.7.j.G./..XA.*.R ! <.+.<.+.! } <.<.3.3.! ! 7.c.7.*.p.j.3.j.!.A.r.3.c.A.p.*.c.!.G.V.d.Q ! 3.c.p.<.p.p.A.j.d.j.j.p.j.j.r.j.G.A.r.p.V.A.p.p.<.( ( <.p.<.1.7.r.r.d.j.j.c.p.*.( } +.+.....7.j.p.r.j.<.j.V.G.3.} <.3.<.V.G.A.p.j.p.<.+.j.A.j.V.A.V.V.A.c.j.p.j.V.j.",
"j.j.j.d.p.<.+.<.7.7.d.d.<.! +.d.!.G.!././.Y.Y.!.#X.X;X;X[.Y.C.c.l.<.] ! ! | +.7.<.<.p.!.!.A.`..X`.A.V.!.!.#X;XY.j.c.!.A.d.+.D } .XC.| | j.C.d.r.#.>.<.<.<.1.j.G.d.d.V.G.j.j.Y.!.r.*.<.j.c.c.Y.!.!.!./..X!.A.Y.`.`.Y.c.Y.Y.V.A.c.c.j.j.j.d.j.d.7.<.<.*...<.j.j.<.3.<...p.A.d.r.p.<.7.r.j.j.c.c.A.j.l.W.j.j.g.j.7.j.j.j.j.j.r.0.r.*.V.G.<.r.V.!./.A.j.a.p.d.!./.Y.!.!.!.l.j.D.p.5.d.d.d.j.j.!.!.d.<.j.Y.V.d.j.!..X.X+.N h h J 7./.~.A.C.j.j.l.j.j.} +.j.W.l.p.<.#.<.7.d.d.p.d.j.j.j.V.A.A.!.!.V.j.j.V.Y.c.d.V._.`.<...*.p.!.!.!.!.#X!.!.Y.G.G.G.A.p.G.!.!.G./.`.&X&X.X`..X.X&X.X!..X.X!.j.d.!./.!.r.p.G.!.<.} U R ! *.j.<.<.!.c.7.G..XV./.! Y.r.} +.+.( 3.<.! <.r.<...*.+.*.j.!./.p.A.c.3.<.3.<.<.r.j.j.j.j.G.!.!.V.r.j.!.Y.j.3.3.<.7.7.3.j.Y.N.G.A.c.V.A.c.c.j.<.<.7.<.j.c.!.A.j.d.3.3.j.j.A.!.G..X/.j.V.j.<.j.Y.A./.!.!.#X`.j.j.p.!.#X.X!.&X.X( } !.!.A.j.<.<.j.p.<.+.7.*.7.j.<.<.V.r.! +...J *.j.( D +.&X!.Y.G.<.D U U ..p.<.! +.<.! ! } j./.9X&X;X;Xp...!.!.( N ..!.A.*...<.G.<.! 3.!./.C.j.!.G.*.} #X5Xj.c h d.j.c.#Xp.7.d.3.d.7.d.j.V.!.A.j.p.j.!.G.d.7.<.( ! +.! ( 3.*...<.( h *.j.!.G.!.V.r.j.G.Y.Y..X&X!.!.c.A.<.! ! D ! V.j.p.( +.A.!.A.j.c.j.d.3.<.*.G..XA.<.r.j.!.;X!.} J ! D ( *.*.<.V.Y.!.A.3.+.<.r.<.j.c.r.3.p.d.d.<.! ! 7.V.j.3.<.<.<.j.j.p.*.( 3.<.+.! *.V.`./.V.<.( ..3.*.*.d.p.c.r.<.p.r.r.j.r.<.7.p.r.3.3.3.<.<.p.<...} *.<...+.....<.j.j.j.r.j.7.<...} ! J ! <.j.j.c.A.r.p.c.G.j.3.7.<.<.j.c.j.1.7.p.r.7.G.V.Y.!.Y.j.d.j.j.7.7.j.c.p.",
"+.f.j.j.f.<.} +.+.<.j.V.p.+.*.r.!.!.!./.!.!.!.`.&X.X&X;X.X!.Y.C.0.<.7.7.<.+.o.1.7.7.r.A.Y.G..X;X.X!.`.&X/.`.!.3.( 7.!.Y.j.7.! *././.7.*.j.C.j.p.<.5.0.i.7.5.p.j.d.d.G.!.A.j.A.G.c.c.Y.!.Y.!..X.X.X.X#X;X/.Y.!.`.`.Y.r.j.A.c.j.r.A.G.A.d.3.p.d.<.<.<.<.<.3.p.r.<.7.<.} d.!.A.j.c.7.r.<.r.r.c.V.Y.G.D.!.j.g.j.!.V.j.j.j.d.d.d.p.7.3.V.Y.p.j.j.V.c.A.c.V.G.!./..X!.C.G.j.p.i.i.7.<.j.c.V.A.G.!.`.V.j.G.L.j.<.7.j.j.Y.p.! N N ! 3.!.`.V.!.!.j.j.7.<.o.#.C.#X!.j.<.<.3.d.j.j.p.7.j.c.j.d.r.p.V.A.j.r.j.V.!.A.d.c.!.Y.j.c.Y.V.Y.A.!.!.`..X`.!.G.!.!.A.c.!.!./.!..X`.`..X/.G.G.!.!.!./..X/.!.c.d.A.!.!.3.3.G.#Xj.3.<.d.<.<.j.*.*.!.G.7.!.j.*.`.<.A.<.! <.<.*.j.j.<.3.3.A.Y.d.+.<.A./.!.p./.Y.*.( <.<...<.d.j.p.j.Y.A.r.d.7.j.V.Y.n.p.r.7.d.V.j.c.G.c.j.G.j.p.r.3.r.j.j.d.d.<.j.G.!.V.j.A.d.<.p.d.j.Y.A.!.!.j.A.!.A.!.`.!.;X!.!.`.V.A.!.j.j.A..X!.V.A.j.j.!.G.G.j.<.<.h.V.j.r.c.3.r.j.+.+.j.j.+...*.} <.<...J ..#XY.A.Y.7.! +.R R } +.} ..<.! N N p.!.;X#X/.,X!.! ..j.7.<.*.r.r.<.+.+.G.j.} ..j.!.A.A.`.`.j.} j..X7.N +.j.+...Y.3.! ..} <.j.c.j.j.A.V.j.7.d.A.A.d.7.r.<.} <.*.! *.<.( <.<.z } 7.^.!..XY.j.j.A.Y.!..X.XG.V.G..XV.p.<.J } c.V.<.! ! <.V.A.j.d.3.3.<.<.<.!.!.!.j...} j.`.V.! J } U ! } ( ..<.j.j.<.! <.j.j.d.G.G.j.d.G.G.c.j.3.+.*.p.j.d.*...p.j.*.} } ! } ..<.<.! ..j.r.<.3.*.+.3.r.j.V.r.<.+...7.d.c.G.3.3.3.<.<.<.3.<...<.7.<.} ! } <.*.*...*.r.j.j.j.V.V.3...! ! U J } +.3.p.c.j.<.*.<.j.j.d.7.*.*.p.r.d.<.r.j.j.j./.c.V.A.Y.j.<.d.A.d.<.7.r.*.",
"*.j.A.j.r.<.+.<.<.<.d.j.j.d.j.V..X.X.X`.!.!.!./.#X/./.#X&X%X/.G.<.o.>.<.<.+.} <.<.<.<.j.V.j.j.c.!./..X.XY.!.!.p.+.d.`.!.j.j.d.V.#X/.3.#.0.a.j.r.<.<.0.a.p.5.7.p.p.7.c.`./.!.!.Y.!..X;X#X/.`.#X.X#X&X;X&X!.A.c.V.!.V.<.7.j.j.d.p.j.c.c.r.<.7.r...+.<.<.<.r.j.p.<.3.r.<.r.V.c.j.j.d.j.r.j.j.G.V.V.!.G.W.j.j.j.D.j.j.j.j.l.G.!.!.A.A.Y.V.r.j.p.p.p.A.!.!.!././.;X;X!.!.V.V.j.<.<.j.c.G.G.G.Y.!.#X`.A.j.r.<.+.7.j.d.j.d.7.<.<.*.+.<.$X!.&X,X~.!.j.1.<.>.j.!.!.j.<.<.<.r.d.c.j.7.p.j.d.3.<.<.j.G.c.c.A.A.!.G.d.j.A.j.p.j.!.!./.!.!.Y.!.!./.!.G.!.#XY.G.!.!.`.!..X!.!./.!.A.G.`.!.G.;X;X/.!.V.r.j.Y.!.c.7.j.Y.j.j.c.`.d.<.j.j.j.c.j.3.d.+.N *.( A.j.<.<.! *.V.A.j.j.r.Y.&Xc.<.3.V.j.3.<..X.X<.J ( 7.<.*.3.3.<.p.c.j.*.<.*.7.c.!.Y.j.j.d.c.!.Y.c.Y.G.V.c.r.3.7.3.3.j.V.`.Y.r.c.!./.A.d.c.d.*.7.d.p.j.r.c./.!.`.&X.X#X.X!.;X!..X!...<.!.A.p.j.!./.j.7.j.j.p.j.G.A.r.<.p.!.`.G.Y.3.<.p.+...r.j.r.7.7.*.+.<...C ( &XA.! N ! U } J ! ! ! R ( ..! J ( !.!.V.5X!.;X5X<.N ! <.c.+.R ! ! ! R <.c.<...r.G.!.!.!.!.A.<.<.Y.!.V.!.j.+.! d.j.*.+.} d.A.V.7.<.7.r.j.V.J.Y.!.j.d.V.c.<.p.d.! ! <...r.r.! ..! p.A.G.G.G.j.j.V.G.!.Y.c.d.j.c.A.!.j.! ! r.p.R C D E 3.j.U ..<.r.r.j.j.G.!./.j.( ! <.j.<.! J ! R ! ( ! ( 3.j.V.d.<.j./.#X!.!.V.c.!./.Y.j./.Y.j.p.j.c.p.! } j.c.*.} <...} ..! *.! ( d.+.( <.<...<.d.j.c.<.p.3.<.r.j.!.!.r.3.<.*...( ..<.<.<.7.+.! ! +.p.j.3.p.A.!.j.d.V.`.j.+.} ..+.+.} 3.r.3.7.c.d.3.<.3.7.r.d.r.*.<.p.3.p.r.d.j.d.p.Y.j...<.G.Y.r.p.V.j.r.d.c.j.",
"r.V.G.j.<.<.<.3.p.j.j.j.d.j.Y.!.#X&X&X#X/.!.!.!.`.~.!.!.!.~./.Y.j.+.! | <.#.| <.r.7.c.!..X`.!.!.!././.!.j.c..X.XG.A.!.!.c.c.Y.!.L.3.J ! <.1.a.3.#.<.<.0.0.7.7.i.<...7.G.Y.A.G.Y./.&X;X#X.X`././.!./.#X.X/.!.G.A.Y.A.7.3.j.d.d.j.d.r.d.r.<.r.d.<.<.<.<.3.p.d.7.<.r.j.V.j.j.7.*.3.j.V.j.A.G.!.V.c.L.V.C.j.j.7.p.7.7.j.A.!.!./.`..X!.G.p.*.d.d.j.j.V.!./.!.Y.r.c.[.#X#X!.!.!.g.<.W.Y.!.Y.Y.G.G.!./.V.7.7.j.j.j.j.j.A.j.V.V.3.+...! Y.#X$X.Xc.j.3...<.<.j.j.l.a.<.1.7.p.j.Y.G.p.r.d.d.j.j.7.j.!.G.G.!.G.!.!.A.G.!.Y.V.j.!.G.!./.!.G.!.!.Y.Y.V.Y./.c.V.G.!..X!..X/.Y./.!.G.!..XA.j.`.;X/.!.Y.j.!.;X&Xc.p.j.Y.j.j.j.A.<.( *.d.G.V.G.A.3.j.<.( <.A.A.3.*.U +.A.Y.j.<.*.G.#Xc.p.j.V.r.( +.Y..Xj.U ! r.r.<.<.<.<.p.j.d.3.<.*.7.j.A.V.j.j.7.c.!.c.j.V.j.c.d.3.3.d.j.7.<.p.!.!.d.j.Y..XY.d.d.j.<.7.r.*.<.} <.G././..X.X`.`./.#X/.&X!...! d.j.j.A.A.G.G.7.<.<.3.j.V.V.j.<.3.`.;X!.!.j.p.G.j.3.r.r.<.<.7.<.<.*.! R <.;Xj.N v <.! ! N ! ! <.} ( ! ! ! +.!.V.<.;X!..X;XV...! ! d.*...<.! ! ( *.j.V.j.j.Y.!./.!.j.j.<...p.V.d.3.7.<.+.<.d.<.7.*.p.c.j.<.<.<.<.j.V.j.c.Y.j.r.V.A.j.A.d.( R +.j.!.j.3.*...j.!.!.#XG.j.7.r.j.A.G.A.Y.3...<.d.3.( ( ! ..R ! ( ! ! ..U <.p.j.d.V.G.Y.Y.G.d.} +.r.c.<.! T ! ! R ! +.<.<.<.r.j.7.r.Y.#X!.G.j.G./.Y.p.<.j.p.r.A.!.Y.j.} *.j.c.<...<.<.3.*.U ~ ( <.j.3.*.p.j...+.p.j.j.r.j.7.7.<.3.j.j.7.<.( ! ! C U *.7.j.d...! ! ( <.p.+.7.V.A.j.j.G./.3.! } <.<.*.} <.j.<.<.j.7.7.<.<.<.3.d.p.<.r.j.d.d.d.d.j.j.3.c.d.D ! j.G.j.r.r.<.*.<.j.V.",
"r.j.A.j.<.<.r.r.p.V.!.G.j.j.V.A.!.`.#X#X#X.X.X.X.X.X!.j.3.j.!.!.j.>.} >.<.<.<.j.d.3.j.!./..X!.`.!.!.!.Y.r.<.A.`./.c.c.!.G.A.!.A.Y.<.! d.A.j.l.r.1.<.<.7.7.7.0.a.7.*.7.c.j.d.V.!.`.#X.X.X&X`.!.!.!./.#X.X.X.X.X/.!.V.1.<.j.j.p.j.j.7.p.j.d.j.V.j.d.r.7.p.r.<.<.<.j.G..X/.A.3.} p.c.!.c.c.c.!.G.!.!.V.j.p.g.1.0.a.<.h.!.~.A.j.c.!.Y.j.<.} j.c.V.V.l.Y.`..XC.N C 3.W.!.~.G.!.C.1.!.`..X!.!.!.V.G.G.j.+.<.c.V.j.c.G./.A./.!.<.<.d.} <./.!.j.<.3.q.<.<.j.V.j.j.p.<.p.3.7.p.G.c.<.<.3.7.V.!.j.j.!.Y.G.j.p.A./.!.!.#X!.`.A.!.!.!.!.Y.Y.!.V.j.V.c.A.!.j.G.Y.!.&X!..X`.!./.!.Y./.`.c.j.!..X!.!.`.!..X;X!.d.p.d.j.3.7.<.p.<.*.} <.G.V.V.7.! V.Y.j.!.c.j.j.r.} <.V..XV.<.V.!./.j.j.j.j.7.( <.V.!.c.! ! j.V.j.7.3.p.j.d.r.r.j.7.d.d.r.j.j.j.*.c.!.c.V.c.7.r.j.7.<.d.c.3...<.Y.#X!.G.!..XY.d.7.V.7.d.d.<.r.3.<.j.c.j.Y.`.!.!.;X&X.X#X&XV.3.j.<.p.!.j.p.V.j.j.3.r.j.r.j.G.r.d.Y.&XY.!.V.A..X!.G.j.+.J R +.3.c.7.! } j.,XG.( } ! N ! U ! ( p.( R U R R ! V.V.j.G.;X#X!.`..Xj...! R *.j.! ! <.<.<.!.`.!.Y.!./.!.p.j.<.! *.<.<.d.j.r.d.+.! D 3.( ! +.+.*.<.<.<.d.V.j.d.c.7.<.j.c.j.V.3.*.! ..V.G.Y.3.<.d.c.!.Y.!.!.V.r.7.d.j.j.j.j.} C U J N ! +.E ! ! } <.+.! ! ..<.<.r.<.d.j.c.V.j.<.! <.j.V.*.+.+...( D J ..4.<.<.<.<.<.d.!.!.j.d.j.Y.!.p.( ! ! J ! j.!.A.j.<.<.j.V.7.+.+.+.7.<.! ( ..! ..*...<.7.R R <.<.7.7.<.<.3.<.<.p.3.<.<.( ! ( ! } d.G.G.j.*...+.( } +.<.<.7.3.3.c.!.!.Y.3.j.A.d.r.r.V.Y.3.7.Y.j.j.7.<.<.<.d.d.7.j.A.c.c.j.d.V.!.j.V.j.! ! +.7.7.<.+.+.<.+.7.j.",
"!.p.p.j.j.j.j.r.3.r.Y.G.j.j.j.!..X.X#X.X.X.X.X.X[.&X!.j.<.j.j.G.G.0.>.#.<.<.<.l.c.j.j.!./.!.Y.!.`.!.!.!.c.r.G.`.+X!.L.l.a.N.!.!.).i.} V.!.C.g.g.j.p.a.g.a.j.7.} } <.j.j.7.<.p.!..X[.;X;X&X#X.X!./..X.X#X#X.X&X&X.Xj.3.<.7.j.7.3.d.3.j.Y.!.A.j.G.V.d.3.3.r.7.3.3.d.V.Y.!.#XV.<.r.7.j.c.A.A.V.!.Y.!.Y.V.V.d...+.j.Y.!.#X`.j.7.j.Y.G.r.<.*.3.<.j.G.c.Y.!.#Xc.v h *.V..XG.3.j.Y.3.A.G.V./.`.`.!.j.V.j.*.<.!.#X!.V.Y.!.V.p.<.( *.r.! ! N.0.7.i.j.g.<.<.p.!.!.j.i.7.7.*.<.G.r.*.<.3.<.3.V.A.V.c.j.c.G.j.j.V.!.`.!.!./.;X&X!.!.j.7.c.A.j.c.c.c.G.!.V.r.j.!.&X;X#X`..X#X!.!.!.G.!.!.r.p.`.!.A.!.`.#X;XY.r.j.j.7.*.3.p.7.3.<.<.j.p.r.3.*.<.!..X#X&X/.!.G.G.p.j.!./.!.Y.V.G.V.Y./.d.7.Y.j.+.( ;XA.! <.d.7.+...r.d.r.7.<.r.7.7.j.j.j.c.V.j.c.r.c.j.d.Y.c.7.d.!.j.V.!.d.*.Y.;XV.r.c.c.V.Y.d.*.c.V.j.c.( d.j.7.p.<.3.d.`.j.7.!.j.A./.!.!.<...( <.`.!.j.G.j.3.*.7.V.c.d.c.G.G.A.!.!.!..X.X/.!.!.!.p.! <.7.d.j.<.} ! !..XV.3.! <.} ( U } <.<.! ! } *.<.| 3.!./.A.d.3.p.Y.;X#X7.N U ..j.*.+.r.j.j.Y.!..X!.3.V.!.d.!.G...U +...! +.j.j.<.} <.<.<.} ! R *.p.( +.3.Y.j.3.j.r.p.! <.<.<.<.+.3.<.p.j.Y.!.7.V./.c.c.;X/.Y.7.3.p.j.V.r.*.( ( J N C U ! 3.<.! *.<.j.d.+...N ( 3.r.j.p.<.3.s.p.+.<.c.j.d.+.U D ! C N *.<...( +.r.7.<.d.V.j.3.j.V.3.} +.<.( +.<.j.3.+.<.j.<.c.!.p.( ! } +.! ! } +.3.p.<.*.r.<.! } *.*.7.7.<.<.j.j.p.<.*.3.3...! R ! <.j.c.3.<.*.! ..*.! +.<.3.7.*.<.G./.!./.Y.!.!.A.c.c.j.!.A.A.Y.G.j.7.3.p.d.A.Y.V.c.G.G.V.7.7.V.j.<.7.j.3.! } ! } 3.<.3.} <.3.3.",
"!.j.c.!.!.!.A.d.d.p.A.V.V.A.j.c.!.`.#X#X.X/.!.!..X!.A.L.G.L.j.!.[.D.j.7.5.<.<.j.!.V.V.!./.G.A.!..X!.!.!.A.j.!./.L.j.j.j.0.j.j.<.<.7.<.V.W.C.j.C.N.j.0.i.j.j.1.o.#.#.<.5.5.7.j.W./.~..X&X&X;X$X/.j.!.;X;X`./..X;X;X!.Y.j.d.r.3.j.7.<.j.Y.!.A.j.G.c.j.j.j.c.j.p.<.<.<.7.j.!.!.j.j.d.G.Y.Y.V.c.!.!.!.Y.A.c.p.+.<.c.!./.&X&X`.!.!.!.7.<.<...<.<.d.j.j.V.Y.`.G.! N ! r.V.j.7.j.V.<.d.c.j.!.`.!.A.d.j.p.*.r.V.j.c.!.!.<.<.<.*.*.3.<.*.5.!.j.j.j.N.p.} j.V.V.G.j.i.g.0.j.r.V.3.3.j.j.d.<.j.j.j.c.V.G.A.c.c.G.!.!.Y.Y.!.!.!.!.!.V.j.V.V.!.!.G.c.j.c.j.p.j.c.G.!.`.`..X#X/.A.c.j.!.`.d.r.Y.G.G..X&X.X#X!.7.p.A.c.<.p.c.7.<...<.j.*.<.3.( 7.!.`.!..X#X.X!..X!.!..X#X`././.#X`.Y.`..Xc.j.c.U ! &X!.<.7.p.<.<.} <.<.r.d.3.<.A.j.j.V.j.j.c.G.A.d.c.j.j.!.!.Y.p.V.j.V.c.d.r.!.V.! n } j.r.<.<.3.j.j.d.A.<.p.<.r.A.j.<.( j.<...<...j.!./.c.3.7.<.G.;XG.d.j.d.r.<.7.d.<.<.V.!.A.p.p.G..X`.`.`.A.~./.!.j.d.<.j.j.r.+.( +.C J } ..3.<.*.! ! } 3.<.+.<.p.7.! *./.`.j...! V.c.+.r.j.n D ! *.! <.j.d.G.!.V.j.!.j.j.Y.c.#X`.*.! ! ! } <.j.A.7.( } *.} 3.! +.3.3.! *.c.!.j.<.j.j.j.} +.*...<.p.j.+.<.*.j.j.7.j.!.Y..XY./.#Xd.<.V./.!.j.p.+.( C z n J ( <.7...*.7.G.j.} R N U *.d.j.r.3.3.7.r.<.7.j.3.7.*.R D R D J +...J U <.A.G.j.j.c.j.j.G.j...+.3.<.7.<.} +...<.....3.j.j.<.} } ! U R } <.( } <.<.p.j.j.7.<.*...<.<.<.7.j.j.j.p.*...r.3.<.} ! +.<.<.<.*.<...<.7.+.<.7.*.*.+.7.!.#X`.`./..X/.V.d.j.j.d.p.j.V.V.j.d.p.A.G.!.!.V.V.Y.Y.!.A.j.j.<...7.j.r.*.+.R ! <.<.*.<.p.r.3.",
"`.Y.V.G./.`.!.A.c.c.!.G.A.Y.j.c.!./. X#X`.!.!.!.$Xc.a.G.!.A.a.A.[.!.V.i.<.<.7.C.!.A.G././.G.G./.#X/.!.!.G.j.V.c.p.#.<.0.<.<.<.A z o.7.j.G.!.G.!.!.j.<.<.j.j.a.g.p.<.| >.7.j.L.!././..X$X;X;X;X/.Y.!.,X;X`.#X`.&X/.!.Y.A.j.p.<.<.c.j.A.!.Y.c.j.V.j.G.!.`./.!.A.d.7.<.<.<.d.Y.j.<.j.A.G.c.d.d.A.Y./.!.V.j.3.+.<.c./.`.`.`..X.X!.!.<.d.j.*.*.<.j.d.d.j.c.!.!.d.<.<.j.c.c.j.j.j.<.p.j.7.A./.A.j.c.c.A.7.<.+.U } A.!.+.+.7.<.*.3.<.7.~.#X).!.!.`.V.<.j.G.g.N.N.i.j.j.j.<.r.<.j.A.c.j.c.A.j.j.j.c.Y.A.V.A.!.!.Y.A.G.!.!.G.Y.A.c.G.G.G.`.!.V.p.d.c.G.G.A.c.V.!.!.!.!.!.!.V.j.j./.#Xc.j.A.G.Y..X&X!.!./.Y.G..X!.p.Y.`.7.<.7.d.j.+.7.j.*.p././.Y.!..X&X`./.`.`.!././.`.#X/.^.c.!.;X!.p.j.7.p..Xc.<.3.j.j.<.....*.7.c.j.r.c.V.c.r.<.7.j.c.V.A./.Y.c.A.A./.j.V.Y.!.j.V.d.<.+.D n *.A.r...<.d.c.j.j.V.p.<...3.V.j.<.! j.d.7.3.r.!./.&Xj.7.3.<.!..Xj.3.r.7.r.<.3.3.} <.!..X!.d.7.G.&X.X`./.A.!..X&X`.j.! } <.!.3.3.7.( <.<.( *.} } ..! D +...( ..j.j.! ..!./.&X3.n j.G.y w } C C U *.! } <.<.d.d.<.<.!.Y.V.Y.V.`.!.! ! ! +.j.G./.`.j.*.*.<.} <.! *.3.*.! <.A.c.j.<.r.<.7.<.3.7.*.<.j.7.! 3.+.+...+.<.j.A.Y.n f <.<...Y.;X!.A.j.+.! J C } <.<.3.d.( +.7.V.d.J D ! p.!.Z.d.c.G.V.p.<.<.3.<...} } ! ( +.! R ! R ..} 7.Y.!.V.A.!.!.V.Y.j.} ..r.7.c.d.<.! ! 3.*.*.<.<...! } +.( D U <.p.+.( ..+.<.3.j.j.r.+.( +.+.3.p.c.j.j.r.} R <.3.r.<.} ..+.( ( ..<.*.<.r.<.*.<...3.p.d.A.Y.Y.!.!..X`.c.7.7.r.7.r.d.j.V.c.j.j.G.A.V.c.c.Y.!.A.G.!.V.j.j.d.j.r.3.+.*.! ! <.<.<.<.d.7.<.",
"!.`.!.A.!.&X.X!.!.`.;X/.Y.Y.V.G.!.!.`.!.!.Y.!.!.[.L.j.G.~.G.j.C.`.!.j.<.} +.5.D.!.c.Y.`.!.c.A..X#X/.Y.G.c.d.7.<.#.] +.>.o.<.<.! A } <.p.C.!.!.!.!.j.<.<.7.7.i.j.V.5.+.>.7.N.!.`..X&X;X;X;X;X;X`.Y.j.j.7.j.#X/.!.!.`..X/.!.A.p.<.V.j.c.G.A.j.d.j.j.G..X&X/.Y.V.j.r.7.7.<.3.j.r.<.c.V.j.d.r.d.V.G.!.A.j.p.7.3.p.c.!.&X#X/.`.!.j.j.7.A.Y.<.<.3.j.j.d.j.!./.!.V.j.j.G.A.Y.Y.p.7.<.j.j.j.!.`.j.r.j.7.c.p.-.} ! R <.j.j.<.d.r.( *.d.j.;X[.=X$X[.;X!.V.j.G.j.C.D.a.j.V.c.3.p.d.Y.c.7.3.d.d.p.j.d.d.A.Y.c.A.Y.!.!.!.!.!.!.Y.!.A.G.!.A.c.!.A.d.r.j.!.!.!.j.c.G.!.!.!.Y.Y.A.V.Y.!.#X;X!.!.A.!.G.!..X/.!.&X`.&X5X`.j.`.;Xj.7.G.c.j.3.j.d.<.j.&X;X`..X#X&X.X!.`./.!.!.`.`.&X!.V.V.G.!.`.Y.j.d.r.A.j.r.<.r.r.7.<.<.*.3.c.G.c.c.Y.c.<.} <.j.7.j.A.!.A.j.r.r.Y.d.A.!.Y.7.c.d...<.7.7.c.!.d.+.<.j.G.G.V.j.j.7.r.G.V.j.d.3.j.j.p.p.j.G.j..X!.V.3.j.&X`.p.<.<.3.<.} *.<.! *.G.!.c.j.j.Y./.`.#X`.`.!.&X.X`.!.! ! 3.Y.7.+.p.j.V.r.+.<.( } p.<.J ( ! ! } j.j.( <.!.!.A.A.! <.`.3.! d.! R ..j.<.<.7.j.<...<.r.A.j.c.V.Y.!.!.! <.<.j.;X.X`.`.j.<.j.j.r.( ! ..<.<.<.r.d.V.!.j.3.<.j.G.j.*.+.7.j...! j.3.! R U D *.<.d.h w <.j...j.!.V.A.j...! *.<.V.V.j.j.j.<.r.<.j.A.*.v R j.!.} C 7.j.V.r.*...+.*.+.*.} ( +.+.U C ! <.j.j.Y.!.A.p.<.<.c.j.!.G.*.+.d.p.r.r.r.( ! <.( ! } ( U R ( ..( D ! r.j.p.r.7.3.7.3.c.G.j.<...| ! *.r.j.j.7.+.! ! ! ..<.<.+.....( ! } <.+.( *.+.} ..} j.A.j.V.A.c.c.G.!.!.J.p.3.<.r.d.j.c.V.V.j.j.j.j.p.d.V.!.Y.d.A.Y.p.<.r.p.3.} 3.+.<.3.<.*.+.<.<.r.3.<.",
"!.#X!.p.j.`..X!.!./.`.!.!.`././.!.!.!.!.A.V.A.Y.[.#X`./..X!.L.`.[.G.a.<.<.p.j.!.c.d.G.!.c.p.d.!./.!.A.j.r.<.<.<.l.j.<.+.<.5.5.5.7.| <.j.!.!.G.l.0.#.<.a.<.>.7.g.j.<.} +.1.l.!.!.$X;X&X.X.X#X$X#X/.c.j.7.j./.j.+.p./.;X`.G.G.G.j.j.r.p.c.j.d.7.<.V.j.A.!.V.d.r.7.r.j.j.7.p.p.<.<.j.j.j.7.3.d.V.Y.V.j.j.j.c.V.V.V.V.`.&X#X.XG.r.<.<.j.V.<.<.<.p.d.d.c.!./.Y.A.G.Y.A.V.!..Xp.<.7.j.c.c.A.j.+.<.j.7.3.7.<.3.<...3.p.c.r.7.7.( +.Y./.=XD.).).G.D.G.G.L.L.G.G.G.j.a.V.!.p.j.c.A.*.! ! r.3.3.j.j.d.V.Y.V.V.V.A.G.!.!.!.`.!.!.V.G.!.G.V.j.c.j.j.Y.!.G.A.c.Y.!.Y.G.Y.V.j.7.r.V.!././.Y.A.!.`.Y.A./..X!.`.!.;X5X.XV.Y.!.j.j.V.r.p.7.3.*.+.r./.&X;X;X`.`..XY.`.!.!.!.!.!.!.!.Y.Y.V.j.G.G.j.j.<.p.j.j.*.<.*.p.p.7.<.3.j.c.p.V.c.d.p.3.<.j.j.j.d.p.3.7.<.<.d.*.j.!.c.*.3.p.c.j.j.d.d.j.j.r.3.d.Y.!.V.d.j.j.L.;X!.j.j.d.r.<.<.<.<.d.<.!.!.!.c.!..X!.3.( +.3.+.*.<.<.( +.d.p.7.7.p.Y.!.!.&X;X.X&X#X!.!.!.+.( 3.G.Y.<.<.3.<.*.<.3.} ..G.j.} *.*.! } <.<.<.d.!.&XG.Y.G.j.j.Y.G.j.<.*...} R <.j.G.+.! <.r.j.p.j.!.!.!.Y...j.r.d.#X;X.X/.j.<.p.j.7...<...7.d.<.<.<.p.p.<.*.d.!.;Xj.! ! p.V.3.<.Y.d.....R k D R r.<...!.Y.( ..d.3.3.3.( <.j.<.3.j..Xr.<.<.<.c U j.<.! +.r.d.N k *.<.j.j.<.+.( } *.<.+.+.<.<.J c N +.A.!..X!.V.r.! D ! 3.!.Y.<.<.j.7.! ! *...7.p.! D ! ! ! +.7.7.<.( ( <.3.3.7.<.3.j.j.V.A.j.r.7.<.....<.<.3.<.! ! <...} <.<.+.! ! ! ! ..<...! } +.<.*.+.d.c.c.Y.!.A.c.Y.G.Y.A.d.r.<.3.7.p.j.j.c.j.j.p.j.j.j.Y.!.c.3.j.V.p.r.j.j.p.<.<.+.3.p.<.....<.3.r.<.<.",
"!..XG.<.r.!./.!.Y.j.j.j.!.&X.X!.Y.!.!.!.!.!.!./.;X;X#X!.!.d.C.;X!.p.>.<.j.V.N.W.7.<.j.G.j.7.7.c.A.j.d.3.<.<.<.j.!.C.5.<.j.W.!.!.V.! | p.N.j.j.j.0.#.i.j.<.+.i.j.<.] ] <.p.W.+X`./.~.!.G.!.!.[.&X!.G.`.!.Y.!.c.3.3.!..XY.j.G.!.A.G.j.r.d.p.p.j.7.G.r.7.j.j.p.p.r.j.c.c.d.j.j.<.7.j.V.G.j.d.j.!.#X!.Y.A.V.V.G.Y.G.V.!./..X#X!.j.7.<.r.d.<.7.<.7.r.j.j.j.j.j.A.!..Xj.A.#X;Xj.<.7.r.p.d.p.} ! <.j.d.7.3.7.r.+.<.G.c.7.p.<.7.3.<.Y.#X).j.!.D.p.5.p.j.G.j.j.l.V.j.i.l.`.j.j.Y.!.7.<.p.G.c.7.7.j.j.c.G.Y.A.c.c.c.A.!.!..X!.V.j.V.!.!.!.j.G.A.V.G.A.c.A.j.c.c.c.G.!.!.j.j.j.G.!.!.!.A.j.c.G.c.j.!..XY.A.#X/.Y.!.!.G.j.j.d.*.} d.7.*.} } +.V.!.#X&X!.!././.`./.!.!.Y.A.V./.`.!.!.!.p.<.d.j.} 3.V.V.7.r.<.r.p.7.r.p.j.j.<.p.j.7.7.<.<.p.3.( ..+.<.r.r.7.j.*.p.!.`.j.7.*.V.G.j.j.7.<.7.7.7.r.c.Y.j.w.r.j.j.#X/.j.j.d.<.<.3.3.<.d.<.c.G.Y.!./.G.V.<.R ..3.*.<.3.<...+.3.3.r.7.<.!.!.j.!.#XA.r...<.r.<.! ....c.`.<.<.3.<...( 3.<.7.!.j.} ! ( } } } } 3.j.c.!.`.!..X.X!.c.j./.G.7.} ! R <.d.V.<.<.*.+.p.<.r.`..X!.A.*.j.r.<.Y.&X/./.j.7.V.V.j.<.<.} d.j.+.} <.r.3.j.j.A.!.5X;X7.! <.p.3.<.c.d.d.p.+.n D V ! <.R 7.j.! ! 7.} U +.+.p.j.k 7 e *.p.*.<.+.h R j.*.*.d.p.7.} ! j.!.!.J.r.<.<.<.*.R ! ..p.j.<.J n D c.G.!.A.j.j.<.+.<...7.j.p.7.r.<...} <.<.j.d.+.} U ! ! 3.j.7.<.! ! <.<.3.3...<.A.Y.V.V.j.j.j.p.r.3.<...+.*.! ! <.<.*.<.<...! ! ! ( *.<.*.....<.j.7.7.c.V.c.c.j.j.j.!.Y.c.d.7.j.p.<.<.<.7.p.p.p.r.<.j.A.A.G.c.p.3.7.7.<.7.j.c.j.7.*.+.<.<.+...<.<.3.<.+.+.",
"!..X~.G.!.`.!.c.c.d.7.d.A.Y.V.j.G.Y.!.!.!./..X#X&X;X/.c.j.<.d./.j.>.] >.0.<.#.7.<...j.A.j.j.r.j.d.3.<.*.*.*.<.j.W.D.g.p.G.).).].G.} ! ] <.<.j.W.D.p.p.j.<.+.7.a.<.<.p.l.j.G.).!.G.c.j.j.Y.!.!..XG.c.!.!.j.p.c.!.!.;X#X!.!.`..XG.!.c.d.j.p.j.!.!.V.7.7.d.p.d.j.j.j.j.c.j.j.j.j.j.V.!.#X!.!./.#X,X;X`.!.Y.j.j.G.Y.!.Y.!..X&X#X/.!.d.j.j.<.d.r.3.<.j.j.r.<.p.Y.`..Xc.G.`.#Xr.3.r.3.3.d.p...*.j.r.7.d.p.d.V.d.j.!.j.7.p.j.c.c.j.G.!.W.j.L.l.a.i.j.i.j.7.0.l.j.i.j.l.G.7.p.V.!.j.V.c.V.Y.r.*.r.j.A.Y.!.Y.Y.G.V.c.G.!.!.Y.c.V.Y.G.V.V.A.!.Y.V.A.c.j.G.G.V.c.A.Y.!.Y.A.A.j.j.A.j.j.j.7.<.<.7.d.!..XY.A.#XG.d.c.!.!.A.V.7.<.} d.d.7.<.*.<.G.!.`.#X/.!.!.#X/./.`.!.A.A.Y.!./.A.!..X7.<.V.*.C d.#X.X!.G.p.j.j.d.j.c.V.A.p.p.c.p.<.! ! +.! N R +.p.c.V.A.G.j.j.!.&X!.d.! r.c.j.j.r.<.3.3.7.<.j.Y.p.p.3.d.<.Y.!.c.j.j.*.*.p.p...7.*.7.G.j.A.!.V.!.c.<.<.<.<.<.<.<.! } <.<.7.j.3.!.G.*.r.j.<.n k ..<.} } <.*.<.<.( +.<.7.<.} ( <.7.j.p.<...*.3.<.*.} <.<.+.<.V.&X`.!.#Xj.! 3.*.U J } } *...<.<.d.3.<.d.<.j.`.#X/.!.r.d.p.<.!.;X!.!.j.j./.Y.A.r.+.*.d.r.<.! 3.j.d.`.!.V.d./.;Xj.! ( ( ( ( <.7.G.j.3.R E U N J h R r.! ! 7.! N c U -.*.r = ; c <.} ....U <.d.7.<.c.j.<.! ! 3.V.`.A.<.<.7.d.j.<.( <.j.V.c.d.<.3.j.j.V.j.j.j.<.p.G.} ! j.V.p.7.j.j.j.j.p.j.<.<.d.d.V.V.!.V.<.+.! } 7.7.j.j.<.r.!./.G.Y.A.c.j.r.j.j.d.....<.} } +.+.<.p.3...} +...<.<.*.<.<.+.<.j.r.r.j.A.c.r.+.<.j.`.!.j.7.3.j.j.d.3.<.3.r.7.3.3.<.d.c.c.c.j.3.3.A.j.3.r.j.j.V.j.j.3.+.......*.*.<.*...<.",
".X/.!.!.`..X!.j.<.<.7.j.j.d.j.c.G.G.G.G.Y.Y.!.!.!.;X#XG.Y.p.j.A.j.<.<.0.i.#.o.j.d.<.j.Y.G.A.p.7.3.*.+.+.*...( 7.j.j.j.N.G.!.!.!.V.<.#.| 7.7.p.N.j.<.<.5.7.1.0.g.j.V.`.`.j.p.j.j.j.a.0.l././.!.!.!.c.!.;XY.7.c.`.!./.!.!..X&X&X!.!.G.V.A.j.j.!.G.j.d.j.j.3.7.j.j.j.j.G.j.3.j.A.A.j.V.!.!.!.`./..X/.!././.V.j.V.G.G.V.!..X`.`.`.!.!.!.j.<.d.r.<.*.<.d.r.<.j..X&X.X!.!.`./.p.j.A.c.d.j.r.! <.A.j.Y.V.c.d.!..XY.Y.j.j.r.!..X!.!.!.Y.l.j.C.j.j.V.L.p.i.a.j.!.N.<.j.V.G.r.d.A.!.G.A.r.p.`.A.7.j.Y.!.!.!.!./.`.!.c.A./.!.!.j.j.V.j.j.j.G.!.!.Y.!.A.j.j.A.c.A.!.!.!.!./.!.A.A.Y.V.Y./.!.r.3.p.j.!./.V.c./.!.Y.G.G.c.d.7.3.c.3.r.j.c.3.<.j.!.!.Y.!.!.!.G.!.V.A.!.V.j.V.!.A.j.*.d.V.<.p.!.Y.+.!.;X!.`.;X!.!.!.G.Y.A.G.!.G.j.j.r.r...U ..*.+.*.<.j.G.!.Y.c.Y.A.G.V.7.3...j.G.A.c.<...<.+.( *.j.!.c.G.d.A.r.p.V.j.j.j...} d.A.*.<.! <.`.j.r.r.3.!.!.j.p.<.<.<.7.<.} +.7.3.3.j.7.j.3.U ! ( } +.<.#XY.r.*.( } +.! <.j.+.<.<.<...r.<...( <.( ..p.7.<.( ..<.+.3.<.V.V..X;Xr.U ! ! J J U J *.*.<.d.!.!.V.j.r.Y.Y.!.!./.j.d.p.*.!./.j.7.<.c.;X!.G.j.+.p.j.r.j...3.!.j..X`.#X!.`.G.<.) <...<.<.3.7.G.r.r.! D *.+.<.! +.3.N N <.( D s J ..<.N h i C ! ..<.<.<.<.+.j.p.c.j.3.( *.V.!.!.c.3.<.<.d.!./.p.A.!.G.Y.!.Y.!.V.d.j.j.j.V.j./.j.*.*.j.Y.j.j.Y.Y.!.!.V.Y.j.V.!.G.#X#X`.p.J R ! ( <.+.<.<.! ( r.j.p.c.A.j.r.<.d.j.j.*.+.<.<.<.<.( 7.j.r.+.<.3.<.3.<...<.3.} ( 7.7.+.*.p.V.p.( ..d.&X/.V.j.j.G.V.V.p.3.r.d.p.r.r.j.j.j.j.c.j.<.<.p.j.j.j.p.p.j.d.!.<.! +.<.<.<.<.<.*.*.p.",
".X!.G.Y.G.V.c.r.} ..<.r.<.+.r.j.p.j.j.r.j.G.j.r.d.V.c.a.j.l.~.G.<.3.d.c.A.Y.0.c.d.3.l.Y.1.7.r.3.<.*.| *.#.+.<...<.1.d.d.V.Y.a.*.7.3.1.*.<.1.<.0.<...| *.<.<.3.0.A.!.&X.XA.0.<.<.<.~ <.Y.!.L.G.Y..X/.#X&X!.Y.!.!.G.!.`.`.!./.`./.[.!.c.Y.G.A.!.j.p.j.c.c.r.d.7.j.j.G.j.p.j.A.A.G.c.j.G.!./.`.!.!.j.j.;X;XG.Y.A.j.A.V.!.`./.`.#X`.!./.!.V.d.c.j.<.<.<.7.<.V.;X!.Y.`.!.Y.!.j.r.G.!.V.j.p.d.G.Y.V.j.V.c.j./.!.d.j.j.!.`.!.A.3.<.A.j.r.0./.c.r.V.Y.l.3.<.<.<.<.+.<.a.V.r.Y.!./.j.A.j.p.!.c.p.d.Y.G.!.!.!.`.#X!.c.!.!.Y.V.r.3.<.p.A.j.A./.#XG.V.Y.j.j.A.j.V./.`.G.V.G.!.!.!.!.G.A.!.Y.V.V.!.G.#X!.`.!.Y.!.A.c.V.A.A.j.j.c.j.j.G.j.<.3./.&X/.A.!./.Y.V.!.!.Y.!.!.V.p.<.<.( U ! *.+.r.#X&XA.j.A..X.XA.G./.!.!.V.c.V.!.G.r.7.+.<.3.! ! ..+...<.j.!./.V.7.c.Y.c.+.! } *.<.j.!.!.<.<.*.( ( ! !./.!././.!.j.<.+.<.j.c.7.+.<.c.c.<.} <.Y.`.j.*.+.c.,X`.!.d.c.c.A.V.p.p.j.p.<.7.<.p.V.A.d.3.j./.j.d.3.p.3.! *.d.<.d.`.j.} <.<.<.r.3.*.R R *.( J ! } ..J R 7.j.<.d.c.A.#Xd.! ..*.! D ! J ! } +.j.!.!.!.#X!.!.`.!.!.j.p.p.*.<.!.V.j.d.j.j.!.!.p.3.j.j.3.*.A.V.p.!.;X#XA.!./.!./.<.} } <.<.!.p.+.r...} R N ( +.<...! R C ! j.j.<.N *.r...+.U v } +.+.7.!.V.( *.A.V.p.j.<.3.!.!.j.<.<.j.Y.r.<.!.&Xj.G.Y.`.#X!.j.!.Y.p.j.c.!.!.A.!.c.! <.V.V.G.A.!./..X.X!.`./.&X`./.`.`.V.N v ! +.j.3.! } <.*.+.} <.+.j.!.A.r.d.j.7.p.<...} ! ! <.*.j.p.d.<.*.V.j.r.} ! ( +.( ( 7.r...R ( 7.p.3.<.p.A.Y.Y.j.d.c.c.Y.G.j.V.j.V.j.V.j.d.r.r.r.3.<.<.<.7.p.j.d.c.V.<.d.G.7.<.j.<.} 3.<.<.*.<.",
"/.!.V.c.j.r.3.+...*.<.7.<.+.7.r.+.<.<.<.3.7.<.+.! <.3...*.1.!.`.3.<.d.!.[.[.j.C.p.0.c.V.| ..*.<.+.| ! ..+.<.0.<.<.*.<.<.0.j.d.j.j.j.r.<.*.<.<.7.<.<...( ( ..<.0.c.!.[.L.1.+.<.<.1.*.p.!.!.A.A.Y.!.!..X#X/.!.`.`.Y.!.!.Y.V.!.`././.!.V.Y.G.A.!.c.d.j.G.A.p.d.<.r.j.V.j.3.r.d.j.V.j.7.j.j.V.!.!.!.c.j.#X!.p.c.G.A.c.c.!.#X.X!./..X!.!.!.!.Y.V.j.d.} <.j.j.j.z.d.A.!./.!.!.c.7.j.Y.j.V.V.A.!.!.V.c.j.j.d.G.V.j.!.!.!.!.j.7.<.<.j.c.j.j.!.c.l.!.[.G.r.p.1.+...*.*.#.<.j.;X`.!.V.!.G.j.Y.j.d.j.!.A.G.!.!.!.!.G.A.!.G.j.j.r.7.<.r.A.A.G./.#X!.!.`.!.!.G.V.!.#X`.c.j.A.!.Y.G.!.G.V.!.Y.j.V.!.Y.;X/.#X;Xc.!.G.d.j.V.V.V.G.V.d.j.G.A.j.j.!.#X`.Y./.`.!.!./.!.c.V.!.j.+.! ( ! U ! *.*.*.r.G.G.A.c.Y.!.Y.A.`./..X!.G.Y.`.!.p.3.} 7.j.<.} ( +.<.r.c./.!.j.3.!./.Y.7.*.<.<.3.r.j.A.r.p.*.! } } !..X`.`.!.!.d.d.7.7.j.G.j.<.<.j.d.<.<.<.3.G.#Xp.3.A.;X#X&X!.!.#X`.!.G.A.V.V.c.d.j.A.G.!.&X/.!.`.!.A.<.3.r...*.j...<.!.d.+.3.<.7.c.V.<.J D ! U ! ! ( ! C R d.G.V.<.*.} <...! +.R D ..<.J ! 3.c.!.!.!.!.#X`.`.!.V.c.3.*.3.<.<.j.A.j.p.d.7.c.j.<.p.!.!.r.+.A.G.A.;X!.j.r.j.d.c.#Xr.} ! ....j.<.3.j.3.+.U N 7.p.r.U N +.j.j.!./.j.p.j.p.+.<.*.D ( <.j.j.Y.G.r.r.c.j.*.3.d.c.!.c.r.<...d.;Xc.( p.G.j.j.j.G.;X!.c.G.G.j.G./..X.X!.&Xj.} <.c.j.j.V.`.;X#X#X/..X!.`.!.!.#X/.+.a z ! *.d.3...r.Y.I.j.7.3.<.j.c.j.3.7.<.r.c.j.3...J J ..<.*.! <.<.<.V.A.d.+.! ( <.+.*.p.d.<.! ! +.<.7.j.j.G.!.!.A.p.j.G.G.j.3.d.j.A.V.Y.Y.j.7.<.<.<.<.3.p.r.d.V.j.j.c.r.<.r.<.7.d.+...r.3.+.! R ",
"!.!.G.G.j.p.p.<.( +.<.7.7.d.G.Y.<.7.3.<.3.<.<.<.7.C.Y.d.3.#.j./.c.1.p.!.!.!.d.l.p.7.j.G.r.j.0.*.| ( ( +.<.1.a.0.*.+.<.<.<.7.j.!.A.c.j.<.*.<.3.d.p.r.<.*.<.1.3.j.c.L.`.C...! <.<.r.0.j.A.c.p.r.j.G.!.`.`./.`.#X.X!./.`.!.V.A.A.j.Y.G.c.A.c.l.!.C.G.Y.L.A.j.c.d.p.d.j.d.3.p.d.j.A..XG.j.p.d.G./.#XY.G.#XA.<.j.G.A.V.V.!.&X/.V.c.A.A.V.Y./.!.c.d.p.! 7.!.V.d.p.p.G./.#XY.V.A.p.r.A.j.!./.!.!.V.j.Y.!.j.j.A.A.!./.Y.!./.Y.A.G.Y.A.V.G.!.[.!./.$X&X!.c.c.d.0.<.#.*.d.d.Y.;X!.V.j.`./.!.!.d.c.A.!.G.G.`.`.!.Y.G.Y.!.G.j.d.r.r.7.p.A.G.!.!..X`.`.`.!.!.!.Y.!..X!.j.j.Y.!.!.!.!.!.Y././.!.!.!.V.!.d.j.Y.d.!.!.7.p.V.j.A.V.p.3.p.c.Y.Y.Y.!..X!.Y.!.`.`..X.X!.d.j.!.j.*.<.*.3.<.<.7.7...! *.c.Y.G.Y.!.#X&X&X.X#Xj.3.p.!./.V.7.( 3.!.V.3.<.<.j.j.j.A.A.j.V.!./.!.j.3.<.d.j.7.<.r.r.A.d.*.+.*.G..X#X/.Y.A.3.j.c.A.G.c.3.%.*.j.p.<.3.3...7.!.V.V./..X*X;X#XG.!..X`..X!.V.Y.Y.`./.!.c.c.#X`.j..X#X/.d.d.j.7.7.r.! } r.<.*.p.3.<.d.G.r.! ! ..! ! ! ( } ! ! *.} j.+.! D ! ! ! } ..! 7.3.J J <.!.#X!.`.#X!.G.`.!.V.V.3.} *.<.*.<.j.j.p.j.<.<.+.! <.d.j.3.7.G.d.j.&X!.p.! z z ..!.r.j.j.j.p.j...( <.j.V...v ..j.!.*.N j.;X!.`.`.V.A.c.3.<.<.j.+.+.p.c.3.<.A.!.Y.!.V.<.r.Z.c.r.+.<.<.U J <.! N <.A.j.<.( +.!.G.j.G.Y.V.!.#X.X!.Y./.V.<.<.p.p.7.j./..X!./.`.;X/.`./.!.#XY.! c } <.<.<.<.7.A..X.X!.Y.r.3.j.j.j.<.7.<.3.j.j.<.*.! ! *.<.R N ! *...<.r.c.d.<.3.p.7.7.j.r.3.+.( ( } *.p.j.V.j.7.j.p.V.G.j.3.+.d.c.!.V.c.j.j.r.<.<.7.7.3.r.3.d.G.j.<.<.<.+.! ! <.7.<.*.<.3.<...} ",
"!.!.Y.G.j.3.3.*...<.<.<.p.G..X&XA.j.r.3.<.<.<.<.r.C.!.l.a.<.j.`.!.l.j.A.c.j.<.d.A.d.a.j.3.j.<.! ....<.r.a.d.a.1.<.7.d.r.<.*.7.c.l.j.l.r.<.r.j.c.G.c.r.0.d.3.<.p.j.d.Y.!.<.*.j.C.j.j.j.j.d.7.3.r.V.!./.!.!./.`.!.!./.#X.X!.V.j.7.A.A.V.A.j.j.!.Y.#X/.V.p.r.j.j.r.j.j.j.d.c.V.V.!.`.Y.V.j.j.V.A.!.!.!.#X!.j.c.G.V.Y.Y./..X!.j.p.p.j.j.V.G.Y.c.7.<.7.!.#Xj.<.j.j.j.A.!.r.<.j.j.r.j.j.!.!.!.!.G.c.!.A.r.c.!.!.`.!.j.V.!.=X,X`..XG.d.A.!.!.!.!.Y.L.Y.A.V.r.p.3.<.<.A.Y.!.!.Y.Y.j.Y.Y.j.7.<.j.c.Y.G.!.!./.!.Y.A.A.!.!.V.d.r.j.j.c.G.G.!.!.!./.`.!.V.A./.!.G.Y.!.G.Y.!.`..X!./././.&X&X.X&X`.V.Y.r.d.!.j.G.G.3.j.Y.j.A.G.j.j.V.Y./..X`.`.`.Y.A.!./.`.#X#X!.G.A.A.p.<.j.*.7.3.*.<.r.3.<.r.r.<.d.!..X&X.X/.!.!.<.J R j.Y.j.r.*.d./.V.*.( +.p.d.<.<.7.j.!.Y.V.c.j.3.<.j.j.*...*.+.j.j.3.*.} 7.c.Y.V.c.V.<.<.j.V.j.r.<.*.<.<.+.! } <.*.<.V.V.A.!.!.#X`.j.N } A.`.&X!.Y.^.V./.Y.Y.j.p.Y.!.j./.`.#X!.!.Y.j.c.7...+.......3.<.} } d.<.! +.( R R ! } +.} ( ..! <.+...! 7.*.( <.G.j.r.} ! ! <..X;X`.#X#XG.j.!.G.7.p.3.+.+.*.<.p.j.j.A.!.j.d.r.r.7.+.+.<.7.<.N U !.&XA.! a z +.d...j.c.j.p.j.} ! } j./.r.n J <.!.<.N c.;X!./.!.j.!.!.<.+.! p...<.c.V.<...j.V.c.!.p...+.<.<.! R +.p.*.( ! ! ..d.c.j.*.R ! G.p.<.j.V.j.j.A.j.7.p.j.A.<.! *.<...<.c.!.c.!.#X;X`.`..X;X`.r.N J r.3.r.r.d.j.V.!.!.`.`.Y.j.V.V.j.<.7.p.A.A.p.<.7.r.3.7.p.} ! <.7.<.*.+.A.V.r.<.<.*.<.<.<.<...! } ( ! +.r.7.} N 3.j.!.G.p.+.R <.d.V.d.p.<.p.j.p.r.p.r.<.<.<.j.!.j.*.<.3.! N N ! } +.<.*.+.+.*.<.",
"/.!.A.c.r.<.<...3.r.7.<.3.j.G.Y.!.c.p.7.<.*.*.<.0.V.Y.0.r.d.C.Y.c.!.Y.A.c.j.*.p.V.j.j.r.} #.! R #.<.d.C.A.V.d.<.#.p.c.j.<.#.<.3.7.1.d.d.0.d.j.V.!.G.j.c.C.0.<.j.j.#.p.L.7.*.j.c.a.d.0.0.j.j.j.C.V.!./.!.!./.`.!./.!.`.#X/.Y.A.c.!.!.!.!.A.A.!./.#X/.c.3.3.d.c.j.j.c.d.r.j.V.c.G.c.j.j.d.j.c.c.P.Y.G./..X!.!.Y.Z.Y.!./.`./.!.c.j.G.V.j.c.Y.c.<.<.j././.3.+.j.c.p.d.c.7.+.p.G.V.c.<.d.j.A.#X.XY.A.3.*.c.Y.c.G.G.V.r.( 7.!.p.V.G.d.A.G.c.L.Y.j.d.A.A.C.3.3.r.V.d.a.!.G.c.G.!.c.G.G.7.<.<.V.c.A.A.G.V.V.j.c.V.c.G.!.G.j.j.V.A.G.!.!.!.!.!.`.#X!.V.G.G.G.Y.Y.!.!./.!.!..X!.Y.Y./.&X#X.X;X#X!./.j.j.`.A.c.d.<.j.Y.d.A./.G.Y.!.!./.&X#X&X`.!.G.!..X`./.!.!.#X;X!.j.<.j.7.<.+.} *.7.j.c.`.V.<.p.!.!.`./.!.G.#XV.<.<.c.Y.j.j.j.c.!.d.! ! ..*.3.3.<.r.V.Y.j.j.c.V.*.} j.c...<.7.( <.r.d.p.<.<.7.p.3.r.d.+.} <.<.<.3.3.7.p.3.<.} ! } +.r.`.j.j.j.c..X!.<.e ! j.!.`.G.V.V.*.j.j.!.G.j.Y.!.Y.!.!.#X#X`.Y.j.c.j.<.<...<.+.<.7.<.} d.r.( ! D N ! *.7.3.( U } *.} } +...7.<.r.!.A.7.<.! ..! <..X;X#X!.`.!.!.!.V.*.*.<.<...} <.j.7.d.c.Y.r.<.<.d.A.7.<.r.7.+.D 3..X!.j.j.7.V.Y.j.7.7.3.7.<.( v v ! ! ..+.! ..+.j.<.J j./.c.j.j.A.#X.X<.R D <...j.j.V.d.<.j.d.3.d.<.( ! ! } +...<.r.p.j.<.*.r.*.1.! N N ( A.7.<.Y.p.<.*.<.+.} <.p.p.+.! ..*.! ! <.r.3.c.`.;X!.#X#X.Xj.C r v <.r.!.!.Y.A.V.G./.`././.Y.G.V.j.<.j.V./.A.d.<.<.<.<.*.j.j.V.A.G.Y.c.r.!.A.<.! ! ! } ( ..*.! R } +...<.j.r.( n <.j.Y.j.<.( J ..<.p.<.+.<.d.j.d.3.7.p.r.<.3.d.Y.!.c.c.j...! ..} J ! <.<...} ..+.",
".X!.G.c.p.<.<...3.p.r.<.3.j.j.j.j.p.p.d.r.3.7.p.p.G.!.<.*.e.0.( d.~.A.j.j.j.*.r.d.d.d.r.....! ~ +.*.j.G.Y.Y.j.0.<.j.V.l.r.<.1.1.<.| 7.j.p.j.j.j.j.A.!..X[.V.j.Y.j.<.d.!.j.7.0.<.j.d.<.*.7.7.<.7.A.!./.!./..X.X`.`.!.`.#X`.!.!.!.!.!.!.!.Y.Y./..X/.`.!.j.d.r.j.j.j.c.r.<.r.j.d.j.A.j.j.j.j.j.j.A.!.Y.!.#X#X/.Y.V.G.!.!.!.`./.G.j./.A.d.c.!.j.*.<.p.V.V.3.*.j.V.j.j.G.G.d.j.!.A.j.<.r.j.V.Y.Y.Y.!.j.<.j.j.p.j.j.A.d.k k 3...7.V.j.j.j.d.A.!.c.1.a.A.j.3.j.j.G.p.1.j.A.c.V.Y.c.!.!.A.j.G.&X!.Y.G.V.j.j.7.d.V.G.!.Y.!.Y./.!.A.A.G.!.!.Y.A./.#X!.V.A.j.A.!.!.!.!.!.Y.Y.`.!.A.A.!..X.X.X;X&X`.`.c.d.c.!.j.3.<.j.V.d.G.Y.V.V.G.A.!..X&X&X#X`.!..X&X.X!.c.d.!..XY.d.1.<.j.3.*.3.j.j.j.c.!./.Y.Y.!.!.`.;Xj.<.A.G.c.c.A.j.3.d.j.d.j.*.U ..d.<.<.7.r.V.!.A.!.G.A.V.<.! r.j.p.d.d...<.j.c.j.j.p.d.p.<.p.j.<.*.<.<.*.<.<.<.7.A.j.7...( } 3./.c.c.p.p.c.V.j.N <.p.c.!.!.!.!.p.j.Y.#X!.V.!./.!.!.`.`.!.G.V.d.7.c.+...*.j.<.*.d.r.<.G.V...R J ! <.7.3.<.! N U ( } N ! ! ! ( j.!.<.! <.*.*.R j.#X#X#X!.!.`.`.!.!.7.*.+.<.} ! } 3.d.V.!./.j.<.} *.V.j.p.j.d.p.p./.!.<.U j.j.<.} ( <.<.+.<.3.*.C k C k n } 3.j.p.A.V.<.V.Y.r.+.+.V.!.`.7.+.+.3.} <.d.j.d.<.p.A.d.<.! +.+.} *.<.<.7.A.j.V.<.+.3.<.G.3.( U ..3...<.!.<.} ( ( ! } <.r.*.( <.d.d.*.! *.3.p.c.&X,X/.;X!.N h 7 : k <.d.!.j.V.!.!.!..X`.!.!.!.A.d.7.<.j.c.Y.c.A.c.*.} <.<.p.c.Y.A.A.!.!.j.G.V.<...<.<.+.U R ..( ! *.<.<.r.V.j.7.*.c.j.j.<.*...( <.3.r.+.} <.d.j.j.r.p.j.j.d.7.<.p.V.A.A.d.+.} <...! *.p.p.*.+...+.",
".X/.!.Y.j.3.+.U } <.p.7.j.V.j.j.3.7.j.j.p.r.j.Y.c.Y..Xj.p.j.j.+.p.V.3.*.1.a.<.7.c.d.1.<.( +.! ....| 7.j.c.Y.C.c.j.C.c.c.d.1.3.3.1.! <.j.d.d.j.d.r.l.!.!.!.G.j.d.j.j.G.!.Y.!.Y.3.*.<.( ( 1.1.<.r.G.!./.!.`..X.X.X`..X#X#X`..X.X!.!.!.!.!.!.!./..X`.#X.X!.V.3.7.<.r.c.j.<.p.j.j.j.c.j.G.!.!.c.r.j././.`.#X#X/.Y.V.G.!.!./..X!.V.j.!.A.d.j.Y.s.+.<.d.j.j.r.<.r.j.p.p.G.!.j.j.c.r.r.p.j.G.c.r.p.G.#X#Xj.r.d.p.7.p.V.`.J f *.<.r.j.p.l.A.!./.[..Xj.l.c.3.<.A.j.c.0.3.<.Y.Y.G.c.r.c.Y.Y.V.!.&XA.G.Y.j.p.j.r.7.j.Y.!.G.!.!.#X!.V.A.G.!.G.A.j.!.#XY.V.c.c.V.G.Y.A.V.A.G.Y./.!.Y.Y.A.!.#X.X&X#X.X.X!.j.j.!.V.d.d.j.j.j.Y.G.c.c.V.G.!..X&X.X&X#X`..X;X#X!.V.7.j.c.j.p.}  .p.<.<.c.!.V.j.V.V.Y.!.G.!.`.!.!.j.( r.c.Y.!.!.V.7.V.!.G.Y.p.+.j.G.3...<.d.A.!.G.!.c.} <.c.j.j.j.j.<.<.+.j.c.j.p.d.d.c.j.r.j.!.V.r.p.3.<.<.<.<.<.j.d.7.} ! ..<.V.G.G.3.3.<.d.!.c.A.V.!..X`.#X#X!.!./.#X!.A.!.!.!.!.`.!.V.j.j.d.<.j.( *.<.j.<.<.p...+.G.A.} R ( <.p.<.+.<.+.! } <.<.N U ! ! R <.j.+.! 7.p.r.R G.;X`.#X!.!.!.`.#X`.j.<.<.<...( <.d.c.Y.!./.j.3.( ( p.c.j.j.<.<.<.<.+.! D p.<.! ! *.....} ( ..<.( N D U <.V.Y.`.Y..X!.j.G.Y.j.<...r.<.7.<.7.j.j.7.7.j.p.3.( +.V.j.} N ( +.+.<.<.<.d.A.d.r.+.! ..r.V.<.} C ! D C C *.+.! *...! *.<.3.*.} j.!.!.j.+.+.<.p.d././.3.*.h * = % , U j.j.j.<.d.G.j.d.G.!.!.!.Y.j.<.<.*.j.j.d.<.j.G.+.( <.*.<.3.r.r.r.j.j.3.r.d.*.<.r.<.*.U R *.*.+.3.7.<.<.r.r.7.j.!.Y.c.3.<.<.*.<.*.7.3.7.*.7.j.j.j.j.j.j.j.r.+.*.3.p.p.<.*...*.} ( *.*.*.*.+.+.<.",
"Y.!.!..X!.j.<.D R ..p.d.c.A.p.r.d.j.!.Y.d.d.Y..X/.A./.A.p.1.0.3.7.7.~ ( <.j.p.7.j.r.3.3.<.<.( *...~ *.<.p.A.G.Y.j.a.3.j.j.7.a.d.p.( <.l.j.j.j.j.r.d.d.r.j.Y.A.0.c.A.A.a.r.!.~.3.<.1.#.*.p.r.1.j.G.!.!.!.`.`.!./..X&X#X!.!.#X;X/.!.!.!.!./..X#X;X/.`.`./.`.c.j.<.<.c.A.j.V.!.!.!.c.j.G.!.`.Y.j.Y.!.#X#X#X&X.X/.Y.A.!.`.&X;X!.G.Y.V.!.c.j.A.j.<.3.r.r.r.3.<.r.d.3.r.c.V.d.V.c.<.r.c.c.G.V.r.d.Y./.!.d.3.d.p.<.r.Y.&X<.k +.p.c.j.d.p.l.L.j.a.G.a.j.c.r.<.V.j.`.G.r.r./.!.c.3.! 3.G.!.A.Y.!.p.j.V.p.3.V.j.<.r.V.Y.c.G.G./.!.A.!.!.!.V.c.j.!.&X!.Y.G./.V.j.j.j.j.c.!.G.!.G.!.Y.j.G..X`.`././.`.!.A.j.Y.Y.A.G.A.j.V.!.Y.A.c.A.!.!.!.`./.&X&X!.!.#X;X.X!.c.A.Y.`.!.d.j.c.r.d.G.Y.j.c.!.!.!./.Y.G.Y.A.!.A.! 3.j.Y.!.!.A.d.A.G.j.j.3...j.!.d.<.3.c.G.!./.!.Y.( } c.d.7.d.c.+.*.r.Y.V.j.j.r.j.G.j.3.j.V.j.r.<.+.*.r.p.7.<.d.j.j.+.! <.j.Y.A.c.( <.+.p.!.V.j.j.!./.!./.`.!.`.`.`.!.!.!.G.G.!.!.G.v.j.j.j.3.*.! r.p.j.d.V.c.( *.Y.Y...! <.r.<.3.p.!.!.j.p.j.c.+.} ..<.( } 7.+.} *.<.r.D j..X#X#XG.G.!.#X#X!.G.j.p.r.<.*.p.A..X`.Y.G.p.<.! ! +.j.j.c.<.....! J <...r.<.r.<.( ! ! ( *.} R ! U J +.V.`..X;X!.!..X!.V.j.j.p.7.7.+.} ( +.p.j.V.c.7.*.<.! J 7.j.*.R ( ( ..<.<.<.p.V.j.7.+.U ..d.( N U U <.} ..C D R R <.<.} <.<.3.<.( j.`..XG.+.( <.j.d./.!.! v * $ ; 1 r 3.V.A.!.Y.j.p.! ! d.!./.d.3...*.p.3.G.!.A.<.j.!.<.*.3.( +...} <.3.r.d.<.<.p.<.<.<.*.<.....7.<.+.3.3.....<.3.<.r.c.!.c.+.! <.<.<.+.<.3.r.7.p.d.j.j.c.c.j.j.d.<.<.<.<.7.r.<.<.r.<.<.+.! +.<.<.<.<.",
"`.!.!./..X!.d.<.} } <.V.!.G.d.<.7.7.j.G.j.G.!././.!.!.Y.j.<.<.<.3.} } d.c.r.<.7.p.1.<.0.V.g.} +.<.<.7.0.1.j.!.A.j.7.+.7.j.r.j.j.d.*.r.j.d.j.j.d.p.j.A.r.3.j.d.3.j.A.!.A.A./.G.*.<.p.7.<.r.7.<.3.j.Y..X`.!.!.!.!.!..X&X$X.X.X&X.X~.C.L.+X[.!.).$X!.G.!.&X.X`./.j.+.p.j.d.V.`.!.A.Y.j.G./.!.G.!.!./..X&X&X#X#X#X`.!.`.!.!./.!.!.G.j.A.A.j.j.c.d.j.j.7.+.<.r.d.j.r.j.c.V.c.Y.c.3.j.V.!.!.!.j.7.j.A.c.7.7.<.+.<.<.c.Y.<.( <.<.7.j.j.p.p.A.<.! r.7.3.p.7.<.3.p.c.G.7.j.V.A.d.+.! +.j.!./.A.A.j.c.j.<.3.7.j.j.c.A.c.!.Y.c.!.!.V.!.!.Y.V.`.!.!.!.!./.G.j.j.p.r.j.G.!.!.Y.!.!.!.p.<.!.&X!.!.!.!.!..X/.c.!.&X`.`.!.G.!.Y.!.Y.Y.A.A.Y.!..X`.`.#XA.G..XG.c..X/.G.G.#XA.Y.#XV.j.d.j.!.!.V.!./.Y.A.!.G.!.Y.G.A.<.7.p.j.G.j.p.<.d.<.D R 3.r.j.j.<.7.c.A.A.G.G.!.j.+.( r.A.j.p.j.<.<.c.V.c.Y.c.j.j.c.j.<.3.r.V.j.j.7.<.<.3.<.<.j.j.d.7.<.d.j.`.c.d.r.j.7.c.Y.d.j.G.!.!.!./././.#X&X/.!./.Y.c.G.`.!.Y.c.+.} r.<.! <.r.+.3./.!.c.j.p.j.c.<.! <.<...*.j.#XY.j./.A.!.d.<.<.3.+...<.<.} } c.j.! c.`.;X~.l.l.`.;X[.!.c.r.<.r.d.j.V.7.j.!.V.*.<.!.G.! ! 7.Y.Y.r.<.<.+.<.<.+.} ..A.j.<.! ! *.<.+.N C } <.r.A.!...k r .././.!.A.j.<...<.J N <.r.3.<.j.c.d.r.} *.! r.V.V.j.<.} ! <.p.<.7.!.V.<.! R 3.j.( C ( ! N ! c.D ! <.! <.<.*.<.<.7.j.( <.d.j.c.<.J ( j.d.A.c.3.*.h C } ( ..d.j.j.c.c.A.j.! +.j.G.j.<.p.<.+.j.G.c.!./.Y.r.+.<.<.*...+.} +.( ( ..( } <.<.} <.3.<.<.( ( c.c.<.<.*.} <.7.<.} *.r.j.c.<.+.<.+.7.r.A.p.p.r.3.r.j.p.p.j.c.Z.V.r.7.d.r.7.<.+.+.p.p.*.+.+.+.+.} ..<.",
"!.!.!.!.!.!.G.A.V.d.<.d.A.c.j.7.<...<.j.c.`./.!.;X&X.X!.A.j.p.p.d.7.p.A.Y.j.j.Y.G.j.j.V.L.j.] ~ <.a.A.l.r.j.!.Y.V.p.<.p.j.p.j.c.p.*.7.j.r.j.j.d.r.d.j.<...<.<.*.j.c.c.j.V.`.!.3.r.j.c.d.p.d.d.j.Y.`.&X#X`..X.X`.!./.[.#X&X;X&X.X[.G.L.~.!.!.!.#X.X`.!.`./.G.!.!.r.d.j.7.j.V.j.j.A.c.G.!.V.A.Y.A.V.!..X.X#X#X#X#XG.!.Y.!.!.A.V.c.p.j.V.d.j.G.!.!.Y.j.*.<.d.c.V.j.A.V.c.j.j.c.r.p.j.!././.j.<.3.d.j.p.j.r.<.<.*.d.d.<.*.7.7.d.G.V.p.j.!.Y.r.3.d.j.p.p.7.7.3.j.Y.r.r.c.G.<.N C *.r.V.Y.c.c.p.j.j.7.p.d.j.p.j.A.c.G.j.j.G.G.A.!.G.c.!..XY.!.#X!.A.c.r.j.j.c.A.!.`..X!.`./.!.d.<.G.!.G.!.!.!.!./.`.!.#X/./.&X.X!.!.!.!.!.!.V.j.G.!. X!.!./.A.G.`.V.j./..XG.j.!.G.Y.!.r.3.3.c.!.Y.Y.`.!.c.j.`.#X#X!.!.G.d.p.<.*.7.<.....j.j.R D 7.j.7.d.7.r.c.j.r.p.p.V.V.d.3.7.j.c.c.p.r.j.!.Y.V.!.G.c.c.V.j.<.7.<.3.<.<.<.r.d.3.<.d.j.p.<.3.d.Y.V.!.7.3.7.j.r.j.Y.G./..X#X`.!.`.#X;X!.`.!.!./.!.Y././.!.!.V.} U ..} ! <.j.j.V..X.X!.!.A.c.V.7.<.3.+.7.d.r.j.c.j.!.!.c.p.3.7.3.<.*.<.3.<.d.!.c.<.!.`.#X!.D.~.;X=X[.).j.j.p.j.c.A.V.3.<.c.d.*.d.Y.j.<.<.c.#X`.p.} ( } ( <.7.7.<.c.j.7.! ( } ( p.d.j.j.!.<.7.R % % 7 h Y.!.!./.Y.r.*.*.J k ( p.7.3.j.j.j.d...3.<.<.<.j.!.Y.j.<.<.r.p.d.G.!.j...U *.A.G.+.*.U D } j.! *.j.7.<.<...R ( <.j.*.*.7.3.*...*.<.V.A.!.!.!.#XV.j.A.c.d.3.<.<.+.7.A.A.} ..p.V.A.A.j.<.<.d.G.!.!.G.c.3...<.7.+.U ! ! ! U ! <.+.} +.<.+.*.! ! 7.r.7.7.+.} <.<.+.3.p.<.! ..3.d.p...<.j.7.p.3.j.3.<.p.d.j.j.c.c.V.G.!.Y.j.j.j.7.<.<.*...3.3.*.<.*...( ! ! } ",
"/.!.Y.G.G.G.A.A.G.j.+.<.d.d.c.r.<.<.r.j.p.V.c.c.;X;X#X/.!.Y.A.G.c.j.j.j.c.c.Y..X!.G.!.~.!.N.<.o.3.c.!.V.p.p.j.j.j.r.r.V.V.j.c.j.<.( <.7.3.j.V.V.r.p.V.d.*.<.7.3.r.j.d.r.j.Y.j.<.r.r.j.j.j.c.G.G.!..X#X`.`..X.X/.!.Y.!.[.;X&X/.!.!.j.j.l.j.j.L.).`.&X!.G.!.Y.!.#Xc.c.c.j.j.V.j.c.V.G.!.Y.c.Y.!.c.c.!.#X#X&X.X!.`.!.`.`.`./.A.j.j.r.j.A.j.r.j.j.j.j.j.<.3.d.p.d.d.V.V.V.p.r.d.p.r.d.j.V.Y.c.3.7.p.j.j.A.j.3.<...<.r.r.p.d.3.3.j.r.V.V.G.`.p.! 7.p.d.j.j.p.<.j.!.p.*.c./.<.h v r.c.j.G.V.c.r.j.c.j.p.j.c.j.c.Y.G.!.A.A.Y.G.G.A.j.d.V.!.r.r.G.V.j.j.j.J.!.!.A.A.Y.!.!.!.!.!.j.r.Y.~.!.!.`./.Y.Y.!./.!.j.!.;X.X`..X.X!.!.`.!.c.!./.`.Y.A.!.A.Y..X!.A..X#X!.!.;X#X/.!.3.p.p.Y.!.j.G.&X`.A.j.!..X`.V.A.<.<.3.*.+.7.<.*.<.r.j.p.3.r.1...<.<.<.d.3...<.<.A.c.c.c.j.p.j.A.G.Y.!.!.V.j.!.!.!.Y.A.d.<.7.<.3.<.+.*.j.!.j.d.!..XV.*.<.A.`.j.j.<.7.d.!.V.V.G.Y.!..X&X&X.X.X.X.X/..X`.`..X!.!.#X!.Y.!.Y.3...<.<.<.<.d.j.Y././.`..X!.G.j.3.3.r.+.<.3.( ! r.j.c.!.!.j.j.A.j.<.<.<.r.j.A.G.p.3.`.Y.!.V.L.$X;X).!.!.Y.!.p.*.p.!.&X`.!.;X!.c./.V.+.+.*.<.c.G.r.+.<.<.r.j.A.G.A.A.<.+.*.<.! R V.#X#X`.!.j.d.s X h A.<.j.G.!.#X`.G.j.V.+.N *.d.p.<.( *.+.7.! ! ..<...<.j.G.!.!.c.d.3.} c.Y.j.<.} } d.!.<.<.! ..<.r.+.r.G.c.<.7.<.R ..r.V.<.! ( ( ! +.7.j.!.&X;X`.!.!.j.r.j.j.j.<.3.j.r.d.!.!.<.7.j.V.V.j.7.<.<.<.j.A.V.V.j.7.+.*.p.3.! ! ! ! ! <.j.p.<...*.*.*.R ! p.d.p.+.! +.7.<.<.3.3.<.+.+.3.j.p.} +.j.p.r.<.j.r.<.d.c.j.j.A.Y.G.Y.Y.G.j.j.j.<.<.<.<.! +.*...*.+.( ( ( } +.",
"oX!.G.G.Y.G.d.<.<.3.! <.p.7.j.<.! <.j.j.+.<.<.j.#X#X`.!.!.!.!.!.A.V.d.*.<.c.!./.!.V.!.`.!.C.i.<.<.0.d.j.j.d.p.d.d.<.p.Y.Y.V.V.j.*.! ..<.<.d.c.V.j.j.G.j.<.<.p.p.p.c.c.j.V.V.p.<.r.<.<.j.V.A.Y.!.!.`..X/.`..X/.!.!.L.Y.!..X/.C.C.j.7.<.<.<.p.V.!.j./.!.V.Y.`.`.G.j.V.!.G.A.V.j.c.j.V.!.G.V.!.!.V.Y.#X&X#X&X!.c.A.Y./..X.X/.V.d.d.r.7.j.r.<.2.<.*.p.j.3.3.7.<.<.r.j.c.A.j.<.<.7.r.j.7.<.d.j.d.j.c.j.j.G.j.7.3.*.3.j.c.j.j.7.<.3.<.j.j.j.Y.d.<.j.<.p.j.c.p.<.j.G.<.p.A./.c...<.V.p.7.j.d.j.r.c.Y.Y.3.V.Y.b.c.A.A.A.!.!.Y.A.G.V.j.j.j.G.p.<.d.A.Y.c.G.!.!.Y.c.j.j.A.!.!.!.!.V.c.!.!.!./..X/.Y.G.!./.j.p.!.;X`.!.G.G.A.G.#X`.G.!.`.!.G.c.A.A.Y..X`./.&X!.j.`.7X!.d.p.d.!.V./.!.<.j..XY.c.7.j.G.A.7.r.} } 3.j.c.j.<.*.j.7.d.Y.V.+.R +.r.d.7.d.7.*.<.<.A.7.d.!.G.d.j.Y.!.`.!.V.j.j.Y.!.Y.G.G.j.<.3.7.j.r.<.+.r./.`.A.!.#XG.<.<.j.G.p.j.<.7.7.V.A.G.G.Y.j.Y..X&X&X#X.X/..X#X.X`./.G.A.!.Y.c.A.!.A.V.Y.A.A.j.j.A.!./.!.!..X#X.XA.p.j.G.c.r.<.} ! 3.d.7.j.V.j.V.!.A.V.Y.G.j.A.!.V.d.j.#X!.V.G.!.!.+X[.+X;X!./.3.J <.!.#X.X&X&X/.!.#XV.........p.j.d.<.<.<.j.V.G.G.!.!.<.( 3.c.3.! !.5X;X!.A.!.#Xj.! !.,Xj.b.G.!./.!.c.j.j.<.+.7.d.c.<.D +.+.d.( ! } <.( } <.p.A.!.V.r.<.! ! *.+.+.*.! } 7.} } ( *.<.p.3.j.!.Y.d.d.p.<.3.V.c.j.<.} ! } <.+.( 3./..XG.V.c.c.7.r.d.j.3.r.G.V.G.`.!.7.j.G.V.j.c.d.j.j.7.j.!.!.!.A.j.<.<.d.j.r...+.} *.c.!.j.<.<.<.<.3.<.<.p.<.<.} ( <.<.<.*.<.} <.7.3.d.G.c.<.! 7.<.<.*.j.p.<.3.d.j.j.V.!.!.Y.V.G.c.j.j.j.j.j.r...*.*...*.*...*.<.3.7.",
"!.Y.A.Y.!.!.p.( } <.+.7.p.<.7...R <.V.V.<.<.<.d.!..X/.!.!.!.G.Y.!.!.c...+.A.!.!.!.V.!.!.N.j.5.>.<.<.<.d.l.j.p.j.j.<.r.V.A.V.V.V.7.} ..+.+.<.r.p.d.r.p.3.} +.p.d.j.V.V.A.!.Y.j.d.d.p.7.j.G.Y.G.G.!.#X#X.X.X&X.X!.!.!.!.!.!.L.j.l.l.i.<.<.<.i.l.V.7.j.j.r.<.j.V.<.d.G.`.!.A.c.p.j.p.j.V.A.V.G.G.c./.&X#X`.#XY.d.d.Y.!.!.!.!.c.d.j.d.<.<.3.<.7.p.j.G.c.3.3.p.7.r.d.j.j.j.j.<.*.7.p.V.r.*.7.d.p.j.V.j.V./.V.d.j.p.j.A.V.c.V.j.7.d.j.j.c.j.3.r.Y.!.3.<.<.r.<.<.j.j.*.p.j.j.A.G.G.!.j.7.j.3.7.<.d.j.c.7.A.G.j.j.j.j.p.V.G.c.c.G.A.V.G.j.!.Y.j.d.c.G.j.j.c.A.A.V.V.G.!./.`.!.!.G.G.!.!.!.!.`./.!.!.!./.V.A.`.`.!.Y.c.j.7.p.Y.G.j.G.!.G.Y.c.G.G.!.`.`.!.Y.3...V..Xj.#.<.j.!.d.G.!.*.<.!.r.j.r.j.j.j.+.( ..+.7.V.!.!.p.<.V.!.!.`.!.%.U <.<.7.<.d.j.d.j.j.d.<.7.!.!.j.V.!.j.!.G.V.V.c.A.Y.j.j.c.j.r.<.<.3.3.<.*.*.V.#XY.A.!.!.V.j.d.7.<.j.r.j.r.j.j.G.!./.j.Y.`..X.X#X#X#X!.!.G.A.c.p.p.c.!.V.G.!.!.!.`.`.!.!.Y.!..X/.!.Y.!.`.`.V.d.V.!./.V.<.<.<.<.7.3.7.3.d.A.j.<.j././.!.!.&X`.!.!..X!.L.[.G.7.j.!.~.`./..X3.N *.!./.`.&X/.&X`.A.d.+.! *.<.j.c.A.p.r.*.7.j.j.p.c.A.3.( ..Y.G.<.G.!.<.z h 3.A.A.!.&X!.!.V.G.!.!.V.r.<.<...+.3.p.Y.Y.3.j.7.j.<.<.<.<.*.r.d.p.c.!.j.3.<.<.C *.<...( ! ( +.( ! *.} *.G.V.!./.!.A.j.j.d.r.Y.7.j.j.d.*.<.j.<.} 7.!.j.+.p.A.!.j.j.d.j.h.d.V.G.V.!.!.3.p.j.c.G.A.V.j.3.<.r.G.!.!.V.j.j.p.j.A.c.*...( <.j.c.r.<.d.d.<.3.c.V.d.<.<.! R ( *.<.*.} } <.7.d.V.!.A.j...r.*.....<.<.+.*.<.j.V.A././.c.<.V.G.V.j.j.A.Y.c.r.d.7.<.3.7.3.<.3.7.r.",
"Y.!.!.!.!.!.j.<.<.7.<.7.3...<...! 7.A.G.p.p.<.3.c././.!.!.!.!.!.!././.r.7.!.!.Y.!.G.G.l.i.7.<.| <.#.<.j.j.r.r.j.j.7.r.j.G.A.j.V.j.*.+.*.*.<.<.3.r.p.r.3.<.<.7.3.3.3.3.d.A.G.V.c.j.G.G.V.Y.!.Y.A.!..X&X&X#X&X#X/./.~.[.!.!.G.d.c.D.j.0.<.<.0.g.i.7.<.7.d.+.<.j.3.7.V.!.Y.V.j.r.p.j.j.V.A.V.V.V.c.`.#X`.`.#X!.j.j.Y.A.A.V.A.c.j.A.c.p.d.j.c.A.A.!.G.c.d.j.j.d.j.j.j.3.<.3.3.3.j.j.c.j.7.d.j.p.j.A.d.G.;X!.c.A.V.Y.Y.G.c.V.d.<.r.j.j.c.d.! <.`.!.<.+.*.<.*.<.j.d.3.r.p.<.d.A.c.G.Y.j.A.r.7.<.7.7.7.j.A.j.p.j.c.c.p.j.A.V.Y.!.Y.Y.!.G.Y.!.A.p.p.j.d.d.j.c.G.!.!.!.!.`.`./.!.!.!.!.!.!././.!././.!.!.!./.`.!.G.!.V.p.Y.G.!.A.j.V.Y.Y.A.V.!.!.!.`..X!.Y.r...j.V.3.+.<.p.V.+.r.A.<.<.Y.p.j.j.d.3.7...! ( *.<.r.G.`.Y.d.G..X!.!.!.3.^ *.+.+.<.3.j.c.j.p.d.7.7.j.Y.!.G.p.<.A.V.j.V.j.j.V.j.r.7.<.<.*.} } +.3.r...7.!.Y.V.!.Y.G.Y.j.<.U ! p.J.c.V.j.G.!./.V.!.`..X`.`.`./.G.c.j.j.j.p.j.G./.!./.!.Y.!..X#X!.`.`.`./.!./.`./.#X#X!.Y./.`.`.V.+.7.d.<.r.j.j.j.j.A.j.} ! p.!.Y.j.`.;X#X!.!.G.!.[.j.! | N.W.V.#X&Xd.U <.!.`.#X/.!.;X!.3.3.<...( ! ( ..V.V.j.7.d.d.d.<.j.c.7.( *.j.A.A.!.*.r ; * *..Xc.A.`.G.j.A.A.G.V.p.<.<.<.*.+.3.j.j.`.!.j.} <.+.} } *.r.c.j.d.A.Y.j.<.*.r...j.p...! +.7.+.J U } R +.G.j.j.Y.V.c.p.j.j.r.!.Y.j.j.p.( } <.} ..<.d.( ! j.!.A.3.7.<.7.j.p.j.G.p.j.j...*.3.j.G././.A.p.p.c.A.A.j.d.j.c.V.V.c.j.r.<.} *.<.*.+.} +.<.} ..j.Y.G.G.j.( D ( r.d.<.! *...<.d.A.V.j.V.j.V.7.7.3.<.<.<.3.3.V.~.Y.!.!.r.! j.G.V.d.7.j.j.V.j.j.r.<.7.d.p.<.<...} ",
"!.`..X!.!.!.Y.j.r.r.<.3.<.} +.*.! *.7.p.<.r.*.*.7.!.`.!./.`./..X~./.#XY.G.`.Y.G.`.!.G.j.5.1.+.} } ! #.r.r.d.j.j.j.r.r.j.!.!.j.G.V.<.*.<.7.7.3.p.j.A.j.r.7.<.<...<.*.<.d.j.j.c.G.j.c.G.Y.G.Y.A.j.G./.&X#X.X#X#X.X`.[.#X!.!.Y.r.j.l.g.7.<.<.p.0.>.7.<.j./.c.j.Y.j.<.r.V.A.V.j.<.7.j.V.V.c.c.V.V.V.!.!.!././.!.A.A.G.j.j.j.j.j.r.j.!.!./.!.!.!.G.G.p.r.j.G.c.j.j.d.p.3.+.<.7.d.c.j.j.j.j.V.V.j.V.A.d.A..XY.c.!.G.Y.A.Y.V.j.3.+.<.3.*.j.j.*.r.!.c.<.<.<.<.+.3.d.r.j.c.j.1.p.G.V.j.<.j.V.r.r.3.r.d.j.j.V.d.j.G.!.!.A.j.G.G.!.!.G.G.G.!.!.Y.G.c.j.j.j.j.j.V.Y.!.Y.Y.!.!.!.!.!.!.!.!.!.!..X`.!././.!.Y.!.!..X`.G.V.d...7.3.p.7.7.j.j.A.c.c.G.G.V.!.`.!.7.3.<.c.j.7.7.V.V.V.<.3.p...3.!.3.7.<.<.+.<.<.<.+.3.<.<.r.c.V.j.!.!.p.r.j.7...} 3.<.<.<.d.c.3.3.c.j.r.3.G.&XG.+.<.j.7.3.c.j.p.j.j.p.7.( <.<.*...<.7.j.*...c.Y.!.A.7.3.j.j.3.U N ! <.7.A.c.A.Y.G.j.!.`..X`./.!.Y.G.c.V.!.!.Y.!.`.#X.X#X!.Y./.`..X!.`./.`.!.!..X;X!.!./.!.!.G.p.r.j.<.p.j.7.d.c.j.V.j.V.G.r.} <.!.3.U j.!.A.j.!./.W.V.0.+.1.!.[.l.A./.G.3.j.!.A.A.!.`.&Xj...<.....r.<.+.+.!.!.!.!.j.j.j.p.j.A.j.<.p.<.r.V.c.k , = , R A.j.r.j.A.V.G.V.c.d.<.....} 3.7.d.j.<.V./.d.! <.} R } 3.p.3.j.3.d.r.7.3.*.j.<.<.<.*.} 6.c.*.! +.3.<.p.G.V.c.j.j.j.j.d.<.<.G.Y.7.<.+.! R +.<.+.! } ! ..j.c.3.<.7.<.<.7.7.d.j.3.<.3.} +.3.d.d.V.!.Y.j.j.G.V.r.r.d.j.c.G.G.j.d.<.<.....! ( 3.<.*.7.7.3.p.j.j.j.A.r...<.c.Y.r.! ....3.d.j.r.3.c.!.!.j.V.j.<.3.j.j.j.Y.!.!.!.Y.d.3.c.A.G.c.r.r.d.j.d.j.<.+.r.j.d.<.} ! E ",
"!..X.X!.!./.!.G.c.d.7.r.3.+.+.*.<.*...*.<.j.<...<.!.#X`.`.`./..X;X/.#X`.&X;X!.G.#X~.L.a.5.<.o.} ..( <.r.r.j.C.d.V.d.3.r.Y.!.V.`.Y.<.<.7.d.d.r.j.j.c.<.+.<.3.7.<.r.p.A.!.j.p.V.!.V.<.p.Y.V.j.p.<.A.`.;X&X.X&X;X&X.X.X#XG.Y.L.3.0.g.i.7.1.7.j.a.>.d.<.p.V.j.c.!.j.3.r.V.!./.V.3.r.j.V.V.d.d.j.V.c.G.A.G.Y.V.j.j.c.!.c.c.V.G.V.7.p.!.#X&X!.!.!.A.A.d.<.<.c.V.j.V.r.p.j.3.<.7.r.d.<.j.j.j.G.!.G.G.V.j.c.Y.j.j.!.A.j.j.Y.G.j.<.*.3.r.r.!.!.j.c.c.p.7.p.7.<.] <.3.<.A.3.p.*.<.r.d.j.*.7.j.7.7.<.7.p.j.d.V.j.c.!.!./.Y.j.V.A.!.G.j.V.c.A.!.!.A.!.!.j.r.j.j.j.A.G.G.Y.!.A.Y.!.!.!.!.!.Y.Y.`.`.!./.`.!.!.V.c.G.G.7.r.A.3.*.<.7.7.r.r.3.p.j.j.j.p.<.p.A.j.} <.7.!.A.7.7.!..X/.j.j.<.! 3.!...( } <.+.<.<.<.<.r.3.<.<.<.7.j.V.!.j.3.d.j.p.! <.} +.( <.j.3.p.j.V.j.7.G..XG.3.} 3.} +.V.c.r.r.7.j.j.+.3.p.r.<.7.3.j.+.! r.A./.G.3.<.c.j.d.+.( U ! +.V.V.A.V.j.j.Y.`..X`.`./.!.A.V.!.;X;X#X`.#X;X.X`.G.A./.!.!.j.V.A.!.!.V.!.!.!.!..X!.!.j.( ! } +.<.7.r.r.r.<.<.p.j.d.p.3.<.<.r.N 7.A.<.3./.#X!.p.0.j.j.`.~.<.<.G./.G./.&XY.G.!.#X!.*.+.7.+.<.<.<.7.<.V.<.7.G.c.c./.Y.c.j.j.j.<.*.7.j.A.+.R ! ! p.G.c.j.A.!.Y.G.V.A.c.7.*.} ! ..d.j.d.} r.!.A.<.r.*.3.!.Y.p.<.3.} <...3.j.<.j.r...<.c.p.d.V.<.} 3.3.3.3.<.j.A.V.c.j.!.d.U ! 7.7.<.3.*.! ! +.j.j.( +.<.*.<.<.7.<.d.j.d.d.j.Y.A.3.<.d.<.<.3.r.<.<.j.Y.V.j.G.V.3.7.c.V.j.V.A.A.A.j.d.3.*.J J *...+.p.Y.Y.V.c.j.r.V.Y.j.<.d.G.d.( U <.j.d.<.<.<.j.!.A.j.G.c...<.j.j.j.V.G.Y.!./.!.!.Y.c.Y.!.j.p.r.p.p.j.<.+.j.V.j.<.} R U ",
"Y.G.Y.!./.!.!.!.A.j.c.Y.A.<.( *.<.*.! *.c.j.} ( p.G././.`././.#X;X#X&X;X#X/.!.Y.#X.X!.j.0.1.<.<.#.*.<.7.3.a.V.r.j.j.5.<.V.G.g.D.C.1.<.3.1.7.3.0.l.V.p.<.a.j.g.l.!.A.!./.G.j.j.V.j.j.c.c.j.j.3.7.G.#X&X`..X#X.X;X&X#XV.d.j.c.j.7.<.<.j.+.*.d.7.7.d.3.d.<.+.7.r.j.<.7.c.#X`.!.f.d.c.V.7.r.p.j.c.!.!.Y.!.Y.j.j.V.Y./.!.!.j.j.d.r.<.c.V.A.j.j.A.j.r.<.<.<.j.j.j.V.j.j.V.d.<.r.c.j.r.p.c.j.G.Y.7.7.V.Y.!.!.V.V.!..X!.Y.C.G.c.j.j.r.j.L.#X/.C.a.0.d.p.j.l.>.] p.p.<.l.7.5.<.<.j.C.V.j.l.c.j.d.r.1.r.r.j.r.A.A.G.Y.!.!.A.!.!.!.`.Y.j.A.Y.Y.!.!.V.c.A.j.j.c.j.A.G.A.G.V.V.G.Y.!.!./.!.Y.Y.`./.!.`.`.Y.G.G.G.c.j.3.r.c.r.d.3.3.A.A.<.<.r.j.7.j.<.3.<.d.G.3.( ( A.j.! r.Y..X!.j.A.3...r./.! *.+.3.<.<.<.p.3.j.j.p.p.*.r...j.V.!.!.V.c.p.<.<.<.r.<.<.j.j.d.r.p.V.p.r.!.!.7.+.3.( ..7.<.<.<.3.<.7.Y.j.<.j.<.<.+.<.<.+.<.c.G.!.!.d.3.c.d.<.7.<.7.d.Y.G.j.A.Y.j.!.!./.;X.XG.Y.A.d.A.!./..X!.!.!.`.;Xj.V.!.G.j...r.p.V.!.G.G.Y.!.`.!.Y.!.V.r.j.<.p.*.d.p.d.j.7.<.r.r.<.r.p.+.+.<.<.j.d.7.Y.!.p.A.r.3.j.*.( 7.} +.d.!./.#X;X#X!..X#Xj.! ! +.<.+.<.<.( *.<.} +.<.p./.!.G.G.7.%.r.+.3.<.+.j.c.A.V.3.j.!.!.A.j.c.G.!./.!.!.Y.d.+.} } r.j.j.7.d.!.A.d.j.<.r.Y.Y.A.d.j.+.*.*.! *.<.G.d.j.z.j.r.7.7.r.*.*.R <.( C *.G.j.d.<.7.d.} U *.<...<.j.( C J <.7.( ! p.j.d.G.V.d.j.j.r.3.j./.#Xc.j.j.r.j.c.7.<.<.j.G.V.c.!.!.r.j.A.j.r.p.j.G.Y.G.A.7...} ( ( <.<.c.`.!./.A.j.j.j.V.j.<.r.j.p.3.! *.j.j.p.d.j.j.c.V.7.G.G.} <.j.j.j.j.V.G.Y.Y.Y.!.V.V.G.G.A.j.7.p.r.<.<.*.*.d.j.<.+.! U ",
"!.!.!.!.!.!.!.!.G.G.A.Y.G.r...( ..*.*.7.A.d.} ( j.!.`.`./.!./.#X.X`.#X&X`.!.!.!.!.~.!.j.3.<.<.3.<.....<.<.1.d.<.j.j.j.j.C.j.#.<.j.0.0.3.<.<.3.j.j.L.C.j.j.j.p.7.V.Y.`.#X`.`./.A.j.d.j.c.j.d.3.7.G..X#X/..X#X#X;X.X`.j.7.p.j.A.V.<.<.3.} <.3.<.7.7.3.c.j.d.j.<.+.<.r.j.Y.G.V.r.c.Y.A.j.j.d.d.d.G.`.G.j.j.j.A.!.!./..X`.p.r.7.<.<.7.r.p.<.3.j.j.d.c.j.7.r.p.j.V.j.A.!.A.j.G.!.A.p.<.j.G..X!.7.7.V.A.^.!.c.j.G..X#XY.c.C.C.G.!.!.!.j.c.d.d.a.<.3.d.5.7.<.<.g.0.5.V.p.<.<.<.<.j.G.G.L.c.j.c.d.<.1.1.j.p.A.j.j.V.Y.V.Y.!.G.A.!.Y.G.!.!.c.j.Y.c.d.V.V.V.Y.A.G.A.c.V.j.j.j.V.!.Y.V.Y..X!.!.G.A.!.Y.c.A./.!.V.j.<.<.j.j.A.j.c..X.Xj.r.d.r.<.j.7.<.<.c.V.c.<.! d.!.d.j.!.Y.Y.j.!.A.j.j.!.7.r.7.r.3.3.r.A.p.j.d.r.j.r.j.7.<.<.j.A.j.A.Y.p.7.3.j.j.c.A.j.j.j.r.j.p.7.V.V.7.3.3.<.3.<.<.r.<.j.<.<.A.j.<.3.*.7.<.r.p.p.c.A.j.V.!.c.<.+.! } j.!.!.p.<.<.7.A./.!.!.!.!.#X`.!.G.Y.G.`..X/.!.Y.G.!.A.V.r.j.V.r.3.! <.j.Y././.Y.G.G././.A.j.d.j.Y.Y.V.p.r...<.j.p.r.p.r.<.r.p...! *.*.j.3.j./.*.a } *...<.+.r.G...*.j.!.!.!.`.!.V./.V.<.J U ..} ! <.<.<.p.A.j.r.j.G.!.!.!.A.*.R <.( <.3...j.d.....3.p.G.!.V.j.j.V.!.!.G.A.V.j.r.<.*.r.7.r.7.r.c.j.<.Y.!.!.j.+.*.7.j.3.} ! } j.c.A.r.d.j.j.j.<.+...3.d.d.j.! U p.!.A.j.3.3.d.*.R ( +.*.<.d.<.U D ( *.( ( j.!.!..XA.p.j.j.7.<.7.c.V.G.A.G.c.c.c.1.( ..r.A.V.j.c.j.<.j.A.j.7.7.p.G.G.!.!.j.} R U ! 3.V.A.p.+.j.j.r.3.<.3.<.<.3.p.<...! ..c.G.j.j.c.c.A.Y.j.!.!.r.p.j.d.d.j.j.j.A.Y.Y.G.V.A.Y.Y.Y.G.j.r.p.<.*.} +.7.<.<.+.} } ",
"!.!.!.!.Y.!.!.!.!./.!.!.!.Y.d.<.} <.r.j.G.d.r.j.!.`.#X`.!.!.!.`.!.!..X#X!.!.!..XY.Y.A.j.3.<.<.1.*.! R *.7.r.a.<.5.j.G.L.W.g.o.>.l.j.d.<.*.*.*.7.j.!.~.D.l.N.j.0.j.G.!.!.!.&X&X!.c.j.V.j.j.r.<.<.G..X#X/..X#X#X;X;X;X!.G.A.A.!./.j.*.( <.Y.c.7.+.<.7.Y.G.j.j.<.} *.<.*.3.d.p.*.c.;X`.!.!.V.p.r.A.`.G.j.j.G.#X;X;X&X;X!.<.<.<.*.3.<.<.p.r.p.j.c.A.A.A.p.<.p.j.A.V.G././.!.#X;X/.G.p.j.!.#X!.3.<.p.j.V.A.j.j.!.#X#X/.Y.Y.A.V.A.c.j.a.j.0.j.c.1.#.<.7.5.<.<.<.+.<.g.j.5.<.<.7.a.l.G.!.C.c.!.c.<.r.j.j.j.Y.j.j.j.j.<.r.j.A.!.!.!.V.j.Y.G.V.c.3.<.c.!.c.Y.G.A.c.c.A.c.c.j.c.!.G.j.V.oX`./.Y.!.`.!.Y./.!.A.c.j.r.7.j.j.j.j.V.`..XG.V.V.A.p.j.p.+.<.!.Y.<.<.r.A./.!.c.j.G.G.p.c.!./.A.Y...+.*.+.<.+.r.G.Y.Y.j.d.j.d.j.r.+.<.j.V.<.<.G.j.d.r.j.V.Y.!.G.!./.j.j.d.<.7.d.p.3.<.<.p.<...d.7.V.7.<.j.j.<.7.p.j.d.j.d.d.j.r.! ..V.!.V.r.( ( j.`.!.*.N J +.j./.V.j.V.!.!.!.`.&X!.!.!.G.!.`.!./.`.j.! U <.j...! *.<.V.A.A..X!.A.!..X`.j.*.+.j.!.!.V.Y.c...3.r.r.3.3.3.<.r.d.+.U R ( d.+.7.Y.J r ( ( ! 3.3.r.j.( ..3.j.c.Y.!.j.*.c.*.} ! ! 1.<.<.<.r.p.c.!.G.p.V..X!.A.A.p.} ! <.*.7.d.<.l.j.! *.j.7.j.G.c.j.Y.!.Y.A.G.A.c.V.c.7.7.p.<.3.r.<.r.7.c./.!.!.G.r.r.d.j.j.+.} +.j.!.A.p.V.c.Y.c.<.<.p.A.p.p.j.<.p.`.!.j.G.A.j.3.! U ..r.p.*.7.<.! ! ..<.r.d.G.!.!.!.j.j.j.c.j.d.p.r.<.j.p.c.V.c.V.r.} ! *.3.7.r.p.p.d.d.A.p.3.<.7.!./.!.!.V.<.! R ( <.j.c.<...V.A.r.<.! } *.<.r.j.c.j...} j.!.V.V.A.V.G.V.3.d.j.r.j.r.7.p.p.r.p.j.A.A.Y.G.!.!.Y.A.c.j.d.j.j.7.<.3.r.*.( ! ..3.",
"!.!./.!.Y.!.!./..X#X.X/.`.`.G.d.r.d.c.G.V.<.7.!./..X.X`.!.!.!./././..X`.!.Y.!.`.!.G.j.p.3.<.*.#.*.| #.0.a.j.j.d.<.<.<.7.j.a.<.5.d.d.r.*.*.<.#.<.0.C.!.C.a.0.0.0.3.j.Y.!././.!.!.j.j.c.c.j.d.7.p.!.#X&X`..X.X#X;X.X.X!.!.A.j.G./.A.7.+.3.j...<.*.<.7.V.j.3.7.7.7.7.<.} <.c.j.} j.;X.X#X#X!.A.A.!./.Y.G.!./.&X;X#X.X!.c...} ( ..<.+.<.j.j.j.j.d.j.V.!.z.p.c.!.!.A.!.`.!.Y.!.`.#X&X!.G.!.`.!.j.r.<.j.V.V.j.c.!.#X.Xj.j.c.A.c.C.j.1.r.b.j.d.l.r.<.*.+.} } ] ! #.p.j.j.j.7.a.V.g.<.0.Y.c.p.j.c.7.3.d.3.r.V.p.d.j.j.<.<.p.V.G.Y.Y.V.d.V.j.j.j.<...p.A.j.A.c.j.c.A.G.d.A.c.A.!.Y.c.A.!./.`.!.!./.Y.A.!.G.j.j.j.j.V.Y.G.j.V.G.Y.Y.G.G.A.p.<.3.r.<.<.!.V.<.<.p.<...c.!.Y.V.G.3.r.Y./.c.j.U U ! ! *.( 7.V.V.A.c.j.r.<.3.<.+.*.p.j...R j.A.j.j.j.c.Y.!.!.&X!.j.p.r.<.7.c.G.<.<.*.p.7.*.p.j.j.j.3.3.7.3.d.G.c.j.j.j.c.A.j.} ..p.j.j.c.d.7.j.`.!.c.j.c.A.!..XG.c.A.Y.j.r.j.A.Y.!.!.Y..X!.3.! <.r.( R *.V.<.+...<.A.!.G..X.Xp.j./.#X!.<...r.p.Y.Y.!.j...<.d.c.<.3.7.<.d.j.+.! ! +.j.<.7.j.! ( } ( ! j.j.r.7...} ..<.3.d.j.3...p.*.7.<.! *.3.3.p.A.G.A.V.j.r.`.#X!.Y.A.p.r.<.<.j.p.p.3.j.d.<.A.A.*.<.j.c.G.!.!.!.!.!.!.A.G.!.!.V.j.<.p.j.3.<.r.j.A.p.r.c.A.c.7.3.7.+.*.+.r.c.G.j.c.7.p.7.} p.!.`.<.*.<.<.p.A.d.7.G.!.j.<.R ( j.V.j.} +.( ( <.7.d.A.!.Y.j.d.j.p.p.r.j.V.Y.Y.j.3.7.+.3.p.r.j.d.+.<.<.<.<.p.p.7.d.j.j.<.<.+.<.!.&X`..X!.p.<.} ! ! } d.j.V.!.Y.j.<.*.<.*.*.+.<.j.j.<.*.j.!.!.V.j.d.j.7.( +.*.<.p.<.<.r.j.p.d.c.V.c.j.j.A.!.Y.A.j.p.p.j.A.j.7.<.<.( D J ..d.",
"G.!.!.!.!.!.`.`.&X#X`.!.!.Y.A.j.G.A.!.#X/.<.c.;X!.!././.!.!./.`..X.X`./.!.!.!.!.~.Y.l.a.1.*...( | <.a.0.*.<.0.d.7.} F ! 0.j.j.g.r.j.d.<.<.<.*.<.p.D.~.!.j.<.#.7.r.<.7.G.!.V.j.!.Y.A.Y.G.V.j.d.j./.&X;X#X.X`..X&X.X!.!.!.G.j.!.,X.Xc.*.+.( D r.j.j.j.j.r.<.j.G.!.!.c.<.*.p.j.<.Y./.!.`.!.!..X&X;X!.V.V.!..X.X`.!.j.j.c.<...*.7.3.<.7.V.A.c.j.7.p.c.G.V.d.c.!.G.V.A.A.j.j.Y.!.`.#X!.Y.!.Y.j.j.p.<.<.j.G.A.V.G.!.Y.j.j.c.!.!.L.d.( <.d.1.*.<.3.d.c.i.+.] +.| o.<.7.7.<.7.l.V.a.7.7.!.L.1.3.A.d.*.<.c.j.A.7.r.j.c.d.7.d.j.V.V.A.c.d.G.p.7.A.G.j.j.j.j.C.j.c.A.G.c.3.j.V.!.!.Y.!.!.G.j.Y.!.!.!.!.!.!.A.j.r.<.<.j.G.G.j.j.V.V.j.d.j.A.A.j.j.G.!.A.$X/.r.<.7.*.<.G.G.d.j.G.d.j.!.`.j.d.*.+.<.*.3.*.r.c.3.j.!.!.j.p.p.c.p.<.<.7.+.D r.c.j.j.j.j.G.!././.Y.j.d.j.j.A.!.V.7.j.<.r.V.3.<.j.G.V.7.<.3.r.c.`.V.V.G.Y.!.!.G.j.p.r.<.<.p.j.j.V.c.p.V.#X&X/.!.`.!.A.V.A.j.<.+.<.j.`.`././.j.J h +.j.<...3.G.<...p.c.!.`.V.G.!.} *.V.!./.A.j.!.j.c.`./.!.p.7.r.d...r.p.<.d.j.+.} <.r.d.d.j.<.! ( ! <.<.r.7.j.r.+.+.+.<.<.*...<.d.p.r.V.d...*.<.*.j.G.V.j.<.<.<.#X.X!.j.r.<.p.<.7.j.<.<.d.r...<.V.7.! 3.V.V.G.A.j.!.!.Y.G.G.G.!.&X.X!.j.A.!.3...7.*.r.r.7.r.p.p.3.+.! R ( ( 3.p.c.G.j.+.<.r.7.G..XY.<.j.j.j.*.*.d.7.7.<.+.} ! +.j.j.p.( +.! <.Y.!.A.Y.!.G.j.j.V.c.j.p.j.Y./.`.!.c.d.} ..<.<.j.j.<.<.<.3.j.Y.c.d.j.r.3.<.3.<.<.j.!.`./.!.j.<.+.( R ! 7.c.!.G.c.j.<.<.<.! R ! ..r.p.p.r.d.c.Y.j.*.<.<...( <.<.+.<...+.7.j.c.A.Y.G.c.j.d.j.A.A.A.c.p.p.j.A.c.3.+.} ( R R +.j.",
"G.!.!.!./.`..X.X#X/.!.!.G.G.G.G.A.j.V.!.G.*.j./.!.Y.!.!./.`..X.X#X`././.`./.!.!.!.!.Y.l.7.#.| ..*.<.1.#...<.<.<.7.<.<.p.V.D.G.j.a.j.A.d.<.<.*.1.j.D.).;X).7.| 7.j.+...j.G.j.d.Y..X!.!.(.G.V.j.j./.&X;X&X.X/.`.#X&X`.!..X/.!..X#X;X!.<.<.r.<.c.d.G.c.j.7.r.G.`.`.&X/.c.<.<.j.p.!..X!.&XY.G.#X;X#XG.j.j.!.!.!.j.3.! <.G.p.<.7.j.r.r.j.Y.!.G.A.j.V.c.V.j.d.j.!.!.!.V.j.7.p.A.Y.G.G.V.V.G.j.<.r.c.G.j.A.Y.G.A.A.c.p.j.j.j.Y.[.!.d.( ..*...*.*.#.j..X!.<.! <.7.+.#.g.<.! <.j.<.+.p.i.V.!.j.p.c.p.<.1.!.!.!.j.d.p.p.r.<.r.j.V.A.j.r.<.j.j.r.7.p.j.j.<.j.j.j.c.Y.Y.j.<.r.A.!.Y.A.G.G.c.j.!.`.!.!.!.!.!.A.A.j.<...3.j.c.d.3.d.c.j.p.d.!.!.G.G.!.`.!././.A.j.7.3.G.A.*.*.p.c.j.j.A.!.r.r.p.r.<.*.<.<.3.d.! <.Y.!.d.3.*.d.V.d.d.7.*.N <.d.<.7.7.7.p.A./.G.Y.A.c.A.!.!.j.} j.!.r.p.Y.<.! <.G.j.+.+.7.p.A.`.j.G.!./.!.Y.G.V.j.j.d.d.j.j.j.j.c.3.A.&X.X!.Y.!.!.A.A.A.d.*.+.<.7.!.`.!.Y.j.7.3.!.!.p.7.V.!.7.} p.Y.Y.!.V.G.#X<.V.`.Y.!.!.Y.!.<.j.#X`.!.c.j.p.r.+.p.p.*.<.<.R U } <.<.j.c.r.<.} ..d.d.<...j.<.<.*.*.<.<.<.} +.r.c.G.Y.A.j.c.j.3.7.p.r.j.<...} A.!.j.*.+.*.r.+.j.7.} ..A.d.! ( 3.<.+.j.C.j.c.j.j.V.A.c.V.!.!.!..X;X!.j.!.!.<.! <.<.<.r.j.j.d.j.Y.j.} U ! ! p.3.+.j.p.<.p.j.c.!.`.j.r.!.V.`.d.*.j.r.<.! ! +.( ! ( } ! ! *.( 7.!.!.G.j.r.d.j.V.c.d.<.3.c.!.!.Y.A.V.V.<.*.<.3.V.V.r.<.r.j.c.c.p.<.3.+.<.r.j.j.j.d.G.`.!.!.j.*.( ( ( } <.7.G.j.j.j.*.<.*.N N ! <.r.<.j.j.j.p.c.p.! ! } ! ( <.<.*.<...! *.p.c.G.!.G.c.V.j.j.c.V.G.A.j.j.p.j.j.3.+.*.7.<.+.<.j.",
"!.!.!./..X.X.X`.`././.!.!.!./.!.j.r.j.G.!.j..X&X/.Y.!.!./.)..X.X`.`./.`..X/.!.!.Y.!.!.Y.j.<.<.<.3.*.<.<.d.l.0.<.#.1.j.W.G.j.C.N.p.d.c.j.1.<.<.0.i.j.j.L.!.0.~ <.r.r.p.j.G.c.j.A.!.A.G.A.G.G.V.A.!..X&X&X`.!./.`.!.!.!.!./.!.c.( d./.!.j.j.<.p.<.j.j.7.<.7.A.!.Y.!.A./.!.V.Y.d.A.!.!.;X!.G.`.&X!.Y.G.G.G.c.d.*.J D ( j.p.7.7.p.r.d.j.G.A.A.Y.G.Y.Y.V.G.G.G././..X#XY.p.3.r.p.d.c.V.j.j.p.p.V.!.;X5X;X!.A.V.G.V.d.l.c.a.l.!.c.7.#.( ~ *.d.<.! 3.Y.).j.} >.j.<.#.j.g.>.7.0.! U #.<.d.A.j.d.r.<.0.j.A.c.G.j.d.<.<.<.3.d.j.c.A.j.3.7.j.!.G.p.3.d.j.r.j.j.r.j.G.G.V.p.c.G.!.!.G.V.c.j.<.d.G.!.!.!.!.!.Y.!.`.A.j.j.j.V.!.c.V.A.V.j.j.Y.d.j.!.!.&X#X.X!.j.V.d.p.Y.p.! *.y.j.j.j.j.j.<.p.d.p.<.+.<.3.3.r.! <.!.`.j.7.} 3.p.7.V.d.<.! p.d.<.<.<.3.<.j.!.j.d.j.j.c.c.j.p.( c.!.j.j.A.*.R ! p.p.( } <.<.j.V.7.A./.!.Y.!.!.!.V.A.A.V.j.c.c.j.!.Y.`.`.G.j.p.p.!.A.Y.G.3.+.<.7.r.!.`./.!.A.!.!.d.r.3.7.c.j.<.( p.!./.`.!.!.`.7.c.!.r.j.!././...<.c./..X!.Y.3...! ..<.+.*.r.3.*.<.p.j.!.c.7.p.*...7.j.<.+.V.<.j.<.<.<.3.7.3.<.*.!..XV.A.#X`.G.r.<.3.7.!.j.<...d.V.j.+.7.c.j.! r.r...<.!.G.7...7.p.r.c.d.r.c.j.j.A.Y.A.c.G./.`./..Xj.<.j.V.<...p.p.<.<.r.j.c.G.`..Xr.( *.} 7.3.D +.<.p.j.d.j.c.d.d.d.A.( V.V.<.<.j.j.d.7.<.! J J ( ( +.p.7.V.!.Y.r.<...} <.p.7.<.( +.d.A.j.p.p.d.c.<.7.p.j.V.j.3.<.<.3.3.3.7.p.r.+.3.j.r.j.G.p.c.`.!./.Y.<.! ! ( } *.*.V.c.d.r.+.j.j.! C ( +.+.! d.c.j.7.7.<.! ! ( ( ( +.<.<.<.<.! ..<.j.V.G.A.V.j.j.j.A.A.Y.!.G.d.<.7.3.*...*.r.p.3.7.j.",
".X!.!./..X.X`./..X.X.X/.!..X/.A.d.d.G./.;X!.;X!.&X!.!./.!.!.`.!.`..X.X.X.X!.G.Y.L.Y.!.!.G.j.3.1.#.} <.d.c.l.<.<.<.<.7.j.j.j.W.G.l.a.j.a.<.<.*.*.j.p.<.7.G.0.] 1.<.c.A.d.r.j.c.A.A.j.j.j.c.V.j.c.!./.#X#X`.!.!./..X#X!.!.`.&Xd.k U !.`.j.d.<.j.G.j.j.r.<.7.A.`.!.j.<.A.&X!.G.7.j.3.7.#X!.!..X&X/.#X;X;X!.j.j.j.<.<.+.r.j.A.p.r.j.V.A.!.A.V.G.V.c.A.j.Y.!.Y.Y.G.Y.Y.A.j.j.j.r.p.A.Y.r.3.p.V.A.p.d.!.!.!.!.Y.Y.V.j.l.G.d.d.j.7.<.r.! ! <.j.<.U ..r.C.N.<.<.N.j.#.5.1.<.>.#.o.! | p.Y.C.j.j.r.r.V.G.!.A.!.c.j.<.<.p.j.V.V.G.!.V.p.j.Y.G.V.!.G.p.j.c.A.j.7.p.j.c.G.c.!.c.j.Y.!.G.c.V.<.3.j.!.`.!.A.V.A.G./.!.Y.A.j.A.#X!.G.j.j.A.j.j.p.j..X!./.&X&X/.j.G.j.p.j.j.j.G.A.G.!..X!.Y.j.V.c.c.3.7.r.V.j.j.! *.G.`.V.j.+.7.7.<.V.d.r.7.A.3.3.3.p.c.d.j.G.3.p.V.V.V.j.d.V.j.V.!.V.Y.V.<.} ! r.G.7.<.<.7.A.d.+.j.!.V.c.Y.!.!.A.V.c.j.c.Y.!.G..X`.!.7.*.p.j.c.V.<.p.j.3.p.!.G.G.!.!.!.!.G.Y.V.A.p.<.<.V.V.j.<.j./.#X!.!.`./.j.7.p.J ! j./.;X3.<.7.!.Y.j.Y.<...*.*.p.7.<.j.V.7.<.<.j.!.j.<.r.<.} p.G.<.<.!.<.d.d.d.r.3.7.d.d.r.Y.!.3.j.#X/.c.3.7.7.<.!.r.} } p.j.d.+.7.V.d.n ( A.7.d.!.!.G.<.c.j.p.d.<.<.V.j.g.A.G.c.<.*.j./.!.!.+.U +.r.<.<.A.d.r.r.7.7.p.j.Y.!.r.} p...+.7.D j.j.!.!.G.G.j.+.<.j.A.k ( j.3.<.j.L.G.y.( J D U ! ! } <.<.d.7.7.+.<.<...*.p.j.c.V.j.V.V.p.<.<.3.*.} 3.j.V.Y.j.r.3.<.<.<.<.p.j.p.7.j.j.( <.c.<.p.A.V.!.`.j.<.<.<.( <.<.V.j.<.*...d.A...! *.<.<.+.r.c.V.3.*.<.} ! ( ..} ..<.3.3.<.*.<.3.j.V.G.G.G.c.V.Y.!.G.V.V.j.j.<.3.<...} } <.p.3.3.d.",
"`.G.G.!.!./.`./.Y.&X#X!.`..X!.!.A.!./././.`.`.!..X`.!.!.!./.!.!..X`.#X#X!.!.!.!./.!.!.!.L.C.j.3.#.<.r.<.<.7.7.j.j.<.j.C.j.a.j.!.!.G.p.i.i.<.<.<.i.N.j.a.j.j.7.1.7.c.j.<.d.V.j.j.!.j.j.G.j.V.j.c.A.!.`..X`.`..X#X#X;X&X/.Y.Y.Y.p.A.!..XG.3.<.7.r.c.j.j.d.r.j.!.j.p.p.G.#XA.j.p.<.p.j.!.#X`.G.G.;X#X!.!.G.A.!.j.p.j.r.3.j.Y.G.j.j.Y.V.3.<.j.G.c.j.c.A.V.!.!.c.7.j.c.c.d.j.j.j.j.r.j.j.j.d.j.&Xp.3.V.G.!././.!.c.j.V.C.i.<.j.j.5.0.| I <.7.U I o.<.<.| ~ #.0.j.l.j.<.>.7.j.<.<.j.j.A.j.0.r.3.G.j.3.j./.!.Y.V.3.<.<.j.Y././.`.!.G.V.j.p.j.d.*.<.p.j.j.c.!.c.d.j.j.A.V.j.r.j.A.!.Y.V.j.j.A.!.!.Y.A.V.A.!.!.A.A.Y.G.j.G.Y.Y.Y.V.7.7.V.j.j.!.j.A.!.;X&X!.j.j.V.A.j.j.!.A.G././.Y.!.`.`./.Y.3.<.r.G.`.r.<.r.V.j.7.j.c.V.j.d.d.3.r.j.p.d.j.d.j.j.p.c.V.<.<.r.V.j.j.G.G.A.Y.G.p.c.G.r.<.( d..Xc.p.j.d.G.!.d.c.G.j.r.j.F..XA.c.!.Y.A.j.G.!.#X!.!.j.3.j././.!.p.<.j.c.j.G.!.!.!.!.V./.!.<.j.c.j.<.+.V.!.j.c.!.!.`.!.`..X!.#Xc.j.j.r.d.j.!.c.j.V.Y./.V.c.p.r.7.<.r.j.*.7.<.p.r.<.<.!.c.3.p.q.<.A.!.j.c.j.<.+.d.j.<.r.j.j.V.7.7.<.n ..!.j.d.3.r.p.*.d.j.*.<.7.3.r.p.A./.V.r.j.c.j.!.!.G.G.V.V.p.j.p.3.7.j.<.<.A.A.c.<.! ! A.;XG.p.<.....c.j.c.j.j.r.j.G.A.j.V.r.<.} 3.c.3.d.j.!.Y..X!.!..XG.V.<.<.j.3.r.j.7.*.<.!.&XY.<.J J ( ! ( ! } <.*.c.j.<.<.7.<.+.d.j.!.&X!.j.j.j.7.+.<.! ! } c.Y./.j.<.} ..<.<.j.j.<.<.<.V.3.R <.j.<.! <.j.V.!.V.3.j.j.d.<.<.} ! D ! ( d.p.<.<.*...<.<.r.V.A.p.3.r.<.R D ! ! r.<.*.j.j.<.+.<.j.A.G.!.!.G.Y.!.Y.V.j.j.d.j.r.<.*.! J ! +.<.3.p.j.",
"`.!.Y.!./.`.!.!.Y./././..X!.G.Y./.`.`..X.X#X#X`.#X.X.X.X.X.X`./.`.`..X.X!.!./.!./.~.[.`.Y.C.l.j.<.<.<.} ..<.3.j.7.<.p.j.1.<.1.N.!.D.i.7.i.<.<.>.j.G.D.V.!.!.V.j.j.A.c.j.V.j.p.p.G.j.c.A.j.A.c.G.G.Y.!./..X#X&X#X&X5X5X;X/.!.#X/.&X`.!.j.7.p.d.7.A.j.j.V.V.G.!.V.!.!.[..Xj.j.j.r.j.!./.Y.V.3.<.!.!.V.!.!.!.!.r.<.j.d.d.j.Y.G.j.j.j.j.p.3.j./.!.p.p.d.j.!.G.V.j.j.Y.!.j.j.d.<.<.<.r.d.j.!.G.`.A./.!.j.!.`.G.Y.!.V.l.V.7.<.l.j.7.j.+.U +.<.! ! <.5.U ! ] #.0.j.j.j.5.<.<.p.#.o.p.p.r.j.r.1.<.3.1.<.p.j.V.!.!.G.A.A.A.A.c.G.`.!.V.j.<.+.*.7.3.<.r.7.!.j.V.G.j.3.<.j.A.j.j.j.V.Y.Y.G.G.V.V.A.G.V.V.A.A.Y.A.j.p.d.p.<.<.d.!.A.<.} r.V.j.V.`.c.A.Y.#X`.!.A.!.!.!.Y.A.A.p.j.!./.V.p.j.!.!.Y.r.<.*.3.c.r.j.j.j.p.r.j.j.A.j.j.c.r.3.7.*.+.j.c.j.3.<.j.G.j.3.p.j.d.j.c.j.c.!.G.p.c.!.c.j.d.V.#X!.c.V.j.Y./.V.j.c.j.j.j.j.V.V.A.!.G.j.p.V.G.!.!./.!.Y.!./..X`.#X!.G.!.!.!./.Y././.j.G.Y.r.A...7.7.3.A.!.j.G..X/.#X/.!.Y.j.!.G.V.V.3.+.*.j.p.j.!./.!.j.p.<.<.j.7.r.V.<.3.+.<.7.r.r./.!.A.c.j.j.!.!.c.c.c.<.+.j.d.+...3.j.G.j.<.+.J N N U p.j.A.c.p.j.V.p.j.c.p.7.7.d.j.j.p.d.j.j.V.V.A.G.V.A.j.G.c.p.p.Y.j.d.!.G.c.3.*.<.!./.!.!.A.j.j.V.j.c.!.A.3.j.!.!.!.!.r.7.<.r.A.j.!.`.A.j.!.!.!.c.<.r.<.<.G.j.7.<.} R <.c.;X`.( U <.<.! X.J R 7.*.3.p.<.<.r.7.<.c.j.!.#XY.p.j.j.j.<.<.j.c.c.!..X&XV.3...p.!.r...*.<.7.<.p.*.C ! V.p.D ! <.p.G.c.3.j.G.A.7.*.! ( ( ..! ..+.} <.<.} *.*.7.A.!.j.r.r.<.} } ..J <.<.+.p.c.r.<.3.j.j.z.A.G.V.V.V.c.j.j.r.3.j.d.p.3.! C ! 3.d.j.c.Y.",
".X/.!.!.!./.!.!.Y.!.!.!.!.j.p.V./.!.!./..X.X#X`.#X#X#X#X#X#X`./.`./.`.`././.`.`.[..X&X.XG.d.r.0.( #.<.<.<.r.r.j.<.} +.>.<.<.i.V.W.!.l.j.j.i.7.1.<.j.V.C.W.D.j.p.j.d.j.c.j.7.r.j.G.j.j.j.d.c.V.!.G.V.V.G./.#X&X.X`.;X;X;X`./.;X;X/.!.Y.j.p.c.!.!.!.V.j.V.c.c.^.Y.!.A.V.V.<.<.7.3.j.V.A.j.j.j.j..Xc.r.c.Y.Y.G.r.<.j.A.!.G.A.c.j.j.7.d.G.!.c.V.G.V.p.r.j.!.c.c.c.V.!.`.A.j.d.<.<.p.d.V.j.!.G.G.A.#X!.j.V.!.c.c.Y.d.a.a.<.<.j.j.p.G.i.~ } +.! ! <.5.! i.l.j.j.j.i.1.i.+.o.<.} ! <.5.p.L.V.a.r.<.<.1.d.7.p.!.`././.Y.c.j.j.V.G.c.d.j.j.<.+.r.r.p.G.Y.j.3.p.V.G.V.j.Y.!./.!.!.Y.G.Y.!.!.Y.Y.Y.V.j.j.G.Y.Y.V.p.3.7.7.<.j.j.j.7.! U <.j.d.j.!.j.V.G.!.A.V.G.!./.!././.j...d./.&X!.d.d.G.G.Y.j.7.<.<.c.G.p.p.p.d.A.V.d.j.c.A.Y.j.<.<...( 7.c.c.7.<.c.Y.c.G.c.p.7.j.j.j./.c.V.j.G./.!.!.G.!.!.G.V.V.V.A.!.G.j.c.c.V.Y.V.c.G.Y.!.V.d.d.Y.!./.!.!.!./.Y.G.!.!.!.!.!.#X/.A.A.j./.!.j.c.A.j.G.*.7.r.j.!.!.p.p.`./..XY.j.p.p.!.#X!.j.} ..+.<.*.d.!.!.c.r.3.<.d.G.j.d.V.<.*.! +.<.<.+.p.A.!.A.G.G.!.!.V.A.Y.p.*.<.j.r.! ! r.j.7.7.+.<.R h C 7.3.p.j.c.V.j.<.*.<.d.7.7.7.3.p.d.3.7.j.d.j.c.3.+.*.<.j.c.j.V.#X!.j.<.3.j.j.p.<.3.( D Y.!.Y.j.j.V.G.!.A.+.<.j.c.!.!.c.j.p.j.!.A.!.G.*.d.!.G.V.j.*.<.! ( !.!.7.! U R ( <.A.V.! ( Y.c.} 3.( ( j.<.( <.*.<.<.<.<.V.j.A.!.V.7.d.j.j.7.p.A./.&X#XA././.c.C <.;X!.*.+.<.<.*.*.*.! ..j.7.( ..} ! 7.j.j.G.Y.c.r.<.! R J +.<.R R ! *.<...} ( } r.j.r.<.*.+.( ( ! N *.p.<.<.3.7.7.j.V.j.j.j.j.j.j.j.j.j.d.7.<.7.3.r.7.( D ! d.c.j.A.!.",
"c.c.G.G.V.!.`.!.A.G.Y.Y.V.7.7.V.A.V.G.!.`.`./.`.#X#X.X.X.X`.`./.`.`.`.`.`.`..X.X/.~.~.!.l.3.*.| ( <.p.r.r.3.<.3.j.p.1.7.j.j.g.a.l.!.!.W.V.p.p.p.<.j.!.!.!.j.0.7.j.d.j.V.j.3.r.c.Y.j.p.d.p.j.V.!.A.j.j.j.Y./.`./.!.!.!.`.`.`.#X`.!.!./.!.j.V.!.`./.Y.G.A.j.j.G.!..Xc.j.Y.j.p.p.j.c.c.!./.Y.!..X`.7.<.7.d.j.c.j.c.V.Y.Y.G.A.j.r.7.<.3.!.`.d.3.V.!.j.p.j.V.d.r.j.Y.!.!.G.j.p.<.7.A.r.j.d.j.V.~.Y.!.Y.j.j.!.!.Y.G.d.7.<.+.<.j.j.C.`.D.<.+.+.U U +.>.<.!.;X`.!.C.0.<.g.+.] <.<.| <.7.j.Y.A.l.C.0.j.3.V.j.j.!.!.Y.G.j.j.G.!.!.G.j.p.j.c.j.<.<.*.<.G.!.j.d.3.<.d.!.`.!.!./.!.V.d.d.c.Y.!.!.!./.A.d.j.G.Y.Y.V.d.r.p.p.p.j.p.*.} ..} 7.#XV.c.G.r.d.A.!.!.c.G.Y.!.Y.!..Xj.! j.`.`./.!.c.j.j.j.r.<.+.+.p.c.c.j.3.7.V.j.7.c.c.V.G.j.<.+.+.*.3.j.c.p.p.j.j.d.c.j.p.r.p.7.3.c.r.V.V.A.Y.!.!.Y.!.j.j.j.c.V.c.G.V.A.G.j.d.Y.!.G.!.!.Y.j.7.d.!.!.!.!.c.G./.!.!././.!.`.`.!..X/.c.V./.!.V.V.j.3.<.} ( *.j..X!.p.d.!.!.`.V.p.d.c..X`.!.3.D +...U ! d.!.Y.j.p.<.*.d.c.A.Y.!.d.3.+.<.<.<.<.<.r.Y.c.G.A.c.c.j.j.G.j.*.( c.!.<.! *.*.( 3.} 3.d.+.+.3.} <.p.Y.j.7.$...<.p.j.j.<.+.<.<...r.j.j.A.j.! U ! <.j.V.A.!.!.c.p.<.*.r.c.j.3.} N k j.V././.V.Y.`.!.!.7.<.<.<.V./.j.r.<.<.j.j.c.<.} j.!.V.G.G.j.j.! ! j.Y.j.+...<.( +.! ! ( <.j.7.&.d.*.U ..! ! <.<.j.j.7.<.c.d.j.c.V.d.p.<.3.3.j.c.A./.d.z +.#X/.! ( A.j.*.*.+.+.! ..<.*.7.p.+.<.Y.p.! } 7.j.V.j.r.r.j.<.J c ! <.! U U } *.} ( ( *.p.j.7.*.+.*.*.<.*.! d.Y.!.V.7.3.p.A.Y.c.j.j.j.j.j.j.d.d.j.d.p.3...( ..( R *.V.A.c.A.!.",
"p.d.G.!.j.c.!.V.j.c.V.A.V.j.j.Y.j.V.!..X#X`./.`.`.`.`./././.`.`.`.`.`.`..X.X.X.X/.Y.l.j.j.p.<...<.7.0.7.r.r.r.r.i.g.p.j.!.!.j.5.g.G.D.l.j.0.i.i.+.p.C.D.j.1.<.0.c.j.j.V.j.j.j.c.G.r.7.j.c.j.V.Y.j.j.j.c.G.!.!.Y.G.G.A.!.#X#X#X/..X`.`./.!.!./.!.G.Y.!.G.c.G.!./..XV.j.!.j.d.d.c.c.G.;X;XY.G.A.j.<.<.3.<.3.j.A.Y.G.c.j.j.A.j.<.<.3.<.j.j.<.7.V.j.p.r.d.j.j.<.p.`.!.A.A.j.3.<.p.A.p.j.d.r.A.#Xc.j.!.j.j.!..X!.!.j.p.#.<.j.j.j.G.!.G.<.<.1.Y I | ] o.D.#X`.!.G.7.o.j.<.#.a.j.p.g.j.l.l.C.G.Y.j.~.j.G.!.Y.G.G.V.j.d.r.c.G.G.Y.G.V.V.G.!.G.j.r.p.G.G./.!.c.d.c.!.!.j.j.c.j.j.d.j.j.d.c.c.G.!.G.j.j.A.G.G.V.j.d.p.d.d.r.j.7.<.<.} <.!.G.A.c.} ! 3.Y.!.!.!.!.!.Y.!.`.c.p.!./.Y.`.;X!.p.p.d.<...} ..+...j.j.7.7.V.j.3.c.V.j.j.j.3.+.<.<.7.r.r.r.j.j.d.d.d.j.j.p.3.<.<.7.7.Y.G.j.j.A.!.Y.Y.p.j.A.A.V.j.Y.A.G.Y.p.<.j.V.c.!.!.V.d.<.p.A.V.j.Y.V.Y./.!./.`.!.`.&Xp.*.!.&X!.j.A.V.Y.!.p.+.! ! ! <.c.!.j.3.c.!.!.`.G.j.A.A.V.`..XY.<.r.*.+.3.c.!.!.G.A.<.R ..p.!.`.`.G.j.<.*.*.7.V.c.r.j.7.r.<.} <.r.d.!.Y.j...p.Y.r.....! ! J U ! 3.<.+.<.*.7.d.!.p.*.! ! } 3.V.V.7.<.<.3.7.( <.r.d.*.R } ..<.j.c.G.`.Y.j.V.!.p.7.c.V.j.<.( ..<.D d.#XY.A.!.c.c.j.*.! } <.c.d.<.*.} <.7.c.7.<.7.7.r.c.j.d.A.7.+...} 7.<.<.d.3.7.R ! j.j.j.r.p.c.p.U J ! <...<.G.Y.r...7.r.d.j.Y.V.j.<.<.<.j.V.A.!.7.f ! /.!.G.<.<.} ( 3.r.G.*.<.*...3.j.3.<.c.j.<.} *.7.j.d.<.3.j.r.<.! ....} ! R ! ! ! ..<.A.Y.A.r.<.<.3.<.7.7.+.<.7.Y.`.j.7.j.A.A.j.d.j.c.j.c.c.j.p.j.j.V.j.<.<.r.r.<.7.A.!.G.G.!.",
"j.j./..XA.A.Y.j.j.j.j.A.!.!.G.A.V.Y./.#X#X/.!.!./././.!.!./.`..X!./././.`.`./..X#X!.j.0.d.j.p.<...*.} +.3.p.d.r.<.j.j.j.W.L.j.p.j.V.a.7.i.p.g.0.<.a.N.N.g.0.j.!.Y.!.^.G.V.A.!.`.Y.d.d.G.!.j.j.j.<.7.j.c.V.c.j.j.j.V.c.Y.`.`.#X.X.X!.!.`.`.&X&X`.G.G.G.j.c./.`./.#X`.!.!.j.j.G.`.!.;X;X!.!.!.j.c.7.r.d.p.7.j.j.j.V.j.j.c.V.d.r.j.V.7.3.a.7.7.j.j.3.r.j.V.V.7.j.;X!.j.c.j.7.p.j.V.A.V.j.d.A.Y...! !.j.d.!.!.!.#XV.j.<.5.j.p.7.p.7.a.<.0.j.+.! <.+.] p.G.!.G.j.7.] 7.1.<.a.j.g.j.j.j.d.c.Y.l.d.Y.d.d.G.V.j.j.j.c.j.7.j.V.h.j.c.c.c.c.Y.!.c.d.j.j.7.j.d.j.!.&X`.G.j.c.j.d.d.c.G.j.7.j.r.r.j.V.A.V.j.G.G.A.V.j.d.d.j.3.p.d.<.*.<.7.d.c.G.Y.<.( r.!.;X`.!.`..X`.`..X!.`..X!.!.&X;X!.r.r.7.<.+...<.<.} ( <.p.j.Y.j.*.<.Y.j.j.V.d.<.<.<.r.<.<.j.c.j.d.r.p.j.j.j.d.j.V.j.r.Y.!.j.d.V.G.A.d.3.V.!.Y.j.j.!.!.V.A.j.r.d.j.j.V.!.V.V.j.j.Y.c.A.!.!./.!.!.#X.X/.;X#X3.+.j.Y.!.d.r.d.Y.!.p.+.} <.*.p.G.A.p.3.G.!.!.`.!.!./.Y.j./.!.`.Y.j.<.j.j.j.V.A.Y.!.7.( <.j./.!.Y.G.G.j.<.+.<.j.V.d.j.<.+.<.( p.Y.A.!.Y.p.<.} +.<.<.<.( } *.<...*.<.<.j.j.p.r.G.p.7.*.*.+.+.j.G.j.r.7.7.p...7.c.j.<.*.3.<.<.d.c.!.`.j.p.A.`.V.j.!.Y.j.<.d.d.+.h C p.V.j.p.p.p.c.7.<.7.<.r.....<.+...<.V.j.<.d.p.<.+.<.r.G.G.j.( c R ..<.p.g.r.! +.<.} <.<.+.<.<.D D ! *.R *.!.!.3.R } <.d.j.!.!.G.j.c.j.j.V.^.`.Y.<.A./.V.c.7.r.<.<.j.p.!.G.3.<.<.<.r.j.r...*.<.*.<.3.7.<.<.2.3.+.<.<.<.! ! ! ! R D ! <.V./.!.c.<...<.<...*.<.*.( D 7.!.c.7.j.A.A.j.j.j.d.d.V.G.j.p.d.c.G.G.j.d.j.j.3.7.j.!.Y.Y.!.",
"j.j.Y./.!.!.!.!.p.p.j.A.G.A.V.c.!.!.`.`.`./.!.!.!.!.!.!.!.Y.Y.Y.A.!.!.!./.!.!.`.#X.XG.a.d.j.p.<.~ #.( ( +...#.| L.;X!.C.L.N.p.<.j.N.0.<.p.j.j.i.0.i.g.j.p.p.D.#X`.;X.X!.!.!.!./.V.j.c.A.A.p.j.7.<.7.j.j.c.j.j.d.j.c.j.j.G.!.`.`.`.`.#X#X`..X#X#X!.Y.A.j.c.`.`././..X.X`.j.c.!.&X/..XG.p.V.Y.j.A.V.j.j.j.j.d.r.<.j.c.A.V.j.p.d.V.V.r.7.c.j.<.<.A.r.p.c.c.A.j.G.#XG.d.j.d.d.c.c.V.c.c.r.d.Y.V.*.( j.j.j.!././.&XG.j.7.7.p.0.<.>.#.5.7.p.l.g.<.1.0.o.<.j.L.N.j.p.<.+.5.<.1.1.<.<.0.r.3.p.l.3.<.1.*.3.3.<.3.7.d.c.d.c.!.`.Y.j.3.3.d.c.c.G.d.d.j.d.p...} } r.A.Y.!.G.G.c.r.<.r.c.V.j.j.r.3.7.j.A.V.j.V.V.J.A.c.j.c.A.j.j.3.+.<.p.p.3.r.j.V.<.*.j.!.`.!.!./..X#X&X#X#X`.!.!.`.#X`.A.p.<.*.<.<.} ..<.3...7.j.j.c.d.} } !.j.r.d.7.3.p.<.p.<.p.V.A.V.d.<.<.d.j.G.!.!.!.A.j.G.G.c.V.V.j.j.7.3.j.!.!.j.j.!.!.c.G.G.j.j.j.j.p.G.A.!.G.Y./.!.!.V.V..X`.!..XV.G.G.`.Y.V.G.A.!.G.j.c.A.j.<.} <.r.<.d.G.!.!.!.#X!.!.`.!.A.G.!./././.!.`.!.r.Y.!.j.j.c.V.!.d.3.d.Y..XE.j.V.A.V.j.r.7.<.r.d.c.r.r.d...c..XG.G.!.j.p.+.( *.r.d.7.7.j.3.+...*.p.j.<.j.7.j.<.3.+.<.+.<.r.j.p.<.*.<.<.! ( <.3.3.r.r.r.d.j.Y./.G.+.<.p..X!.Y.!.G.d.*.c.G.p.! U } r.<.*...+.3.3.r.j.<.*.D C ..+.<.p.G.j.*.G.!.j.*.<.V.!./..Xd.D ( p.c.d.<.....d.( N r.V.j.p.*.J ( ! ! ! j.!.V.<.! ..<.d.j.!.!.!.Y./.Y.G.V.Y.!.!.j.!.!.G.+.<.A.V.p.d.R ! /.d.<.p.+.( j.j.<.+.} +.<.3.*.} <.....! ! R ! D ! ( ..! T ..d.!.!.!.j...! *.*.! +.<.7.r.*.j.!.G.r.j.G.Y.A.V.j.r.d.G.!.V.j.j.c.A.A.p.<.<.<.+.<.j.Y.Y.Y.G.",
"A.A.j.c.Y.A.j.G.<.<.p.c.j.d.j.G.`.`.`.!./..X/.!.!./.!.!.A.j.j.j.j.A.Y.!.!.!.!.`.!..X!.j.d.j.7.#.#.r.1.*...( <.1.j.[.Y.C.!.G.p.+.p.j.p.5.p.j.j.p.i.5.7.p.i.p.V.!.c.c.d.c.&X&Xc.3.p.j.j.j.j.7.c.d.j.j.j.V.A.A.A.A.c.V.p.r.j.G.!.!.`./.#X;X#X#X&X.X!.!.!.G.!.#X.X.X`.`.#X;X!.A.A.`.!.!.`.!.!.#X#X&X!.V.j.V.c.d.7.+.j.j.j.d.j.j.p.r.<.<.3.d.j.7.3.V.j.r.j.d.d.p.G.G.V.d.r.3.d.c.d.p.d.j.<.r.!.!.A.d.<.A.V.!.`.c.p.<.D.j.0.7.p.5.<.7.i.j.a.j.V.7.7.j.7.7.V.!.j.p.p.<.} i.0.<.| ! +.1.3.1.1.j.3.r.#.#.r.+.} <.<.r.j.<.d.A.!.!.j.<.<.j.j.d.A.d.d.c.d.V.3.d.<.+.3.c.Y.d.r.j.j.d.d.j.V.c.j.j.d.p.d.j.c.j.d.d.j.c.V.c.G.!.A.A.3.+.d.j.7.d.V.c.j.<.7.!..X!.!.!./.!./..X!..X!.!./..X/././.!.r.<.p.r.! U *.p.3.j.V.j.j.j.3.<.c.r.......<.p...<.+.r.V.G.!.!.d.p.c.d.c./.!.!.Y.!.G.c.j.V.j.d.j.j.p.d.Y./.A.c.!.A.V.!.A.r.d.j.d.7.A.G.`.A.A./.!.A.<.<.!.!.j.7.n h v p.V.d.!.#X;X!.A.G.c.<.} ..d.c.j.V.G.!..X/././.`./.j.( U 7.!.j.!.j.A.!.<.j./.Y.Y.!.G.!.r.<.<.p.A.j.r.j.r.p.p.d.j.<.<.<.3.3.A.Y.*.j.G.3.r.Y.!.j.c.h.d.j.G.G.j.V...<.<.<.A.V.<.r.y.G.V.G.p.j.<.r.<.7.<.( <.j.c.<.( ( *.p.r.<.j.2.+.j.!.j.<.!.#X/.!.j.V.Y.d.! ..G.<.*.<...} J ( } +.<.r.j.A.j.<.<.! } *.d.Y.!.3.*.d.Y.Y.j.j.Y.`./.&XG.+.j.&X#X3.D U <.!.+.n p.`.<.<.! ! p.+.U <.d.d...} +.3.7.c.A..X`.!.Y./.!.!.A.A.!.!.7.d.V.c.....A.!.j.d.J U j.c.3.<.} R <.<.d...! } <.7.3.7.*.R ( <.<.! ! ..} } #.! } r.c.!.A.G.d.} ! <.<.( ! ..<.V.V.A.V.V.j.V.G.G.A.!.Y.j.j.Y./.Y.j.j.c.c.d.<.<.r.j.p.p.j.G.!.!.Y.",
"j.3.U ! ( R r.G.j.r.d.j.r.<.j.!.!./.!.!.`./.!.^././.!.V.j.c.G.G.j.j.G.!.!.Y.!.`.!././.G.d.p.r.<.3.j.j.7.r.<.j.p.j.j.a.p.g.j.7.#.j.`.L.j.l.Y.j.d.j.j.7.r.7.r.A.!...D ! c..X#X!.p.d.j.V.p.*.j..X!.V.c.V.A.A.!.!.Y.G.j.p.p.j.V.Y.!.G.#X`.#X!.`.`.!.!.&X#X!.#X;X!..X.X#X!.j.A..XY.c.A./.&X!.j.j.!.!.j.V.V.j.V.c.<.<.<.d.c.G.j.*.<.r.W.C.j.j.j.j.<.g.7.0.a.p.3.p.C.Y.A.Y.A.j.7.*.*.3.+.<.3.3.d.G.A.j.r.7.j.j.A.c.! } <.<.j.j.p.*.*.<.j.V.p.p.j.d.<.c.<.3.j._.G.<.} ( ! ! ....3.+...+.} *.r.p.<.r.j.7.3.<.<.j.<.r.j.7.d.V.j.!.G.7.p.p.<.<.3.<.*.j.G.3.3./.G.+.} p.c.<.} ..d.c.j.A.A.j.d.j.V.j.j.j.A.c.A.p.j.c.Y.!.A.!.!.!.c.j.j.j.j.j.V.G.A.V.!.&X#X!.A.G.!.`./.!.!.`..X!.!.`./.!.!.A.r.j.j.r...R <.j.j.j.j.j.V.!.!.j.V.<.} <.<.*.3.+.<.} 7.c.G.`.!.7.3.j.d.d.!.;X#X!.`./.G.c.j.d.d.V.j.r.r.c.Y.A.A.!.G.c.G.j.d.j.p.7.<.3.c.7.<.Y.!.Y.Y.! ..Y./.j.<.<.<.<.*.} U <.j.A.V.d.d.d.! R 7.r.3.<.j.j.j.`.Y.#X!.d.&Xp.U U Y.G.! r.<.d.j.3.j.!.j.c.!.A.r.j.+.r.c.c.Y.j.<.<.3.p.r.j.<.3.<.<.3.j.V.j.V.j.<.} +.j.j.d.j.j.c.Y.!.!.c.7.p.<.p.!.V.p.V.c.c.V.A.V.j.r.} <.+...<.j.Y.3.*.7.7.*.<.<.<.*.<.<.*.<.d.A.!..X!.<.( <.Y.`.A.d.2.p.<.! ! U R *.r.j.3.<.d.3.+.<.<...+...7.j.A.j.<.3.j.A.G.!.&X#X`./.V.Y.Y.j.;XY.! r.j.;X;XY.j...( ! U C ! R ! 7.!.3.+.( !.<.<.p.7.!.#X!.!.!.!.V.7.<.!.G.!.j.j.G.p.<.7.j.A.A.G.!./.<.! <.<.( <.<.p.r.+.( ! *.<.r.r.<.( <.p...J ! ....( ..<.p.Y.!.3.} ( ! } 3...U } <.<.7.j.j.V.G.V.G.!.!.V.G.G.j.V.!.G.V.G.G.V.j.j.p.7.p.j.j.j.G.!.V.V.!.",
"<.+.U } <.+.j.!.G.c.V.G.V.j.G.!.!./.!.!.`.`./..X/.!.!.Y.!.!.!.A.r.r.j.G.Y.!.!.!..X`.`./.G.V.c.j.A.G.!.A.j.c./.V.<.<.7.j.l.j.i.<.c.!.Y.!..X.XC.c.Y.G.j.c.A.G.!./.d...<.`.,X&X/.!.A.A.c.p.r.A.!.j.G.A.Y.!.!.!.!.A.c.c.j.j.j.V.G.G.Y.Y..X!.A.Y.<.3.`..X!.!..X.X`.#X.X!.V.j.!.#XG.j.A.Y.!.!.A.V.A.A.j.d.r.<.r.j.7.<.<.7.7.j.Y.c.j.p.j.i.i.j.p.a.<.i.p.d.V.Y.A.c.j.p.j.A.G.c.j.7.<.<...*.3.3.7.j.j.<.+.} 3.3.3.r.3.A.r.<.j.j.d.<.7.c.j.c.j.j.<.3.7.j.j.j.j.!./.j.<.*...! <.3.r.3.r.<.+.<.r.7.<.r.d.d.7.<.<.j.7.j.V.d.c.G.V.G.c.p.j.j.*.<.<.7.a.p.3.3.7.j.7.<.<.3.p.7.} ! 7.j.j.j.d.p.p.j.G.V.c.j.I.j.V.j.V.!././.G.A.G.!.G.j.V.G.G.A.!.V.j.j.!.`.`.!.!.!./.`.!.!.!.!.!.Y.!././.!.A.j.<.7.7.r.<.( *.3.j.c.j.j.r.3.r.7.j.r.<.7.<.<.<...<...3.p.j./.!.7.} 3.d.j.V.!.!.!..X`.!.A.V.j.d.j.p.3.7.c.Y.Y.!.!.V.c.A.c.j.c.j.j.c.j.j...*.A.Y.!.G.<.*.c.Y.j.d.d.`.!.7.! D +...v } <.<.*.} } <.7.<.p.!.j.! R C <.! s ! D h s <.Y.j.A.r.p.Y.A.j.c.<.p./.#XG.V.r.p.<.+.<.3.7.d.r.<.7.j...*...( +.3.j.j.G.c.3...} 3.<...7.j.d.c.G.Y.G.3.<.*.p.!.G.c.!.Y.A.A.A.c.j.j.p.j.r.<.3.j.G.c.+.<.<.<.7.j.r.3.j.<.! +.c.!.`.;XY.j.+.j.`.V.j.j.+.p.p.*.....+.<.j.!.A.r.7.<.} <.j.7.<.( } <.c.c.<.7.j.j.j.j.G.!.G.A.V.A.Y.c.!.#XG.j.G.;XG.! U N ( +.} ! ( } ( r.7.+.<.+.j.*.7.j.j.G.`.`.!.`.!.V.+.} G.G.V.<.+.7.A.j.<.<.j.G.Y.G.Y.} C } +...<.+.<.} ! } ( ( ( *.j.<.R J ( ( U J ! ! ( *.3.c.`.!.} *.<.<.*.+.! ! <.p.p.j.V.V.G.G.V.G.!.G.G.!.!.j.G.!.!.G.!.G.V.V.j.p.<.<.a.j.V.!.V.j.j.V.",
"<.<.+.r.d.7.c.!.Y.G.!.!./.`.`./.!./././..X`.`..X#X/.G.c.V.Y.G.c.j.p.p.j.G.`.&X.XY.A.G.!.!.!.!.!.Y.G.!.!.!.G.!.V.<.<.7.l.L.C.j.j.c.!.!./..X;X[.[..X.X!.!././.`.!.<.} 7.!..X!.A.A./.!.j.3.j.V.d.<.V.j.c.G.Y.Y.A.j.p.j.G.G.G.Y.!.!.G.j.!.!.!.!.<.j.`.!.V.!./.!./.`.Y.p.7.j.!..X!.j.G.A.A.!.!.G.j.j.j.p.r.3.r.c.V.j.j.j.p.A.#X&XY.r.j.7.7.j.7.7.<.7.l.j.A.!.!.A.j.0.j.G.!.V.d.3.<.<.<.<.r.p.7.j.j...<.( *.<.<.<.7.V.d.<.j.G.V.7.d.!.!.A.c.j.<.3.p.7.V.Y.d.z.!.V.r.p.p.j.c.j.3.} +.<.r.r.p.<.7.p.<.7.j.3.<.d.7.j.A.j.j.j.j.j.j.j.j.7.<.d.r.j.Y.j.<.p.3.*.+.p.d.<.<.<.<.*.d.V.j.d.p.d.j.j.c.j.j.j.c.c.V.j.c.c.G.!.G.A.d.V.V.c.V.!.!./.!.p.3.c.!./.`./.!.!././.!.!./..X!.Y.Y././.!.c.r.r.7.<.7.<.+.<.<.p.j.j.p.*.R ! +.c.V.j.j.d.p.r.<.7.<.7.<.r.!.!.j.} *.3.7.7.j.Y.`.!./.!.!.!.G.j.j.d.<.r.c.A.Y.!.Y.V.V.Y.A.j.c.j.j.c.G.c.<.7.j.7.<.j.r.r.V.G.j.j.d.!.!.j.j.j.G.d.N N ..<.*.( ( <.<.<.3.j.<.! N h N g 5 f 0 r C <.<.G.G.d.3.G.!.V./.j.7.c.!.!.Y.G.j.} ..3.7.3.7.3.<.<.<.! *.<...! ( *.<.j.j.3...} <.r.+.d.A.j.j.c.V./.j...~ <.A.!.c.!.!.`./.!.j.7.<.d.c.j.3.7.d.j.G.r.p.<.<.r.G.<.3.c.7...<.V.!.!.G.V.!.<.c.#Xj.7.7.D ..<...+.r.d.3.V.!.j.+.! ! ( } j.r.<.( ! ( <.<.<.d.A.c.r.*.<.r.<.3.G.Y.!./.!..X;X!.!./.j.+.*.r...<.<.! ..<.} *.j.j.j.<.<.7.V.A.V.G.!.#X`.!.G.j.+.! p.p.<.! <.j.*.7.+.*.p.c.!.!.;Xc.3.<.} } <.} ..R J ....+.+.<.c.r.! U ( } ! ! ! ! ( <.3.c./.V.<.p.7.<.<.+...+.p.j.j.G.V.N.G.V.V.V.I.G.G.!.G.j.G.G.G.G.!.G.V.V.V.V.j.p.p.j.V.G.G.V.j.p.",
"j.j.r.j.c.j.c.A.A.Y.!.!..X;X&X/.!./..X%X#X`././.#X/.c.r.p.j.j.c.j.j.j.j.c.!..X.XA.j.j.G.!.Y.Y.!.!./.!.!.`.c.7.j.j.1.<.<.p.j.j.j.V.Y./.Y.d.Y.&X.X!.&X&X#X.X`.`.Y.0.7.V.Y.G.G.G.G..X.Xj.<.c.c.<.*.V.j.d.j.V.A.j.p.7.j.G.Y.Y.!.!.!.Y.G.j.!.!.j.j.Y.V.p.p.j.!..X!./.!.d.d.c.G.!.!.j.V.V.c.G./.Y.j.j.j.d.j.j.r.r.d.7.A.Y.j.b.!./.G.7.W.j.7.i.r.p.<.j.j.d.j.c.V.j.j.c.V.!.!.V.p.<.*.<.3.<.p.j.p.A.!.r.3.<.*.<.*...<.r.7.<.d.c.j.p.j.!.!.V.j.j.<.j.j.3.j.G.p.r.j.r.<.<.7.j.7.<.j.j.r.c.!.j.c.d.j.j.<.*.c.7.<.r.<.j.j.p.j.j.j.7.A./.j.3.<.j.7.7.V.V.d.r.7.*...2.3.<.<...<.*.7.7.<.+.*.<.j.<.7.7.d.3.7.p.A.V.j.p.j.V.A.c.j.c.A.j.d.p.j.G.Y.<.<.!./.!.`.#X`.`.`./.!./.`.#X.X!.!.!./.!.V.d.d.<...<.<.! ( ( 3.7.<.<.*.} <.3.j.A.j.p.p.d.p.<.d.r.j.p.d.Y.!.!.<.....*.*.3.j.G.j.A.!.!.!.Y.V.j.j.3.d.V.c.G.!.c.j.A.!.Y.c.j.j.r.<.j.Y.c.j.V.d.p.d.p.j.j.j.d.<.<.3.3.d.!.#X;X/.V...<.p.r...*.r.<.r.<.<.<.t.7.! <.<.J <.n D c.j.<.c.j.j.r.Y.!.7.A.Y.d.d.A..X!./.A.7.d.j.p.<.+.<.7.3.<.R r.A.j.3.+.} ..3.d.3...+.7.3.<.p.p.<.<.*.<.`.Y.<.! *.V.!.c.Y.`..X!.V.j.<.! r.c.!.j.j.c.j.Y.Y.V.3.3.r.Y.} } !.j.*.( d.!.j.! ! A.d.j.#XV.r.r.+.7.d.3.<.j.G.j.c.j.+.v a z ! <.<.+.<.d.j.r.<.*.! p.!.!.j.*.! +.+.! j.G.A.`./.j.r.A..X!.A.j.*...+.<. .( <.j.<.<.!.c.<.....3.j.Y.!.G.`.#X!.j.7.+.<.} 2.<.+.! <.<.R j.d.r.<.+.j./.!.A.j.3.! ! ..! *.( R ! R ( } +.p.3.+.} ( R U ( } } +.<.<.d.V.3.7.j.<...<.+.+.<.7.p.j.!.G.j.G.G.V.V.V.G.G.!.G.j.G.V.j.V.V.V.j.V.V.G.G.j.j.V.V.j.G.G.j.7.",
"c.j.r.j.c.j.V.V.c.Y.!.!.`.#X`.!.!.!.#X&X.X/././.!.!.c.d.j.c.j.c.j.G.!.G.A.G.!.!.#X!.A.Y.!.G.c.V.!..X!.Y.!.!.G.#X!.j.<.} <.j.V.l.A.C./.A.+.<.C.a.<.j.G.G.c.c.Y.A.j.j.A.j.p.j.j.A.`.&XV.p.G.G.d.j.!.V.j.j.j.V.j.p.d.j.c.c.V.A.A.V.V.c.j.V.V.<.3.j.c.d.j.7.Y.#Xj.j.j.j.c.A.j.j.A.j.j.c.j.c.G.V.j.c.d.7.j.Y.d.<.3.<.Y.!.j.d.j.A.G.j.G.j.7.p.l.D.p.N.j.j.l.j.a.7.p.l.j.c.A.Y.A.r.<.<.+.+.7.d.<.j.`.V.j.A.p.<.+.} <.p.<.<.*.<.<.3.j.Y.A.j.d.p.<.7.3.*.<.d.d.j.j.d.r.<...7.*...r.j.j./.!.j.c.j.p.j.<.<.d.<.3.j.3.j.j.p.c.A.d.<.A./.p.r.*.3.<.<.<.p.j.<.j.p.<.} *.r.r.<.d.d.j.<...<.3.d.d.3.p.r.c.j.p.3.V.Y.G.j.j.A.A.j.V.V.A.c.7.*.7.A.!.7.d.`.`.!./.#X#X#X.X/.!././.`.;X`.!.Y.!.!.Y.V.c.<.*.r.3.} +.<.d.d.<.<.<.7.j.j.A.Y.V.j.j.j.p.<.<.<.j.j.h.j.j.A.A.3.<.p.j.j.j.p.j.V.!.!.A.c.V.A.j.3.j.V.j.G.!.j.r.V./.!.G.V.c.p.<.p.V.r...<.c.!.!.c.!.c.j.j.<.j.j.p.j.c.!.`.!./.c.7.3.7.3.j.c.p.7.<.r.3.r.7.<.c.V.<.`.!.V.j.<.A.!.d.<.<.G.Y.<.j.j.j.p.c.`.j.c.j.j.j.d.<.<.<.3.7.3.*.! j./.!.d.*.<.+.<.p.3.( } 3.r.c.V.p.p.p.<.3.`..Xj.<.3.j.!.j.!./.G.7.<.p.d.3.3.c..X!.j.V.V.c.3.<.! ..3.V.D c V.j.r.<.<.r.<.R r <.G.c.A.p...<.7.d.c.d.<.7.A.G.7.<...C h c ! *.*.} <.G.!.j.2.r.R <.V.Y.A.r.( +.<.! *.!.!./.#X!.D +.!.A.d.j.<.! <.<.} +.<.d.*.<..Xr.R ..<.} ..c.j.j.G.`.V.<.} } <.+.<.<.+.<.<.! } G.!.!.j.} 7.!.Y.Y.Y.d.<.<.<.} <.+.} ..R ! ! ! <.<.<.+.( J U } <.<.*.+.} <.j.<.*.j.<.+.<.+.} +.<.7.j.!.G.V.!.!.G.G.G.G.!.!.V.j.G.j.j.V.G.V.V.V.j.V.G.V.V.V.V.j.j.j.j.7.",
"c.d.p.j.c.V.G.G.j.V.Y.!.`.`./.`.!.!.`..X/./..X#X/.!.j.d.V.A.j.j.Y.!.!.G.c.V.!..X&X`.Y.G.!.!.G.A.#X#X`.V.p.Y.`..XL.j.<.o.<.j.G.C.j.7.A.G.3.*.3.~ J *.7.r.7.r.j.j.j.d.A.A.V.V.j.Y.Y./.A.j.G.Y.A.Y.!.V.j.d.d.j.V.j.j.d.d.d.j.j.j.j.j.7.A.j.j.r.+.3.V.V.A.7.A.!.3.r.7.j.G.Y.j.j.A.j.j.c.c.V.c.j.r.r.r.3.j.!.V.p.j.d.V.Y.c.j.c.c.V.j.j.j.j.N.L.!.g.j.j.c.c.j.p.r.d.c.d.d.c./.&XY.3.+.! ( <.7.} *.A.j.c.Y.p.+.*.*.<.r.<.<...+...+.*.<.3.r.7.3.} ..} +.<.3.3.d.j.c.V.d.3.j.j.p.( ..7.A.V.7.j.j.7.d.d.j.<.<.d.A.d.A.V.j.A./.A.7.V.c...+.} +.<.<.+...7.*.3.7.<.} +.7.<.+.j.j.j.<...<.7.p.7.r.j.3.j.!.V.p.p.V.V.c.j.A.!.G.G.V.A.A.p.<.j.!.`.c.A..X!.A.!.`..X.X.X/./.`.`.`.&X.X!.G.Y.!.!.!.c.<...<.+.( 3.d.j.j.r.3.<.7.V.c.!.Y.!.Y.A.V.p.<.<.+.<.<.<.<.3.c.c.<.} 3.c.j.r.<.c.c.A.V.d.r.j.V.7.3.j.V.l.Y.!.j.3.A./.`.G.V.A.j.3.p.j.*.C R 3.c.j.<.j.7.3.p.<.j.j.V.!.A./..X!.G./.V.r.<.<.<.+.7.<.} +...<.3.p.c.! J d.!.Y.j.+.d./.d.} ..j.G.j.!.G.V.7.r.V.7.7.d.p.j.s.<.3.p.j.d.<.3.<.!..XY.3.! <...( <.<.! ! +.3.Y.!.7.r.j.3.7.Y.!.B.j.j.j.V.A.G.Y.j.<.<.d.j.r.<.j./.G.r.d.d.<...( ! 3.A.&X<.D <.3.j.c.<.U } j.h } !.V.d.<.( r.<.<.<.<.<.7.j.j.7.*.*.*...<.<.+.7.+.X.p.r.+.+.j.<.<.r.j.c.j.*.*.r.( U G./.3.<.d.N v r.j.! ! } +.3.<.+.*.( +.! *..XV.<.3.r.<.} 7.<.7.G.`.G.<.} +.<.<.<.} +.j.j.+.7.c.c.G.V.7.j.!.!.!.A.<.U ! ..( *.} +.7.+.} ! ! ..<.3.3.<...! ! <.<.( ! R ..p.r.3.c.r.*.3.3.*.} <.p.V.!.!.G.!.`.!.!.G.!.!.!.G.V.G.G.G.!.G.G.G.G.V.V.G.G.V.V.V.V.j.j.p.7.",
"j.d.j.c.c.V.G.A.d.j.j.!..X`.!..X`./..X.X/.`.#X#X`./.c.p.c.V.j.j.Y.G.j.r.r.j.G.#X/./.G.j.G.!.!.I.!.!.!.c.3.A.!.Y.L.V.j.j.j.G.!.!.a.1.d.j.d.r.0.....3.r.j.j.j.j.p.p.7.c.V.G.Y.j.j.j.V.j.j.j.A.V.j.p.j.j.r.<.d.G.G.c.j.d.j.j.j.j.c.c.r.Y.j.j.j.7.<.7.j.j.7.j.A.c.V.G.!././.V.j.A.j.G.j.V.!.!.c.r.<.r.d.c.Y.c.j.j.j.d.j.j.c.V.p.r.r.j.j.D.W.l.L.j.7.7.j.j.d.l.C.C.C.p.j.c.!.&X.XV.p.<.<.3.j.<.<.d.<.<.<...( +.<.<.3.7.r.*.7.<...! ! ! ..*.3.} +.<.r.3.<.+.<.<.7.p.<.d.c.V.c.<.<.r.j.j.3.p.j.c.V.V.c.<.<.c.!.d.V.V.V.!..X/.Y.!.j.+...} *.( +.<.} +.+.<.V.G.j.c.V.7.3.d.r.7.<.<.r.3.<...<.d.+.3.j.p.r.<.j.j.d.p.j.!.!.!.A.A.V.j.j.A.Y.`.!.Y.!.!.A.G.!.!./.`./.`.#X#X.X`..X/.Y.!.!.!./.!.c.p.5.<.<.j.j.3.3.p.j.3.7.Y.!.c.j.Y.!.A.j.3.*.3.<.+.} <.7.p.A.c.3.+.3.j.j.j.j.j.r.d.j.7.<.3.p.7.r.c.V.j.G.Y.d.7.A.!.!.j.j.V.j.3.p.d.7.*.*.3.r.<.<.p.p.<.3.r.d.3.V.G.!./.r.j.A.j.j.p.*...} *.A.Y.3.<.+.<.r.p.<.U +.<.e.j.Y.p.<.c.j.*.<.j.c.V.c.!.V.3.7.p.7.<.r.7.G.V.d.p.j.c.j.3.p.7./.#X!.p.( <.} ! ( } ! ( } <.!.`.p.<.3.<.3.d.j.d.d.j.d.V.!.G.j.p.7.7.r.3.<.<.j.E.V.d.7.7.<.+.<.3.r.c.`.A.<.3.*.<.3.+.( <.c.! } Y.!.d.d.d.Y.j.r.3.3.3.r.p.r.G.p.<.+.<.j.c.3.<.} ! <.*.+.<.Y.G.p.j.j.d.p.*.*.7.<.( c.!.d.( ! h h p./.r...} <.*.<...*.! +.( 7.c.j.d.<.7.p.d.r.7.j.!.#X!.<.! } <.7.j.+.+.j.p.+.!.j.<.<.7.d.V.!.A.c.d.! N ! ..*.+.( } 3.+...! C ( ..<.r.7.o.! U ( *.( ! ! +.d.j.d.A.j.+.<.p.<...7.j.G.!.G.G.!.!.!.!.V.V.!.!.G.G.G.G.G.G.j.V.G.V.V.V.!.!.V.j.V.G.V.p.7.7.",
"<.7.j.c.j.j.V.c.j.d.j.!.#X!.Y.!..X`.#X&X`.`.#X`.!.!.A.j.V.V.j.V.G.j.3.<.p.j.Y.#X.X#X!.j.c.!.G.c.A.A.Y.!.V.G.j.c.l.j.l.V.N.j.j.D.j.j.a.<.j.j.l.p.3.7.3.j.V.V.j.<.j.j.c.p.j.Y.d.r.j.j.j.d.j.V.j.*.<.j.A.d.<.r.A.Y.Y.V.c.V.c.d.j.c.j.r.p.7.p.j.!.7.<.j.p.p.r.r.G.G.!.!.G.G.j.d.c.c.A.r.j.#X;X/.c.7.<.V.!.!.V.j.Y.A.j.c.j.V.j.7.r.j.V.j.!.!.7.N.V.p.j.V.c.c.Y.Y.a.*.r.j.j.j.!.#X&X.X!.c.j.!.G.j.d.! <.+.<.*.( ( *.p.j.j.<.d.r.*.( ..<.*.<.p.+.<.3.r.} +.+.<.r.7.r.<.<.j.c.j.*.+...7.3.<.+.d.G.V.d.3.r.r.A.Y.7.j.j.V.Y.G.G.Y.Y.c.p.<.<.j.( } j.r.<.<.<.!./.j.V.A.7.7.r.<.*.<.r.p.*.} ( +.j.3.r.3.<.7.3.c.c.j.r.r.c.c.c.j.j.j.j.Y.!.Y.!.!.Y.!.!.!.Y.!./.`..X`.`..X.X/.!..X.X/./././.`.Y.Y.A.j.3.p.j.<.j.r.c.!.d.7.G.Y.j.7.G.!.V.j.7.3.r.3.<.<.j.A.c.A.V.j.7.p.j.j.d.V.j.r.j.G.V.j.d.j.p.j.G.A.j.V.c.3.3.V.Y.V.p.r.c.j.3.p.7.r.j.j.r.3.d.c.l.j.<.*.j.r.A.!.V..Xj.f ! Y.c.j.c.p...<.d.!.V.7.p.<.<.<.j.r.+.d.<.7.3.7.7.p.p.d.+.<.j.j.G.r...*.<.d.<.<...<.7.!.A.d.d.j.j.r.*.+.! d.G.!.V.7.r.<.! ! ( } <.+.} V.`.d.} ..+.<.j.v.d.<.*.<.r.j.!.d.<.<.<.<.<.3.+.j.j.c.j.7.3.<.p.c.V.7.<.d.Y.j.*.<.<.*.+.3.r.<.! ! G.!.<.<.p.c.r.j.d.<.} ( +.<.A.V.d.*.+.r.j.<...! U +.<.<.<.j.!.j.!.A.d.7.+.<.p.j.<.3.j.!.3.c i c 3.c.j.<.! <.<.3.*.<.} 7.<.j.j.<.<.*.3.3.V.V.<.j.!.#X`.<.U ! } <.j.+.} j.<.+.G.r.<.<.r.j.j.j.p.<.<.! ! <.*.} ..} } *.+.p.3.! <.} +.7.<.! ! } ( <.<.<.<.3.j.Y.<.V.G.<.} <.} } 7.G.G.G.G.V.G.!.G.G.j.j.V.V.V.G.G.V.V.j.7.p.j.j.p.j.V.!.V.j.V.V.V.7.<.j.",
"3.1.r.j.l.j.j.c.j.j.G./..X.X`.!..X`.!./.#X`.!.`.Y.j.j.V.j.j.Y.!.!.A.j.7.3.j.V.!..XY.Y.G.G.c.3.<.j.A.L.~.L.1.<.0.a.p.<.<.j.j.5.V.A.Y.V.a.7.r.j.l.7.7.3.<.j.j.p.j.c.k.A.p.7.d.<.1.r.j.j.d.j.j.a.<.<.j.c.7.<.3.j.C.A.c.3.j.a.d.j.l.j.p.7.0.d.j.A.Y.r.d.d.j.V.d.r.V.A.!.#X/.j...c.!.A.d.j..X!.Y.G.p.j.Y.!..XY.j.A.j.c.c.j.j.j.7.<.j.G.A.Y.A.p.d.l.d.0.j.C.L.Y.c.0.<.j.3.<.j.!..X.X.X!.<.*.0.A.L.3.0.r.<.r.d.r.<...7.j.A.c.j.V.d.7.j.A.r.7.d.p.<.<.j.<.7.7.r.r.3.r.j.V.j.7.*.! } ( <.*.<.j.!.A.7.j.3.<.y.V.A.A.Y.Y.G.G.3.<.j.V.<.3.<.<.*.} *.p.<.*.p.j.!./.c.7.p.a.<.3...7.A.7.<.r.} <.p.<.r.3.<.<.j.j.c.c.j.r.d.V.j.j.3.J <.!.A.A.G.!.!.Y.!.!.!..X.X.X`././././.!.!.`..X.X`./..X.X!.Y.Y.r.<.7.3.7.r.V.r.j.!.p.*.p.j.<.<.7.V.!.G.d.*.3.<.7.3.p.V.V.Y.V.3.<.j.d.7.j.V.j.c.j.c.j.3.j.d.*.3.j.j.d.c.V.3.3.p.j.j.Y.j.c.A.<.p.+.<.j.d.<.3.3.<.p.<.+.<.j.j.Y.!.`.+.} 8 h j.c.A.#XV.<.c.!.d.r.j.j.p.*.+.<.+.r.7.( <.3.<.d.r.<.3.*.7.j.d.7.<.....+.p.c.<.! } *.V.c.r.p.j.c.3.*.U U 3.A.j.A.r.j.7.+.<.*.( 3.7.<.r.c.p.<.*.r.<.r.<.<...! +.<.d.j.j.j.j.r.<.7.r.<.j.p.j.V.r.7.d.j.j.A.p...j.j.V.7.<.<.( A.V.p.} ..} j.p.( ..c.r...<.<...<.r.<.+.j./.Y.3.d.c.7.3.r.r.+...} } ! <.7.3.V.A.j.7.*.<.r.A.j.<.! <.G.f.+.} *.p.j.+.J <.V.d...( +.j.7.<.j.<.R ..<...A.G...3.j.V.j.<.! ! ! +.d.! C ....r.!.r.+.r.c.j.d.d.<.} ! ( <.<.+.<.<...<.j.j.j.j.3.d.+.3.p.r.+.U } <.r.7.<.....j.A.R } j.<.! ! <.*.<.d.A.A.A.!.!.!.!.V.j.V.G.G.G.G.G.V.j.j.V.G.p.p.7.7.j.G.j.j.G.V.j.7.7.j.",
"*.<.3.r.r.r.p.j.j.c.!./.!.L.!..X/./.!.!.!.!.!.`.!.G.Y.Y.j.j.c.j.c.j.j.3.7.c.c.j.G.j.j.l.G.C.7.<.L.$X#X!.c.r.c.!.).G.a.5.g.g.p.W.A.!.!.G.p.1.a.c.<.<.7.p.c.A.j.j.j.j.!.l.d.j.1.<.j.C.A.j.p.d.j.r.0.G.[.C.*.*.a.j.G.c.<.1.3.j.a.1.j.a.p.j.d.0.r.j.d.d.p.j.G.j.j.!./.`.!.!.G.p.A.G.A.A.A./.j.j.c.j.V.!.G.!.c.p.j.d.!.G.j.d.j.7.3.d.G.C.Y.G.d.d.c.c.j.j.j.c.V.j.d.c.!.j.3.d.Y./..X#X!.<.~ *.V.~.l.d.l.j.j.d.j.a.<.#.j.A.A.A.Y.G.A.!.!.G.j.<.+.} ..*.+.p.d.<.*.<.p.V.!.Y.V.j.<.<.....+.*.<.j.j.7.d.<.r.j.A.Y.Y.V.j.V.Y.r.<.<.r.<.7.+.7.r.7.r.p.<.<.j.r.j.j.a.3.r.d.1.3.7.r.r.+.} <.( ..j.p.p.3.3.3.d.*.<.c.j.p.j.V.!.V.d...7.c.d.c.!.!.!.Y.!./..X;X.X`.`.`././././././.`..X/.!.!.!.A.c.j.+.( <.<.r.j.r.<.j.A.j.<.7.j.d.<...p././.j.*.<.7.d.<.<.p.d.j.p.<.<.d.j.j.j.j.r.V.j.j.p.3.j.r.7.V.V.d.d.p.7.d.d.j.d.d.G.j.j.d.j.V.3.j.V.j.<.<.7.d.j.<.....7.p.j.G.G.<.7.z N ! f D 7.G.G.V.Y.Y.j.Y.A.j.<...<...3.3.*.<.<.*.j.j.7.d.7.p.j.j.d.3.A.p.<.j.!.d.} } *.d.3.*.3.j.j.<.! ! *.j.!.V.A.<.*.+...d.p.*.7.7.*.<.j.r.<.<.j.j.c.j.3.<.7.<...j.!.G.c.j.7.3.j.A.3.j.j.j.c.p.p.j.+.<.d.d.3.A.j.7.3.( } ( c.c.d.<.+...r.p.3.7.G.j.<.<...! +.7.*.} <./.`.<.+.p.3.*.r.j.*.U N J J ! ( ! p.j.7.*.! ..7.7.p.j.+.R <.<...<.V.!.!.j.<.p.!.c.^ R +.d.<.<.j.7.! } r.<.j.A.<.j.j.p.r.<.( ( <.<.3.( ! *.<.r.!.j.<.<.c.!.V.p.r.*.! ( <.<.<.7.<.<.j.#X!.<...+.3.+.3.7.7.<.R ! 7.<...*.( U <.Y.<.*.<...*.<.<.+.! <.j.Y.!.!././.!.G.V.G.!.!.!.!.!.!.G.j.V.j.p.7.7.<.j.G.V.j.V.V.V.p.j.G.",
"<.1.7.p.0.r.0.0.j.p.j.Y.V.j.G././..X!.Y.Y.!.!.!.`.!.!.!.j.7.p.p.<.p.j.7.d.G.j.7.A.j.j.V./.#X!.V.!.&X/.j.7.a.A.!.~.V.j.a.j.j.l.!.j.A.!.A.7.1.d.j.<.<.s.j.c.V.j.c.0.7.V.C.V.Y.c.j.j.c.V.p.<.1.r.<.<.j./.L.*.+.d.j.V.C.r.p.d.A.j.*.<.<.<.r.r.<.0.c.j.d.r.c.Y.A.V./..X;X.X.X`.c.A.j.j.V.V.A.r.r.j.j.A.!.!.!.G.j.Y.!./.!.c.j.j.j.d.j.l.j.V.c.d.d.V.A.V.C.j.d.d.d.j.V.L.j.p.j.A.!.!.!.[.C.0.1.j.Y.!.C.G.C.p.r.j.p.1.<.d.j.j.j.j.j.j.j.j.!.A.<.! ! ! ! ( r.j.<...<.p.c.j.Y.#X&XV.c.p.3.<.<.<.d.p.7.p.<.j.G.G.V.j.7.<.r.j.3.*.<.j.d.r.} ..<.r.p.7.7.p.j.p.3.<.7.r.r.j.0.+.p.7.+.! ! ( ! ! p.d.j.3.3.3.p.<.<.A.c.r.r.7.A.Y.j.p.j.j.r.j.G.!.!.!.!.!./..X!.!.!.!.!.!.!.!././.`..X/.!.!.Y.j.j.j.+...3.d.c.G.j.j.j.j.j.d.7.A.!.V.<.r.!.A.3.<.j.j.j.<.3.c.j.r.r.<.t.d.j.j.c.r.<.c.c.j.d.d.c.d.r.V.j.r.d.7.3.c.j.j.p.<.j.j.c.p.p.j.r.A.V.p.<.<.<.r.r.*.7.<.7.j.r.A.A.G./.r.<.C 0 w r ..#X`.Y.!.A.#X!.A.r.<.j.V.p.7.7.<.} ( *.<.<.d.j.j.j.d.r.3.} ! ! r.A.j.<.3.<.r.<.<.7.j.j.<.! ( +.7.j.p.d.! +.+.<.G.G.7.r.p.<.*.3.<.....d.V.j.j.<.+.6.<.( p.!.c.r.r.3.r.j.3.<.r.d.j.j.r.7.<.d.c.j.j.j.Y.j.3.<.<.j.7.j.r.r.j.r.<...*.<.1.j.p.p.7.<.} <.7...! ! d.V.( D ( ( ! +.j.3.! U +.+.+.} U +.3.<.! D ! <.7.j.V.j.7.<.*.<.j.#X#X!.G.j.p.V.G.*.! ..3.<.r.c.j.*.*.c.r.7.j.c.!.V.+.R U ! } <.7.r.7.*...+.*.<.j.3.} <.j.c.d.d.<...<.j.j.p.p.j.r.j.#X!.*.! ..*.! *.<.<...D J <.( ! ..! U <.!.j.A.j.+.p.j.p.*.! <.j.Y.!.!.!.!.!.G.V.!.!.`.!.!.G.V.G.j.p.p.<.<.<.} 7.V.j.p.7.7.p.<.<.p.",
"7.a.a.j.p.a.3.<.c.7.p.V.j.r.j.!..X;X#X!.!.!.!.!.`./.!.A.7.<.3.7.d.V.!.V.j.c.r.<.j.c.C.A.!.&X.X!..X.XC.<.| 1.j.j.j.<.1.p.j.l.C.!.c.j.c.d.<.3.j.r.7.<.j.c.d.p.d.j.3...<.0.j.L.c.a.a.7.d.3.*.0.a.1.7.d.G.C.0.r.j.j.j.c.j.j.d.V.j.3.7.1.<.1.3.<.r.C.d.p.d.V.!.V.c.!.`./.!..X/.c.V.j.j.A.j.A.j.j.j.c.V.`.`..X`.!..X;X;X`.!.Y.A.j.c.G.3.r.j.a.3.p.c.c.a.l.j.1.7.j.j.r.c.j.d.j.V.L.Y.Y.!.!.c.p.0.j.!.c.A.j.r.d.7.+.<.<.p.r.d.j.r.7.r.3...j.G.V.d.p.p.7.<.p.j.<.<.r.j.c.r.V./.`.j.c.j.r.p.d.j.c.p.<.r.r.c.Y.V.j.p.3.r.j.p.3.<.j.A.j.3.( +.<.3.<.<.7.p.3.j.r.*.1.3.3.a.<.( r.p.3.3.7.p.r.+.r.p.j.r.<.*.3.j.p.c.c.p.3.<.j.A.r.p.j.j.c.V.!.Y.!.!./.!.Y.!.Y.!.!.!.!.!./.`..X`.`..X`././.Y.j.<.<.} +.7.r.d.p.j.j.j.3.j.V.7.V..X!.j.p.j.7.<.3.j.j.r.*.3.j.j.3.3.p.Y.G.A.A.Y.j.7.V.j.j.j.c.A.j.d.d.p.p.p.7.3.p.<.p.3...3.r.j.7.p.c.G.`.j.*...<.<.<.+.( <.( <.d.<.3.d././.V.V.7...k 4 r } <.! ! p.!.c.7.} ! j.!.j.7.p.7.<.<.<.*.*.p.j.A.V.d.3.7.! ! } <.d.d.r.7.3.r.r.r.d.d.p.3.<.#.} +.7.3.p.! <.r.j.!.Y.d.d.j.<.( +.<.*.<.d.!.r.<.<...! ..+...r.+.! ! } 7.c.<.} 3.j.V.c.A.j...<.r.<.p.d.j.<.<.R +.j.<.*.! ! p.V.p.+.+.+.*.r.<.7.7.<.+.<.<...+.R ! <.( J ! ! ! <.A.c.r.7.A.j.r.} U *.r.3.+.! *.7.p.c.A.Y.!.j.<.*.j.!.!.j.j.A.j.p.V.3.*.+.<.<.r.3.3.<.+.j.3.*.<.p.c.V.<.J C ..p.j.r.p.p.*.! ! ..+.<.<.*.+.<.+.! ! ! } d.Y.A.p.<.7.7.r.!.#Xj.+.! } D ! *.<.! C R +.*.+.+.} ! *.j.3.G.V.<.p.r.r.j.7.r.j.G.Y.G.A.G.G.V.V.G.!.!.!.!.G.V.!.V.p.p.p.p.+.+.p.G.V.p.7.<.<.} } <.",
"7.j.j.c.0.3.*.<.c.p.d.c.3.<.j./.#X;X&X!.!..X#X&X`.`./.A.r.<.3.7.c.Y./.G.d.r.3.p.j.Y.Y.j.j.G.!.G..X`.!.d.<.<.3.r.7.+.<.<.5.a.j.D.r.#.#.*...<.d.d.d.7.j.j.7.7.7.r.3.| ..<.r.j.j.p.0.1.j.a.1.d.j.0.3.r.p.a.j.l.C.A.c.j.a.a.0.j.j.V.Y.G.j.3.3.3.3.r.3.r.j.G.Y.j.d.c.!.j.p.!.!.A.!.V.G.G.j.V.c.j.d.j.Y.`./.`..X`.#X;X;X.X!.Y.j.<.<.c.<.p.j.7.<.r.j.j.r.j.d.p.l.L.c.d.V.j.j.j.c.V.A.Y./..XG.j.d.j.c.<.| } <.j.7.<.a.y.<.+.3.d.7.<.7.7.+.<.3.j.c.j.!.#X!.j.d.r.j.Y.Y.!.Y.Y.A.G.c.!.!.A.V.c.V.A.d.<.p.c.V.j.<.3.r.3.r.d.r.r.<.d.j.j.d.r.<.3.r.<.<.j.V.d.j.j.r.3.<.<.0.*.! +.*.<.<.<.<.*.} <.<.j.d.d.<.7.j.j.j.G.j.3.d.V.V.7.d.j.j.Y.Y.!.!.Y.V.!.!.Y.Y.Y.A.V.c.V.G.!.!.!..X`.`.`.`.`.Y.p.! ( ! +.<.<.<.+.*.7.p.7.!.!.p.j.G.j.7.d.j.j.r.3.p.7.<.+.+.<.7.7.7.!.&X!.#XY.A.G.A.G.j.d.j.j.j.d.7.7.7.p.p.3.<.r.<.p.7.<.p.p.d.<...p.A./.d.<.3.j.r.d.3.....! <.7.j.7.j.Y.p.3.r.c.r.! h 8 w y 8 0 0 z D } +.*.d.d.c.p.j.p.3.7.+.( <.<.r.j.A.j.<.3.<.<.+.} *.p.d.3.<.7.j.j.r.3.7.p.p.<...<.r.<.p...<.j.I.!.V.d.j.j.d.*.<.p.d.d.d.V.j.7.j.7...<.7.*.+.<.<.*.( <.d.<.! <.j.j.A./.A.....<.<.A.Y.p.} <.} *.7.<.d.<.( j.Y.A.j.p.<.7.c.p.c.c.d.<.3.7.*.<.( J ( *.} ( ..<.V.!.c.j.d.V.p.*.N v ( <.*.! U ( <.<.c..X;XG.3.<...<.p.p.<.d.!.!.j.c.<.<.<.7.p.<.<.<.3.<.p.r.7.p.*.<.j.c...R <.j.3...<.<...! ! ....( 3.j.3.} ! R D D ( j.!.Y.j.7.+.<.+.r.G.c.<.! +.! } <.3.*.( +.+.<.7.3.3.<.7.c.V.G.Y.d.p.+.*.c.c.j.j.A.Y.L.G.Y.G.V.V.G.G.V.G.!.G.j.j.p.<.<.<.<.>.7.j.G.V.j.j.7.7.<.+.<.",
"1.j.V.L.<.#.} <.j.<.3.r.<.r.!.&X&X;X/.A.A.!./..X/..X#X/.V.d.r.3.d.d.c.p.<.+.3.G.V.!.j.*.} 0.!././.Y.G.j.3.*.+.<.5.<.7.5.7.p.0.p.1.! ! <.<.*.p.A.c.r.7.3.3.r.<.<.1.<.<.7.p.p.a.j...*.j.p.<.3.3.r.<.1.1.7.d.j.V.!.G.d.1.0.0.j.p.j.j.c.d.3.a.d.7.3.<.p.j.G.G.j.p.p.!.c.j.#X`.Y.!.Y.Y.G.p.j.r.p.d.j.!.!.Y.!.`..X.X.X.X!.j.j.p...+.j.( 1.d.0.7.l.!.!.Y.c.j.C.!.c.p.a.j.d.j.V.C.j.a.d././.!.L.j.p.r.( Y ! ` <.*.<.r.<.} ( <.3.<.*.<.7.<.<.<.j.p.+.j./.`.j.c.G./.&X/..XY.!.V.G.A.!.!.!./.Y.V.V.j.d.c.Y.V.<.R <.d.<.<.<.3.j.7.r.p.V.G.V...<.d.r.r.A.Y.j.3.p.d.<...*.<.| *.+.+.<.+.} +.! U } *.<.7.c.7.<.V.Y.c.Y.j.} *.<.r.3.j.A.A.!.Y.G..XA.r.j.G.V.V.z.G.V.j.c.A.Y.!.!.`././././.`.G.r.*.<.<.7.d.p.p.3.+.3.d.d.Y.!.d.j.c.p.p.j.A.G.j.r.j.r.<.<.<.<.<.3.r..X!.<.Y.d.7.G.!.G.p.r.j.j.r.r.<.d.d.p.j.3.<.j.j.j.7.*.p.r.7.+.<.j.V.G.r.3.7.r.p.z.j.p.d.d.c.+.j.p.c.G.r.r.r.c.7.p.V.} J } D N c N N ! +.7.j.3.<.3.j.j.d.r...! c.p.r.j.!.Y.j.d.j.j.p.<.<.7.d.7.+.<.j.j.3.3.p.c.j.3.<.7.3...r.<.*.j.!.G.c.c.V.A.Y.j.j.c.j.j.*.*.7.<.3.<.<.<.*.<.3.p.p.h.d.d.d.<.<.<.r.3.r.c.p.( ..+...j.Y.d...j.7.<.d.j.A.<.J <.G.A.c.r.} r.V.V.A.G.j.r.j.j.<.<.<.! *.r.3.<.<.r.Y.G.j.j.V.!.c.7.! C ! } ..;.! ! d.7.7.c.c.+.U ! <.} ..<.} <.c.c.G.A.7.7.*.7.j.7.7.<.3.+.*.<.3.<.*.! <.p.} U ! ..<.<.G.V.<...} 3...! <.j.<.( *.7.+...*.r.j.z.j.r.<.<.( ! } ..<.r.r.p.d.p.p.p.3.<.*.*.<.*.%.} ( 7.Y.c.!.j.j.j.j.G.G.V.V.G.!.!.Y.Y.!.G.G.G.V.V.G.!.!.G.G.p.<.+.<.7.j.j.V.V.j.V.V.j.j.p.<.<.",
"1.d.d.c.#.( ! <.<.( ..<.3.V.;X&X&X&X!.B.V.G.Y.!.!.#X;X&X/.G.j.r.d.r.d.7.*.*.<.c.G.c.<.! ! *.A./.Y.j.a.1...( | <.a.j.j.a.p.g.1.<.d.<.<.0.r.7.j.!.G.j.r.*.<.7.<.<.7.p.r.r.r.<.*.7.( *.j.r.<.3.<.a.p.d.j.c.j.d.c.G.j.<...<.<.p.<.<.#.1.3.r.c.c.d.d.r.d.c.G.Y.A.j.p.Y.`.!.&X#X!.Y.Y.!.!.j.j.r.c.Y.G.c.j.V.Y.!././.!.!.G.d.j.Y.j.7.V.3.j.c.j.d.j.c.L.~.C.j.A.C.<.} <.3.1.d.Y.Y.a.*.#.r.d.C.G.r.<.3.1.| #.<.*.<.1.<.*.*.<.7.<.+.*.<.3.<.7.r.G.c...<.7.p.<.A./.`.`.Y.!.!.;X`..X!.!.!./.#X!.G.c.j.c.j.j.r.+.! r.j.d.j.7.7.j.p.d.p.d.7.<.! <.r.r.j.Y.c.<.( +.0.#.! ..( ( } } ( ......<.*.! +.<.3.3.j.*.! <.<.<.j.c.7.7.p.*.<.j.A.Y.!.!.Y.`.Y.j.j.c.c.j.7.j.j.d.r.7.r.d.j.!.!.`.`./.`.!.c.d.d.p.d.j.j.j.j.3.d.j.p.p.p.r.p.A.V.j.j.G.Y.V.j.A.j.<.3.p.3.3.<.<.Y.V.R +.<.j.!./.Y.d.7.j.j.7.r.j.G.A.c.j.7.<.j.j.d.<.*.r.<.<.} p.Y.V.j.r.j.d.7.p.j.j.j.c.j.j.( p.V.A.A.j.j.p.<.<.3.c.r.<.j.p.<.<.! } <.p.!.`.V.j.G.G.j.j.p.<.<.j.d.d.d.V.G.j.d.7.<.3.7.*.*.<.<.+.<.j.j.p.j.j.A.V.j.j.j.j.<.c.j.p.A.!.A.c.l.j.c.V.p.r.p.7.p.} } j.j.<.+.7.p.<.d.V.3.( <.j.p.r.7.c.p.r.<.<.3.<.<.A.r...3.V.d.^ j.A.c.!.j.r.+.D ..j.d.p.<.( <.<.j.<.p.7.*.r.j.<.3.j.+.<.j.j.p.7.j.G.c.y.j.!.;X;X`.d.} ! J ! <...! p.p.} ! ! R } 7.3.} ! *.....3.<.j.c.7.p.7.j.A.j.j.p.r.<.<.<.3...} } *.<.*.+...} ! ( r.p.*.+.7.j.r.*.} ..<.3.<.,.<.<.3.3.<.7.3.+.+.<.*.} ! ! *.<.7.j.j.r.7.p.r.<.<.*.*.<.<.+...j.j.+.!.j.r.G.V.j.G.Y.!.!.!.Y.G.Y.!.!.G.G.G.G.G.!.G.G.V.p.+.! } 7.G.!.!.G.V.G.G.!.G.G.j.p.",
"<.<.+.7.~ ! U ....} 3.p.r.Y.;X;X;X;X.X!.!.~.!.!.!..X;X;X#X!.V.d.j.d.j.j.j.j.j.A.Y.j.<.<.<.<.j.c.<.1.c.j.*.~ ( <.L.!.G.p.0.p.<.1.<.#.| ..1.j.Y.`.!.!.j...} <.<.7.r.d.0.r.j.3.<.d.c.V.!.j.r.p.<.3.r.7.l.A.d.p.c.V.j.<...#.*.p.<.3.<.r.p.j.Y.c.p.j.j.j.j.A.!.!.A.d.!.&Xj.c.!.!.A.G.!.!.j.d.7.Y.!.c.3.r.A.Y.V.A.G.G.A.c.3.d..X!.d.j.r.d.c.A.c.j.c.!.Y.A.V.Y.A.3.#.1.5.1.d.!.Y.p.*.*.<.1.c.L.0.*.3.j.l.C.A.j.j.<.R } <.d.d.*.( *.<.<.j.3.! 3.j.3.7.<.! ! c.!.A.V.j.A.G.`.A.!.!.!.!..X/./.!.j.d.j.3...+.<.<.r.7.d.Y.r.<.7.*.r.3.*.! ! ( +...+.j.!.V.<.+.#.j.3.*.3.*.<.! +.} ( } ..<.*...*.7.j.j.c.<.+.3.*.*.p.A.c.p.j.j.j.j.j.c.A.G.V.G.!.!.G.G.Y.A.d.A.G.A.j.d.p.j.V.V.!.#X#X`.#X#X!.j.c.j.j.j.j.j.j.j.A.G.c.3.<.d.j.A.c.<.<.c.!.G.A.A.A.j.j.j.r.p.r.d.G.#X<.! <..X!..X/.c.p.j.j.3.7.A.c.Y.!.A.j.j.d.d.d.j.j.A.7.<.<.<.A.j.3.<.j.j.r.r.j.j.j.d.+.d.j.j.!.V.V.G.c.V.p.d.j.A.A.d.p.p.p.3.! <.<.r.!./.V.!.!.j.<.3.p.j.Y.c.!.`.Y.Y.!.G.G.c.*.+.7.3.<.3.<.+.+.j.j.j.c.j.j.j.j.j.G.!.V./.G.G.!.G.j.d.r.<.7.j.7.<.*...r.+.<.A.j.*.J ( 3.<.<.} N z ( j.7.7.c.!.p.7.3.<.+.+.d.A.7.( <.G.j.R <.!.Y.!.*.D } } <.<.3.r.7.3.p.( <.3.j.3.! ! *.*.r.j.! ( r.j.7.<.7.A.d.....3.!..X.X/.V.j.} ! *.} ! j.!.V.j.3.R *.j.<.( ! <.<.<.p.<.<.d.<.j.Y./.!.j.<.3.<.*.<.<.<.! } d.c.j.c.V.d.<.+.*.<.j.j.p.j.*...7.*.( 7.j.<.( } <.p.d.r.r.3.} ( <.3.<.*.*.<.! ! +.<.<.<.<.3.<...} ..} +.( ! 7...h j.!.j.j.j.A.G.!./.!.Y.A.Y.!.`.!.V.G.!.!.G.G.j.G.G.p.<.} +.j.V.V.G.G.V.j.V.!.G.!.G.j.",
"1.| ..*.*.#.#.*.*.<.7.d.c.!././..X#X`.!./.#X`.!.Y.!..X#X/.G.c.j.V.A.j.G.V.r.j.j.V.a.<.<.a.j.l.j.p.j.N.0.>.~ ] a.~.;X+Xa.>.5.7.>.*.| ~ *.p.p.j.L.G.j.p.<.3.j.r.<.7.<.1.7.j.V.j.j.!.[.;X!.j.p.i.N.j.7.7.j.j.a.j.a.5.5.7.j.5.<.1.j.0.j.C.G.G.j.j.C.c.j.d.j.j.j.j.<.j.!.3.j.`.Y.Y.A.!.!.j.7.r.j.j.V.c.7.j.j.j.c.V.A.V.V.d.3.7.d.j.c.p.+.r.A.c.j.V.j.c.d.j.l.j.d.0.d.j.j.7.W.`.j.j.i.0.} 0.!.N.5.<.1.!.;X!.0.j.d.<.3.d.d.p.r.3.3.3.<.<.<.+.! <.j.j.j.*.U 3.7.<.j.j.c.j.!.!.j.V.V.G.&XY.!.!.j.j.c.<.! +.j.3.d.+.7.j.c.<.*.3.<.<.+.+.! } c.r.} 7.j.p.<.<.<.j.7.~ | >.<.r.7.<.1...! *.<.<.<.p.r.j.j.j.<.p.d.3.j.d.<.j.Y.!.Y.A.G.V.V.Y.V.c.j.!.!.Y.!.j.+.V.!.Y.!.!.V.d.j.Y././..X!.Y./.!.c.Y.V.A.Y.A.V.V.!.!.c.r.<.*.3.j.c.V.3.! p.!.c.c.Y.!./..X/.G.!.G.A.`.A.+.! *.V.`.G.c.Y.j.d.7.7.j.!...3.!.A.d.p.r.7.3.3.j.!.c.3.3.j.j.7.<.3.s.V.d.j.7.c.c.3.p.7.V.r.Y.p.p.j.<.d.3.p.d.c.V.j.c.V.j.7.} +.7.d.j.j.j.V.A.j.....j.G.A.A.!.!.V.V.!.!.A.j.<.! <.p.<.<.7.3.<.r.j.V.j.j.A.A.j.A.!.V.j.G.!.c.r.j.j.p.<.<.! *.<.r.+.J ..<.<.G.p.7...! <.r.<...C U d.j.<.s.j.r.r.r.3.} <.7.j.j.j.r.d.G.!.*.<.j.!.j.! ! 3.r.<.<.+.p.p.r.j.+.j.<.j.j.! ! r.r.<.<.( ..<.3.<...( c.j.<.*.<.A.#X!.#X.XV.} <.+.} ..G.A.Y.;X!.j.<.r.*.! +.! 3.A.G.V.+.7.d.c./.!.c.j.7.d.<.<.7.<.+.<.d.!.!.!./././.!.r.} *.j.j.j.j.3.} +...<.<.3.d.+.<.<.3.<.<.3.3.3.<.<.p.j.+...! U ..j.7.*.3.c.G.j.r.........+.<.j...v 3.!.c.A.c.A.!.!./.!.!.!.G.V.Y.G.j.p.c.!.V.7.p.Y.V.<.<.<.<.r.j.j.V.c.j.j.j.V.G.!.!.G.",
"a.<.<.3.3.3.p.j.j.j.p.d.c.Y.Y.V.!.!.G.V.Y.`.`.!.Y.!./.`.Y.j.p.d.V.A.j.j.p.7.A.!.N.V.j.g.0.1.j.N.g.p.7.5.7.<.+.a.~.#X!.<.o.1.p.5.r.3.<.p.l.j.d.j.c.r.7.3.7.r.<.7.<.>.0.7.<.j.N.N.!.!.!.V.j.j.g.V.p.j.l.j.7.j.!.N.i.a.i.p.<.<.<.p.0.V.!.!.D.j.j.!.c.j.3.<.<.7.j.7.d.Y.7.d.!.V.c.j.V.Y.A.j.j.d.d.j.r.3.c.A.j.G.!./.A.G.c.j.j.j.j.j.d.<.3.j.3.3.j.d.0.0.j.d.0.1.<.3.0.a.7.N.V.7.1.<.0.<.<.0.j.p.<.>.0.C.j.r.d.3.#.<.p.3.*.*.<.} ..7.p.r.3.<.7.j.p.d.r.! <.7.r.V.j.d.j.A.j.p.j.j.A.&X!..X`.V.j.d.<.*.*.r.7.A.3.p.A.!.r.+.<.} +.+...! *.!.!.j...} <.<.+.<.j.p.#.o.o.#.*.7.*.#.<.<.<.7.<.<.7.<.d.p.p.<.r.j.d.V.j.<.j.G.Y.!.Y.G.j.j.!.!.G.c.!.!.!.!.p.} j.j.p.d.A.A.c.G.V.Y.!..XY.j.G.!.A.Y.G.!.!.V.Y./.!.j.3.j.j.<.+.( <.j.p.<.j.!.j.<.Y./.!.`..X!.!.c.V.A.j.7.d.V.V.j.p.d.!.G.c.1.3.j.j...3.j.p.p.j.j.*.3.p.p.d.r.<.<.c.c.d.d.d.j.V.d.p.p.j.3...d.7.r.c.c.d.V.d.3.V.j.p.j.V.A.A.G.Y.G.j.<.+.*.3.j.c.j.j.j.V.G.c.j.<.<.G.A.V.c.A.V.p.*.d.<...<.<.+.<.r.j.d.d.G.!.j.d.A.V.p.j.A.j.j.Y.!.d.3.j.c.c.r.7.<.+.+.j.d...<.V.A.!.j.r.<...r.j.p.r.p.r.r.<.<.7.<.3.<.7.z.7.*...V.!.A.j.j.V.c.<.j.c.A.7.! } 7.j.j.*.+.d.j.G.j.n p.d.r.d.<.*.3.<.<.7.*.} ( ( ! } } p.d.r.d.j.A.`././.!.j.<.p.<.! ! G.3.3./.!.A.j.A.d.*.<.! +.<.<.<.} d.V.V.!.!.j.d.j.j.p.<.<.*.<.7.!..X!./.#X.X.X.Xj.} ! 3.j.c.j.<.<.} ! ..3.d.d.<.r.r.<.*.<.3.3.3.3.*.+.3...*.( R <.j.3.} +.j.!.!.p.! ! ( } ....<...R 3.p.3.j.j.V.!.!.Y.!.!.!.A.c.A.A.V.c.G.Y.j.<.r.j.d.<.<.*.<.r.d.p.c.c.x.c.j.G.G.G.G.!.",
"j.p.p.j.j.j.j.j.d.d.d.d.j.c.V.A.!.Y.j.j.V./.#X`.!.!.!.G.c.j.p.r.j.d.<.*.<.7.G.!.j.!.+X!.j.<.<.1.7.7.<.#.<.<.o.<.j.l.j.<.+.5.j.j.j.d.d.l.L.L.C.A.p.+.*.3.r.7.<.r.j.7.g.<.~ 7.G.l.j.A.C.j.V.N.p.j.g.l.l.j.p.l.W.j.+.<.<.<.+.7.i.j.7.j.l.g.<.+.0.L..X!.7.3.<.<.j.p.7.V.d.d.V.j.d.j.j.Y./.!.G.V.V.Y.j.p.Y.!.A.!.`.`.!.!.G.A.V.j.7.3.<.*.3.r.<.<.3.3.<.r.c.j.r.3.<.a.i.a.5.j.G.d.1.>.<.7.>.+.p.g.<.} <.3.7.r.a.<.| *.<.3.<.*.+.! } c.!.A.j.3.<.<.<.p.d.*.<.r.d.A.V.p.3.<.*.<.j.j.j.!..X!.V.r.<.<.+.+.*.r.7.j.<.j.!.j...! r.<.<.3.+...( V.G.j.( U <.<.+.5.V.D.j.<.} } +.d.<.( <.1.#.+.*.r.r.<.j.j.d.d.7.j.j.A.j.7.j.V.A.!.!.Y.j.j.Y.!.!.Y.Y.!.!.Y.r.*.d.r.<.7.V.Y.Y.!.V.A.!.#X!.j.V.!.j.j.j.G.G.A.Y.A.!.j.j.!.!.d.+.N ..j.j.<.d.V.r.( <.p.*.<.j.j.j.3.r.j.c.V.Y.G.j.d.3.p.G.!.G.<.<.7.j.d.A.c.3.p.d.7...<.3.3.<.<.<.<.d.p.3.<.<.3.j.j.j.p.3.<.+.7.<.<.j.*.<.j.<...j.j.j.c.j.V.G.G.V.V.Y.j.3.+.*.j.j.j.d.7.V..X`.!.A.!.!.c.d.V.Y.c.+.C *.3.7.p.3.*.<.<.j.c.j.V.!.j.7.j.+.! +.r.7.d.Y.!.M.c.!.!.!.j.j.3.<.7.j.j.<.<.<.<.j.7.3.3.3.p.r.<.d.j.j.j.d.<.<.<.p.7.3.j.7.( ! A.A.p.<.r.d.3...j.!.V.3.+.<.<.3.p.<...r.c..Xj.a U j...*.7.<.<.7.7.p.r.....<.*.*.! <.<.<.j.G.G.Y.!.!.Y.c.r.c.j.<.<.j.+.+.!.&X!.j.G.j.<.<...<...J c U p.G.A.Y.!.j.*.r.j.j.<.+.<.d.V.!.!.!.#X;X&X&X;Xc.7.7.j.j.j.d.3.p.+.} <.j.V.3.*.7.d.3.<.<.*.*.<.<.....3.+.<.*.+.*.<.+.! } j.!.G.p.*.*.*.( ! ( *.( } *.+.<.j.j.c.Y.G.!././.Y.A.c.Y.V.j.j.c.j.p.<.*.7.d.r.<.<.3.7.7.7.d.d.d.j.j.Y.G.V.V.!.",
"j.d.r.d.j.j.j.0.*.r.j.d.r.7.j.G.!.Y.c.j.j.!..X.X/./.!.V.Y.`.Y.V.p.p.<.7.j.j.j.r.a.W.[.`.N.7.1.>.<.j.j.+.} #.} } +.7.j.a.0.p.j.D.c.j.d.d.j.V.C.C.c.3.<.r.j.c.j.p.D.i.0.1.>.j.!.V.g.C.V.j.C.N.p.j.L.j.7.j.j.p.i.<.<.7.1.7.<.p.p.j.5.0.0.<.+.#.j.!..XY.7.j.j.<.j.p.r.j.j.p.c.V.j.j.d.A.!./.!.Y.!.`.A.p.c.!.A.G.!.!.!.!.G.G.A.d.<.*.*.<.<.7.3.3.7.<.*.1.j.j.a.3.<.j.j.j.0.V.!.j.<.+.+.p.i.p.j.a.<.<.j.p.1.3.0.1.*.*.*.<.7.3.<.<.3.A.j.p.p.3.+.! ! +.<.<.7.d.d.j.A.c.r.*.! *.j.d.j.!.j.<.U R +.3.<.<.c.j.<.7.*.V.!.r.( <./.c.r.3.} } *.j.<.<.r.<.<.+.o.p.W.!.V.7.] ! <.j.r.*.p.p.*.+.*.j.d.<.G.c.p.j.j.A.c.j.d.r.r.<.c.G.G.A.c.j.G.Y./.!.!.!.`.!.j.d.r.d.p.d.V.A.A.Y.c.j.Y.#X`.G.A.Y.Y.Y.G.Y.!.`.!.7.j.j.G.!.G.j.r.! 3.A.V.r.7.r.7.+.( <.! ! <.<.r.<...p.A.c.j.p.r.j.j.j.j.Y.!.p.j.c.A.Y./.c.7.p.p.<.3.<.7.7.+...<.<.7.d.A.G.j.p.j.j.j.d.<.r.r.j.p.j.A.p.d.d.<.+.*.*.V.j.r.p.j.j.7.r.!.A.c.<.*.7.d.j.7.<.r.j.V.!.!.A.c.3.*.3.j.V.d.*.} 3.j.V.d.<.<.<.j.Y.c.j.j.j.7.j.c.r.j.V.p.d.Y.!.A.!./.c.j.r.p.3.3.j.<.*.d.7.} <.p.<.3.d.j.j.d.r.r.2.<.p.j.<.*.7.d.j.7.<.*.+.} j.7.<.3.d.d.<.+.j.G.p.*.<.7.3.*.+...! 2.c././...+.Y.<.<.3.<.( ! ! ..*.R +.j.V.j.+...} +.j./.#X.X#X!.V.j.r.j.V.j.!.c.<.R <.`.V.( <.c.<.<.*.r.7.( N v <.V.Y.`.`.j.} *.p.j.r.*.7.G.!.!.!.G.Y.Y.A.!.#Xc.r.j.V.c.A.j.<.<.} ( U ..3.( ! <.j.j.r.<.( } <.! ! ! <...+...+.} } ....+.p.j.<.3.p.r.<.} ! } <.( ( ! ! +.7.j.d.j.Y.!./.A.j.c.V.j.7.<.<.<.<.3.r.( <.d.3.+.7.j.d.+.*.<.<.<.r.V.!.V.j.j.G.",
"A.j.7.0.d.c.G.d.7.d.d.r.7.<.7.j.!.!.A.d.d.A./..X&X`.!.G.!.!.j.r.j.j.r.d.j.V.V.j.G.!.!.G.g.7.i.<.<.D.G.<.+.<.<.1.5.a.j.N.j.j.j.l.j.j.a.p.d.V.!.!.!.j.p.3.d.!.j.*.0.<.<.0.j.!.`.).C.!.l.j.V.l.j.j.!.C.g.j.7.<.<.<.j.l.j.l.j.j.g.V.j.g.p.0.7.7.j.V.<.r.3.d.d.<.p.7.j.j.j.p.c.G.c.V.j.A.!.`./.!.`..X!.j.j.V.j.r.j.V.G.G.A.!.!.V.7.<.r.p.7.7.p.j.p.r.<.<.0.a.d.3.*.a.p.a.p.N.G.1.} +.#.<.7.j.j.<.<.0.!.V.r.<.<.0.0.3.3...<.3.<.7.r.j.3.*.<.<.<.*...<.<.r.j.V.c.c.!.!.d.<.+.d.G.j.d.A.r.! N J ..<.<.*.A.r.*.j.c.V.Y.j.<.j.;Xj.<.<.+.<.+.*.R +.p.r.7.+.} p.D.G.N.p.<.] ..<.<.<.3.7.<.<.3.A.c.7.G.j.p.j.d.j.j.j.j.j.j.j.j.c.j.V.Y.!.!.!.!./.!.!.`.G.c.A.p.j.j.j.V.c.j.d.p.j.Y.`.!.!.G.A.!.!.!.G.V.G.A.<.j.G.Y.A.c.j.j.<.G./.#X!.j.d.d.r.<.d.7.<.3.3.3.<...3.j.<.<.p.p.j.V.p.<.<.7...r.j.G.G.A.p.3.d.d.j.j.d.j.d.+.+.<.<.<.d./..XV.p.p.7.d.V.r.<.3.j.j.j.G.!.G.d.j.d...( d.p.<.<.3.<.<.r.G.A.V.d.3.7.3.d.7.p.d.7.j.G.r.! <.<...! ( 7.V.V.<.7.j.V.p.<.7.7.j.!.V.p.d.r.7.c.A.j.c.c.r.p.A.!./.Y.V.7.*.( <.7.} 7.} R <.7.<.j.p.7.<.r.j.j.j.j.<.7.7.7.j.j.<.<.3.r.7.<.*.p.<.*.<.<.j.j.p.<.<.j.A.p.<.3.p.j.7.+.*.*.<.p.r.j.j.d.G.r.<.<.+.N z c } } N ! j.Y.Y.p.} ..<.j.!..X&X;X/.V.c.c.!./.G.&X,Xd.N n 3.p...3.3.*.<.<.r.r.+.C c } j.!.$X.Xc.<.<.j.G.j.<.7.G.Y.!.!.p.( N N *.p.A.j.G.c.<.3.<.! *.3.7.! +.c.7.<.j.A.V.j.3.! ..<.( R U +...+.( ( <.*.<.<...<.<.! *.p.*.! *.<.*.<...} ( ! R +.d.3.j.!./.G.7.<.j.j.d.<.<.r.<...3.p.+.*.<...( 3.j.p.<.<.<.<.+.<.d.V.j.j.V.G.",
"A.l.r.j.j.j.V.0.j.j.7.r.c.A.j.V.&X#X!.j.j.G.`.#X;X`..X`.!.j.} *.V.j.j.j.j.d.V./.;X+X!.L.j.p.j.5.7.j.j.5.7.p.i.N.j.g.p.p.g.j.j.g.0.r.d.j.j.C.~..XY.c.j.<.7.Y.j...1.7.<.7.j.V.!.#XG.G.j.j.N.l.j.5.j.!.!.j.<.<.a.p.j.N.j.j.j.l.j.G.W.j.p.p.p.a.j.j.J <.d.p.r.d.j.p.j.d.r.p.c.G.G.Y.Y.Y./..X/.!.!.!.#X!.c.V.j.<.3.j.A.A.G.!.`.!.j.r.c.V.j.d.V.j.7.7.r.1.<.3.p.1.| <.<.1.<.a.C.i.+.<.7.<.<.j.p.>.a.V.l.c.a.<.<.7.p.p.j...<.3.} ( ( <.3.} ! ! } +.( ( <.7.d.c.A.j.j.c.<...<.V.!.d.<.7.3...! ..<.<.p.r.<.7.<.c.!.G.Y.!.!.!.;Xp.} ( ( } ! U ! <...+.7.<.! <.7.i.7.1.7.<.! ! +.*...| ( ! <.j.j.<.j.p.d.c.G.j.j.A.j.<.7.V.G.G.j.V.!./.`.!.Y.!.!.!.!.V.V.Y.j.c.c.A.!.Y.j.7.r.j.!./.Y.Y.G.G.A.!.Y.G.c.j.Y.Y.G.V.j.j.c.j.j.j.A.V.!.A.3.<.<.<.7.d.j.r.<.<.*.<.<.7.p.<.p.G.c.V.!.j.<.*.<.} p.A.!.G.c.d.j.j.7.r.V.j.j.7.<.d.j.*.*.<.j.j.7.r.j.j.j.Y.t.3.<.3.r.j.p.G.j.<.j.c.<...7.p.p.<.+...<.j.Y.A.V.d.p.r.<.<.p.G.!.j.d.r.*.+.*.r.j.*.U ( r.a.r.7.p.c.r.<.7.r.j.V.j.r.r.<.<.j.j.c.G.G.j.r.p.j.A.<.<.<.<.! *.7.<.j.j.p.<.3.j.c.7.p.3.r.j.3.<.<...3.j.d.j.j.7.p.d.r.<.<.<.j.<.! <.+.<.*.<.*.3.p.c.j.p.<.3.j.V.p.*.3.} <.<.3.j.j.V.p.*.<.<.! ( <.r.3.} <.c.Y.!.!.<.} *.r.V..X.X!.&XY.!./.#X.X7.r.G.<.+...3.p.<.<.N R <.<.<.*.<.} U <.c.!.!.V.d.p.p.c.Y.j.<.r.A.G.Y.!.V.*.D D ..<.d.d.Y.p.( <.d.r.<.d.c.<.r./.V.7.A.c.d.j.3.! +.<.*.+.} *.! } } <.7.<.<.} U ! +...*.r.( R <.3.*.+.! +.p.<.! <.V.7.V././.!.d.r.j.7...! ! <...R <.p.*.! ! } *.<.<...<.r.7.<.....7.j.j.G.!.!.",
"3.<.<.j.j.<.<.} d.j.d.V..X#X/.`.;X&X/.Y.Y.`.&X&X`./.&X#X&X!.r.j.V.c.Y.!.A.3.d.!.).G.N.W.L.D.C.0.0.7.<.>.5.i.7.j.a.i.7.7.7.i.p.g.7.r.j.l.a.d.A.!.!.Y.!.A.z.G.c.3.p.j.a.p.a.g.C.!.N.N.j.N.V.N.j.<.<.G.!.j.<.<.j.j.N.D.p.7.5.p.7.j.C.g.p.a.j.l.G.W.+.r.j.r.j.Y.A.V.j.d.r.j.V.G.!.!.Y.A.Y.!.V.j.j.j.!.!.j.j.c.p.j.G.c.c.j.c.Y.Y.j.d.c.G.j.j.G.j.<.7.a.r.<.#.3.3.} ..<.5.1.a.!.L.0.<.a.a.p.C.j.p.!.`.7.d.7.*.<.<.<.1.j.<.3.<.} ( ! +.7.<.3.<.+.<.<.+.<.*.<.d.c.d.<.<.*.} *.j.c.3.<.j.G.d.<.<.*.*.7.3.<.A.7.<.V.Y./.&X!.V.Y.d.<.+.*.<...! <.3.! ! *.<.! ! ] <.+.} <.>...( *.*...+.( ! ! <.r.<.<.<.j.V.G.j.j.j.7...*.d.!.!.V.A.!.Y.!.Y.Y.!.!.!.!.A.Y.Y.j.c.A.!.!.!.A.d.j.c.!.!.V.A.V.V.d.d.<.7.j.j.Y.!.j.<.3.c.j.3.p.j.G.j.!.c.7.j.p.<.7.3.Z.p.+.*.*.r.r.r.j.p.j.!.V.G.j.<.<.+.3.3.j.A./.!.Y.V.G.j.*.<.j.j.d.3.3.j.j.<.<.+.p.d.r.j.j.7.d.c.3.c.c.7.r.G.j.c.r.<.d.j.p.7.d.j.j.3...*.j.G.!.!.A.p.d.j.7.<.j.!.Y.p.7.*.! 3.+.7.j.r...<.p.3.<.<.p.j.3.+.3.<.d.r.3.7.r.<.<.r.7.j.V.A.A.p.<.<.*.v N ! *...3.<.<.7.j.j.<.+.3.<.7.c.j.V.V.3...} *.+.<.<.<.+.<.G.Y.j.<.<.7.j.*.! <.( } ..*.+.3.3.*.3.p.<.} 7.V.j.r.j.<.7.p.j.j.j.p.3.( ! U } j.G.p.3.r.V.!.!..X;Xd.} ..3.c.&X&X!./.V.Y./.`.!.! R +.J <.<...*.<.<.<.3.V.j.<.! +.7.7.j.G.!.A.d.p.j.j.V.A.j.p.j.G.Y.j.G.G.j.<.+.<.( j.j.j...} r.<...7.p.j.7.r.G.c.p.N.r.<.j.<.R +.<.+.<.<.<.R ! ..d.7.+.+.! R ! } +.*.<.} ..<.<.<.<.! *.c.j.<.j.G.j.j.Y.!.!.V.j.V.3.! R ! <...! 7.j.} R ! <.r.<...! +.<.<.*.} +.j.A.G.!.!.!.",
"+.( } l.j.~ ..*.<.j.!.#X;X&X/.&X`.`.!.!.`.;X&X/.!..X&X!.`.&XV.j.j.7.d.V.j.<.p.`.G.9.<.j.G.A.N.<.a.p.<.} <.7.<.0.7.a.j.j.p.7.p.j.j.j.Y.!.c.j.!.&X`./.;X&XA.j.d.r.<.j.j.l.j.l.D.j.D.G.D.W.V.N.G.a.i.p.0.p.5.<.p.N.V.W.i.#.+.7.1.p.j.a.j.j.j.j.N.V.j.3.<.<.j.!.A.Y.V.j.d.A.G.G././.!.G.G.A.j.p.j.j.V.Y.p.p.V.j.j.j.p.p.<.<.j.V.c.j.j.A.j.p.c.j.7.j.j.c.d.<.r.j.1.<.| j.N.V.!.!.p.<.<.j.j.G.N.j.!.).3.r.<...<.<.....j.<.*...r.V.<.*.<.7.j.<.} 3.c.!.p.3.r.c.!.V.<.<.<.<.7.A.Y.j.c..X#Xj.( ! } *.7.<.<.V.<.<.G.j.j.!.A.p.j.j.d.*.3.j.( ! +.} ! ( ! *.<.| >.g.<.} <.<.! ! +...*.3.<.*.} <.c.d.p.p.G.Y.c.j.j.d.p.d.j.V.V.!.G.Y.Y.V.V.A.Y.!.!.!.!.!./.!.3.j.Y.!.!.!.A.j.V.j.A.V.j.j.d.d.V.j...*.A.`.!.j.j.r.V.`.d.} <.r.j.<.G.j.p.G.p...3.<.!.V.<.7.<.r.7.<.d.d.c.A.d.c.j.<.3.<.j.j.p.r.!.!.G.c.G.j.*.<.r.j.A.j.<.*.<.7.r.*.3.3.<.7.} N } j.3.j.c.r.3.p.Y.p.<.r.7.p.G.G.j.j.j.3.*.7.G.!.G.!.Y.r.p.A.V.V.!./.V.j./.Y.<.r.<.*.<.<.<.j.c.7.<.<.r.d.*.} <.<.7.3.<.r.j.d.7.3.d.V.j.j.G.j.3.p.p.N v N ! *.p...*.+.} <.<.+.*.+.3.V.V.A.A.r.<.<.3.<.p.7.+.+.<.V.G.j.<.<.j.V.*.} +.+.r.7.*.R *.3...d.Y.d.} <.j.p.j.V.j.p.<.j.G.V.p.j.3.! C <..X!.3.+.0.A.A.A.!.;XY.*.*.<.3.A.!.V.!.c.Y././.`.<.<.R N +.<.3.<.} ! r.d.!.!.j.! <.j.A.G.!.!.!.A.A.Y.j.V.A.j.c.A.Y.Y.Y.Y.c.j.<.<.<.! <.p.7.R ! +.C N } ..r.d.7.r.7.<.j.<.<.c.<.J *.3.<.r.3.<.( +.3.c.d.<.*.+.*.<.( ! } ! ! <.<.*.3.3.<.*.j.j.p.j.j.j.p.j.j.A.j.d.A.d.3.<.<.d...C } *.} ( ..<.r.7.<.<.*.3.*.( ! ( j.G.!.!.!.G.",
"..*.<.Y.d...j.j.j././.;X;X!.!..X!.G.!.!.9X`.`.;X.X.X#X`..X&X!.Y.A.Y.V.r.d.!.`.!.!.Y.j.Y.`..Xc.j.j.r.<.<.7.r.d.j.p.j.j.5.+.<.j.C.A.!..X`.L.Y.#X,X#XG./.&X!.Y.V.j.j.r.j.A.V.V.j.j.L.!.!.L.c.C.A.j.<.#.+.<.<.<.<.#.i.0.7.<.<.<.5.<.0.j.!.#XD.j.N.<.d.d.j.p.V./.!.A.r.<.<.p.V.Y.!./.A.A.V.c.V.G.!..X#XG.j.V.j.d.Y.!.j.3.3.7.j.A.V.V.j.j.a.5.7.V.W.j.i.V.V.7.p.p.<.p.7.p.!.).!.G.j.<.<.g.j.j.p.1.j.V.+.5.<.<.0.j.o.} i.5.<.<.| 5.V.5...3.p.<.! <.Y.l.+.! r.!.Y.Y.G.j.!.Y.A.!.G.V.!.!.!.G.+.<.p.<.p.j.<.<.<.d.j.r.7.j.p.3.+.3.<.<.j.<.C D D ! +.! R <.i.<.j.G.p.5.#.7.*.<.<.*.r.l.j.d...<.j.7.<.j.j.j.r.d.7.j.j.<.3.7.7.j.j.G./.!.Y.c.G.!.!.`.!.!.;X/.p.p.V.Y.c.j.c.d.A./.V.j.c.j.G.Y./.!.Y.!..XG.j.j.j.A.!.!.A.<.+.p.d.7.p.r.j.!.d.( } r.G.r.<.p.r.c.V.7.r.<.c.7.3.p.V.7.3.d.V.j.r.j.Y.A.j.A.A.Y.p.<.<.j.!.!.j.<.7.7.<.<...7.p.<.! ! 3.d.7.p.j.<.+.<.j.p.A.V.j.3.j..X/.7.e.3...j..X/.!./.Y.j.j.Y./.!.!.!.A.G.!.!.A.c.3.! ..r.d.V.G.G.<.! <.3.+.*.<.1.3.r.7.V.d.<.7.j.j.G.Y.Y.A.j.j.<.p.<.p.7.U +.V.+.} r.7.<.*.*.*.( *.3.! <.r.p.p.3.r.3.r.p.3.<.r.c.Y.d.+.r.V.j...} +.<.j.r.<.3.j.7.j.G.!.j.Y.A.d.3.j.j.j.c.G.A.V.`.`.j.7.3.! C <.!.*.U ..7.<.<.j.`.!.<.} j.c.j.! U <.7.j.V.Y.!.<.( n v ....<.R C ( 3.V..XV.+.*.r.j.V.c.j.j.G.G.c.Y.Y.Y.j.d.V./.!.V.V.j.3.<.<.<.*...+...! ! } ! U ( *.( } p.<.! <...3.*.} A.d.C +.c.r...3.<.( *.3.j.<.( +.+.( +.+.! ! ! ! <.j.<.+.j.<.<.<.<.<.<.<.<.r.j.j.p.j.7.*.<.d.<.r.Y.r.R ( <.! ..*.*.<.<.3.7.7.r.p...( 3.j.A.G.!.A.c.",
"( <.d.!.c.j.!.j.c.!.#X.Xr.*.c.A.c.d.V.!.#X7.j..X;X#X&X.X.X&X.X.X&X;X`.Y.Y.`./.G.!./.Y.`..X.XG.c.c.3.<.<.<.<.0.<.<.0.a.<.} <.C.!.Y.A.G.!.!./.`.~.+.*.j.!.!.`.!.V.j.r.j.A.j.d.7.r.c.V.L.G.c.c.V.j.5.<.#.7.j.g.<.<.i.p.j.j.<.<.5.7.p.5.l.+X~.W.!.j.V.G.!.V.A.!.Y.j.3.7.p.j.c.!.!.!.V.j.j.j.V.Y.!./.`.!.!.!.G.j.Y./.c.r.p.j.V.V.j.G.j.j.j.0.<.0.j.g.l.l.j.<.7.j.p.j.7.1.V.!.V.N.p.<.1.j.V.!.V.i.a.j.5.j.p.<.} 5.+.+.j.<.>.<.} #.p.<.#.<.r.p.*.| r.j.! U 3.G.V.j.j.j.!.!.!.G.d.<.p.p.p.j.p.r.r.<.7.j.7.<.d.V.j.j.j.7.*.<.+.*.} ..p.r.} ..*.<.<.! ! <.] 2.j.L.j.g.<.<.a.7.<.7.j.c.j.d.d.3.3.<.r.j.p.<.d.j.<.r.d.<.p.j.p.c.c.Y.!.!.!.G.!.!.!.`.!.!./.j.<.7.c.A.j.j.A.A.!.G.c.j.c.G.Y.!./..XG.Y.#XG.<.*.p.3.r.j.c.j.r.3.7.p.c.A.G.A.p.*.<.j.G.7.<.r.*.+.r.r.c.d.G.p.7.j.Y.j.7.3.j.j.j.A.Y.j.3.j.V.Y.j.7.d.!.`.G.d.*...3.d.3.+.r.p.<.! <.} ( ! <.<...<.r.d.d.j.*.<.<.d.!.A.<.p.j.r.V.!.A.j.Y.!.G.A.Y.!.!.G.G.A.V.A.!./.!.j.<.<.c.!.!.Y.j.j.<.<.<...+.3.d.7.7.<.c.A.c.j.j.j.j.r.j.A.A.A.j.j.<.<.d.( ! j.7.d.j.<.<.3.7.<.( ! ! J 7.c.j.d.7.<.+.} <.j.j.j.c.`.!.d.d.d.7.! ! } 7.j.<.<.+.3.7.!..X!.7.d.7.*.<.j.p.j.c.c.G.Y.!.!.j.p.<.r.+.n ! p.( R J R 3.V.!.!.3.*.d.j.r.R N p.c.V.A.j.*.c v R J ..R ..! ! *.<.j.V.p.7.7.<.r.j.j.j.j.V.V.j.G.j.V.c.j.c.A.G.G.j.d.<.....<.<.+.r.( D ( j.V.<.....! *.c.r.+.7...! ( +.Y.c.R +.V.j.3.d.<.! ..+.<.} ! ! +.3.<.( +.( ..<.<.3.<.*.<.<.+...<.7.7.<.+.} <.<.<.3.<...*.<...7.!.V.....+.+.<.<.<.<.<.7.r.d.j.j.<.*.3.3.7.A.!.A.V.",
"*.j.Y.!.V.A.!.*.p.&X#X} q r <.c.j.7.j.A.A.} <./.!.Y.`.#X.X&X&X#X#X#X`.!./.`.!.c.!.`.G.!.!.!.Y.V.j.....<.*.3.d.3.+.7.j.p.<.<.j.W.Y.A.C.V.c.L./.`.3.p.V.V.G./.!.A.r.<.d.V.j.7.<.<.r.d.c.C.c.c.A.c.j.7.+.5.G.V.p.j.7.p.G.D.<.+.7.j.a.5.j.#X#X`.`.j.c.G.!.c.d.A.G.j.d.V.A.d.d.G.`.!.V.c.G.!.!.!.!.A.j.A.G.!.Y.j.c.G.d.p.d.j.V.V.j.!.C.V.j.0.<.<.a.G.!.j.i.<.<.j.j.0.7.<.j.j.p.j.a.+.<.p.L.).N.5.0.5.<.i.0.#.! p.a.7.j.<.<.7.<.#.5.<.#.7.r.j.r.} } 1.+...r.j.d.3.<.d.d.V.Y.V.7.+.<.*.+.7.V.j.j.j.j.G.!.V./.!.d.j.j.} ( 3.3.3.<.<.d.r.7.j.G.c.<.! ( ..} p.j.L.j.p.<.<.<.*.#.3.p.r.j.~.j.3...+.d.G.c.j.j.j.*.<.j.7.r.j.r.j.A.!.!.!.!.G.Y.`.!.!.!.Y.!.j.+.<.j.A.j.c.!.!.j.p.j.d.j.!.V.j.V.Y.V.A./.Y.3.*.d.<.7.j.p.j.j.<.7.d.j.j.3.( } +.<.r.j.3.r.j.<...*.<.p.<.c.3.<.d.A.j.j.r.j.V.j.V.V.p.<.j.A.Y.c.j.d.Y.!.c.A.j.<.j.!.3.+.j.j.r.<.} j.p.r.j.j.r.j.j.3.d.r.! <.d.j.c.j.<.j.!.!.!.Y.V.c.Y.!./.!.Y.V.j.!.!.!.A.j.V.Y.c.!.Y.c.Y.!.Y.A.r.r.<.<.p.d.<.<.7.j.c.p.j.d.r.r.j.!.j.*.3.c.V.V.j.p.<.<.3.} ! p.p.7.<.R ! <.<.<...<...*.c.A.V.d.7.+.} R +.V.G.j.c.G.!.V.c.j.j.*...3.d.p.*.3.<.+.} j.G.j.} <.<.<.r.c.7.d.p.r.A.!.V.G.V.d.<.p.p.R <.p.7.<.! ! d.!.!.`.V.p.3.*.<.} } A.!.G.V.r.R c ! <.! ! n ! +.+.! ..p.p.*.<.+.} j.G.c.j.j.c.c.j.j.j.A.G.c.j.j.j.j.j.p.<.....<.<...A.3.( +.7.7.*.! ( ! <.V.j.<.<.! ( +.*.7.<.! *.c.7.<.<.( ( +.! ( ~ } ( U ! <.<.<.( } 3.r.+...<...+.! } r.V.j.*.! ! ....*.7.r.<.+.<.} +.r.<.! ( } ! *.3.<.<.<.7.3.d.j.V.d.7.d.p.r.V.Y.G.G.",
"7.!.!.c.7.<.<.R 3.&Xj.r 7 k <.d.<.<.7.p.j.r.V.&XA.j.!.#X`..X#X.X`.`.`.`.#X&X.X!.!..X!.#X`.!.G.j.<.! } 3.p.j.l.d.7.j.G.V.a.g.V.G.c.c.c.d.<.7.A.`.Y.Y.V.p.d.A.A.G.<...3.j.j.w.*.+.a.j.A.G.A.!.~.!.j.7.+.<.N.D.j.j.<.0.C.V.<.<.g.j.a.C.`.;X;X;X$Xj.p.d.G.c.p.V.G.j.7.c.A.j.j.!.#X#X3.7.c.!.Y.!./.G.j.V.V.G.!.A.c.A.j.G.V.r.j.V.j.A.G.V.j.j.j.7.p.G.L.i.5.5.<.p.j.<.0.5.j.p.1.j.j.o.>.i.V.C.<.+.5.<.<.j.a.<.<.D.l.5.1.<.5.0.<.<.5.#.<.j.r.<.p.a.1.0.7.r.d.r.r.r.r.A.c.V.j.r.<.<.7.r.<.<.3.p.V.!.G.V.c.j.Y.G.r.p.A.c.J ! } <.<.7.j.7.<.c./.Y.7.+...*.! 0.j.!.G.i.>.<.3.3.<.0.7.<.0.A.V.c.p.<.r.p.<.<.<.<.! <.j.r.<.d.<.d.A./.!.Y.Y.c.d.!.!.!.!.!.!.G.d.d.j.c.j.j.j.r.p.d.V.j.j.G.j.( 3.d.!.!.G.!.Y.j.p.r.j.j.<.3.d.7.p.j.r.3.+.! *.7.<.<.r.7.j.A.d.7.*.+.+...V.p.7.j.r.j.c.j.c.A.d.7.g.j.j.V.G.Y.G.A.p.V.Y.j.j.j.*.d.c...*.G.j.c.j.R c.!.!.A.c.A.!.A.j.j.j.7.G.!.A.j.V.r.j.!.`./.Y.!.!.!.!././.!.V.j.!.!.`.Y.7.<.+.J j./.!.!.!.G.G.r.<.3.*.p.j.<.<.7.j.A.A.V.j.7.r.A.!.c.<.3.j.c.j.r.3.r.7.*.<.<.<.j.c.p.} ..<.*.+.*.+.<.j.j.<.p.r.<...+.} 3.V.A.V.c.c.G.V.G.G.G.r.<.3.3.<.+.d.r.<.! <.j.j.} +...+.<.d.3.Y.!.d.c.!.j.c.A.p.p.<.p.Y.!.r.p.r...( p.Y.G.!.G.j.7.3.c.!./.&X`.Y.V.3.U N ! *.! R N ( <.<.} *.7.d.<.( ! ! p.j.3.<.3.p.j.7.r.V.A.V.d.j.r.3.<.j.3.*.*.*.*.} R 3.<...! N n U } <.<.<.p.d.<.*.( *.+.} ! ! <.j.!.j.<.} ! 3.j.+.! R R } U N +.p.r...! +.7.*.} <.3.<.( } p.A.j.3.<.*.<.*.<.j.j.3.......<.<.*.} ( ! ! +.3.<.+.<.r.7.V.G.A.d.3.7.7.<.j.c.A.A.",
"V..XY.7.+.! ( 3.j.&Xj.C ! r.7.*.+.*.3.7.c.V.!..X!.A./.#X!./..X.X.X.X.X.X#X;X;X;X;X&X/.&X!.V.j.j.<.| ( ..r.j.j.Y.N.j.j.a.7.j.G.!.l.j.c.j.1.3.j.V.V.j.j.r.p.j.j.c.p.<.<.p.d.d.<.<.p.j.j.d.r.j.C.j.<.+.#.<.0.j.j.<.+.4.l.j.5.a.l.p.a.`.5X5X;X;X;X!.7.3.j.j.d.c.j.r.<.d.c.A.Y.!./.`.j.j.A.A.j.V.!.A.G.Y.A.c.A.Y.Y./.G.!.G.d.c.!.V.A.G.C.V.G.j.1.7.N.N.7.7.p.5.p.j.5.7.<.7.7.5.j.p.<.0.a.j.i.o.+.5.+.0.!.N.a.j.L.j.<.5.0.p.<.<.a.j.<.1.j.<.! r.!.A.c.d.j.j.3.p.c.V.!.G.j.r.<.<.p.p.p.d.3.;.d.`.&X.XY.7.7.7.p.d.7.j.;Xj.<.3.j.r.p.c.p.<.V.!.G.c.r.+...o.p.0.j.p.<.+.<.d.j.r.j.j.3.*...<.V.G.j.j.j.r.7.<.*.! <.V.r.<.d.<.j.A.`.`.!.G.j.<.c.!.!.!.!.!.Y.G.j.7.r.d.j.r.*.<.7.j.V.j.c.A.<.+.7.!.A.p.c.A.j.7.d.j.j.r.r.d.j.d.c.j.d.r.<.r.7.j.d.j.j.c.j.<.<.*.+.<.<.G.7.r.c.3.j.V.j.c.V.r.<.j.c.A.A.!.!.!.Y.r.j.!.j.<.2.*.d.j.3.7.A.r.p.d.} 3.G.V.p.d.j.G.G./.j.G.Y./.!.!.Y.G.j.j.Y./.!.!./.`.!.Y.!./.!.G.V.!.G.!./.j.3.} N ..!.`.!.!.!.!.3.<.7.+.<.j.<.<.d.V.c.c.j.j.3.*.3.7.j.p.j.A.A.j.7.7.7.p.*.p.p.( A.j.d.....*.! ! ( <.j.A.j...<.7.<.+.*.<.j.j.j.A.j.!.!.A.!.A.j.7.p.r.r.r.<.3.*.<.+.<.r.V.7.*.( ....*...!.`.<.<.j.V.A.A.j.G.p.c.`.Y.<...( *.r.V.!.G.A.V.j.j.!.&X;X#X#X!.!./.!.j.j.7.*.} 3.3.3.<.r.r.3...7.p.+.+.<.<.<.+.<.7.r.p.3.7.G.G.V.p.V.j.j.7.d.3.*.+.+.<.} C ! ! ! U N N R } 3.r...( 3.<.<.3.<.} +.*.<.j.V.A.j.<.! ( j.G.3.} ! J +.<.} ( +.<.3.! D ( *.+.<.d.j.3.7.c.V.3.....<.<.<.3.d.d.<.} ! ! +.<.3.<...! +.3.d.7.+.<.d.d.V.G.j.3...} ....<.p.j.c.",
"/.&XA.<.+.! +.!..X#X.X!.D.d.<.<.7.7.j.V.Y.V.A.Y.!.Y.`..X/.`.`.`.!.!.!.!./.#X;X;X&X#X#X;X!.j.7.3.3.<.} ! r.j.p.[.!.l.p.7.5.g.l.j.j.j.j.j.1.<.p.j.d.3.r.r.r.r.3.r.j.7.3.<.7.c.c.j.Y.Y.A.j.p.j.c.a.<.+.>.#.+.7.i.} } 0.N.j.j.V.V.7.j.[.#X#X#X!.W.!.c.j.j.r.3.j.d.3.d.p.j.A.Y.A.G.!.A.G.!.G.j.j.A.c.d.c.G.c.A.!.!.`.A.c.j.j.G.!.V.G.!.G.!.!.a.>.<.j.V.j.j.N.g.7.i.5.5.| >.0.g.0.<.7.V.j.0.7.<.1.7.| >.D.j.p.7.p.<.<.p.p.i.o.} p.g.<.#.<.| ! a.!.j.0.p.j.j.r.j.G.V.Y.d.3.*.*.7.d.<.} +.<.*.7.j.d.j.c.j.j.3.d.V.r.r..Xj.3.r.j.<.<.7.3.3.j.c.A.!.V.<.} 5.j.<.o.W ] o.#.j.A.c.Y.!.A.V.j.p.Y.G.j.d.d.d.7.<.<...<.j.p.3.j.d.c.V.!..X!.G.V.V.G.!.!.!.!./.!.Y.p.<.3.j.j.j.j.7.3.p.Y.c.7.d.<.<.j.j.*.+.p.p.c.j.j.r.j.Y.A.j.c.r.d.d.d.p.d.p.*.j.j.V.A.V.7.+.*.<.<.r.3.d.( <.j.j.A.G.j.V.G.j.c.A.c.c.j.G.!.!.Y.3.r.c.r.*.7.d.V.!.G.<.p.7.*.+.<.( d.d.p.j.j.d.j.A.p.!..X!.V.!.`.!.G.Y.!.!./.!.`.!.!.!./.!.G.V.A.Y.V.!.`./.Y.j.<.<.!.`.Y.G././.r.+.<.+.<.j.r.7.j.c.3.3.3.r.<...*.} j.V.A.Y.V.p.*.*.<.p.( <.d.! p.p.r.} ..3.<...<.<.<.3.r.( ( ..} <.*.<.j.j.j.Y.j.j.j.j.!.G.j.p.c.!.G.A.r.<...<.<.<.<.G.c.3.*.3.7.*.! 7.j...( 7.j.c.p.r.j.3.j.j.V.3.+.( r.V.G.Y.G.Y.!.Y.Y./.!.`.!./.A.!.`..X`.*Xj.p.<.p.A.c.p.j.j.j.( <.p...<.r.<...*.d.j.j.d.j.c.!.Y.Y.j.!.G.Y.V.p.r.3.+...7.3.Q J D D U ! ! D N ! *.! ! r.p.<.r.3.} <.j.j.3.<.<.<.*.! } p.j.<.} ..*.<.<.*...! +.j...N D ..<.<.3.<.<.p.!.Y.7.} ^ } *.<.7.7.<.*.*.+.R R } <.<...( ..<.j.j.<.<.7.3.r.j.p.<.! ! +.<.<.7.j.c.",
"!.!.A.7.3.3.r./.;X/..X&X!.v.c.c.d.p.j.!.`.!.Y.!.c.A./.`.`..X!.!.!.!.!.!./.&X#X/.A.G..X;X#X.Xr.} } *.<.3.G.C.3.!.+XW.N.j.j.j.g.1.*.1.j.j.3.<.a.j.p.<.r.d.p.d.d.p.d.j.j.<.3.Y.`.!.~.A.l.j.j.j.c.j.g.0.5.<.>.1.5.o.| g.V.j.j.l.j.i.!.[.V.D.).j.<.i.!.!.A.3.3.V.V.d.j.r.r.j.c.j.A./.G.!.!.G.j.j.p.3.7.j.Y.G.Y.`./.!.G.j.j.j.c.c.j.j.l.j.!.!.g.<.<.<.j.D.C.W.D.7.<.<.7.<.<.p.j.0.+.5.C.a.<.p.j.7.<.>.>.l.j.a.#.| o.<.5.>.>.| o.<.>.} | ( +.<.a.j.1.*.r.j.j.j.c.V.j.c.d.<.<.<.r.r.} ! 3.j.j.3.3.*.( 3.j.r.r.c.G.c.A././.!.!.G.j.r.7.p.<.7.d.G./.A.7.<.+.<.<.} U o.| } <.d.a.j.l.d.A.Y.Y.Y.j.7.<.<.<.} } +.+.*.3.d.d.j.c.A.j.A..X!.A.V./.!.!.!.Y.!././.A.d.r.p.p.7.j.G.3.<.d.A.j.7.7.<.r.c.j.+.<.j.d.G.j.p.3.j./.G.d.j.r.<.r.r.3.j.c.p.r.c.A.A.c.p.<.<.7.r.j.7.d.<.j.j.V.V.G.A.!.!.A.Y.Y.j.j.j.c.d.j.V.3.7.r.<.*.7.d.p.G.c.( <.7.<.*.<.R <.3.d.V.j.d.3.3.3.!./.!.j.A.!.!.!./.!.G.!.Y.!.!.!.!.!.!.c.j.j.V.c.c.A.Y.!.G.j.V.!.!.V.c..X;XY.+.<.*.+.7.p.r.V.V.<.j.j.j.<...} <.j.V.V.G.j.<.+...+.3.! } 3.} } 4.7.} ( <.<.+.*.<.+.} p.<...<.<.r.7.<.j.c.j.A.r...<.p.!.!.V.d.c.!.Y.V.r.d.<.3.d.<.<.A.A.j.<.7.j.d.+.r.V.j.p.p.j.j.<.( 3.*.7.<.c.c.j.r.j.j.d.c.A.!.`..X`./.j.!.;X.X/.`./.`.`.,X`.A.*.<.Y.!.G.j.7.V.<.7.3.} <.r.p.<.<.d.j.p.j.V.!.Y.j.j.d.!.j.j.c.r.7.r.<.+.<.r.<.( ..} ..<.<.! ! ! *.<.<.j.c.7.3.<...( p.G.r...*.p.r.r.p.d.3.+.! ..r.j.} R ( ..<.3.*.! ! ..} } *.<.*.7.G.Y.p...( ! ( *.3.7.<.<.<.*...<.<.7.d.<.+.( <.j.V.3.....} <.d.7...J J *.r.3.7.j.j.",
"!.!./.G.G./.!./.#X&X;X.X!.`.`.!.c.j.j.G./.`.!.A.G.!.!.!.!..X!.!.!.!.G.G.!.#X!.j.j.7.j.c.!.,Xc.+.+.<.p.d.!.A.r./.`.G.j.j.j.a.1.| ( <.c.!.Y.L.L.A.G.j.!.!.G.!.!.V.d.V.Y.r.7.!.#X/.!.j.j.V.A.A.Y.!.C.V.j.j.j.a.<.+.#.j.V.j.a.p.p.j.;X$Xj.j.[.j.! } j.!.Y.3.r.Y.A.p.j.p.p.j.j.p.j.Y.c.G.G.c.V.G.G.A.j.j.V.j.c./.!.c.G.c.c.d.d.c.c.j.g.5.j.l.1.<.5.+.<.l.V.!.~.p.+.+.7.g.g.p.j.a.o.<.j.<.#.g.j.<.<.7.<.j.j.l.<.o.<.7.1.} <.a.j.0.o.| <...<.3.0.d.a.j.V.V.G.A.j.r.<.7.<.<.7.j.G.V.<.<.c.c.p.} p.j.} *.p.7.j.A.j.j.G.V.c.G.d.<.3.<.*.r.7.r.c.!.G.p.<.*.<.#.<.+.W } ! ] <.d.r.c.Y.c.!.!.G.c.p.d.r.r.p.*.3.j.j.3.3.j.j.d.c.P.p.j..X!.c.c.V.c./..XG.V.G.G.7.7.d.j.3...3.Y.j.d.c.d.r.j.p.r.} <.V.s.<.d.r.r.7.<.<.j.Y.d.<.r.j.<.d.p.<.j.V.j.p.G.Y.c.j.d.r.3.+.*.3.7.Y.G./.j.3.r.c.Y.(.Y.j.j.G.j.j.j.d.+.<.j.r.j.j.p.3.<.7.3.3.7.+.r.<.*.<.( *.7.7.r.j.A.A.<.7.d.!.A.G.j.j.V.Y.!./.V.d.j.j.j.A.V.A.Y.Y.V.j.d.c.V.j.d.c.Y.Y.c./.!.!.G.c.!.#X!.<.<.<.+.<.3.<.p.V...3.j.j.7.3.<.3.j.p.d.c.j.r.7.3.! +.<.+.+.*.} ( <.( ! *.+.+.*.<.<.( r.<.( *.<.c.V.r.j.A.j.j.7.<.<.7.G.A.j.<.<.c.G.j.3.j.<.+.r...<.V.A.c.<.<.j.G.j.V.Y.V.j.j.Y.!.p.! G.c.j.j.d.3.j.c.G.Y.G.!.!.!./.`./.!.<.j././.`.`.Y.A.j.!.!.&Xd.p.!.!.V.r.( r.<.<.3.p.V.Y.`./.V.j.a.7.p.j.A.V.<.<.7.!.d.d.j.3.*.<.r.+.! *.3.*.<.( ! } ( ! ..<.<.3.<.r.j.7.<.<.<.! <./.A.<.<.j.j.j.A.c.7.<...<.p.!.d.D N D U ! } <.r.*.R R +.<.+.3.Y.`.c.*.! ( ! ! <.7.<.<.*.} r.c.7.7.c.j.3.<.3.j.j.+.U ! ! *.7.*.! N N <.j.<.<.p.r.",
"/./.&X&X&X#X/..X!./.`.`.`.`.`.`.V.V.G.!./.`.`.!.!.`.!.!./.!.!.V.c.G.c.Y.&X!.<.+.!.!.A.J D j.r.! <.<.<.<.A./.c.!.!.j.i.j.V.j.a.7.*.7.V.!.`.!.Y.A.G.!.`.&X!.G.`.!.c.G.!.G.V.!..X!.Y.p.0.r.j.A.A.c.a.l.j.a.j.j.7.7.W.L.l.j.0.5.j.g.`.#Xp.} 7.j.} #.c.j.j.A.p.p.j.<.j./.A.j.A.c.c.j.j.c.A.!.`./.!.!.V.j.7.7.d.j.d.r.j.j.j.3.3.j.d.j.j.i.0.7.<.<.0.g.g.V.!.!.V.p.<.} <.7.a.5.j.~.V.+.#.<.+.7.N.7.<.<.#.7.5.<.<.<.<.<.<.+.! <.V.g.<.7.7.<.<.r.c.V.j.V.c.3.<.A.V.<...<.7.3.G.!.Y.V.7.3.V.7.r.*.j.G.3.*.<.7.A.V.3.....7./.j.! <.r.} 7.c.<...d.A.<.+.r.*.j.} +.<.7.~ | p.d.V.j.j.j.j.!.~.V.V.r.3.3.d.<.p.d.r.d.r.<.p.c.p.r.j.V.V./.!.r.p.Y.!.Y.!.!.G.!.!.d.j.c.7.r.<.j./.V.j.d.*.j.j.c.p.j.p.3.<.7.p.3...*.} ..j.j.<.<.3.j.p.d.r.*.<.c.j.j.V.A.3.d.p.p.j.3.<.<.<.r.G.!.!.`.`.G.V.A.j.p.G.c.j.j.c.j.<.7.A.j.j.V.G.c.+.<.3.*.+.j.d.3.d.<.+.p.j.j.<.j.j.c.j.<.<.7.r.r.( *.c.G.!.Y.!.j.d.d.G.3.G.j.<.r.p.J ..7.p.<.<.j.A.j.j.`.!.Y.V.j.j.V.c.r.<.c.j.<.7.<.! r...3.r.V.!.3.p.d.<.7.<.j.V.d...*.<.<.<.+.*.p.c.( ! <.d.<.! <.*.( } r.3...r.j.<.r.V.c.r.r...<.7.<.c.d.j.A.d.<.7.c.V.j.7.7.<.*.*...*.V.!.V.3.} d.Y.c.j.j.A.V.c.c.V.V.V.G.A.Y.!.j.3.j.`..X.X!./.`././.!..XG.*.G.#X.X#X#Xp.! N i <.#X&X/./.!.p.<.<.7.<.3.Y.V.c.j.7.!.V.V.A.d.7.j.G.j.7.<.r.A.V.p.<.d.<.<...r.<.( 3.j...U ! ( ( ..<.( } <.*.} +...+.+...+.7.d.V.V.+.7.j.j.A.d.Y.r.! ( ( *.! C z N U +.<.j.j.( D ! <.} <.c.A.G.!.c.<.3.<.*.7.<.<.! R *.p.A.V.j.j.j.p.7.r.j.d.<.! D ! *.*.} ! N C 3.j.*.<.j.j.",
"/.`..X!.G.!.V.j./././.`..X`.`..X!.!.!.!./..X.X`.Y.!.A.Y.!.G.A.V.j.j.j.j.V.j.3.r./.&X;Xd.! ( <.*.*.7.j.p.A.!.V.`.~.C.1.<.j.j.N.!.c.A.!./..X!.A.j.V.!.!.`.&XY.c.c.A.V.V.!././.!.!.j.0.r.3.r.c.j.p.7.N.W.V.p.1.a.G.N.j.a.j.p.0.V.G.).[.N.5.5.l.a.j.r.d.d.d.7.7.d.3.j.V.j.j.A.Y.Y.V.j.c.V.Y.!.Y.A.!.!.V.j.r.p.j.j.d.p.j.V.j.3.3.r.j.V.l.C.V.j.a.j.j.j.V.G.V.a.<.5.a.0.1.5.<.g.!.L.a.i.j.p.i.V.l.7.#.<.p.7.+.#.1.<.#.o.o.} <.a.i.7.N.j.<.<.r.G.Y.j.V.j.3.<.V.Y.p.<.<.j.d.Y.G.j.j.<.<.V.d.r.+.j.Y.j.<.3.<.<.<.<.+...7.j.d.7.d.V.!.`.!.<.! 3.A.d.7.j.7.>.! <.<.1.<.<.<.3.j.j.j.j.l.!.!.G.j.j.c.j.7...d.G.c.j.p.<.3.p.3.c.c.j.V./.Y.3.7.j.j.c./..XG.c.j.V.c.c.p.r.<.G.;X!.Y.G.7.c.j.A.c.c.d.<.<.<.3.<.+.<.*.*.p.r.*.<.7.d.r.j.j.<.r.j.r.r.j.Y.d.j.j.c.!.c.j.j.<...p.!.!.!.!.G.A.G.j.p.p.j.j.c.c.G.!.Y./.c.<.r.A.c...<.7.} } j.j.p.A.j.<.<.!.A.<.7.*.<.c.r.<.<.<.r.+.<.j.V.A.G.A.3.3.7.r.<.j.p.+.*.+.z v <.7.<.+.r.j.j.r.p.p.j.c.j.7.<...7.7.A.j.7.j.r.*.<.! <.r.c.G.7.3...<.j.d.j.V.V.7.<.<.3.j.c.j.d.j...} <.7.<.3.c.c.<.+...R ! 3.d.3.V.G.A.c.j.( *.<.3.p.<.p.A.j.r.p.j.d.7.7.p.p.j.A.p.3.d.r.3.<.+.p.7.<.<.d.c.c.c.A.V.!.!.!.G.!.`.G.j.V.!.!.#X/.`./..X.X/..X!.3.Y./.!.`.;X!.j.+.f D G.`.`.#X.XG.j.r.<.<.r.A.7.3.3...r.7.p.j.7.<.r.A.j.V.c.c.A.c.3.} <.+.<.+.3.<.<.j.3.} ! ! ( ( ! ! +.p.G.d.( R U ( 3.+.+.7.j.G.G.p.p.j.d.G.j.j.*.+.<.} ..! ! D C v ! j.Y.j.3.+.*.7.....d.j.p.A.G.d.j.d.7.p.<.<.....<.r.j.j.j.j.j.p.<.7.c.j.7.3.+.......+.+.R ! r.<.+.7.j.p.",
".X.X`.c.j.j.r.+.c.V.!.#X&X`.`..X`.!.!.!.!.!.!.!.Y.G.c.!.!.V.r.<.+.<.p.j.d.d.c.!.!.j.j.j...! ....d.!.;XY.V.j.<.7.V.j.<.<.p.j.j.!./.G.V.Y./.!.j.7.j.Y.V.Y.&X!.d.7.j.j.A./.;X!.d.7.0.p.j.r.p.C.l.r.0.i.j.j.0.<.7.g.j.j.g.j.j.V.`.#XW.L.C.g.<.g.p.7...7.3.<.7.7.d.c.A.V.!.A.j.j.j.c.A.A.A.Y.Y.c.c.!./.!.c.p.r.p.p.r.3.p.G.c.<.+.<.j.C.L.!.V.p.7.a.h.j.j.j.j.7.<.5.j.g.<.<.<.p.G.C.j.p.V.j.<.p.W.N.i.7.l.l.<.] +.>.! r.j.p.5.5.7.j.!.G.3.} <.j.A.j.j.c.d.p.Y.!.c.7.*.G.j.G.j.r.d.<.<.c.c.j.*.r.A.!.d.7.3.<.+.3.r.7.j.d.p.c.V.!.;X.XV.r.! } r.j.j.d.*.1.<.a.>.] <.p.1.d.c.c.c.j.V.!.Y.A.d.r.A.!.j.+.p.V.c.c.c.j.j.j.j.j.j.j.c./.!.r.p.V.j.r.A.!.c.j.A.!.j.j.j.d.<.p.A.c.j.c.r.c.j.G.A.M.r.<.<.<.<.<.<.3.7.3.3.<.+.<.7.*.+.p.j.r.j.V.p.3.j.!.j.j.d.j.A.p.r.j.7.*.p./.!.A.V.c.c.A.A.j.7.j.A.!.j.j.V.j.A.V...+.j.j...<.d.<.} p.j.3.c.A.! <.A.j.<.p.<.<.c.r.<.<.<.r.<.7.j.V.V.A.j.<.r.j.d.c.j.r.<.<.r.*.p.j.j.7.*.<.j.r.+.<.r.3.d.j.7.<.%.} <.j.3.7.j.7.<.<...7.j.c.V.d.r.R +.j.d.7.d.j.<.*.<.7.d.c.j.<.d.d.3.j.j.7.p.7...! U n f z ( <.7.j.j.A.!.Y.7.j.p.3.7.<.<.7.7.<.*.7.*...*.<.<.3.c.j.7.7.*...} ! ! 3.*.<.p.d.r.e.j.j.!.#X/.c.G.&X#X!.Y.!.!.`.!.!.!.!./.!./.Y.p.!.A.!.!.!..X.X!.*.7.c./.`..X&X`.A.3.! ..<.j.<.p.j.r.3.<.<.r.7...( <.<.j.G.c.A.G.j.3.} } 7.<.<.<.+.<.*.+...} ..<.+.R ! <.j.p.<...} *.3.....<.j.j.d.r.j.j.j.`.!.j.*.j.V.7.*.( ..( R n <.#X#XY.Y.Y.Y.j...! 3.r.+.r.j.7.3.r.3.r.<.p.7.r.j.j.d.p.j.c.j.p.<.3.V.j.j.!.d...( ..7.<.J ! 3...( r.j.7.",
"G.V.G.G.!./.!.V.3.p.Y.;X;X.X`.`.G.G.A.A.G.Y.!.#X!.!.Y.!.!.c.r.<.<.3.j.j.7.j.!..XY.+.3.j.+.( *.p.G..X.Xc.j.j.*.} j.V.j.j.j.j.j.L.!.j.r.j.!.!.j.<.<.j.A.G./.&X/.j.<.d.Y./..X/.j.7.<.1.p.0.j.L.c.a.5.<.7.g.7.7.j.G.V.C.j.0.p.!.$X).~.W.D.j.<.j.0.#.} <.3.r.p.r.j.!..X!..XY.c.c.d.V.G.V.c.A.V.j.j.!.&X.XY.j.d.d.r.<.r.p.G.c.<.<.d.V.C.!.!.V.i.5.p.j.j.7.i.j.j.<.<.0.0.+.#.<.7.j.j.a.0.j.7.! o.D.W.L.j.G.~.D.a.j.D.j.G.!.!.j.p.p.j.V.Y.j.<.+.3.d.7.d.j.j.j.G.!.Y.A.j.V.p.j.d.j.c.p.7.c.G.c.3.7.j./.A.*.<.<.<.3.r.r.j.<.7.r.<.j.!.c.<.j.7.d.d.p.j.j.j.!.G.!.7.! #.g.j.j.d.d.j.j.l.L.!.V.j.r.j.G.j.<.<.7.p.d.j.j.p.7.j.d.j.c.V.!.Y.d.j.!.G.j.V.!.j.j.!.Y.r.<.r.p.3.3.7.3.7.j.p.V.j.V.j.j.3.+.*.<.3.r.j.d.j.p.<.*.<.<.<.<.+.d.j.3.p.j.7.3.d.!.G.A.c.V.V.7.3.j.V.j.j.#X!.G.c.c.V.V.G.G.j.d.j.j.r.j.A.j.<.j.<.*.d.c.<.p.j.<.! <.d.<.c./.+.d.j.d.d.A.j.d.j.<.<.<.<.r.<.d.j.j.j.c.j.3.7.d.d.j.<.p.A.j.<.+.r.+.<.3.<.<.<.*.! D +...<.d.j.V.d.*.*.*.! *.p.<.r.*.<.j.G.j.j.V.j.+.<.j.3. .<.<.U ( <.p.+.3.j.3.c.<.<.V.Y.c.c.7...<.7.r.*.+.7.7.<.3.j.G.!.!.j.A.<.<.p.7.} ( <.<.! <.<.*.<.<.+.+.3.c.p.j.7.3.+.! ! <.<.3.j.j.3.<.3.7.A.!.G.r.d././.!.!./.!.!.c.G.Y.G.!.!.!.G.j.!.V.j.A.A.`.!.A.j.!.c.!.G.A./.;X/.p.} <.} <.<.3.7.7.7.3.3.p.p.} R ! <.j.V.d.j.A.j.7.! ! <.<.7.<.+.! +...} ! ! *.*.! ( ( ! } <.<.<.7.p.3.r.d.j.p.<.<.<.<.3.Y.G.r.} 7.G.j.3.*.+.*...R +.A.!.G.V.Y..Xj.+.} 7.j.7.p.d.<.7.j.j.c.j.V.c.V.A.V.j.j.c.A.c.p.r.3.j.*.( p.7.+.} } <.*.D ! 3.3...r.j.d.",
"<.( <.A./..X/.`.V.c.!.&X&X#X.X!.!.!.Y.G.Y.G.!.#X!.!.j.<...} ( +.j.j.j.r.*.j.;X&X/.7.A.A.<.<.<.V.Y.G.7.} 7.A.j.7.j.j.j.g.<.5.j.V.!.c.j.c.G.V.d.7.d.Y.`.!./.#X/.Y.<.+.r.j.d.j.d.3.7.0.j.A./.&X!.G.l.i.7.p.f.l.!.`.!.D.g.<.7.G.!.l.#X!.V.a.1.l.g.7.<.<.r.j.j.7.j.Y.!.A.A.j.A.Y.r.j.Y.G.A.G.A.j.c./.;X&X!.A.A.G.j.<.p.p.V.j.7.j.Y.G.a.l.C.N.j.j.p.7.7.<.i.l.j.7.<.1.0.>.>.+.>.7.0.0.7.7.<.! 5.!.#X:X`.!.`.`.).#X;X[.W.!.!.D.j.p.<.} <.r.j.r.d.j.c.G.Y.V.d.c.!.Y.!.G.d.3.j.j.j.j.r.7.j.j.7.+.*.*.j.j.+.<.<.<...<.p.r.3.V.r.*.r.d.r.3.R <.!.!.d.<.d.!.`.!.!.G.7.7.a.j.C.r.r.j.j.d.c.!.V.c.j.r.p.<.( ..<.7.3.7.p.3.3.j.c.d.j.A.Y.A.j.Y.`./.A.A.A.j.c.Y.Y.r...*.3.d.j.V.<.3.j.d.j.7.7.7.d.7.3.p.d.7.7.p.j.c.d.<.<.r.3.<.<.<.j.j.<.r.j.j.<.3.A.A.R.A.c.j.7.p.V.Y.d.+.G.Y.!.V.V.A.j.j.j.j.p.j.r.d.G.G.j...<.p.p.p.Y.c.V.G.r.( <.j.r.c..X3.V.!.G.Y.!.c.7.d.+.3.3.<.<.<.j.c.j.V.V.c.j.3.<.7.r.( p.Y.e.( *.d.h D <.d.3.+.+.*.R 7.<.+.p.!.;X/.j.7.<.+.p.c.3.d.+.<.j.d.+...<.+.! ..7.<.*.d.r.( ! d.j.! ( d.3.s.+.<.!.`.G.V.c.A.<.<.<.( ! <.j.p.j.c././.A.j.V.3.7.p.r.+.} 3.7...<.3.7.7.r.3.<.<.r.<.p.3.r...} <.7.<.r.c.j.3.<.<.3.j.V.d.*.3.G.G.V.A.!.j.j.r.j.j.G.A.c.V.r.} j.j.j.p.<.G.!.j.j.!./.`.A.j.G..X#XV.<.d.} <.3.( U ( ..<.r.d.p.*.*.p.j.j.j.7.g.V.7.<.<.( <.3.3.<.<.+.*.} ! ! ( <.3.<.<.*.! ..<.} ! *.d.c.A.V.j.<.....<.<.3.p.<.*...<.3.<.<.<...+.+.( ! p.c.V.7.*.p.3.! ! } <.3.<.<.} j.A.V.V.p.j.j.j.V.V.A.A.G.G.c.d.3.r.G.3.R ( ......R ! ! J R ..*.+.*.<.3.",
"7...r.!.#X.X!./.;X.X`.!.!..X&X!.&X#X!.Y.!.V.j.Y.Y.c.<.! ! } ! ( d.r.p.<.<.Y.,X&X!.V.!.A.j.j.p.V.Y.j.} ! 3.G.A.j.j.p.j.0.#.7.C.G.Y.Y.!.Y.c.r.7.r.V.!..X/.#X!.j.Y.G.*.7.j.j.c.j.j.j.d.c.Y..X`.V.j.!.G.l.j.C.!.~.W.W.0.<.<.a.C.C.V.!.!.N.p.<.j.i.1.<.+.p.c.j.d.j.c.j.j.j.p.c.V.<.d.G.E.A.G.G.v.A.`.&X.X!.A.!./.A.7.<.3.j.d.d.G.G.j.<.<.<.5.j.j.0.<.>.<.0.a.0.<.<.7.j.6.<.| ! #.<.7.7.<.+.<.V.!.G.#X=X+X`.~.L.V.G.!.V.j.g.j.j.j.a.<.} p.G.V.j.j.d.j.!.j.p.G./.Y.j.<.<.<.j.j.p.p.<.3.d.r...! ..! <.3.3.<.<...! 3.A.j.d.j.3.d.A.<.7.#X<.+.c.!.A.c.V.`.`.G.L.!.G.l.i.g.!.p.a.j.r.3.p.V.j.7.3.<.r.<...<.<.p.d.d.j.j.j.G./.d.p.V.A.j.j.!.!.!.G.A.c.j.V.c.G.j.<.<.<.r.d.G.r.p.j.j.7.*.<.r.j.j.j.c.j.3.<.3.p.j.r.*.3.d.3.<.<.<.j.j.r.j.c.Y.p.r.j.j.V.d.*.! <.V./.A.! i } j.!.A.G.Y.j.j.j.j.j.A.j.j.j.r...D ! j.c.d.!.!.!.Y.j.<.p.Y.j.j.A.*.A.&XG.A.`.j.} r.<.r.<...*.+.j.V.j.V.V.j.j.<.<.j.j.<.j.d.! J <.p.U ! <.d.p.<.+.*.} p.r.( <.!.;X`.j.+.} } <.r.+.+.r.j.j.7.+.<.<.! R } <.<.<.j.r.*.! j.j.! *.c.7.+.j.j.!.`.Y.V.V.A.j.7.<.....c.!.V.V.j./.!.j.r.j.j.j.7.<.<.7.d.7.<.<.p.j.r.r.p.7.3.7.r.j.d.A.<.<.j.V.r.r.p.<.<.<.<.*.+.( ! C ( j.c.V.A.G.j.j.j.c.j.!.d.<.3.! c +.3.V.7.! d.Y.V.j.A.!.Y.j.3.<.7.p.<.*.c.<.j.j.+.! *...*.<.r.d.p.d.c.7.7.7.7.A.!.p.p.<...3.7.3...*.*.} ! ! ..<.j.j.d.3.<.( *.j.p.<.p.r.j.A.A.r...} ( } <.<.! J ! ..+.j.j.p.d.<.7.7.<.! p.d.j.j.<.<.d.<.+.! +.<.*.+.+.<.7.3.3.+.<.<.7.j.c.G.Y.G.c.p.<.3.p.Y.A.r.<...! R N J ! ! ! } <.<.} ! ..",
"<.} 7.V.!.`.!.Y.!.`.#XG.j.Y.#X/.`.!.V.A.!.Y.c.A.G.j.j.j.!.`.Y.A.c.j.j.j.j.!..XA.d././.A.j.j.j.Y.j.d.<.<.p.V.A.V.i.7.7.<.<.j.D.N.Y.Y.!.!.c.r.7.d.j.j.G.!..X!.c./.G.<.7.j.j.c.j.c.Y.G.Y.Y.~.!.c.c.!.+X`.L.W.`.[.~.a.} | 1.j.V.V.G.N.V.N.j.1.j.7.<.<.*.p.j.j.V.c.j.j.V.Y.j.p.j.d.A.c.V.V.A.A.c.V.!.`.`.Y.c.A.!.Y.d.<.3.p.p.d.j.p.3.7.7.5.7.p.0.1.7.>.5.p.i.5.1.5.7.j.7.7.<.] } >.5.5.7.+.1.j.>.] j.!.).`.!.j.7.j.!.#XV.j.j.j.l.l.p.<.7.j.d.j.p.3.p.j.3.<.A./.V.3.} } <.j.p.3.j.r.3.d.j.d.<.p.<.<.r.j.j.3...( 3.G.V.j.3.<.c.!.<.( !.!.<.} } <.Y.!.G.!.L.G.!.G.V.0.j.j.<.7.r.<.<.<.r.<.} ..<.j.3.<.d.<.j.c.j.j.c.c.j.Y.r.7.p.7.3.r.V.j.j.V.!.G.V.V.d.A.V.p.j.d.<.*.j.V.j.j.c.j.j.c.A.!.G.c.p.<.*.3.j.<.7.3.+.<.7.<.<.<.7.V.j.j.c.p.j.!.A.V.d.j.<.J n C j.!.r.v 0 +.`.!.!.!.!.Y.Y.!.!.G.V.j.<.<.7.U n ! j.c.p.Y.!.!.Y.r.7.j.!.c.c.c.<.j.!.p.r.!.c...p.r.d.*.! *.+.j.j.3.d.j.r.d.3.p.c.j.7.G.c...! 7.<.3.<.+.<.r.<.} } ! <.j.<.<.!.`.!.A.+.....*.d.p.t.} <.3.( ( 7.3.! R } ..+.<.j.7.<.! 3.<.+.j.!.j.<.7.j.A.!.!.!.!.V.!.j.<.! *.Y./.!.c.3.V.p.p.r.<.<.j.7.7.p.j.j.7.7.p.V.A.j.j.j.d.r.<.r.p.3.!.r.<.3.V.r.3.3.<.7.d.r.<.+.! ! R *.V.Y.Y.!.!.j.c.V.G.j.Y.j.7.<.! N <.<.3.7.*.p.j.3.+.3.A.s.7.d.d.r.7.*.<.V.r.V.G.r.<.3.<.+.*.r.c.G.c.r.+.<.r.r.G.!.r.p.+.+.<.<.3.*.<.<.( ! } %.3.j.j.3.! ! h h ( <.7.p.r.j.j.!.j.} <...+.3.*.! } <.<.>.p.7.<.r.<.<.*.*.<.p.<.<.j.p.<.7.7.+.! } } ! ( ( ! ..+.<.} +.*.3.r.j.c.A.A.j.7.<.p.j.d.j.d.7.<...U N ! +...<.d.j.<.*...<.",
"} ..7.d.c..X.XA...c..XA.<.j..X.X/.G.j.V..X`.A.V.j.c.!.#X;X;X`.;X/.A.A.!.!./.!.j.<.#XV.p.p.<.d.d.j.j.j.d.d.d.c.!.V.N.j.p.V.~.`.!.!.A.A.Y.Y.c.j.j.Y.j.A.!.!././.!.!.j.j.r.7.d.p.c.G.A.c.j.c.A.C.!.#X=XG.7.j.).!.V.<.! } <.p.j.j.j.j.p.p.7.#.j.p.<.<.3.j.p.j.Y.V.r.p.d.j.<.<.j.G.!.Y.!.!.!.!.!.!./..X#X!.c.V.!.!.c.j.j.j.j.j.p.<.<.7.j.V.j.p.+.| <.7.j.l.j.j.j.a.<.+.} 1.0.<.+.#.7.<.g.<.p.j.! ~ L.N.W.!.G.l.7.0.D.!.g.a.C.G.!.`.!.A.r.<.<.3.3.<.r.j.<.+.j.c.3.+...3.r.j.<.<.c.r...<.A.!.c.A.3.<.d.G./.V.3.*.<.j.j.r.<.7.d.!.G.<.d.V.7.7...+.Y.!.d.l.!.!.L.V.C.p.l.d.1.d.r.*.*.#.....+.3.3.d.<.*.d.<.j.j.7.3.j.A.j.! ! <.*...7.j.G.V.p.d.V.c.V.!.V.j.j.7.c.A.a.<.V.G.p.7.j.G.!.!.G.G.G.V.j.3.<.3.j.<.3.<.+.<.<.( <.<.p.A.j.V.c.+.*.G.c.j.<.p...N c U V.A.! i 3 ( !.!.!.!.c.V.!.!.!.!.G.!...! <.R ! <.d.d.7.j.j.Y.G.r.j.!.!.G.Y.A.r.p.j.<.3.d.j.3.c.j.d...! <.<.d.3.+.7.A.c.c.j.c.j.j.<.j.7.R C <.<.! *.*.*.r.7.<.<.+.<.j.} R 7.a.j.7.! <.7.3.V.c.r.( r.d.} ..j.r...<.<.} } <.j.<.+...<...*.d.j.7.*.<.V.!.`.!.G./.Y.j.j.3...d.!.A.j.j.<.j.<.c.!.r.+.d.d.j.j.G.Y.j.j.j.Y.Y.c.j.z.p.r.<.p.<...!.j.7.7.p.3.p.j.j.j.d.*...( } *.+.*.p.7.j.V.c.<.<.7.d.<.d.c.j.<.! ! j.+.3.<.! *.p.p.! ! r...} j.G.j.7.} ..r.+.d.j.d.p.<.! ( <.j.Y.!.G.7.( <.j.7.c.A.3.p.d.r.<...<.<.r.<.3.3.3.3.r.j.d...} *.n h ! <.<.<.7.r.p./.c.} <.} +.<.} ! r.p.} R *.*.<.j.3.<.*.+.<.<.+...*.p.d.p.7.+.} <...! +.} ! ..*.3.+.} ( *.<.<.p.j.A.V.j.r.r.c.d.d.r.3.p.r.*.D ! } ! 7.j.3.! +.<.r.",
"! ` <.<.3.!.;X/.( r.p.R N c.&X#X!.!.A.!..X/.!.Y.!.!.#X$X=X;X=X;X#X=X#X#X$X!.j.p.<.j.c.3.r.j.*.<.j.V.!.!.c.j.A.G.V.j.p.r.j.Y.!.Y.Y.G.!.!./.!.V.G.!.c.V.!..X!.!..X!.D.V.j.<.p.V.l.V.c.c.c.c.A.A.j.!.#XV.<.j.!.!.G.<.! <.<.<.p.r.j.G.c.j.3.<.V.d.<.5.>.<.7.1.0.j.g.j.d.0.*.+.j.!.!.A.!.A.Y.`.`..X;X#X#X!.!.A.Y./.!.j.c.j.p.7.7.<.( <.!.V.j.!.r.! d.l.p.d.r.3.7.a.Y.<.<.g.V.0.<.g.j.<.7.N.a.<.a.N.0.} +.3.j.r.*.0.!.Y.7.r.G.!.Y.!.!./.j.<.+.<.3.r.c.j.3.7.r.r.7.<.p.<.G.!.3.<.d.<.*.<.d.j.j.c.c.j.c./.&X`.!.j.d.j.d.<.! <.c.!.!.c.j.d.r.j.<.J 7.V.<...c..XY.j.r.r.G.d.d.j.p.*.<.<.! >.p.7.p.p.<.A.<.<.j.j.+.<.c.c.p.N ..3.+...r.V.c.p.p.<.p.c.!.7.!.A.7.<.d.G.G.A.G.V.p.p.j.j.G.G.!.c.c.j.r.r.p.p.j.3.3.7.+.+.} <.<.<.d.c.c.Y.j.<.r.c.d.<.j.A.*.N z R A.j.N r 5 J `.!.`..XY.Y.!.j.j.!..X!.A...! } <.7.j.c.<.c.G.c.A.d.j.!.r.3.!.j.p.Y.<.} j.+.7.!.j.j.d.r.*.+.<.<.<.! j.!.j.j.p.j.j.j.<.3.d.+.*.G.!.7.<.} ..( J ( <.<.( ..} ! ..<.3.! ! ..<...3.<.c.p.<.r...( *.7.+.<.p.( U <.j.r.( } 7.7.( *.j.d.j.d.`.#X#X;XG.G.`.c.p.<.j.r.R <.d.p.p.d.*.p.!.!.7.<.r.d.7.j.c.p.c.!.!.V.d.j.V.c.r.r.c.p.j.!.d...d.<.p.j.!.c.3.p.! ( +.<.*.<.r.d.j.A.G.j.3.....p.d.<.d.j.7.! p.3.n +.<.3.<.! ! ! ! } ..! <.!.Y.c.+.! *.*.r.j.r.3.<.} <.c.V.p.j.j.3.+...<.7.<.*.*.! r.V.<.! <.7.<.p.j.V.Y.j.r.j.j.*.! ! R ! 3.7.+...3.j.A..XY.<.<.+.+...j.<.r.<.<.( ..<.3.3.p.j.7...*.7.7.} *.p.<.<...*.+.<.*.} } ! J ! ! <.} ! ! } } } 3.p.c.c.c.<.<.j.V.d.7.3.7.j.7.+.( <.<.( *.} ! ..3.p.",
"J R ( ! ( d.`.&X!.j.*.! +..X;X`.Y.Y.G.!.!.!.!..X#X`.+X).`.#X).`.`.`.`.[.~.j.5.0.<.r.j.r.j.V.7.7.j.A.!./.J.j.j.j.3.3.p.j.j.j.V.V.j.j.c.c.Y.!.c.V.V.j.V.!././.`.#X!.l.j.j.j.C.!.V.j.p.d.j.c.c.j.p.j./..XG.V.!.`.!.3.<.p.p.7.r.d.G.!.V.d.7.r.Y.j.3.i.>.#.<.<.7.j.j.j.V.V.p.<.7.j.c.V.V.j.j.G.`..X&X#X&X`.`.`.!..X.Xc.A.A.j.j.j.r.*.d.`..X/.`.j.3.V.!.r.0.d.p.<.<.l.j.5.5.i.<.+.1.p.+.<.G.p.+.N.V.<.*.+.<.j.j.a.d.V.!.c.j.Y.!.G.A.V.d.r.j.d.7.j.G.j.d.+.<.p.r.7.3.7.3.Y.c.( ..p.7.3.d.<.} 3.A.A.V.!.!.!.Y.!.!.G.G.c.<.*.r.c.j.j.j.A.j.<.p.3.} <.7.! ! r.G.j.r.3.<.d.j.j.p.3.<.7.<.! *.<.<.p.j.d.A.7.( 7.d.<.3.j.<.U +.<.3.*.*.r.j.p.<.j.A.!.A.j.U <.A.j.j.d.j.c.A./.G.j.A.V.j.V.A.j.A.j.p.3.r.p.d.G.<.3.7.<.<.<.d.p.p.j.j.j.Y.V.7.j.V.r.p.G.<.c k N <.!.c.U h r ! #X!.!.!.G.Y.G.d.r.Y.!.V.j...+.r.j.r.j.j.7.Y.!.Y.G.p.j.A.j.j.j.3.r.r.<.<.G.3.+.r.3.p.<.3.<.<.<.<.7...<.h.7.d.3.7.7.j.<.<.3...*.j.7.7.3.<.<...! } p.+.! ! ..<.j.p.} R ! <.<.<.p.3.j.j.j.V.<.( } <.+.! <.*.*.<.<.*.! ! d.p.! +.G.!.p.3.G.!.!.7.( 3.&X.Xj.} 3.<.R ..j.<.3.7.<.A.G.j.7.d.G.j.r.c.j.j.G.G.V.c.j.r.d.p.*.d.j.c.A.!.j.<.V.!.!.!./.r.} r.} 3.<.3.3.<.r.j.j.V.j.p.7.<.<.j.j.3.d.j.<.D ..! h v 7.p.*.! ! J ! ..( N ! !.#X!.7.( ....<.p.7.<.( j.A.V.<.! ! +.*.+.*.<.<.<.<.+.( r.c.J N <.*.( +.7.j.!.A.j.Y.Y.p.} +.! R ..<.<.<.c.Y.Y./.!.d.3.<.p.+.7.*.<.+.<.+...<.<.+.<.r.p.<.+.7.j.7.<.3...} +.*.( ! ....( N ..} ! <.*.( } 3.<.r.j.*.<.j.A.r...c.!.c.r.<.3.r.<.+.<.c.r.U D R ! ( <.3.",
"J U } +...p./.;X,X`.G.c.j.`..X!.Y.G.A.Y.!.Y.!.&X;X$X#X~.).[.!.G.!.D.C.G.j.>.+.7.3.7.j.p.d.V.p.7.j.c.!.!.G.j.j.j.j.p.j.V.c.j.A.G.A.V.j.d.j.V.j.d.j.d.j.!./.!.!./.G.a.p.j.j.G.!.L.A.j.d.V.L.A.c.j.j.G..X!.c.Y.!.V.<.7.d.p.3.3.d.Y.!.A.p.7.r.G.j.p.p.<.<.p.a.j.l.j.j.c.l.j.j.j.j.l.G.j.c.j.V.#X&X#X.X.X!..X.X!.#X;X!..X`.!.!./.!.j.!..X&X`.A.j.c.!.!.r.3.d.d.1.<.d.g.1.<.<.<.<.<.7.+.<.!.g.~ i.a.p.*.( | 3.j.V.c.j.c.A.c.j.j.j.3.<.*.r.j.7.<.j.!.A.j...3.c.d.r.7.<.<.d.j.<.3.3.<.j.A.3.+.7.V.j.7.7.d.d.7.r.3.*.<.<.3.<.<.p.p.p.j.j.c.3.j.!.G.V.j.7.+.p.j.p.j.j.3.7.j.d.<.} *.<.} R ! } 3.<.r.7.r.r.+.3.j.d.c.V.3...r.3.*.! } <.r.r.<.V.A.V.j.7.R 3.7.7.j.p.p.V.c.!.!.c.Y.G.j.G.Y.j.c.p.3.3.7.<.+.3.<.r.d.3.7.r.j.j.j.d.7.r.V.j.3.p.j.3.j.!.<.D D N <.!.!.V.d...d..X/.A.V.c.j.d.3.<.j.j.3.<.<.p.V.j.r.r.<.<.Y.Y.Y.Y.V.A.3.p.Y.V.j.p.<.7.<.r...! <.<.V.j.j.d.3.<.*.<.d.y.p.r.j.p.3.<.3.*.+.*...<.d.<.<.<.<.+.} } ..3.( ( ( ( <.j.c.<.*.r.j.j.d.G.j.!.G.c.j...} *.<.<.! +.<.<.} R ! ! R +.+.3.7.j.#XA.*.r.V.j.h , 3 N j.r.R R <.3.d.j.d.Y.j.} !.&XG.c.A.#Xj.<.r.*.+.3.V.c.!.!.V.j.p...<.7.c.c.c.j.p.A.c.c.Y./.3...j.<.<.+.3.j.p.p.j.r.V.p.<.7.p.j.V.j.p.p.7.R c ..<.! N p.r...+.*.R ( *.+.J ! !.;X&XG.*.( ! } <.r.<...<.j.r.} ! ! ! +...*.<.*.<.p.<.<.r.j.C U d.*.} +.r.G.(.!.G.!.G.p.7.3...( 3.c.G.Y.c.G.V.j.j.r.7.d.A.<.3.<.7.*.<.3.<.p.p.3.r.j.V.j.7.r.j.d.r.p.<.} +.! J } <.} ! ! ..( ! <.+.+.3.c.j.j.V.<.<.j.V.c.<.j.A.j.7.7.7.<.+.} <.j.d.( C ( ! R ! +.",
"! ! ..<.<.j.!.#X`.`.!.G.j.!.!.A.V.j.j.j.c.j.j.G.`.`.[.).`.`.L.j.~.D.j.j.5.+.<.j.p.3.p.p.d.A.c.j.j.j.V.G.A.c.j.c.c.j.j.V.j.d.c.V.c.V.j.d.j.G.G.G.j.3.r.!./.A.j.G.j.0.i.j.g.j.D.!./.G.c.A.!.!.A.j.A.j.c.j.j.A.G.r.<.d.d.r.7.7.d.A.!.!.d.3.<.r.7.r.i.<.<.1.1.i.j.j.j.j.j.c.!.[./.#XY.p.c.c.A.#X`.!./././..X`./.;X;X&X;X;X/./.&X&X!.#X`..X!.j.j.A.Y.Y.l.d.r.r.r.0.0.<.<.<.<.7.<.<.p.<.<.G.V.<.o.+.a.j.7.<.0.j.A.C.j.j.A.c.j.V.j.r.p.j.Y.j.<.3.p.j.G.V.} <.A.j.7.r.<.+.<.d.j.p.<.<.p.d.3.3.3.<.3.p.3.j.j.<.<.<.*.<.7.3.3.<.7.p.7.d.7.+...d.G.A.j.3.7.<.<.3.3.j.c.r.p.j.j.<.....+.} ( ..<.p...3.p.<.d.c.7.r.c.!.A.j.Y.j.j.r.*...<.7.3.3.j.r.r.j.j.<.c.r.3.c.7.d.!.d.j./.c.c.V.G.!.!.Y.d.<.<.<.<.<.! } } <.j.7.<.r.j.A.j.j.d.p.c.c.r.3.r.*.7.V.j.d.r.U } j.G.Y.!.V.G.!.&X!.G.j.r.d.j.c.d.j.j.j.j.Y.!.A.!.V.3.<.j.r.j.j.V.c.+.<.A.!.!.p...3.*.+...<.p.*.*.3.j.p.p.j.7.<.d.3.3.3.j.p.r.<.+.....*.<.r.j.j.<.*.p.p.7.j.p.+.( ( *.! ..d.c.j.+.d.G.c.p.V.p.c.V.j.<.( <.7.<.*.} ......( ! ( ..<.7.j.Y.( h r.!.G.V./.Y.r @ # h V.A.} N ..j.j.c.V.;Xj.C p.Y.d.V.j.!.j.<.<.....3.j.3.d.c.p.r.7...<.j.A.p.<.r.d.<.7.r.j.j.<.<.V.j.} ! ! *.+...<.+.V.d.r.p.d.V.G.j.r.3.<.R N <...J ! ! ! ( ! ! R U } *.! ..!.!.!.Y.3.} ..*.7.j.7.+.+.d.7.<.j.p.*.} <.<.<.*.r.j.+.*.} *.} r.j.+.! R <.G.~.!.Y.!.!.V.<.( J ! r.A.G.V.<.7.d.d.j.j.7.<.d.<.7.r.j.p.j.j.c.G.G.V.A.!.Y.j.c.j.j.7.*.7.p.<...! ! <.<.! U ! R ! R ( ! +.r.V.j.<.p.p.V.j.j.A.j.j.c.j.r.r.r.<.} R R ! +.*.R +.} ! } <.",
"<.*.*...} d./.#X!.!.Y.G.j.!.!.G.c.p.p.r.7.r.r.j.).#X=X=X#X`.!.l.!.l.a.7.<.<.a.j.p.<.r.d.j.Y.!.A.G.c.j.j.j.j.p.r.<.<.j.c.p.d.V.V.p.c.c.V.Y.!.!.!.V.3.3.V.!.V.j.V.j.g.j.j.j.p.j.L.!.Y.V.c.G.L.j.0.c.j.r.p.j.G.A.j.d.j.7.<.r.d.d.p.j.j.3.<.<.p.d.d.5.4.<.1.<.<.0.g.3.d.j.V.!.!./.;XP.<.d.c.V.!.G.Y.V.V.A.Y.V.!.&X`.#X;X&X/.!.#X#X!..X#X&X#X!.!.Y.G.!.!.C.p.3.3.7.<.1.<.<.<.7.5.>.i.p.1.<.g.p.} o.g.c.j.j.j.d.l.C.l.V.!.G.V.Y.c.d.V.c.c.7.d.V.j.j.G.d.R ( j.r.<.7.<.p.d.V.p.<.7.7.<.+.<.j.j.<.r.G.c.j.c.d.3.*...3.j.<.7.3.r.3.*.r.d...p.!.!.c.j.p.d.<.*.<.7.j.j.r.A.j.j.d.7.<.<.3.3.p.j.j.! d.G.p.V.!.r.7.A.!.c.p.Y.p.j.j.7.3.j.j.r.3.d.<.<.<.p.r.A.V.d.j.+.<.j.( } !.A.c.A.!.!.V.!.G.j.3...*.<...+...<.p.<.+.7.p.j.7.j.j.d.j.A.c.r.j.<.*.p.j.j.j.<.<.j.d.r.d.c.G.G./.!.Y.p.*.r.c.G.j.!.`./.!.!./.A.c.G.j.<.3.<.r.3.<.<.<.<.r.G.!.d.*.<...} +.r.V.<.! *.d.d.d.d.*.! 7.7.r.<.3.<.7.<.<...*.7.d.c.V.c.7.<.A..XA.Y.!.<.! U *.! 3.c.d.j.! 7.G.A.p.j.<.r.7.r.3.<.7.p...( ( ..( ! *.*.( ..<.j.V.j.N a d.!.j.V.#XV.e - - N A.j.<.( 3.c.A./.!.G.*.D j.d.! d.j.j.G.7.<.7.7.c.j.<.r.c.j.j.j.<.*.c.j.3.*.7.j.( 3.d.p.r.d.V.Y.j.<.<...*.<.+.+.*.j.j.V.j.7.j.A.j.*.+.} ! ! d.r.*.} ! ..7.! ( +.*.R ! R ! d.7.<.7.*...3.p.V.G.3.( d.j.3.<.j.j.3.( ..! ( ..d.d.! } <.<.<.d.j.7...} p.!.#X.X!.G.!.!.j.+.! <.p.d.p.d.3.+.<.7.j.Y.d.} *.<.p.j.A.V.Y.Y.!.!.A.j.c.G.j.3.j.c.A.r.! } 3.+.*.r.j.r.*.} R C R ( ! ( R ! <.r.r.| <.p./.Y.j.G.!.j.c.A.j.p.r.<.} ! R C ! } J +.<.<.<.d.",
"*.*.<...! 3.!./..X!.V.`.!././.Y.j.r.p.<.! ..<.j.`.#X+X$X+X!.G.l.g.<.<.>.+.a.G.V.d.7.r.d.d.j.j.r.A.j.d.j.j.p.3.7.3.+.<.p.j.Y.`.Y.d.c.A.!./.G.V.V.V.d.7.d.V.G.A.V.L.V.V.C.l.j.j.N.c.A.c.j.C.A.j.3.p.j.j.j.V.j.j.V.j.d.<.<.p.A.j.r.r.r.<.3.7.A.G.j.0.i.j.j.j.p.0.p.3.r.d.j.L.!.!.!.G.<.r.j.c.A.A.Y.j.d.<.<.<.j.`././.#X#X`.`..X/.!./.&X;X;X;X;X/.!.!.~.G.j.r.1.r.r.<.o.+.#.i.p.+.<.<.<.+.7.p.+.<.g.3.0.j.j.a.j.c.j.G.Y.A.V.G.j.p.c.j.3.3.Y.A.j.Y.V.p.! ! r.r.<.<.<.j.A.#X/.j.r.3.<.+...d.V.r.3.d.d.f.j.r.7.3.*.<.d.+.<.<.<.*.} <.p.! r.G.j.d.c.V.c.<.7.j.j.j.7.<.A.3.3.r.7.<.*.<.<.j.A.j.! 7.j.r.c.j.j.Y./.!.j.3.j.A.Y.c.3.3.j.j.3.7.d.r...! } r.G.<.<.p.+.<.d...<.A.A.G.!./.j.<.G./.Y.j.<.<.<.+.+.7.7.3.} } p.3.<.} <.<.<.<.j.c.r.3.p.<.<.j.A.G.V.j.c.r.<.<.j.V.c.G.Y.A.<.! <.r.p.G.!.!.!.!.!.!.d.J 3.j.*.<.p.j.r.+.} <.3.<.c.!.!.G.p.<.+.! ..j.7.! ( <.3.3.3.<.<.3.p.j.<.<.7.j.3.7.} <.d.c.Y.A.d.r.( r.Y.<.<.V.p.! J <.} j.A.p.d.! } p.d.*.3.*.<.3.3.<.<.r.j.+.! ..<...! *.<.! } <.p.r.<.+.| A.d.j.Y.#X( 4 , 3 ( j.r.r.<.3.A.G.Y..XA.3.} Y.j.! p.7.<.c.7.<.c.j.V.r.+.<.j.c.c.j.<.*.r.3.j.V.c.!.j...<.<.*.p.V.d.<.<.7...+.<.+.+.*.d.r.j.7.<.d.j.<.( <.*.<.<.j.r.+.( } } } J ! ..*.C R ! ! +.R R ! R ( <.7.j.V.7.*.j.j.+.( +.<.3...! U R } d.p.( ..3.<.+.} p.c.<.4.G././..X!.A./.`.j.<.*.3.+.! ( <.r.*.( <.j.Y.V.<.7.j.c.j.V.A.!.!./.Y.d.<.3.d.7...7.j.G.c.<.+.<.! } <.d.r.3.<...! ( ( ! ..! ! } 3.+...( ..A.Y.A.j.!.<.+.r.r.p.p.*.! ..3.+.} ! D *.<.+.<.r.",
"( ! } +.} <.d.j.`.j.p..X#X`.!.V.p.<.7.! N J ! <.D.C.l.W.!.V.l.j.a.<.<.<.<.l.`.!.p.7.3.r.p.7.3.<.j.j.j.j.c.j.j.V.c.<.*.r.j.Y./.Y.d.j.j.!..XV.j.j.j.d.r.d.j.V.V.j.!.G.l.j.j.p.a.j.j.c.j.l.G.G.V.c.j.c.A.G.V.j.d.c.V.d.d.3.j./.!.j.c.j.7.f.3.V.Y.7.p.i.i.j.j.j.a.g.j.p.p.j.L././.Y.!.j.j.A.V.V.G.!.V.j.<.+.<.j.!..X!.`..X.X.X`.!.!.!..X.X`.&X&X`..X!.!.Y.Y.C.j.V.Y.<.} #.<.i.j.>.>.+.+.1.j.p.<.<.<.1.7.c.A.j.d.j.p.j.V.A.G.Y.V.j.V.!.c.V.!.j.p.G.d.z.<.+.d.j.7.7.d.p.j..X;X`.j.<.7.<.+.} <.<.....7.g.<.! <.c.r.*.*.<...( +.<.<.+.<.R ! +.+.3.A.G.c.r.j.G.A.j.3...3.<.*.} ..+.+...+.7.j.c.<.<.+.7.j.r.j.!.!.V.7.<.V.Y.Y.j.3.<.p.j.c.<.r.j.r...*.j.j.7.r.c.7.3.3.( r.r.j.G.!.!.p.*.j.A.V.c.j.j.p.+.+.r.3.<.! ..A.j.j.( +.....+.3.j.<.p.A.r.<.c.Y.j.p.V.d.*.*.<.j.j.j.G.G.j.+.*.d.p.7.!.Y.A.V.!.!.!.r.N *.C.j.j.j.j.j.j.<.<.7.j.Y..X.X!.c.d.3.} ! r.3.! ( *.} ! ..<.j.*.<.p.<.7.j.Y.j.p...<.r.d.A.c.<.<.( ! <.D C r.3.! } <.*.V.c.j.j.r.+.p.A.r.j.r.r.3.<.} ..<.d.*.( +.....} <.7.<.3.+.+.r.d.G.r.j.d.V.G.Y.z 1 1 8 j.j.<.3.....G.`.!.!.`.`.<.3.<.} p.d.r.j.r.7.j.*.! 7.+.*.7.d.j.j.p...( } r.V.7.*.r.<.} ! J ! +.( ! d.j.*...<.<.j.j.j.<.3.3.<.7.<.! *.<.R ! ! <.7.+...*.! U N ! ( ( N ! <.<.<.! ! ! ! <.<.<.j.j.j.j.c.V.*.! ( +.<...} ! ! } <.<.! ! <.r.7.3.V.!.j.<.d.c.c.j.! J d.!.V.<.<.3...! ..<.<.3.( <.V.A.c.d.V.!.c.d.d.d.c.c.!.G.p.<.<.r.<.} 7.p.j.A.j.3.<.! ! ! <.<.<.<...*...( J } ! ( +.<.7.j.<.3.!.Y.!.G.c.! U ....<.d.<.D ..p.<.} ! R +.( ! } <.",
"*.! ( <.<.<.7.7.!.!.!.;XG.d.V.!.c.p.d.} D ! ! } j.j.p.L.~.W.G.j.V.7.<.<.+.a.!.G.<.<.<.7.j.j.j.c.c.V.V.V.A.j.A.`.Y.d.j.!.c.j.G.G.j.p.7.Y.`.c.j.j.r.3.r.j.c.j.p.d.!.D.j.7.<.<.7.j.j.j.j.j.G.L.!..X!.A.V.G.G.c.c.A.A.j.j.3.r.!.A.d.c.j.r.p.<.j.!.d.<.1.5.j.C.V.j.p.r.7.p.d.d.A.!.L.`.!.G.!.G.c.A.A.j.V.3.7.A.j.j.G.!.!.!././.!.!.!.G.!./.!./././.`.~.`.!.`.!.Y./..Xj.<.<.<.<.0.<.7.V.+.<.1.+.<.5.<.+.#.r.j.p.r.d.7.c.G.Y.Y.G.j.p.7.j.Y.Y.G.r.<.j.3.j.p.<.j.Y.j.d.V.<.r.p.j.!.Y.7.7.j.d.*.<.c.7.} r.!.j.r.A.!.<...r.7.+.+.<.j.p.+.<.+.U J ! <.G.A.d.p.V.!.G.Y.j.*...3.<.! ! <.3.<.7.p.d.V.V.d.<.V.j.V.7.<.3.7.<.<.c.d.j.j.r.*.+.3.j.7.7.j.j.p.j.Y.j.r.r.d.*.( ! U <.+.<.j.Y.G.j.<.d.G.V.Y.!.G.p.} ..p.7.<.( ..Y.G.G.r.3.<.7.7.r.j.3.3.r.*.3.G.V.j.Y.j.<...7.p.j.7.<.V.j.<.! <.G.c.j.j.j.j.j.c.j.G.p.U } V.G.A.3.<.p.G.A.p.j.A.Y./.Y.c.c.j.<...! p.7.! <.d.*.! *.p.V.r.r.d.7.d.c.!.j.j.*.3.<.+.d.d.+.<.<...+.U R d.<.+.3.<.<.!.c.G.r.d.} d.`.A.A.r.*.+.*.*.*.( <.( ! <...<.3.r.d.3.3.7.<.d.j./.p.<.3.( <.!...v e 5 *.!.} <.7.3.Y.`./.A.G.!.*.<.j.3.7.j.c.c.j.A.j.( N *...+.3.d.j.j.j.3.} <.j.G.3.C <.p.+.*...} <.*.<.j.j.<.<.<.<.c.j.j.<.j.j.<.+.} ! +.<.C ! +.3.3.! ( } ..} C ! ..! n U <.3.j.j.p.( <.A.j.j.G.A.G.!.j.A...U ( } *.} ! ( ! ! ( ( ! ! <.j.j.p.<.j.G.<.p.Y.Y...3 + r ..!.<.+.<.3.3.r.3.j.V.( +.Y.G.c.j.c.V.3.*.<.<.p.d.V.V.j.3.7.p.<.( 7.7.r.j.d.*.<.*.p.j.V.7.*.*.( ! *...J ! ! *.<.+.7.p.<.d.!.7.p.c.3.! <.3.! ! 7.<.R <.p.*.} <.<.*.....+.<.",
"! ( 1.j.G.L.c.Y.&X&X[.#Xj...j.!.L.j.<.! +.! | 3.j.0.3.V.`./.!..X`.j.} <.<.o.p.p...+.+.*.p.Y.!.!.V.V.A.c.p.j.c.j.r.3.c.c.p.c.!.!.!.j.7.j.!.!.c.j.7.3.j.c.j.d.r.j.L.j.r.d.j.p.a.l.j.A.j.j.c.A.!.`.A.A.!.Y.G.`.!.G.j.j.j.c.j.<.7.d.j.j.p.r.j.G.G.j.p.<.0.j./.!.<.<.7.<.<.<.d.V.A.`.!.A.!.A.d.j.V.A.Y.7...<.<.<.d.7.c.A.V.!./.!.!.c.j.d.A.!.!.!.`..X#X!.!.!.G.G.!.`.A.j.1.<.j.j.<.7.A.<.<...! *.r.0.<.} r.j.j.!.Y.c.c.j.r.d.c.V.j.p.j.V.r.j.c.<.<.<.a.!.3.7.j.j.d.0.G.V.7.d.Y.G...<.j.d.<.<.A.7.! *.j.d.V..X!.j.j.A.r.<.<.d.c.d.7.r.p.A.3.<.j.Y.r.<.7.p.j.V.Y.V.7.7.d.7.! *.c.c.j.j.V.j.d.j.p.<.<.<.j.j.<...} <.+.j.j.7.*.<.7.3.7.p.j.d.j.A.j.d.A.A.d.<.<.! R +.7.G.! ! A.!.V.j.j.p.V.V.!.!./.j.( } } +.<.<.p.Y.!.!.G.G.j.A.Y.V.j.<.7.<.+.3.j.3.c.`.c.*.! p.A.j.r.+.j.7.+.} 7.V.A.c.d.<.j.G.c.!.d.j.3.+.j.j.A.} } j.#X/.c.!.Y.!.G.j.3.7.p.7.*.U j.3.( 3.j.j.7.j.!.j.7.Y..X!.r.V.Y.j.V.7.3.7.p.7.} ....} ( N ! 3.3.! <.*.<.<.<.! j.j.7.3.<.c.!.Y.V.....} 7.<.( ! ! ..<.<.! } d.A.3.<.*.*.G.j.G.p.<.<.( *.Y.A.V.7.N 7.!.<.+.7.<.<.c.A.V.A.A.j.7.j.!.j.j.!.c././.V.<.( ..<.d.j.7.<.<.3.7.*.+.c.!.j.! r.d.p.d.7.<.p.} ! <.<.3.j.3.*.r.p.j.7.} r.*.+.7.<.( ( <.3.j.j.7.! J <.V.p.<.<.( ! U +.} ..+.p.p.<.j.!.j.d.j.A.Y.j.3.j...D ! +.( } ! ( ! R R ..! ! 3.j.G.+.h ( j.} p.!..X..: % 2 ..G.3.<...<.r.j.A..X!.+...!.j.+.N.3.Y.G.d.<.! ( r.3.+.p.j.<.*.<.} <.+.+.+.r.<.<.<.<.j.G.<.! <.+.J ..<.} ! ! ..} 3.p.j.r.d.j.} R j.j.j.j.j...R ! r.<.<.3.<.<.*.( *.*.+.<.p.",
"..<.j.!..X`.!.&X/.l.0.Y.!.c.Y.Y.j.3.( R #...<.p.c.d.l.~..X/.[.;X;XG.| ~ #.7.j.<.} *.<.7.j.A.!././.Y.j.d.r.p.r.<.<.<.j.c.j.Y.!.`.G.r.7.j.A.Y.A.j.j.j.A.A.j.y.7.j.A.d.r.j.j.d.a.j.G.!.A.c.V.A.Y.Y.A.j.j.b.A.!.!.A.c.j.d.c.V.j.j.r.p.j.V.A.!.!.Y.c.j.d.j.j.c.l.*.*.*.+.<.3.j.G.Y..X!.V.j.p.r.j.j.V.j.A.j.<...7.c.7.j.j.j.Y.!.!.G.p.7.7.j.V.G.!.`..X/.Y.Y.G.c.V.!.&X~.a.<.p.Y.Y.r.<.0.*.4.*.! *.1.<.3.<.V.Y.G.!.V.j.j.3.<.d.c.j.j.d.j.C.p.l.!.c.j.a.!.$XV.l.z.j.7...j.j.3.+.<.j.r.3.j.j.r.3.j.*.! ..<.<.<.j.j.r.7.j.<.*.<.p.p.<.7.j./.#X!.!.G.j.<.<...<.d.j.!.Y.d.j.V.c.3.r.j.j.A.^.G.V.d.p.7.*.*.<.j.A.d.<.<.<.+.j.j.r.<.3.d.p.p.j.d.d.!.!.7.p.!.!.A.j.r.( ! ..+.j.3.7.Y.!.!.A.V.j.V.Y.!.!./.!.r.+...C U <.j.!.!.!./.!.j.A.Y.j.7.<.<.*.<.3.p.*.p.G.r.+.( r.V.c.j.7.j.<...*.r.j.c.j.r.r.j.Y.!./.Y.G.j.7.r.7.A.r.d.Y.&X&X!.`.!.!.G.r.+.<.3.<.<.! d.7.*.*.*.<.d.!.!.7.<.A.`.!.<.7.c.Y.Y.r.<.<.7.d.3.<.<.R C n ! <.3.3.d.3.! R ! C V.G.c.d.V.Y.A.!.!.d.r.*.+.....<.*...3.+.U } r.p.<.3.<...7.*.j.7.<.3.*.<.d.A./.Y.p.!.V.7.<.*.} } <.7.d.j.c.j.<.*.c.!.j.j.j.A.A.V.3.<.<.r.d.p.7.<...( ! ( ! <.j.c.7.j.d.+.*.<...r.*.} } 7.j.V.j.<.<.7.G.p.R ( } <.p.7.<.! d.!.!.j.j.<.! j.#XY.G.Y.! h R ..! r.j.d.7.! 7.G.j.7.r.3.<.} *.<.<.<.<.<.+.! ! } ! R R ..! ( p.j.c.<.c ! r.<.V./.!.U , , w +.p.<.<.*.j.c.A.!.Y.G.<.*.j.<.J 7.3.j.Y.j.7.r.p.c.p.*.<.7.+.} *.+.<.} ( +.V.G.V.d.<.d.c.<...<.3.<.<.} R } ( +.*.<.p.j.r.<.<.*...3.A.j.d.j.r.*.! *.*.<.3.<.<.<.( ( ( ! } *.",
"1.d.A.!.[.!.c.~.!.r...c.$X.X`.Y.3.*.! J } ..<.r.<.<.A.;X;X[.`.`.#XD.} ! <.D.!.a.+.3.j.G.!.!.`..X!.c.7.3.j.G.V.j.p.r.j.c.c.j.j.Y.V.7.r.j.d.j.A.j.j.j.A.A.j.r.<.r.p.*.<.d.j.d.7.<.G./.G.C.c.A.A.j.G.j.p.j.c.c.A.V.c.d.<.3.d.j.j.3.<.j.!./.#X/.V.j.j.j.l.3.<.7.<.<.<.+.<.3.V.!./.#X!.A.j.7.r.d.d.c.j.j.d.7.<.<.p.r.V.j.j.c.A.A.j.+.7.r.7.r.c.!.!.`.!.!.`.`.!.!.^.#X&Xj.r.d.j.j.r.0.+.*.p.3.| <.0.1.3.<.c.c.p.p.r.j.V.3...7.p.7.d.7.c.L.j.V./.!.j.<.V.Y.j.j.V.!.j.1.+.<.*.*.*.A.!.c.j.j.j.7.p.+.+.<.( +.<.7.d.3.*.3.c.3.*.<.<.<.d.G.j.j.A./.V.r.*.<.! 3.c.c.G.G.p.r.r.r.3.p.j.V.Y.G.G.G.p.3.<.+.<.r.c.Y.j.p.j.j.*.d.p.3.<.3.j.j.d.j.7.7.#X.X<.r.G.V.Y.c.7.! ! ! ! d.V.A.A.c.G.V.!.Y.d.j.V.!.!.G.j.<.7.} *.p.G.&X!.3.p.j.V.G.!.Y.7.*.<.3.3.3.<.} <.j.<.*.*.p.j.c.V.j.j.<.<.j.j.j.j.p.j.A.c.Y.!.!.!.!.V.j.p.<.A.j.Y.!.G.`.`..X!.!.V.<...<.3.<.p.+.3.r.j.<.! ! 3.!.!.<.7.!.#XY.<.3.V..XY.p.<.*.<.d.d.<.*.! R U ! ! } <.<.r...J ! ! !.G.V.j.!.A.<.j.G.V.j.7.+.( ! +.3.<...D N *.j.p.( ! *.! ..! r.<.} +.<.<.<.j.G.j.V.Y.3.3...! ! ( } <.7.d.j.G.r.! <.c.+.+.j.!.!.G.*.( ..<.*...*.*...( ! <.7.3.j.!.A.j.<.U ( <.*.p.<.} +.p.p.r.3.*.*.3.V.j.! ! <.d.j.p.<.! *.d.j.j.c.V.+.7.j.D D r.! N } <.<.G.V.r.d.3.! 3.r.3.<.+.+.+...! } <.d.d.<...! +.+.( } <.<.7.*.*.7.d.( +.p.j.c.!.p.f , 1 k j.<.<.<.3.G.!.V.!.!.A.<.<.d.+.! p.3.<.j.3.<.j.j.j.3.....<.3.<.*.+.<.+.<.*.r.d.G./.j.j.7.<.<.3.<.3.3...! <.+.( *.*.+.<.<.%.<.j.c.p.j.3...<.<.*.! ( 7.<.<.} ! } ! U ! ! ! ! ",
"p.l.!.!.!.c.d.!..XY.j.Y.[.~.!.A.p.3.| ! ( } *.3.1...a.!.Y.Y././.[.D.<.<.j.W.!.G.7.j.V.G.!..X.X/.!.A.r.d.!..X!.Y.c.p.7.j.c.r.7.G.A.j.j.j.j.j.A.G.j.r.p.j.j.r.<.*.<.#.r.V.j.r.7.<.j.Y.c.c.j.A.V.j.G.G.j.c.j.r.j.V.j.7.*...<.p.p.<.<.j.A.!.`.Y.j.d.j.j.c.d.r.p.1.<.p.3.<.<.c.&X&X`.Y.!.A.d.j.d.7.j.j.3.<.r.d.<.<.r.j.V.V.j.7.j.c.3.3.d.3.*.p.c.A.!.`.#X;X&X#X.X.X.X[.c.j.r.<.<.<.p.1.3.j.r.| *.0.a.r.7.c.d.<.<.7.!.`.j.*.<.<.<.j.r.j.c.j.V.!.V.1.~ j.l.0.1.l./.d.3.j.p.3.V.j.G.!.V.j.c.V.d.r.*.<.*.*.p.j.j.V.c.p.j.r.*.} <.r.r.r.j.*.<.j..XA.j.3.+.! p.!.A.j.V.r.+.! } <.p.p.j.j.<.j.V.r.<.<.<.7.j.V.A.r.5.c.G.7.j.j.p.r.7.p.r.<.7.<...!.`.j.j.j.p.c.j.7.+.! C ! G.#X`.!.j.d.d.A.j.3.<.r.!.G.p.j.p.p.j.!.!..X;Xj.J J ..G.Y.Y.`.j.*.<.7.7.<.<.<.p.c.3.<.*.<.3.r.j.V.p...<.V.c.c.V.j.d.Y.G.!.`.!.G.G.V.!.A.7.j.7.V.A.j.!.#X!.G.Y.d.! ..<.7.<.j.<.<.c.A.j.<.<.p.G.G.<.r.!.!.p.+.3.c.!.V.j.7.*.<.d.r.+.*.*.*...<.<.*...! 3.<.J ! 3.G.j.j.V./.j.} <.j.G.j.A.j.r.! J <.j.d.! D 3.!.!.r.....! ( ! <.+.} 3.3.3.j./.!.G.G.c.} +.! R ( *.*.<.3.3.p.Y.Y.<.( *.3.<.j.#X!.j.+.! ( 7.<...*.<.*...R <.p.p.V..X!.j.<.! ( *.} r.<.*.r.p.<.*.<.<.<.3.j.j.<.<.p.V.j.<...<.! ! <.3.<.r.! } <.h z <.! R 3.<.+.c.c.j.j.d.<.<.j.c.r.<.7.p.<.} U ! 3.3...<.*.3.r.<.*.<.( *.3.3.p.G.j.r.<.<.j.G.<.y 3 1 N `.! ( +.<.A.!.Y.!.!.G.3.<.d.7.<.j.7.3.j.3.<.7...! *.( ! <.j.7.*.+.} ..r.p.3.! <.V.j.j.<.( +.<.+...*.<...<.+.! r.j.d.7.3.<.7.j.p.*.7.<.( } <...! ..p.3.*.! D R ! J ! ! ..+.",
"<.j.!.Y.p.....d.L.!.Y.!.!.~.~.!.V.j.<...<.7.0.p.j.<.r.V.j.j.!.!.~.!.a.a.G.!.!.W.7.d.d.p.j.!..X!./.!.V.A.`.`.Y.A.V.j.7.p.j.r.r.A.c.j.r.j.V.j.j.c.r.<.<.r.j.r.<.<.3.d.!.!.j.3.d.c.c.!.A.G.V.!.!.c.c.G.j.j.j.r.j.c.p.7.7.<.*.7.r.<.d.j.j.c.!.G.j.j.j.j.j.j.l.j.<.<.r.r.7.<.j.&X;X!.V.G.A.j.V.c.p.c.j.d.7.3.p.j.r.7.d././.r.! ..j.d.d.A.d.<.p.c.V.!.`.`././.`..X.X#XL.l.d.r.p.r.<.<.r.1.d.0.| ..3.j.p.j.Y.j.3.<.7.!.#X!.j.r.<.<.j.j.p.d.j.l.c.p.+.| l.A.r.<.l.~.<.#.d.7.} 7.j.G.Y.j.p.V.G.j.7.<.7.( ! +.<.<.j.!.A.!.<.*.<.d.j.r.<.<.( +.V.;X!.A.r.+.} 7.Y.c.d.Y.c.( J } r.j.<.<.3.! r.p.3.r.j.d.j.j.V.S.r.r.j.A.7.d.r.7.r.3.p.j.p.j.*.( j.!.!.G.r.p.j.7.r.r...C } #X!.V.!.d.<.<.7.<.r.7.j..XG.<.j.V.3.c./.`..X!.d.7.( *.!.Y.j.!.j.*.<.<.<.<.*.3.p.j.r.+.! ( +.<.j./.V.3.r.j.d.j.Y.c.7.j.V.!.,X;XG.c.G.`./.j.j.<.j.c.j.G./.G.V.G.j.} *.7.r.<.d.<.<.Y.j.V.j.7.7.j.V.r.*.p.d.*.( ..<.r.<.7.<...+.3.<...7.<.! ! 7.A.j.<...} } N ! p.p.<.d.!.!.j.+...j.!.A.!.!.G.<.C ! <.<.} } p..X;X!.j...+.<.} ( N N ! ( ! j.!.!.!.j.*.! ( ....} ..*.*...} ( p.!.j.*.} 7.+.<.A.7.! U N } d.r.<.3.r.7.*.+.<.<.r.V.Y.A.j.<.+.} ! ! d.<.*.7.<.7.p.d.j.j.p.V.Y.V.p.r.j.j.+.*.j.<.! *.*.R ! ( ! *.D ! d.( ! j.<.r.j.j.Y.j.p.r.3.c.Y.A.d.<.d.<.+.! U ! R J <.*...<.+.r.p.*.3.j.j.j.Y.c.p.} ! <.G.V.( D r n A.3...} *.7.c.V.Y.G.A.p.<.r.d.r.r.<.p.j.V.A.p...! r.7.*.7.j.<.*.<.*.} <.3.<.! } 3.<.j.<.! ! ! *.+...p.<.*.} ! p.A.j.<...<.r.<...+.<.*.+.*.<...! ! +.*.+.( ! ! ! ! } ( ! R ",
"#.j..X!.<.R ! 3.3.d.j.l.!.`./.Y.C.j.<.*.3.c.j.j.r.1.c.!.V.j.G.A.!.`.V.p.V.!.C.j.( <.3.7.j.!.#X.X!.!.!.!.!.Y.c.j.A.G.j.j.j.j.j.j.j.d.<.j./.V.j.j.p.7.<.r.p.7.p.d.j.j.c.l.d.7.r.j.A.!.c.G.j.Y.G.j.p.j.j.j.c.j.j.V.j.r.p.<...<.d.j.!.Y.c.V.!.!.G.!.j.j.j.G./.V.3.3.<.3.p.7.j.`..X!.j.j.j.j.Y.!.c.A.c.j.j.7.<.r.p.p.!.#Xc.! N ! 7.7.G.!.V.r.d.j.c.G.`.`.!.!.`./.!.!.Y.c.j.d.j.j.<.3.d.3.p.r.*.#.<.d.r.j.Y.j.3.<.<.A.!.`.!.j.*...<.p.C.j.c.j.p.1.} #.j.Y.j.r.V.!.1.*.*.3.( ! ..V.j...*.3.<.! R ! 7.*.+.*.<.<.c.`.A.j...( ..7.d.3.+.} U ! d.&X!.j.3.<.<.<.d.p.j./.G.( R ( <.3.*.3.j.<.} ..*.j.Y.A.A.c.j.V.c.V.j.j.( ! <.<.7.*.3.j.d.j.3.<.j.Y.!.j.*.r.j.<.<.3...J <.5XY.p.Y.7...<.7.<.d.j.c./.V.3.j.j.*.A.`.Y.G.Y.A./.V.d././.j.j.7.+.<.<.3.3.<.d.d.j.7.} ! ..7.j.c./.!.c.V.A.j.A./.G.c.r.7.p..X.Xj.p.d.G./.A./.V.A.c.7.r.j.j.j.A.c.3.d.j.j.6.3.( } j.A.G.j.<.+.<.r.7.+.+.3.7.<.( ..<.} *.+.+.*.<.r.<.V.d.! ! r.A.j.p.*.C J C +.j.<.+.d.!.!.V.r.<.c.!.!.!.!./.A.+.J C U ..d.V./.!.!./.r.j.G.A.7.R R <.( R d.p.<.j.3...! ( <.<.R J ! J D R R <.c.j.3.} <.+.+.V.r.} ( ! <.p.<.<.3.j.Y.j.j.j.p.j.A.d.7.<.<.<...U ! j.3...*.} 7.V.V.V.V.c..X.XY.<.+.3.d.*.+.7.7.7.<.<.! ! ( R J D ( <.<.3...R *...! j.p.r.<.p.c.V./.V...p.*.! ( ! J ! ! +.3.( } } j.j...<.! <.r.j.d.7.( ! ( j.Y.G.A.! ! c.Y.3.} ....<.7.j.j.A.j.7.7.d.j.V.d.c.V.!.!.j.<...d.V.j.d.3.! ! } <.<.3...! ! r.Y.d.c.<...( ! <.....j.j.3.<.( *.<.p.+.! } <.! U ..} ( } ..<...( ! ( +...+...! } <.d.3.*.} ",
"( <.G.j.} ( <.7.<.1.<.3.j.c.j.j.j.j.<.<.<.j.j.j.r.<.d.V.j.a.j.j.!.=XG.<.i.l.a.7.+.*.<.j.Y./.`./.!.!./.`.!.V.c.c.c.V.j.c.c.j.j.j.c.j.7.Y.`.c.j.A.j.j.7.j.j.p.j.j.c.d.<.<.j.j.7.7.j.j.3.j.3.j.j.p.r.d.V.!.!.V.j.A.Y.r.3.*.} 7.V.!.;X`.!.!./.!.Y.!.j.G.Y.[.;XY.7.d.<.<.r.j.A.`.!.Y.d.d.j.j.!./.V.V.c.p.j.j.<.<.<.d.&X!.<.! *.d.j.d.V.A.j.7.p.j.j.j.`..X.X.X`.Y.A.!.!.j.j.j.r.<.<.d.j.0.p.0.<.*.+.*.r.j.A.d.3.<.*.j.Y.!./.j.<.+.! <.G.j.j.r.7.p.#.+.j.!.Y.l.a.c.3...<.p.<.} ..V.j.<.*...C h h h } <.D J ..<.c.#XG.j.} } <.j.G.V.p.3.<.<.7.A.V.j.<.<.*...<.r.A.!.j...! ! ! *.<.j.G.d.! ! *.c.V.j.Y.!.A.j.j.V.j.j.( C ( *.<.! *.V.j.c.j.c.V.G.V.<.( <.r.<.+.<.7.+.3.`.&XG.Y.r.<.7.j.j.r.r.p.c.j.r.d.3.! j.`.!.Y.G.c.Y.`.A.!./.G.j.<.} <.<.7.r.<.j.j.c.<...} <.j.c.p.d.c.j.c.A.V.G.!.Y.!.j.*.<.c.j.d.p.<.d.G.j..X`.!.j.p.<.j.j.G.c.p.<.c.j.j.j.3.( +.p.j.c.j.p.7.r.V.G.<.} 3.j.j.*.2.3.<...<.d.3.r.j.<.!.!.r.7.j.V.j.j.<.J J ! <.j.j.r.G.!.!.Y.j.d.j.c.!.!.!.!.!.j.( J ! 3.G.!.#XV.V..XG.Y.`.`.p.R ! <...( 7.( D <.3.<.} <.3...J ! ( U U } *.3.j.d.7.......*.p.<.<.<.<.j.j.3.<.<.j./.A.d.c.j.j.A.<...} <.<.<.! U j.j.r.<.! *.d.j.d.r.j..X`.V...<.d.c.p.*.<.<.r.r.7.} ! D C N ! <...*.<...N J U ! Y.!.G.j.V.Y.j.G.!.3.j.<.! ( ! R +.<.<...J ! } p.<.D ( J ! ..r.3.<.! ! <.7.j.j.c.j.j.!.j.*.! } +.<.+.r.r.j.j.y.3.3.j.!.c.c.!.!.G.j.<.! ..p.7.3.( n N N ! *.j.7.*.} d.G.V.j.*.d.d.<.7.<.*.j.A.d.7.+.*.} +...! ! ( ! ! ..} ! <.<.<.*.<.} +.+.! ( +.R ! 7.<.<.<.<.",
"r.0.C.j.*.r.c.j.#.+...#.<.3.r.A.l.V.d.7.+.0.p.d.d.<.*.1.<.<.<.*.V.`.N.+.<.p.p.j.G.r.<.d.Y.!.Y.G.G.G./..X!.Y.!./.G.j.p.A.V.r.j.c.j.d.r.Y.V.<.j.G.A.j.r.j.A.j.j.r.j.j.3.0.A.V.d.j.j.j.3.j.r.A.G.A.j.d.!.#X`.c.r.Y.!.7.3.<.<.j.!.&X,X&X.X&X`.Y.A.V.G./.C.j.c.7.<.j.j.<.3.c.!.#X!.G.j.j.G.Y.!.!.c.j.d.7.c.c.7.3.3.7..X/.j.c.#X#X!.V.j.j.p.p.c.Y.!.!./.`./.!.!.c.A.`.Y.<.<.j.3.*.<.d.*...*.*.*.1.<.*.*.p.c.r.7.<.} r.!.Y.Y.j.j.r.! <.7.*.3.*.r.A.r.<.j.Y.!.c.#.3.3...d.r.r.<.+.j.j.j.Y.j.{ N k i J +.D U <.<.j.!.G.j.*.*.<.r.3.<.<.3.G.A.3.<.7.j.<.+.! ! *.j.!.!.7.<.+.*.<.3.7.j.A.d.! ( r.A.7.<.V.`.!.7...<.3.V.p.*.+.3.r.( *.V.j.j.A.!.Y.!.A.3.<.7.<.r.3.j./.j.+.7.!.G.j.<.7.7.j.j.7.<.*.p.j.d.7.<.+...j.!.G.p.p.!.#X!.Y.A.Y.V.<.} <.<.<.+.R ..} +.r.*.( ! <.p.} ! c.p.d.j.r.r.d.p.A.j.<.r.c.7.A.A.7.d.j.*.V.!.Y.j.r.*.j.!..XG.r.*.7.<.3.j.d.3.j.Y.!.Y.j.r.<.3.V./.3.! *.7.p.<.7.<.<.R *.j.<.<.p.U j.G.3.<.p.A.c.j.p.<.R J U <.!.(.!.j.A.V.r.7.<.<.7.j.A.j.j.d...( p.j.!.#X`.! h n p.j.!.&Xj.! ! } } ( *.! ! j.c.3.r.j.7.! ! r.j.<.+.7.p.d.d.d.d.<...<.p.d.7.j.3.<.3.p.3.<.} <.Y.j.j.!.G.j.V.*.( ! ! ..d.3.! j.V.j.d...( <.j.3.} 7.Y.!.j.( j.!.!.V.G.c.! R *.7.! ! ! R v ..p.} ( J 7.} } } ! V..X!.C.d.V.<.*.Y.A.j.V.j.<.J J } ..d.D N +.<.d.} N ..*.( ! 3.3.*.( *.3.7.V.c.d.Y.G.j.<.! L ..<.<.R <.*.7.r.3.<.} +.d.<.*.G.!.Y.!.7.! ! <.*.*.! N C N } ( r.j.V.7.3.*.7.*...!.!.7.c.V.j.V.!.j.<.} <.<.( <.<.} ! +.*.( ! ! d.j.r.*.<.! ..( C ! *.J U 3.*.( ! } ",
"<.3.r.p.+.( 1.<.~ ( ..*.} <.j.j.l.j.d.3.<.1.d.l.d.3.! } <.3.r...i.j.<.#.7.0.a.l.c.3.<.7.j.j.A.!.V.j.!.#X!.!.!.!.!.j.r.r.7.r.j.j.j.j.7.d.j.7.r.V.A.j.p.c.j.j.c.j.r.7.3.7.j.j.j.p.j.c.j.r.j.V.V./.A.j.Y.!.!.c.j.A.!.j.j.j.p.c.`.&X&X.X.X#X!.c.d.d.p.c.j.3.<.3.j.Y.G.j.7.A./.!.!.!.j.A./..X/.!.!.A.j.p.3.<.p.j.r.j.A.G.A./.!.c.Y.Y.V.3.7.j.j..X`.!.!.G.!./././.!.Y.V.7.<.3.} ! 3.3.j.V.7.<.<.<.<.+.<.d.j.p.7.<.<.d.c.A.G.j.d.c.j.3.*.r.d.( <.j.r.j.7.G.!.G.j.j.j.<.j.7.<.3.7.7.j.c.Y.p.*.! ! N *.j.<.U J ( <.r.3.d.<...3.*.( ..+.j.!.p.<.*.<.A.j.! ! ( } 7.Y.Y.j.p.p.<...r.p.<.r.p.3.j.3.<.<.7.!.!.!.c.3.*.7.j.j.<.p.d.j.<.p.Y.j.r.p.G.V.A.c.3.3.j.d.d.<.d.G.!.r.3.r.<.3.+.+.7.3.j.3...<.<.<.<.<.<.+.<.j.V.p.3.!..X#XY.!.G.j..XV.<.p.*.<.( ! } k ( 3.} ..! *.+.} +.c.!.!.3.<.V.c.d.p.p.7.p.r.3.j.!.V.d.j.d.!.c.A.V.j.<.p.!.;X/.p.<.7.~ +.j./..XV.j.p.!..Xj.p.r.j.j.! U ! d.r.j.j.<.<.} } <.U +.p.R r.d.j.V.j.d.j.<.<.r.+.N N d.#X.X/.G.d.7.r.p.3.*.<.c.G.j.Y.Y.( 7.!..X.X;XY.J N i <.3.j.Y.V.( U 3.( <.N R <.3.G.+.! ..+.! R j..X7...7.d.V.G.j.j.j...R j.Y.V.c.d.*.r.j.<.<.<.7.j.j.j./.Y.j.j.w.<.*.+...7.<.3.r.p.j.j.<.! <.A.G.<.( *.p.<.*.d.j.r.d.d.<.<.<.<.( *.3.d.! C } d.j.p.*.<.R ( *.r.A.j.j.A.!.j.R C 3.Y.!.V.Y.d.! ! } } 7.! h <.V.Y.V.} R ! } ..3.( ! +.*.*.p.j.c.Y.d.r.<.! } } ! *.<.+.7...( +.j.r.( ! ! U } j.Y.j.z.<.! ..<.*.<.! ! ! ! ! ....<.<.<.<.*.} *.<.j.!.j.<.V.j.j.!.!.<...3.<.+.d.r.*.! <.d.j.<...d.j.<...! ! } *.} +.+.! ( ..} <...} ",
"<.3.0.r...! ..~ ! ! } #...<.j.3.j.1.( ! ..1.d.j.c.j.<.+.*.<.3.*.#.+.<.0.7.7.i.i.r.r.d.c.A.Y.Y.G.d.p.Y./.Y.A.A.!.!.c.p.<.+.<.p.d.j.j.7.j.A.j.d.c.A.j.3.j.j.p.j.A.!.j.7.p.j.j.r.7.r.p.7.<.<.r.j./.Y.j.V.A.A.V.j.A.G.d.7.p.p.c./.!.`.`..X#X!.j.d.j.p.j.j.c.!.`..X&X&X!.c.Y.!.G.Y.!.A.G.!./.!.!.Y.c.p.r.7.<.3.r.3.p.d.j.c.!.A.c.!.!.!.c.j.j.V..X!.!.Y.A.!.`.`./.!.!.Y.j.d.p.+.+.r.<.<.j.j.p.3.*.*.*.r.3.3.r.p.7.3.p.d.j.j.r.7.j.j.3.*.p.j.( ! <.<.a.p.j.p.V.).C.p.i.j.<.+.r.j.d.c.V.*...( *.j.A.!.V.*.! <.p.d.p.*.( ! } *.R R } +.j.!.j.7.<.c.`.d.J } <.<.r.c.c.d.j.<.+.+.d.j.3.<.*.c.j.+.+.7.A.#X!.!.!.d.<.<.7.<.<.d.3.r.<.<.A.V.j.j.Y.!.c.3.+.p.j.A.c.3.j.G.G.3.<.d.<.<.( } <.<.j.d.7.j.d.+.<.j.c.V.V.!.Y.j.j.#X/.#X`./.d.<.Y.j...+.( *...! ! N } R ( <.} } ! ! *.`.!.!.j.3.j.V.j.!.!.V.V.j.r.j.c.j.d.j.j.!.j.j.V.V.j.j.A.!.V.<.} *.! +.j.!.!.j.d.3.Y.G.j.V.c.V.7.7.*.+.j.7.r.j.d.d.7.+.3.+.7.c.7.j.c.V.c.r.7.d.<.+.<.+.J ! G..XV.G.j.<.( 3.d.<.+.d.A.A.p.j.j.( r./..X!.`.;XA.V.*.!.G.j.j.<.C R 7.<.<.! <.7.j.Y.+.N J ! ! ! j..Xj.<.A.A.c.Y..X`.j.7...!.`.j.c.A.+.j.G.p.<.<.r.j.3.3.j.p.7.d.p.3.<.+.<.<.! } <.d.7.j.3.<.7.j.d.3.7.( <.*.+.<.+.! ! 3.<.7.*.*.+.3.c.7.} U ..p.7.+...3.! U +.A.c.} ..d.A.V.3.<.c.!.G.c.A.V...D ! } ! J N p.!./.`.!.3.! *.*.<.R ! <.+.J r.G.j.c.d.7.( U ! ! ! ^ ( ! <...R ( c.G.<.! J ! ..p.j.+.! n N } +.} <.*.3.<.! ! ( ! } <.r.d.7.( <.<.} +.*.+.r.p.7.j.j.! ! 7.+.! d.j.<.( r.c.c.7.....<.<.*.<.3.*.3.<.<.<.} } ..J ( } +.",
"1.<.<.<.( ~ #.| ! ! ~ ( ..r.j.3.j.3.( ( <.p.a.j.l.j.d.*...<.1.0.<.} 7.p.a.j.5.<.<.j.Y.G.G.!.A.d.3.r.A.!.A.j.d.c.!.Y.j.<.} <.j.j.r.7.*.7.j.d.r.r.j.j.7.p.c.j.V.!.Y.r.<.r.c.c.j.j.7.d.j.j.j.d.d.!.!.V.j.j.j.j.p.r.j.7.<.r.d.V.!.c.!.Y.!.!.G.j.j.c.d.3.r.G.`..X!.Y.;X/.G.!.!.Y.!./.!.Y.!./.Y.!.!.A.j.c.V.j.V.Y.V.A.j.r.c.V.j.j.c.j.c.c.d.p.j./.!./.Y.A.!.#X.X/.!.!.`.!.A.d.+.+.<.( <.<.j.V.c.j.p.d.d.<.*.p.j.d.7.<.r.r.r.3.3.j.j.<.<.a.l.<.| <.1.r.l.!.j.0.a.7.<.<.A.d.<.<.r.j.Y.G.<.<.+.+.d.A.Y.d.....p.j.j.c.c.j.! <.<.( *.<.( <.j.c.j.d.Y.`.d.! ! *.3.d.V.j.3.<.*...+.7.p.7.r.<.j.j.*.} <.j.!.A.G.Y.d.<.3.<...<.d.<.3.*...j.Y.!.c.!.!.p.<.( 7.p.j.A.p.j.r.*.} +.A.j.j.3.<.7.<.r.d.<.j.c.p.V.A.p.!.G.!.V.r.p.`.!.#Xc.j.3...d.p.3.<.! ! ( } ! ( ( ! ..<.} <.<.+.*.c.d.G.!.A.Y.Y.c.A.!./..X!.j.d.d.r.7.j.d.G.j.j.c.j.j.j.r.d.r.} ! ! } <.V.Y.j.<.+.*.V.j.7.V.V.A.<.7.<.<.j.r.<.7.p.3.3.} p.j.j.c.j.G.!.Y.j.<.<.7.+.} <.<.! <.!..XV.j.7.<...+.7.<...3.p.p.<.<.r.} <./.;X.X!.`.!.;XY.!..XG.j.} n ! +.r.<.! <.j.G.A.+.U ! *.<...7.A.d.p.A.Z.l.Y.`./.G.j...c.!.j.3.p.( <.G..X.X!.c.r.+.d.c.j.d.j.j.j.j.j.V.d...+.<.p.3.j.3.<.<.<.*.+.<.*.*.( ! ( +.} ( r.<.p.+.<.<.3.Y.c.p.<.3.V.d.+.<.} N N ..A.p.! <.A.Y.G.j.d.j.V.G.!.Y./.j.R ! ! N C ..c.`.!.!.#Xr.j.G.V.7.U ! ..R ! 3.j.+.7.j.7.J ! } ..! R U U } ( N C r.A.p.<.*.<.*.<.7.3.<.C ! <.+.( ..+.j.j.+.! ! ! ! <.r.d.<.) ! ....! ( *.j.r.*.r.j.( ! <.( ! 3.7.<.} d.c.V.V.j.7.p.<.! *.r.*.<.<.<.<...} } ( +.*.<.",
"<.<.<...R R +.<.<.<.| ~ +.j.L.j.<.<.( ( <.0.r.d.A.c.l.*.( *.*.p.j.j.j.p.V.C.] ! +.A.!.A.V.!.Y.d.d.j.V.!.!.z.r.j.c.j.p.*...<.j.c.j.d.<.3.j.d.d.p.p.V.j.j.V.G.!.Y.c.3.<.d.A.V.j.j.p.j.V.j.j.p.7.j.j.j.j.j.c.A.j.r.p.r.3.j.c.Y.`.c.G.V.c.A.V.c.A.!.Y.d.d.Y.!.!.!.!.!.!.A.!.#X`..X/.!.G.!.!.A.G.!.G.j.j.V.V.!..X`./.j.<.j.j.r.A.c.p.3.r.p.p.r.j.Y..XG.V.Y..X`.!.!.!.#X/.!.V.r.7.p.<.*.+.j.A.c.j.r.3.c.r.7.A.Y.j.3.<.3.7.r.p.p.j.V.7.#.+.7.7.<.<.<.<.l.~.!.p.<.j.!.l.V.p.*.*.+.*.j.c.j.r...! ..7.j.c.V.d.7.<.<.7.j.V.7.3.<.*.<.<.! ! +.3.p.<.d.!.j.*.R U ! <.j.j.7.3.*.*.<.<.<.7.d.p.3.j.p.3.<.p.A.V.d.r.<.<.7.<.+.*.A.<.<.<.7.G.!.G.c./.!.7.j.*...<.G.!.p.d.<...} ( V.c.Y.G.j.j.<.<.<.! D R *.7.<.! 3.7.!.!.j.p./.!.r.! *.j.c.c.7.<...! +.+.<.+.<.7.} <.<.+.7.<.3.d.<.*.7.j.j.c.G.A.*.j.A.G.j.<.d.j.<.7.p.7.j.j.j.d.j.A.G.j.j.c.p.j.} <.3.j.j.<.<.3.7.!.!.d.G.!.!.A.<.} ..j.j.<.<.7.} +.! d.Y.A.c.A.Y.!.Y.j.<.<.r.*...<.r.<.<.c././.A.<.j.j.<.p.j.<.7.r.d.3.3.r.+...j..X/.j.j.c.`./.A.`.G.G.<.n ! } d.*.! +...7.j.! R ! } +.} <.7.*.j.G.A.A.c.A.G./.j.<.<.r.j.7.p.3.7.c.!.!.V.p.p.j.c.G.V.V.j.r.j.c.r.p.7.3.r.<.p.d.A.r.<.p.j.j.7.+.+.*.<...( +.<.1.<.+.p.*.*.} ! d.c.j.2.3.c.c.3.7.C h N ( j.j.p.G.G.A.c.j.p.<.3.j.V.c.Y.V.+.R ! ! R d.!.&Xc.3.!.!.j.!./.j.U R ( ! ! +.3.R } r.<.U D ( } U U ! ! ( *.! ! 7.j.<...! ..} ! ( <.d...<.V.j.7.<...7.j.<.R } } +.<.3.3...} R ..<.} +.r.A.r...*.V.7.} 3.r.7.3.<.3.<.j.p.j.j.d.<.3.3.! ! ..! +.+.....( ! ! U ! ( ..",
"+.*.<.*.} *.j.Y.r.r.*.} *.j.!.C.d.d.1.*.1.p.p.d.l.j.j.*...<.<.j.G.j.!.G.!.G.! ! r./.#XG.V.Y.A.d.j.j.j.!.#X!.j.j.d.r.<.<.7.p.j.G.A.V.p.r.j.j.c.l.j.V.A.V.c.G.!.c.c.c.c.G.!.G.j.7.j.j.d.<.*.3.3.d.d.j.A.V.A.!.V.j.j.j.j.c.A.!.;X!.V.V.c.j.j.j.!..X;XG.c.!.!.!.`..X!.!.!..X;X#X.X!.!.I.!./.V.c.A.V.j.j.c.j.c.!.`.#XG.<.p.r.p.!.c.3.r.d.Y.!.j.r.G..Xc.j.V.!.!.Y.!.!.#X!.!.!.j.p.p.r.<.r.!.Y.j.j.r.7.j.d.p.c.j.<.*.....+.<.d.p.j.j.<.+.! <.d.p.3.1.3.L.L.V.V.N.G.).!.A.3.+.7.2...<.j.j.d.<.! ! <.7.j.G.p.! U +.<.d.Y.V.<.<.p.p.+.! +.! } <.*.<.!.!.j.( J D +.d.r.<.<...<.r.3.*.<.3.<.d.c.c.j.j.j.j.d.r.<.<.3.<.<.<.<.<.*.<.p.V.Y.Y.Y.A./.!.j.V.<...<.!./.j.p.<.*.<...7.r.c.A.j.d.3.*.3.7.! ! d.7.+.r.<.r.!.!.c.d.!.!.+.<.j.!.`.#XG.<.! U *.<.V.j.3.<.+.+.+.+.7.<.p.j.j.d.7.<.<.7.j.c.! <.p.p.<.} <.r.<.r.d.<.p.d.j.p.c.!./.!.!.!.A.!.3.r.*.+...! 3.j.d.Y.#Xj.Y.#X.X;Xr...( 3.j.r.r.7.<.*.! p.G.G.G.!.A.!.V.j.r.d.j.p.} 3.A.Y.j.p.c.!.c.} 3.j.7.d.j.<.<.<.<.<.3.3.+.! p.G.V.<.j.A.`..X/.!.j.`.j.C ! ( ! C J R i c d.U U J ! ! ! *.3.<.7.j.7.*.! *.<.p.7.3.*.! <.j.!.V.c.c.A.V.c.c.j.j.j.j.j.G.j.+.<.3...<.7.j.V.*.<.r.c.p.*.<.d.d.3.! N ! d.d.<.+...<.} ( 3.R J U R 7.7.7.3.<.p.c.r.3.( N n n 3.G.!.`.V.d.r.d.p.( U ( r.c.j.d.3.R U <.c.`.&X!.! y h +.r.c.!.G.! ! +.<.! U ( ! *.p.<.D D } ! U ..d.7.! ( +.*.r.j.p.3...( 7.d.<...d.7.j.G.j.d.<.! } <.+.R *.<.3.<.<.<.+.+.! } ! U <.j.j.d.*.! <.<.! <.d.j.r.7.r.3.p.<.<.*.( ( +.<.( J } ! +.+.! ! ! ! ! ! ! ( } ",
"*.#.3.j.Y.Y.p.#.( ..} +.<.p.A.A.G.C.d.<.3.d.3.( *.<.d.r.p.p.<.j.N.1.L.!.g.1.] #.r.!./.G.A.A.j.j.j.7.<.j.`.!.V.c.j.r.7.j.V.j.c.!.G.A.p.7.j.c.V.j.d.p.d.c.j.V.!.A.G.!..X`.`./.G.p.j.j.j.p.p.j.p.p.j.j.c.j.j.A.V.V.j.p.d.j.j.G.`.`.p.j.j.p.3.p.V.!.!.j.j.!..X.X!.V.!..X#X&X&X.X&X#X!.!.`..X!.G.G.A.V.V.!.!.!.!.!.`.!.7.r.7.p.Y.j.3.7.r.!.#XV.3.A.!.V.j.A.!.!.!.!.!.!.A.!.!.j.<.<.7.j.j.j.7.<.7.r.r.j.V.d.p.<.} +.<.<.<.r.j.d.r.d...7.*.0.c.l.d.j.V.W.!.g.a.l.g.j.G.G.j.3.3.r.d.j.7.j.!.!.r...<.<.r..X!.<.! +...<.!.G.3.7.c.d...} <...+.3.<.*.V.!.j.+.! ! <.d.<...*.+.<.r.<.+.<.7.7.j.V.Y.!.Y.V.j.d.V.p.d.d.<.<.p.p.<.7.j.G.!.!.Y.!.Y.A.G.j.3.<.<.3.V.!.c.j.<.*.3.r.p.<.3.7.3.r.p.3.} r.*.3.!.p...d.j.c.c.r.r.j.!.Y.d.V.`.!.!.!.Y.r...J R ..A.Y.3.....} ..+.<.3.j.j.r.c.j.7.<.3.p.d.7.j.j.p.<.*.<.+.( <.r.3.p.j.c.V.c.A.!.Y.V.j.j.j.<.<.( ! ! ! 3.A.3.<.A.p.G.#X!.&Xj.<...<.p.r.d.<.<.<.( j.A.G.Y.Y.!.!.A.j.j.j.A.c.} 3.!.;X!.r.3.r.*.! ! *.<.<.<.<.<.*.=.<.r.7.r.3.j.Y.V.<.A..X;X;X;XA.<.!.!.U U ! ( <.R C h h ! D C ! ..R C ! 7.A.!.j.<.<...<.+.j.<.<.r.<.<.j.Y.j.j.c.j.<...r.d.r.p.7.d.A.d.....} R <.c.G.Y.3.<.r.V.A.7.7.d.p.j.r.! } r.r.<.<.+.<...( *.D ! <.<.7.7.p.j.7.3.r.*.*.<.} N h j.`.Y.!.V.<.! +.<.( J ! j.`.V.p.j...( V./.!./.`.d.D k *.V.d.j.c.*.<.<.*.} N J ! p.c.7.N R ..! ! r.!.c.R ..r.p.j.A.Y.c.<.D <.Y.j.*.p.<.<.d.<.<.! U ! *.7.} <.3.<...( +.*.<.! ! U ! ..<.r.j.d.! ..<.( *.<.r.r.3.+.} r.<.<.} ! ..} ( ! D +.*.<.<.( ! ( ! ! ..} } ! ",
"3.<.j.!.;X!.J r U ~ *.a.d.r.j.L.!.L.c.d.j.!.c.} } <.j.j.d.<.! <.N.a.!.V.o.! ! #...7.j.V.!.G.A.!.A.7.} p.!.Y.G.V.c.j.d.c.A.j.d.V.G.A.d.p.c.Y.Y.p.3.7.3.j.c.V.!.G.Y./.`./.`.oX!.c.d.7.j.c.A.j.r.p.j.d.d.7.p.V.G.!.j.<.7.3.3.j.V.A.<.p.d.3.<.d.j.d.j.p.p.V..X&X!.c.!..X#X#X.X`.;X;X.X.X`..X#X/.G.A.V.j.Y./.`./.Y.A.j.7.p.7.7.j.j.j.....7.j.j.3.c.A.!.G.G.G.A.Y.!.G.j.d.G.Y.j.r.7.j./.Y.d.p.j.j.j.j.Y.#XV.p.r.<.p.j.j.j.c.!.j.r.j.<.3.<.<.r.j.j.j.j.a.V.p.7.g.a.l.!.j.j.3.+.<.j.j.+.7.!.&XG.3.<.<.V.;X;Xc.*.} ! <.V.A.p.<.<.<.....<.+.<.3.} ! 3.p.3.+.! ! +.<.3.r.j.7.3.r.<.*.p.j.j.j.V.!.`.!.A.j.c.A.j.j.j.r.d.j.j.j.p.p.c.!..X&X`.V.j.c.j.*.p.7.3.G.A.j.A.d.p.p.j.G.7.+.*.<.j.V.j.<.3.+.7.!.j.<.<.7.d.r.<.c.!..X!.V.V.!.!.Y.j.j.7.( ! R *.<.7.r.<.R ..7.<.} +.G.A.*.p.d.3.+.<.d.d.V.A.j.7.<.<.r.3.....*.p.A.A.A.!.j.j.!.A.d.p.7.<.! ( ( ( <.<.7.V.<.! 7.p.!..X!.!.7.*.<.<.<.3.j.<.<.r.<.j.!.!.G.V./.!.V.j.p.d.V.G.3.r.A.!.c.7.<.3.+.7.<.<.3.*.<.7.j.j.j.V.!.j.A.G.j.!.A.<.Y.;X.X/.!.j.( p.j.! ! ! ! ..C N R N N N N J } ! D ! <.Y./.d.<.j.j.j.<.A.j.3.c.j.d.r.r.p.j.G.!.r.+.r.d.7.<.3.r.d.*.( } ! ! r.!.V.j...! +.j.j.<.r.V.j.j.A.j.3.<.+.*.<.} ..! ! <.3.j.V.j.7.j.j.j.<.<.+.U } ! ! R D /.&Xc.j.p...J ! <.<.*.p.j.!.j.p.j.<.3.#X.Xc.Y.#X!.A.<.r.!.3.<.7.! ( } } ! R } <.p.j.d.D N ! U ! 3.Y.A...*.c.A.G.`.#X!.7.! +.Y./.p.j.3.} r.d.j.+.} ..3.j.7.r.<.<.+...<.7.*.! R ! *.! R <.7.d.+.p.V.d.j.7.p.r.3.+...j.r.p.<.} ( } +...! ! <.7.7.} ! } ! ! ( ..<.<.",
"1.<.d.C.!.Y.<.! ..3.j.!.Y.a.j.Y.!.G.l.7.3.A.V.} +.<.3.5.*.! Y 1.V.+X5X!.j.j.a.j.*.3.p.A.!.G.V./.#Xj.<.j.Y.G.!.G.!.Y.A.G.G.j.p.c.A.V.p.p.A.!.Y.7.<.j.r.r.c.A.A.j.j.c.V.G.!.#X.X!.V.7.7.j.j.r.r.A.!.V.j.p.d.A.Y.!.j.*.7.7.7.j.d.j.<.r.r.<.d.G.c.<.G.V.p.7.V.!.!.G.!.`./.`.`..X&X`.;X#X!.^.#X!.j.p.G.r.p.V.!.`.Y.V.j.j.j.p.<.<.7.j.*.+.+.<.j.j.!.!.!.!.A.j.j.j.j.p.3.3.c.c.r.<.<.d.j.c.j.Y./.V.c.A.!.;XV.7.p.r.d.d.p.p.p.c.7.<.d.*.*.#.( ..r.c.j.<.j.p.a.N.j.p.l.D.d.7.<.p.p.7.3.+.3.j.G.V.<.( J <.c.A.<.( ( ..3.p.j.j.<.<.j.j.<.<.7.3.*.! *.j.p.3.+.} } *.3.p.p.r.c.d.d.3.3.j.V.c.A.V.Y.!.Y.p.+.} r.7.<.3.j.j.j.d.G.c.j.7.! ( d.c.j.G.j.c.p.!.p.3.d.d.j.Y.p.<.<.A.!.3.( ..r.Y./.V.!.c.p.V./.!.j.+.3.3.*.*.V.G.!.!.`.!.!.Y.!.V.Y.V.3.7.} r.( ! *.! ! } <.( ! <.!.j.<.p.c.j.<.<.c.j.<.d.r.3.<.7.d.r.r...( j./.!.V.A.d.d.A.c.7.p.r.*.! ! } ! ....! +.<.U *.d.!.!.!.Y.<.*.3.<.+.<.G.d.<.j.3.V..X.X!.!.!.Y.j.r.<.7.A.!.c.j.j.r.<.<.d.c.p.c.r.d.p.3.r...( <.r.V.!.r.j.A.G./.A...A.#Xj.*.U <.+.<.3.} ! J ..J ( r.<.<...R } ! ! ( *.<.<.r.p.3.<.M.V.!.r.j.G.V.V.<.r.p.<.d.c.V.Y.p.<.d.d.r.r.j.j.7.! ! *.( ! 3.Y.j.7.! ! <.j.j...r.Y.r.<.<.<.*.<.} ....R ( ( ! p.A.V.p.j.A.V.j.7.} <.+.J <...G D U /.&XG.j.<.*.+.3.j.<...7.a.d.<.3.3.R +./.`.A.!.!.j.Y.c.V.!.j.c.r.n n U *.( } <.3.j.G.j.c C ( ! ! +.d.V.r.d.!.Y.V.!.`.`.A.j.<.A.`.7.7.<.+.7.!.;Xh.3.+...<.j.p.<.<.r.p.c.A.+.*.( ! ..! C ( *.*.! d.G.d.j.<.d.<.<.<.<.j.*.+.3.p.r.j.r.*.<...*.<.3.( ! } ! ! ! ( <.+.",
"+.+.3.j.G.c.<.3.3.j.j.j.j.r.j.A.!.j.<.....<.<.<.*.<.<.<.<.} ..d.!.!.Y.j.7.r.c.A.j.p.j.j.c.V.G./.&X/.V.j.j.Y.`.A.D.j.V.!.(.V.5.j.Y.Y.3.p.<.l.j.<.+.*.<.r.d.j.p.<.<.A.!./.`./.!.!.V.7.*.3.j.7.r.Y.!.A.j.d.d.p.j.A.j.<.7.3.*.p.j.d.l.a.7.5.j.G.l.j.[.#Xj.1.g.V.L.L.`.!.`.,X$X&X.X/.&X.X#X/.!.V.3.+.d.3.+.3.!.G.c.j.p.j.3.( +.*.r.1.<.j.r.<.p.A.G.A.L.c.j.p.r.a.d.r.| L.a.j.7.o.>.<.7.j.V.A.c.A.`.#X/.A.G...( p.<.j.+.d.!.j.<.( <.3.r.r.( ..7.d.A.j.c.p.3.p.j.3.<.d.!.p.+...d.j.r.} 3.p.<.<.<.( ..+.j.p...<.<.*.! <.j.d.7.<.p.d.<.<.*.<.+.! +.p.<.*.( ! ! *.3.3.j.j.<.<.c.d.<.j.j.c.!.j.c.Y.G.3.! ( <...<.<.<.p.j.c.Y./.G.p.U r c j.7.<.p.d.p.d.*.! r.j.G.c.*.! 3.`.!.<.} ..j.!.j.p.c./.#XV.r.c.Y.j.7.7.*.<.r.p.j.!.!.!./.c.!.V./..XY.c.<.+...r.<.} ! ....! ! <.3.*.7.j.p.G.<...c.x.j.d.p.j.c.c.d.3.j.7.j.A.!.!.Y.3.+.7.p.j.Y.d.3.c.c.r.+.! ! ( ! R <.} *.V.V.j.r.d.3.r.<.+.( ..p.j.<.7.r.Y./.#X!.G.G.G.V.j.<.<.A.!.*.3.3.! U <.c.j.d.V.j.3.>.<.<.<.R N C <.7.<.r.d.A..X!.<.V.&X3.N R c.G.A.7.! N R ! R <.r.7.j.<.J ( ! ( +.7.j.<.( U +.<.( D j.! D p.j.d.J ! p.+.3.d.j.j.j.c.j.j.j.d.c.A.p.<.V.3.*.} } r.j.7.7.} j.d.d.p.A.&X!.j.R U } r.3.( <.7.! ( } Y.!.j.c.V.A.!.G.p.3.j.3.( <.+.r.7.! <./.#XY.3.j.Y.c.p.p.<...<.d.+.+.7.! J 3.G.;Xj.+.j.A.&X!.A.!.j.r.v c R } } R U *.! A.3.N ! ! U ! ....<.p.d.j.j.d.j.j./.V.3...( r.j.V.d.<.r.j..X!.d.! ! 7.Y.<...<.<.d.Y.!.<.j.p.R ! R ! ! +.} R r.j.R ..! <.<.3.3.<.<.*.*.r.j.A.c.j.V.V.Y.A.+.} <.( ! } +.R ! +.! ",
"! } r.j.c.j.r.j.j.j.<.} } <.j.A./.V.p.r.p.p.3.<.<.<.<.<.<.*.r.Y./.Y.j.7.r.V./.`./.G.V.j.j.d.r.j.!.Y.j.7.3.j.G.j.j.j.G.!.!.j.<.j.!.A.*.<.#.j.j.1.} ..<.p.d.j.j.7.7.A.!./.#X`./.!.!.j.<.<.j.r.3.j.!.A.c.j.d.r.j.G.A.j.Y.G.d.j.d.1.0.7.p.g.V.C.j.j.!.[.V.i.j.V.W.!.[..X;X/.<.j.&X&X;X/./.!.Y.j.3.7.<.<.( +.j.j.j.c.<.r.*.} r.3.<.( 3.j.c.j.V.!.G.j.j.3.<.<.<.1.7.3.i.`.j.j.p.<.1.5.d.j.A.!.Y.!..X&X!.A.!.<...p.3.j.V.!./.c.r.} +.<.j.c.*.} <.<.7.j.!.Y.A.c.d.*.+.r.V.d.<...7.j.V.j.A.j.! ! } R ( <.d.p.<.3.<.*.*.r.j.d.d.<.<.j.A.j.( ..} ! *.3.*.3.} +.*.<.<.+.<.r.+.3.G.j.r.j.j.G.j.<.r.V.Y.j.*.*...! +.<.3.V.!.G.Y.V.7.r.( s n j.3.3.d.d.7.*.! ! <.d.V.j.<.+.j..X!.r.r.d.G..Xc.7.j.c.V.r.<.r.j.7.c.V.p.<.r.d.d.j.7.7.c.c.G.7.j.!.V.c.<.+.3.j.<.( ( <...U D ! ....<.<...j.3.<.d.<.r.p.7.<.r.j.j.r.j.3.r.j..X#X!.j.j.d.7.p.j.<.( <.A.j.<.*.*.+.} ( <.<.d.A.p.7.<.<.7.p.<.<.<.<.r.3.r.p.V.;Xd.V..X!.G.!.A.j.<.<.j.!.<.<.<.<.} <.p.d.p.p.3.<.3.<.+.+.! ! *.s.<.<.j.j.j.d.<.*.Y.#Xd.3.A.`./.!.j.} N J ( } d.j.p.j.r.+.+.! ! ..3.r.<.+.+...( R R r.! J d.2.*.U ! <.} ! *.j.V.Y.Y.c.G.!.A.!./.G.c.!.p.<.3.<.<.*.<.j.3.<.V.j.A.`.#X/.!.*.( <.p.<...7.d.+.R ( c.j.3.d.c.Y..Xc.3.<.j.c.7.<.*.!.#Xj.*.<.r.*.( +.3.7.3.<.} ( ( 3...} *.R ! j.G.j...7.!.!.`.G.A.A.G.!.! N ! ( ! ( C h e ! ! v ! ..} ( ( ! ..j.c.+.} <.3.<.j.c.<.<.+.r.j.c.j.V.j.j.c.3.3.<.<.p.j...! ....*.p.j.<.d.<.D } ( ! ! } ..! d.G...+.! ! ( ..<.3.r.r.r.7.7.p.7.p.A.G.!.j.} ( +.! D R ! U R ! ! ",
"! ..j.!.A.j.j.Y.c.p...! ! ..p.j.c.r.<.<.j.j.7.+.<.3.3.<.<.r.A..X`.Y.j.p.A.#X;X&X/.G.c.c.A.j.3.p.j.A.j.7.<.p.j.<.<.p.G.!.D.p.7.C.!.A.#.*.3.A.V.j.<.3.d.j.c.V.V.j.<.j.c.!..X`..X.XG.j.+.} r.r.<.3.j.j.j.j.j.j.V.!.G.c.!./.c.j.d.7.i.1.0.j.C.j.5.p.V.W.j.p.l.G.V.p.L.`.5Xc.h U ~.$X.X/.#X.XY.d.3.j.3.7.<.<.j.3.7.r.r.j.3.<.c.j.3.+.*.7.A.!.!./.!.j.3.#.*.7.3.*.+.+.j.+XG.G.W.G.!.W.A.V.!.`././..X&X!.c.!.p.<.j.r.r.p.j.G.A.!.d.<.} r.d.<.+.<.<.7.c.A.Y.G.c.7.<.7.V.j.r.7.<.d.j.G.Y..XV.+.<.*.R ! ( r.3.+.<.+.*.3.7.3.<.d.<.( j.!.j.*.+.! ! 7.d.<.7.<.<.<.<.<...+.p.3.j.!.c.j.j.j.A.V.3.<.r.c.c.3.*.3.+.+...<.V.G.j.A.A.<...( D +.c.d.V.Y.V.p.} ! <.+.p.V.j.*...r.G.G.7.j.j.j.!.V.p.j.j.c.j.d.d.p.7.c.c.7.*.r.d.7.r.3...r.V.Y.3.d.Y.j.!.A.p.7.r...( } <.*.R ! +.<.<.r.<.+.G.V.j.j.<.<.j.c.d.j.A.V.r.j.<.*.<.!..X!.c.j.3.*.3.d.3.*.<.j.3.+.+.<.<.<.<.j.Y.!.!.d.p.<.+.*.<.*.<.r.j.j.p.r.j.G.#Xp.<.!.Y.Y.A.d.j.r.( <.!.c.p.r.<...*.r.r.*.+.<.p.V.j.<.+.C ! p.A.3.<.j.d.+.! +.p.!./.j.j..X`.!.!.j.*.U ! ! ^ p.j.<.*.+.} } ( ..<.7.<.<.d.p.7.<.*.7.7.+.*.j.! ( } ! ..} J ..c.Y.G.A.j.A.!.!.!..X!.c.c.*.! +.<.<.! U *.+.C 7.7.j./..X/./.<.+.1.3.*.+.3.3.( D ! j.j.r.d.j.!.G...! ..<.V.c.*.r..X&XA.<.<.<.J ! ( *.<.<.3.<.3.*.<.<.<.+.} 7.V..Xj.( j.`.`.`.!.A.<.j.!.! N U J ! } D h e C J N v ! +.} ! ! <.`.A.<.*.<.<.<.3.r.*.<.<.r.3.d.c.!.G.A.d.! } <.<.<.<.! ! ( ! U ! ..( <...! 3.<.! D ! <./ 7.A.<.<.<.! ! ..<.7.r.r.p.<.*.+.! ..r.c.G.d.+.<.7...R ! ! D D ! ! ",
"+.*.j.!.A.p.j.G.V.<.! <.*.} <.<.7.<...+.j.!.c.*.( ..+.+.<.7.j.A.Y.A.j.p.A././.!.G.j.p.j.A.c.r.j.j.Y.A.j.d.j.d.*.<.p.V.G.j.5.j.[./.!.0.r.j.Y.c.c.d.d.j.c.j.j.j.d.3.j.j.Y.!.!./.#X`.!.7.*.j.V.p.r.j.j.j.j.A.A.V.j.<.| <.d.r.r.j.V.l.7.i.V.!.j.+.+.V.G.g.0.j.l.j.<.r.L.,Xj.r h j.~..X#X;X.X!.A.p.p.r.j.j.d.j.3.3.<.j.j.3.+.j.j.j.3.<.7.Y.&X#X&X.XG.3.<.0.d.3.*.+.+.j.!.!.!.~.~.~.!.Y.A.!./.!.Y.!.!.!.r.d.3.<.j.<.! 7.<.<.7.G.j.3.+.+.} <.<...7.c.c.7.j.V.V.j.d.V.A.j.<.<.p.V.p.d.j.#Xj.<.d.*.+.d.<.3.<.! ..3.p.c.j.<.*.p.r.+.r.j.<.( ..*.*.p.j.d.j.V.j.d.3.7.<.} <.j.j.V.V.G.V.d.A./.d.<.<.d.V.d.<.7.<...( <.z.j.c.p.G.7.<.<.3.c.j.d.G.!.V.3.} } 7.<.c.!.j.<.+.r.c.j.<.3.r.7.j.j.j.d.c.A.c.j.d.7.3.<.<.} ( <.<.<.d.!.3.r.j.!.j.j.V.d.!.!.c.7.p.*.+...<.<.} <.j.r.3.r.<.3.!.G.c.j.d.7.j.V.d.d.G.!.V.p.*.<.j.`..X!.d.<...( <.r.d.j.d.j.p.<.*.<.<.r.p.j.c.d.r.<.7.r.<.*.<.<.p.c.A.G.Y.j.A.j.*.j.r.A.!.!.!.j.d.j.+.<.Y.<.3.3...( r.j.<.....+.r.G.!.c.j.<.7.A..XA.7.7.3...! j.!.!./.Y.j.!.G.A.G.j.j.<.( U U *.<.( U D J ..! U ! p.j.<.7.d.j.p.<.j.7.3.r.j.! } r.+.} <.} <.Y.!.G.Y.Y.A.G.V.j.V.d.+.R c h N R ..+.R ! *.J } 7.j.Y..XY.p.! *.<.<.*.<.<.+.! D } c.!.Y.V.c.!.j.! ..<.<.c.Y.p.j.A.p.3.7.j.j.} R *.<.*.<.r.p.d.!.c.!./.d.j./.G.G.j.} j.!..X/.Y.c.( <.j.! U U N ( } ! ! D R c n z ! *.! ( ..<.!.j.7.r.3.j.V.d.G.+.<.p.p.<.r.A.A.A.Y.c.} } ..<.<.<.+.*.<.+.( } ( ! +.<.3.j.p.+.U ( <.*.7.p.+.<.3...<.<.<.<.*...*.<.<.{ J D } r.c.j.<.3.p.+.! ! ( ! ! ! +.",
"3.<.r.j.r.<.3.7.3.! U <.<.*.3.3.3.<...*.G.&XG.<.! ! ! ! +.<.7.3.<.<.*.=.3.j.!.!.Y.c.j.3.<.<.<.j.A.!.A.j.j.c.j.<.p.j.l.N.p.5.C.;X!.Y.j.j.j.c.p.j.c.j.j.c.j.j.j.p.j.A.A.Y.A.j.G.`.&X`.d.<.j.c.r.<.d.p.p.d.c.A.A.c.<.! ! 3.7.<.d.V.j.1.i.G.!.j.~ ] j.V.a.<.<.<.<.<.<.p.A.3.r p <.[.;X&X.X`.&X`.d.<.r.p.r.7.j.j.c.j.j.d.3.+.3.c.!.r.<.7.G..X/.`..XY.r.3.3.3.<.3.r.0.5.G.`.).).!.!.N.G.A.`.`.Y.A.c.G.!.r.7.7.p.V.d.+.7.<.<.*.d.r.3.<.<.<.d.r.<.j.Y.j.7.j.Y.!.Y.c.j...7...+.<.j.<.<.<.j.<...r.7.j.`.V.7.7.} +.j.c.j.p.3.*.3.3.7.c.j.+.U ! +.*.r.!.!.j.<.+.<.<.r.3.! ! <.<.r.j.Y.j.7.V.!.j.<.<.j.Y.j.r.<.3.*.*.j.j.r.A.<.d.r.j.j.p.c.j.j.G.Y.j.7.7.d.7.7.j.j.p.<.7.j.G.d.<.<.p.j.j.7.p.d.A.c.p.r.7.3.3.<.3.<.<.7.7.<.j.!.d.r.3.c.!.!.Y.G.A.A.V.j.G.p.*...<.<.+.3.j.<...3.<.3.A.j.d.d.j.<.j.c.j.j.A.!.Y.7.( 7.j.G.!.!.j.} } } X.+.3.r.<.c.j.<.<.<.3.r.3.3.3.} ( D ! <.3.*.<.7.j.j.p.r.c.V.c.( r s +.<.d.V./.j.<.r.<.<.r.+.3.3.! } G.!.7...} <.j.!.A.j.A.!.G.V././.r.+.<.*.*.V.G.c.!.`./.G.Y.!.Y.V.#XA.*.! J R ! ( ! R ! ( ( ! ! <.7.<.3.d.j.r.( r.7.d.r.V.<.*.j.7...<.<.<.Y..X!.!.!.j.3.j.j.A.j.<.( ! ! ( R ! *.! D ( J } p.c.G.Y.c.<.( <.*...<.p.<.....R <.V.!.!.!.A.Y.j.<.p.7.*.j.Y.r.p.r.( ! *.j.!.r.<.j.d.} ! <.<.U *.<.j.c.7.j.G.j.A.j.( j.Y.j.( ! r...<.d...( R N U ! ! *.+.} v n N ..<.! +.<.*.3.<.<.<.3.!.A.*.c.j.V.j.<.<.<.7.3.A.!.G.3.*.! *.3...*.3.3.<.3.<.( ~ } } <.<.3.<.R D ! +.p.r.<.<.<.} +.*.<.7.<...+.<.<.} U J ( r.c.c.3.3.3.} U ! } ! ! R ! ",
"r.7.<.+.} +.<.+.<.*...<.7.7.r.<.<.+.} 7.!..XA.d.! J D ! +.<.7.7.} ..<.7.7.j.!..X!.!.!.j.*...<.c.!.!.j.3.r.j.V.j.l.j.j.N.j.g.G.).j.j.j.c.c.l.d.c.c.j.d.j.j.c.c.j.p.c.V.c.j.7.j.!.!.V.3.+.7.p.<.*.7.p.p.p.d.j.G.Y.a.#.#.d.d.<.<.3.7.o.<.j.l.1.] <.0.a.0.i.1.>.<.>.p.p.j.p.N j R j.`.`.#X&X;X!.7.*.d.p.7.7.A.G.Y.j.<.j.Y.j.<.7.A.7.<.3.V.!.A.Y.!.G.<.*.*.<.7.j.l.d.5.V.=X`.!.!.C.a.p.j./.!.V.c.j.j.r.+...<.7.j.j.d.<.3.j.p.j.r.r.<.<.7.<.*.<.p.p.<.<.7.d.A.A.V.c...+...+.( *.<.<.<.<.3...3.j.j.j.7.! +.*.<.c.p...! <.3.r.<.<.j.d.<.J } d.r.3.!.`.j.*.+.<.3.r.7.<.+.+.7.j.Y.!.j.d.!.A.j.d.p.j.V.r.*.3.d.r.p.Y.j.<.j.7.7.<.<.<.7.c.G.!.!.G.V.c.!.!.d.j.r.<.<.3.j.V.G.A.r.<.a.Y.V.7.<.d.G.j.<.3.r.<.<.3.c.A.d.j.j.3.j.!.A.j.<.d.Y.G.Y.V.j.!.G.3.p.<.....+.<...*.p.<.( 7.<.<.d.3.p.r.j.j.p.<.+...<.j.G.j.} r.r.3.d.G.V.} *.*.} ! +.<.<.j.j.<.<.3.7.r.*.+.3.<.7.R N ! <.( ..<.p.j.r.<.j.Y.V.} s : <.3.<.p.j.3.3.7.*.*.7.j.d.<.} <.!.&XV...O.r.!.!.d.<.j.A.j.3.c.!.7.( <.<.*.<.*.<.r.3.V.r.V.!.j.7.`..XY.p.+.( ..<...U U J ..<.! R ! } 7.<.j.j.+.<.<.d.p.j.*.( r.j.r.7.d.} j.!.!.!.!.j.3.3.<.j.d.<...<.r.p.( ! } ! J <.<.*.7.j.j.<.3.r.<.3...! <.<.+.! ( +.j.G.c.c.!.Y.c.7.<.d.<.! j.A.+.<.*.! ! ..r.A.d.Y.!.j.( U *.<.N a R +.! +.<.<.j./.p.! j..X<.n N j.c.V.j.*.( ! N c } *.*.<.p.} ( R ( +.( <.j.<...} ..U J 3.r.L *.r.c.*.D <.<.+.7.c.V.c.r.<.! +.<.+.3.d.d.d.j.d.<.! ( U ! ! ....N R ! ( 3.3.<.<.*.<.<.*.<.d.<.( ! *...R R ! ..r.j.<...+.<...! ! ! U J J ! ",
"<.3.+.......<.3.V.G.j.r.7.<.*.( <.<.3.j.!./.Y.Y.<.! R +.<.<.p.j.3.<.c.!.A.j.G.G.V.A.!.c.<.r.j.A.!.!.j.7.r.d.c.c.D.j.i.N.D.C.!.G.3.<.j.L.Y.Y.A.!.j.3.<.7.d.j.j.p.<.j.j.j.d.r.j.Y.!.c.p.r.j.j.j.d.j.c.c.j.p.d.d.d.<.<.<.j.d.<.<.*.1.~ } 5.j.5.>.g.a.i.0.l.N.0.<.+.*.<.p.!.j.<.*.d.V.!./.!./.Y.3.<.d.p.r.p.Y.Y.A.<.+.j.&X!.r.+.d.7.7.j.!./.!.!.!.G.7.<.3.a.d.j.j.d.p.V.$X!.D.V.j.<.+.<.c.j.r.d.2.3.<.<.<.d.c.c.A.V.j.d.j.p.r.p.j.<.3.d.3.7.j.d.d.7.V.j.7.p.7.d.A.<.*.<.7.+.<.7.p.<.p.j.<.<.r.<.<.3.! ! <.*.r.<.! ! <.7.j.<.! ....( ! j.;XY.<.j.!.!.j.r.3.3.*.+.*.! +.d.c.j.d.3.r.j.j.j.j.d.p.p.<.} <.7.d.j.Y.c.<.7.r.r.<.! ! j.Y.c.c.Y.A.V.V.A.G.d.A.p.<.r.j.j.c.V.G.d.3.d.V.A.j.r.d.V.r.*.7.p.<.<.*.d.j.<.r.r.+.d.!./.!.j.j.j.3.j.<.3.V.V.<.<.! +...! *.} *.j.p.+.3.<.<.<.*.r.<.7.c.j.j.d.r.p.d.j.j.<.c.j.d.d.c.A.<.3.<...} +.<.d.c.V.3.<.3.r.d...J } *.j.+.R ( +.! } <.7.A.Y.j.V.j.7.<.D r 3.j.p.c.p.7.d.3.( <.j.j.<.} +.r.Y.!.j.<.p.c.!.G.p.7.j.j.c.r.d.V.7.+.<.3.( } ....! R <.<.j.!.j.*.c.!..Xj.<.} ..<.<.! ! U ! ( ! ! +...+.! r.V.7.} ( <.d.3.! R *.j.c.j.j.+.<.V.!./.!.A.A.3.<.r.<...! *.*...! R C N C <.<.d.j.j.7.( <.<.+.<.} } <.<.+.( ! d.A.!.A.j.A.Y.c.7...3.<.! j.Y.*.3.} ! ( +.p.j.r.d.r.7.<...3.j...C d.j.+.3.p.<.c.j...( j.&Xj.<.j./.&X`.V.*.! } C N <.p.<.*.3...*.( ! *.<.r.j.*.....*.J c J *.} d.r.<.C z ( ( ! <.p.j.j.j.j.<.p.j.V.!.!.!.G.V.c.c.<.j.<.*...+.} U r.<...*.+.+.! ..p.j.p.d.d.+.D D ( ! U ! } } <.r.! J ! +...! R U ! ! ! +.",
"....( <.<.( <.j.G.Y.d.<.<.+.<.<.<.j.j.j.A.G.A.!.!.d.p.c.c.d.j.!.<...j.`.!.A.!.G.d.r.j.r.<.c.!.Y.Y.!.A.j.j.j.j.j.G.a.<.j.!.!.~.C.*.| j.!.!.!.A.G.c.7.<.7.j.j.j.7.r.V.V.A.V.j.V.Y.!.l.d.d.d.d.d.d.j.C.A.j.j.j.7.*.3.j.j.c.d.0.r.<.i.+.<.j.!.V.7.g.0.<.<.g.p.+.o.+.0.<.*.j.d.r.<.r.Y.!.j.<.j.!.d.<.<.<.<.3.A.G.c.*.p.G.&X#X!.d.c.V.j.Y..X.X!.!.A.j.C.j.c.C.d.3.r.j.g.j.[.G.D.W.D.p.<.<.j.r.3.j.r.7.7.d.j.!.!.V.j.r.j.7.r.<.7.j.A.<.<.<.*.j.j.3.r.*.!.G.d.d.<.d./.V.r.p.j.d.c.j.j.<.3.p.<.3.<.} p.!.!.7.r.} ..+.} <.<...<.<.*.*.( U 3.G.#XG.j.!./.Y.7.<.*.3.3.7.j.3.d.Y.G.j.r.d.c.V.<.3.r.<.<.<.<.3.3.3.d.j.c.j.<.+.<.<.d.<.r.!.A.<.7.Y.Y.A.j.p.d.d.j.7.7.j.j.d.p.j.d.p.j.c.j.G.!.j.A.A.<.} 7.j.r.d.<.3.r.<.3.<.( j.j.V.G.c.G.c.<.c.c.p.j.A.Y.!.<.*.+.R } ( <.Y.j.+.7.<.3.3.<.p.<.7.7.p.j.j.j.j.p.3.7.+.j.j.j.j.j.Y.j.j.3.*...( <.j.7.p.} ! *.r.j.*.U ! J <.*...+.! } ....+.j.!.c.j.j.<.<.C } } <.3.Y.G.c.7.! ! <.r.!.3.! } 1.j.j.3.<.A.`.!.Y.G.V.j.r.V.j.<.<.<.7.p.+.N ..r.<.<.j.Y.j.j.!.Y.j.V.p.j..Xc.<.! ( ! U ! ! ! +.<.p.c.j.7.<.3.j.r.( ! *.j.j.*.{ *.p.d.<.<.r.*.j.#X`.A.r.r.<.+.<.<.*.} 3.<.*.<.<.! ! <.p.+.V.Y.d.3.3.j.<.*.<.+.<.p.j.j.p.<.G.Y.`..XY.c.A.A.r.U +.<.! 7.G.3.d.*.....*.p.j.p.! ! r.Y.r.+.<.! ( d.j.} } <.<.<.*.<.j.V.Y.p.c.!.Y.!.Y.j...! ..N J ..<.*.! J N ( ! J *.r.d.d.<.3.<.<.+.<.......A.j.! v v ! ! ( ..j.A.Y.!.!.j.A.!.!.!.!.G.d.<.*.3.r.`.j.3.<.+.} ..j.d.*.+.....! <.+.7.j.j.j.*.! +.! ( ! <.*.! <.r.+.! ! } } ! ! ! } ( R ! ",
"<.<.7.7.7.j.c.j.!.`.!.j.*.( <.V.G.!.!.A.A.V.j.j.V.j.c.V.V.G.!.#XA.<.3.A./.!.j.r.<.} ! +.<.d.c.j.c.j.G./.!.c.j.A.!.V.3.7.c.!.!.j.<.<.d.G.Y.A.V.j.d.j.<.3.j.c.c.j.A.`.`.G.V.V.V.G.G.A.j.7.7.j.j.p.j.V.V.j.j.!.!.G.A.A.A.L.V.j.a.<.p.a.p.G.!.j.<.>.#.| g.G.<.>.>.i.C.j.j.0.<.<.<.r.Y.j.j.A.Y.V.V.j.<.} <.<.3.V.j.3.d.G.#X;X`././.!.!.!.!.!.!./.~.j.V.j.j.l.r.+.<.j.N.l.j.C.j.i.j.V.V.G.j.<.r.j.j.d.d.j.c.!.!.j.7.3.r.*.d.j.j.!.V.j.j.<.*.Y.!.!.Y.d././.!.Y.A.!..XV.c.r.j.G.!.A.d.<.*.j.j.j.p.+.<.p.c.p.3.<.} <.j.V.<.7.j.p.3.7.7.j.!.d.r.7.A.!.j.G.j.c.r.<.3.p.j.r.p.c.j.j.j.p.j.!.j.A.p.<.*.<.7.<.p.p.r.j.d.<.<.7.} <.j.V.A.G.V.c.j.!..X/.j.<.3.3.j.3.d.`.Y.d.<.<.*.+.j.j.7.c.!.G.!.Y.3.} <.7.p.c.3.<.....r.d.<.7.p.V.!.V.Y.G.r.c.Y./.j.d./.j...<.<.( ! ! 3.G.j.c.V.<.<.<...<.<.3.d.p.<.7.d.j.c.j.p.<.3.<.<.V.Y.Y.p.A.j.*.*.+.<.A.j.*.3.r.c.A.!.r.( R ! <.<.+.+.<.<.<.V.V.j.d.<.d.A.r.j.7.<.p.d.c.!.!.Y.d.<.+.<.j.!.j.<.7.j.j.p.} +.d.j.j.d.V.j.j.p.j.j.<.*.} ! ..} ! *.d.+.<.!.p.! d./.!.j.!./..X`.!.j.j.p.! J ( } ( 7.d.+.*.3.*.j.G.V.j.j.<.( p.d.<.<.7.c.Y.j.+.r.j.G.!..Xc.! R } *.! ( 3.3.<.<.+.*.<.....<.3.j.7.d.<.R ( *.} <.r.7.j.c.j.p.!.!.r.C c <.j.r.V.Y.V.<.<.3...<.j.7.j.<.! ..p.r.*.+.! *.p./.V.*.7.<...!.`.j.<.<.<...! r.G./.!.!.#X!.Y.j.p.A.G.<.+.k N ! ! R U J U ! ! N ! *.j.<.( <.*.3.( r.<.! <.j.7.<.} <...U ! ! 3.A.V.Y./.!.`.A.Y.c.!.j.N 7 - 2 n j.j.*.*.( ! } Y.!.3.+.R +...3.3.r.c.3.<.<.*.! J <.<.C U } } *...+.! ! +.+.+.7.r.( ! ( ",
"r.7.7.7.3.p.c.A..X&X/.j.+.( 3.G./.&X`.A.j.d.<.+.r.7.j.A.V.j.j.!.!.<.<.c.G.j.<.! 3...} <.<.7.r.7.j.j.A.!.!.G.c.c.A.c.0.1.0.j.j.r.p.r.d.j.d.r.3.<.*.<.<.7.j.c.A.A.G.!.!.G.G.G.Y.!.!.!.V.j.j.A.Y.Y.j.C.A.c.V.Y.Y.G.Y.Y.Y.!.Y.j.j.7.j.p.<.j.j.7.<.1.#.>.a.l.1.0.i.j.l.r.0.<.+.<.3.3.p.r.p.G.!.!.`./.c.d.j.r.7.j.3.<.p.j.!.#X.X`..X`./.!./..X#X`.!.A.A.j.d.j.a.1.0.l.l.j.p.j.0.5.j.N.A.j.<.+.7.c.j.j.d.p.<.j.!.!.V.j.<.} r.j.A.!.c.d.j.<.*.j.j.A.Y.j.!.;X!.p.p.V.A.<.7.j.j.j.j.V.V.7.d.c.j.j.V.j.<.! ( <.3.3.*...p.!.j.3.p.j.j.3.<.r.p.( ! +.j.A.7.j.`..Xj.<.d.G.!.c.p.j.j.j.j.j.A.!.G.G.j.r.7.*...! j.j.j.j.3.<.j.j.r.<.A.G.j.j.7.j./.!.!.`.Y.d.p.7.r.<.<.!.!.j.*.7.p.j.!.!.A.Y.Y.j.V.c.<.! ..7.j.!.j.p.<.*.d.V.p.p.c.G.Y.j.Y.!.p.j.G.!.A.j.A.V.3.<.( ..+.} j.G.7.p.j.*.*.<.*.<.7.p.j.7.3.j.j.j.c.j.j.<.<.<.3.p.3.<.j.j.d.3.<.*.<.j.j.j.j.c.Y.!./.c.<.<.<.*.+.*.<...+.<.!.G.<.*.*.3.d.+.r.p.p.A.A.Y.V.A.j.c.V.p.p.A.A.j.r.j.j.j.r.( +.7.j.j.7.c.A.V.r.p.p.r.d.3.( ..3.<.<.p.<.<.!.!.<.! <.G.A.!.G.G.A.!.p.3.j.r.*.! *...<.<.( ( ( J <.j.p.7.p.+.! <.j.<.( 7.V.Y.A.<.+.7.j.j.Y.V...R <.*.R N ! <.<.r.p.3.<.*.<.3.<.3.( +.R h N +.( ( <.3.j.p.<.<./.;X<.c ; 8 ..<.*.7.G.3.+.} ! +.7.<.<.( U +.Y.!.<.R R <.c..XV.r.!.!.G.G.!.!.p.( }  .R <.d.V.!.`..XG.!./.V.c.`.Y.j.D D R ! ! J D J ( ! J J +.p.} ..<.<.j.} *.*.<.j.j.r.7.p.Y.A.3.} D <.A.Y.!.`././.V.j.p.A.7.c w 7 r <.V.3.! +...! R j.d.+.*.! *.*.j.p.<.<.@.<...! } <.<.} ! <.<.R D <.<.! ! <.3.d.A.Y.<.<.<.",
"V.j.r.<.+.<.j.Y./.`.!.d.*.( <.c.G./.!.c.j.j.r.+.r.p.c.c.j.j.G.&XG.+.*.j.d.3.+.! +...3.j.c.j.j.A.j.V.G.Y.!.!.V.d.j.c.j.r.1.7.j.j.j.j.r.<.<.7.d.r.p.d.7.p.j.d.j.c.7.p.d.d.j.V.Y.!..X/.Y.V.j.j.j.j.d.j.A.!.!.!.!.!..X/./..X~.G.A.j.N.p.<.p.l.a.p.j.j.j.a.p.5.j.a.l.j.1.1.*.*.j.c.j.c.j.j.!.!.!././.A.G.!.A.c.j.3.r.3.7.c././././.`.&X#X&X;X;X`.Y.G.A.j.r.d.j.j.j.j.i.<.<.j.j.j.G.V.j.7.<.r.c.c.j.d.j.j.<.r.!.!.!.Y.p.+.r.c.Y.!.j.r.r.3.<.r.3.c.G.j..X;X!.j.c.j.3.<.<.j.c.j.r.j.!.c.V.j.7.<.j.!.j.! D } <.<.<.( *.A.c.<.<.c.c.<.( *.3.! ! <.c.j.<.j.`..Xj.<.j.!.!.G.j.r.7.j.V.V.Y.!.Y.j.<.3.p.3.<.<.j.A.Y.V.7.p.V.d.d.<.!./.G.c.} ! V.`.&X`.A.c.c.p.d.<.+.j.Y.V.r.c.j.j.V.V.G.!.Y.V.V.A.r.+.<.j.Y.`.G.V.d.<.j.G.j.d.G.Y.G.j.A.G.j.A.V.j.V.p.3.j.r.<.( ..<.<.j.G.j.A.3.....3.3.<.3.<.7.<.<.p.7.p.V.j.c.r.7.r.7.<.+.3.7.r.p.j.j.<.+.7.c.V.p.7.j.G.j.d...} ( ! ! *.3.<.<.3.!.A...( +.<.+.C ! r.j.G.Y.!.A.G.j.V.!.c.c.G.r.r.7.p.d.j.j.<.*.3.j.V.7.j.G.V.c.j.j.j.j.p.....<.<...<.7.7.V./.!...*.G.j.j.<.! 3.!.3.U R } <.! U R R ( *.( R ! +.<.+.3.j.<.+.j.A.<.U <.p.j.V.<.<.j.j.r.j.c.3...<.+.! N U 7.d.j.j.<...<.j.3.! } +.3.*.N N ( ! } ! ( j.j.j.c.G.j.<.( 7 q <.7...<.<.} U N D ..<.<.*...! 3.;X#X<.D ..j.!.!.7...c.j.V.<.p.Y.d.*.3.<.! ! ( 3.p.7.r.d.A.!.d.<.!..XY.<.! R ! ! R C c N } *.R ! } ! +.R } j.<.<.<.r.V.V.+.} +.d.V.c.p.....j.V.A.Y.Y.!.c.*...d.7.! U ! +.7.r.! J } *.} ! ( ..! +.( <.<.V.j.<.} +.j.*.D } 3.+.+.<.j.r.} } +.+.( } 3.j.V.!.l.! *.*.",
"p.r.<.+...<.c.!.j.d.r.3.<.+.<.j.j.A.n.c.c.V.j.7.d.c.!.!.A.G./.;XG.3.7.p.*.....! ! +.j./.!.V.A./.Y.!.G.j.c.!.V.7.3.l.c.j.p.r.V.L.!.G.j.r.7.j.A.j.j.p.<.p.j.d.j.j.p.p.d.d.d.j.c.!.Y.A.V.c.g.r.3.7.j.j.!.#X#X!.!.`.#X[.~.!.Y.L.!.j.l.p.<.j.!.G.l.j.!.G.<.<.7.j.p.j.j.p.j.p.r.Y.~.A.Y.c.j.!.!.!.!.!.!..X&X!.G.j.3.j.<.7.c.!.!.`.#X#X.X#X#X&X.X!.c.c.c.a.3.0.d.d.a.r.i.<.<.j.j.j.V.g.7.<.r.j.j.<.+.<.j.j.<.p.Y.G.V.G.d.<.r.G./.!.j.r.<.<.<.r.3.j.A.A.j.A.j.p.j.3.( ! *.3.<.p.3.*.j.j.A.r.*.! <.V.c.j.<.<.<.<.3.+.} r.V.3.<.3.7.<.<.p.3.....3.p.| ( p.j.G.p.p.c.d.p.A.c.3.<.j.A.A.!.G.G.j.*.<.r.7.<.<.p.j.V.V.j.j.j.p.d.<.j.j.j.A.j.<.R d.!.!.A.A.A.p.j.p.*.p.A./.!.G.Y.A.j.j.Y.`.!.A.!.!.A.j.V.Y.!././.!.V.j.c.G.j.c.j.A.G.j.j.j.j.!.j.+.7.r.<.3.3.r.r...<.3.+.<.j.!.c.p.7.j.j.r.d.7.*.<.<.<...p.!.A.j.r.7.j.j.p.7.j.<.r.j.G.!.r.*.p.G.Y.<.( 3.G.3.<.d.<.<.*...<.j.V.V.p.j.p.+.+.<.<.3.! +.A.!.G.V.V.G.!.j.c.A.c.G.j.<.7.d.r.3.r.j.j.*.7.j.A.j.c.Y.V.A.j.p.p.j.p.<.3.<.7.....7.j.A.!.!.7.d.V.<.r.r...<.!.G.<.U D } U A R C } d.*.! <.r.<.*.r.j...} j.A.3.+.7.p.p.j.*.3.p.p.r.j.Y.c.r.....*.U ! d.p.r.<.! ! r.!.r.D R ! *.3.} ! ! D +.R R r.j.Y.!.Y.p.r.<.k z <.d.d.<.<.<.! N U <.j.V.} ( ! 3..X/.7.*.*.j.!.!.j.<.A.j.j.3.7.3.+.7.j.<.U R ( <.<.<.r.j.j.c.<.! j.G.G.G.r.*...! ! R k h C } ! ! ( } <.D D <.<.7.} ! <.c.( ! ( <.j.V.j.+.! 7.j.c.A.V.A.c.<.} <.*.! ..+.! *.+.! U ! ! ! ! ..3.<.<.} <.7.j.7.( ! *.Y.7.R ! <.( ....*.<...<.} } +.<.d.V.c.V.7.! ..*.",
"+.<.<.<.<.r.j.V.<.+...<.7.<.<.c.d.d.j.c.A.A.V.c.A.!.!.!.!.`.&X&X#X!.!.G.p.r.p.*.*.3.G.;X;XY.V.!.G.Y.c.r.d.Y.A.7.<.j.C.A.j.d.V.A.A.A.V.j.j.!.!.j.p.<.*.7.d.p.j.j.G.V.V.c.j.d.c.!.V.c.c.V.j.d.j.j.A.G./.;X;X/.!./.!.!.C.j.d.A./.c.j.j.j.!.[.W.V.N.!.j.! } g.V.0.p.d.j.!.Y.c.!.!.c.V.j.d.A.!.Y.!.!.!.`./.A.j.p.r.V.A.!.`.`.!..X&X.XY.`.`.!.!.Y.V.V.Y.V.j.j.j.j.r.3.l.a.7.g.0.<.1.<.G.j.j.j.3.( } 7.A.j.<.r.G.c.j.j.j.<.7.Y..X!.r.+.<.<.<.r.3.p.j.G.7.d.j.r.d.j.p.*.j.7.<.c.j.<.d.c.c.<.+.( ! +.7.V.!.p.<.<.7.r.<.p.r.7.<.+...<.p.j...( ! <.<.! ..c.j.G.V.Y.V.....V.j.3.<.j.c.j.G.A.A.V.j.d.j.j.3.<.<.p.p.j.G.c.d.A.V.j.3.<...<.V.j.! ! ..j.!.A.d.*.<.7.*.<.7.!.!.<.G.!.A.A.`.`.!.G.!.!.G.G.!./.!.!.!.A.V.V.Y.G.V.!.j.V.A.d.7.3.r.Y.p.( <.r.p.p.<.j.j.+.3.7.! ! 7.Y.G.j.7.j.j.r.d.3...<.d.p.<.j.#X!.d.<.<.j.!.!.V.j.r.j.j.!.&XA.<.d.G.Y.<.! 7.!.r.7.A.<.<.<.} +.7.V.!.p.*.+.<.<.+.*.j.p.j.Y.Y.j.p.<.c.!.c.d.r.c./.p.3.d.A.j.<.<.7.p.<.d.j.c.G.G.!.G.d.<.<.<.r.r.<.<.3.3.*.+.*.3.c.G.!.j.G.V.( 7.G.Y.j.A.!.!.7.( <.! ! ! ! 3.p.3.r.r.3.<.<.<.*.R ! <.+.( r.j.j.j.p.<.r.<.*.d.A.Y.c.r...( <.! } j.r.....} } p.`.G.! U ! R ! +.*.! N U } ..r.r.r.3.j.V.3.<.} <.7.j./.!.G.V.<.J D ..d.Y.<.*.( <.G.j.3.p.r.d.A.Y.Y.j.Y.d.p.j.j.<.+.r.r.} z ! <.+.+.j.G.d.!.!.G.d.A.c.V./.Y.j.<.R R ! N n N U <.p.*.! ! ! ( p.7.r.} J ! d...} +.3.j.c.r.! ! <.j.!.!.G.V.V.j.*.+.( ! <.<.! ! ! ( ( ! ! } <.r.p.<.<.} <.7.r.r.<.<.3.c.p.<.<...R J v N } } *.<.+.<.<.p.c.j.j.r.<.<.7.",
"*.3.7.7.p.d.7.<.<.<.<.<.<.2.7.A.3.<.r.V.G.G.Y.W././.!.!..X&X;X;X;X&X#X#X/.`./.j.p.d.V..X;X!.V.Y.V.G.c.r.d.A.j.<.r.l.A.Y.L.V.L.A.j.d.r.7.j.!.!.j.d.7.<.r.7.7.c.G.!.G.A.c.d.d.c.Y.Y.A.V.c.j.j.c.G.A.Y./.&X&X`.!./.G.V.j.0.3.A..XG.j.W.!.[.).D.G.!.!.j.! >.V.D.<.} ..a./.~.Y.!.A.j.j.d.j.A.A.V.!.!./.#X&X.X/./.`.&X`.#X&X/.!.`.#X!.j.G.Y.c.V.A.A.!.[.!.A.C.c.j.r.3.p.j.j.j.j.<.<.i..Xc.d.j.r.<.7.c.Y.c.7.d.j.r.r.d.c.<.*.p.A.j.<...d.3.<.7.<.<.+.j.d.<.7.7.7.j.c.j.j.<.+.p.d.<.r.p.3.! } <.( ! } <.!.r.<.<.<.r.r.c.3.j.7.( R ( <.<.....! +.3.+.7.A.V.!.Y.!.V.} *.G.j.p.7.j.j.p.c.V.j.c.V.j.j.j.<.( +.p.j.j.Y.j.3.V.c.c.3.j.d.7.A.j.j.<.! ( d.A.j.<.3.j.<.....V.A.! 7.V.G.Y.!.G.G.!.A.V.V.G.!..X`./.c.7.p.c.Y.A.j.!.V.G.c.r.<.....3.<...<.p.j.j.<.7.3.<.7.r.<.! +.j.j.j.d.c.G.A.c.p.+.<.j.A.j.j.!.Y.j.7.3.V.!./.!.c.d.c.j.j..X!.r.<.j.c.7.( 3.!.A.!.c.7.d.3.( <.p.V.c.r.( ! <.<.} ! j./.!.A.V.j.G.!.Y.!.c.<.*.j.!.j.3.p.V.j.<.*.<.r.j.V.j.j.!.V.G.V.<.( } <.d.j.<...p.*.3.d.<.*.d.A.!.c.Y./.r.r.c./.Y.j.c.!.7.} <.+...! *.r.*.7.G.<.! +.<...! ! } <.! ! r.p.p.j.7.r.d.<.<.d.s.r.j.j.j.<.<...} d.7.! <.7.3.p./.#Xr.! ....! ..*.! R U p.p.7.3.p...*.*.....7.j.j.p.c.!.&X`.G.p.*.<.c.!.d.3.+.<.7.*.! ! <.3.r.r.A.j.c.7.3.p.d.<.<.<.+.+.N ! <.} } c.Y.3.3.s.!.V.G.V.V.!.!.!.d...! R U J D ! d.d.! ! ! 3.3.j.7.7.<.! ! +.+.! ( +.r.V.d.+.<.r.j.G.!.G.c.V.A.7.*.( ! <.j.r.! ! } ..} ..<.c.j.<.! ! ..<.3.3.+.} <.( ! ! *.<.<.+.} N U <.<.r.j.*.<.+.+.3.7.p.3.7.<.<.",
"<.<.*.<.d.r.*.+.3.p.3.*.*.<.7.j.7.7.j.Y.!.!.!.!.!./.!.#X!.j.L.`..X.X/..X#X.X/.A.c.j.j.V.Y.j.j.A.G.Y.A.j.c.G.c.7.A.!.!.!.!.Y.!.Y.G.j.r.3.j.!.Y.p.d.r.3.d.j.j./.#X#X!.A.j.d.j.j.c.c.j.j.j.j.j.j.V.j.V.Y.!././././.A.j.0.0.3.j./.A.l.!.`.).!.D.!.).).G.<.g.!.!.1.! ( d.~.!.G.A.c.C.c.j.j.Y.Y.G./.`.!.`.%X.X`./.!.V.Y.G.A.c.A./.#X!.r.j.j.7.r.r.p.V.!.V.j.j.j.a.0.3.<.i.7.j.!.N.j.V.G.p.r.j.j.r.p.j.j.j.d.d.7.3.p.7.<.+...<.3.<.3.p.d.7.<.r.<.<.( 7.Y.7.p.j.j.j.j.c.r.*...<.p.d.p.<.3...*.d.3.<.<.! r.7.r.<.<.3.<.A.G.Y.r.} R ! <.<.<.3.! +.<...<.3.j.G.V.c.j.7.d.V.V.j.<.7.j.j.j.j.p.j.j.<.3.7.( H } d.c.d.c.j.<.r.!.!.j.A.G.j.A.j.A.G.<.R } j.A.j.V.!.3.<.<.c.A.<.<.V.G.Y.G.j.j.V.j.G.Y.V.G./..X!.j.3.7.j.G.V.p.p.j.j.p.7.<...} +.<.7.r.d.V.j.3.<.<.r.r.7.3.*.+.3.<.<.3.p.A.!.A.j.<.7.d.j.j.p.j.p.d.<.<.V.G.Y..X!.d.j.j.d.V.!.j.<.d.d.j.<.7.G.!..Xr.<.j.<.! +.7.j.d.r.+.! <.j.3.! <.Y.j.j.p.+.d.`.#X#XV.3.3.d.j.c.3.<.d.j.r.r.r.j.V.V.c.G.!.j.G.j.<.} *.r.A.!.c.j.j.<.p.!.j.r.j.G.c.p.j.!.Y.G.j.Y.Y.j.c.c.7.*.} ( <.<.<.j.7.7.j.} ! +.<.<.} ( +.<.7.<.p.p.p.r.<.7.3.3.7.7.*.<.V.G.r.*.<.*.! 3.V.j.7.7.r.p.G.G.7.*.( <.! ( } ! <.3.G.!.3.<.j.<.<.<.*.<.j.j.G.!.j.j.V.j.A.Y.r.<.j.j.j.d.p.d.j.j.7.<.*.r.d.<.j.p.j.3.d.3.<.....+.+.r.*.! +.*.+.V.!.V.! <.A.j.Y.A.j.!.!.!.j.3.} U ! ! ( +.d.<.n J ! *.! <.( ....! R ..3.( ! } 7.A.j.<.d.j.j.j.j.l.j.d.<.} ! R U } 7.p.+.! ( ! ! ..<.j.A.<.( } *.<.<...R U +.! ! ! <.7.p.r.r.( +.7.<.j.V.*.*...! ..+.3.<.<.*.} ",
"c.<.( +.3.*.! ( *.7.<.! ..7.p.r.7.d.G.!./..X#X/.&X#X`./.3.C *.!..X#X!.#X;X`..X#X.X!.G.c.d.<.7.c.Y.!.Y.V.G.!.!.V..X#X~.!.Y.A.L.A.!.A.j.j.G./.A.<.3.<.7.V.Y.!.`.!.!.V.j.p.p.j.V.j.d.j.j.j.d.d.p.r.j.V.G.G.Y.!.!.!.c.3.<.3.<.0.V.j.j.!.G.D.D.G.!.!.).!.a.V.#X;XV.<.<.C./.L.c.j.j.Y..X!.Y././.!./.!..X.X.X`.!.!.G.r.!.c.d.d.j.Y.!.A.V.G.j.p.r.<.3.V.!.j.r.j.l.j.j.j.1.7.| 5.!.!.j.V.V.d.j.V.j.d.r.7.<.<.*.<.<.p.d...! <.d.d.<.! } 3.*.*.<.p.d.d.<.j.!.V.Y.G.A.G.j.r.<...*.r.j.A.j.3.A.j.j.V.j.c.c.+.<.d.c.r.r.3.*.A.!.!.c.j.j.7.7.<.+.3.( +.3.<.7.7.j.A.j.3.p.V.G.d.!.j...<.c.G.j.r.j.j.j.d.j.j.*.( ( r.d.+.3.A.j.7.p.V.d.<.3.r.j.c.G./.j.+.! ( <.<.r.j. .*.7.j.j.r.*.j.j.G.A.p.r.3.j.!.!.j.j.G.!.c.!.j.j.V.!.Y.7.*.} *.*.<.3.<.3.p.j.c.j.c.A.j.p.p.d.p.r.r.r.j.G.j.<.*.<.<.j..X/.!.j.j.p.7.3.7.r.<.<.R ! j.A.Y.`.G.p.c.G.j.p.!.!.7.*.<.V.r.j.c.V.j...! 3.<.! ..7.V.d.d.<.} 3.!.G.( <.V.j.G.d.n C j.#X.XG.j.Y.j.<.j.<.<.j.!.!.Y.j.j.d.d.c.!.!.j.!.j.j.d.j.c.!..X`.`.j.*.<.j.j.c.Y.G.A.j.p.j.A.!.p.7.d.r.r.<.p.j.<.+.<.d.3.A.`.j.7.<.+...<.p.<.( ..<.<.<.+.r.c.r.<.<.<.3.3.<.*.r.j.<.7.<.p.<.D R d.j.<...<.j.j.<.} 3.+.<.R ( } ! j.V.j..Xp.+.3.! +.<.N +.!.G.A.#XG.j.j.<.c.!.p.<.r.<.+.<.p.d.j.A.j.<.! p.c.*.d.p.j.j.<.<.7.<.<.7.<.3.3.} 3.3.*.G..XV.r.7.j.<.7.( N ! j.j.} ! R n U ! ! U ..<.D U ! ! C ! J ! ! ! ..A.j...U U *.j.j.7.j.A.c.p.j.c.p.<.+.! R ! R R ! } ! U U D ! } <.c.7.<.*.+.+.<.*.! ! R *.<.<.( ! ! +.( ..! *.<.( j.A.*.<.<.} ....<.<.+.<.} ",
"V...! ( ! ( ! ! } p.*.( <.*.<.j.3.j.Y.;X;X!..X&X7X.X!./.!.r.p.;X;X&X;X!.`.;X#X&X.X/..X!.j.<.<.A.!.!.!.Y.Y./.`.Y.G.Y.!.A.V.j.r.j.G.G.V.c.A.#X.X<.j.p.7.d.c.!./.!.!.c.7.7.j.j.j.j.j.d.3.<.r.p.r.d.G.Y.j.3.j./.!.3.+.7.r.3.<.j.Y.d.3.!.!.j.j.A.#X#XY.j.j.A.!.Y.j.<.<.!..XV.3.<.p.j./.#X`./.`.!./.`..X.X#X!.A.G.j.r.G.V.j.j.j.j.j.A.!.!.V.d.V.V.r.V.!.G.7.j.!.V.j.p.p.c.<.<.G.!.c.c.j.<.<.j.d.7.j.7.<.<.+.<.r.p.<.N J 7.j.j.j.<.<.p.r.j./.V.<.7.j.Y.Y.A.!.Y.j.7.3.7.7.( ..j.A.j.7.3.V.V.3.A.j.j.j.<.7.p.<...7.r.3.!.Y.Y.!.Y.j.d.<.<.} <...! <.V.G.j.p.p.7.( <.j.<.p.A.<.} <.d.V.G.V.A.<.3.c.G.A.j.<.} ..j.<.! d.A.j.c.Y.j.3.<.3.r.j.G.Y.A.c.c.j.r.7.j.G.7...j.Y.c.V.<.p.G.c.j.!.r.7.p.`.j.c.!.j.p.V.#XA.j.Y.!.j.<.( 3.*.+.3.<.j.c.j.A.Y.r.R <.!.!.7.*.*.j.j.7.j.V.c.7.r.3.<.j.!.!.!.j.j.<.( ..7.j.p.<.} 3.d.7.d.j.j.<.p.Y.c.<.p.Y.x.<.*.d.V.G.G.p.<.! D } 7...} d.G.j.j.r.*.<.j.c.3...d.j.d.G.<.c s <.`.`.j.j.j.<.r.j.<.j.!.!.j.<.A.j.V.!.Y.G.j.<.<.A.A./.`.Y.!.`.&X!.c.j.V.G.!.Y.c.c.C.d.<.j.G.3.} <.p.j.<.<.j.j.} +.<.! J <.V.j.j.j.j.j.j.r...! ( ..<.! <.`.!.d.+.<.d.c.j.p.7.p.7.G.j.j.V.....j.j.+.v J !.V.*.j.A...R R ! } p.A.j.<.j.<.+.+.R ! *.N *.!.!.<.<.G.!.G.d.<.p.V.V.p.} ..( +.7.j.r.! U } <.r.r.d.A.c.*.} ! +.3.<.+.( ..<.+.r.3.r.A.G.`.Y.p.A.( N | ! 3.j.j.j.( N ! ( N N h U +.! N +.*.! ! U +.*.! <.j.<.<.7.<.d.A.d.j.V.c.G.V.r.r.p.<.3.+...! ( *...*.! D U R ! } } +.] ( *.<.+.<.<...*.<.*...,...! ( ( ! ! U ..<.( <.p.<.r.d.*.! ..<.} <.<.<.",
"7.} +...! ! ..<.p.j.<.+.<.7.j.G.p.j.G.#X.X`.;X&X;X!.V.!.;X`.Y./.&X;X7X#X;X#XA.!.!.V.!.`.!.G.V.!.!.!.!.G.V.Y.!.G.j.A.G.j.d.p.3.d.p.c.V.c.c.!.!.r.j.d.j.j.j.G.#X/.Y.V.j.j.V.A.c.j.A.A.j.j.V.Y.A.c.G.G.d.*.<.j.j.p.7.j.j.d.j.G.!.A.r.!.!.A.j.c.!.!.j.c.j.j.c.p.+.( r.Y.!.A.j.7.j.A.&X.XY.!.`.!.!.!.#X.X#X!.c.j.d.7.j.j.j.V.A.j.j.V.!.Y.c.j.A.j.3.j.!.A.3.p.j.7.r.<.r.j.<.3.G.V.j.c.j.*.+.d.j.j.A.j.7.<.( } ( ! ( J *.d.p.7.j.p.p.!.V.A.&Xc...<.p.d.V.!.Y.p.<.<.7.7.3.} } 7.r.<...( r.r.<.V.A.j.7.! ..+.*.3.j.<.( j.c.c.Y.G.V.j.d.j.j.j.7.+.<.p.d.j.r.r.f.<.r.d.<.p.7.*.+.<.7.r.j.c.p.p.j.p.j.!.c.V.p.p.!.G.d.j.j.d.<.<.<.<.r.j.j.j.7.d.p.p.c.A.j.r.j.!.V.p.V.A.A./.j.3.j.j.p.!.c.j.j.G.c.A.j.<.d.j.!.j.7.j.!.Y.j.<.3.7.+...*.j.j.c.j.j.} s v <.c.r.r.*.j.c.3.p.V.j.<.3.7.7.j.V.c.j.7.p.7.r.p.j.V.c.p.d.j.<.( <.t.r.<.} 7.p.! ..j.V.j.j.d.<.p.G.j.<.} ! } *.! R *.3...+.<.3.<.<.<.} +.<.p.d.Y.p.! N i <./.#XA.<.<.j.d.<.3.j.j.<.+.j.j.d.j.c.V.j.3.p.j.3.j.`.`.`./.j.A.A.Y.A.V.G.!.G.G.j.a...! <.<.} ! +.7.<.*.3.r.+.*.<.<.! } j.Y.j.j.j.V.z.3...( ( <.j.3.3.G.!.V.+...j.`./.!.V.d.7.j.<.c.&X*.} j.j.p.J R !.`.j.A.V.<.! D J ( d.G.A.r...R } <.( *.A.p.Y.Y.c.3...j././.j.! R d.!.p.( 7.<.( U <.j.7.r.p.d.j.j.c.!.p.D U ! ! +.<.( U ..} ! 3.<.+.j.G.!.G.!..X..U c.V.Y.!.!.!.<.! <...J N z ! +.<.( ( 7...} ! <.<.( +...R } p.j.V.!.j.d.j.p.j.c.d.j.j.7.3.*.+.! ! ..*.r.( J ! ( *.<.<.<.! ..<.<.<.<.<.*.j.j.7.+.*.+.+.3.<.*...! *.<.R ! ..+.<.r.3...} <.+.*.<.<.",
"j.7.p.7.*.<.<.<.d.j.p.3.<.r.A.V.j.c.!.#X`.`.!.p.j.!.Y./..X!..X&X`.j.7.*.j.d.1.p.c.j.G.!.!.!.!.`./././.G.j.j.j.j.r.d.j.d.j.j.p.p.j.A.V.j.c.G.G.j.j.j.A.c.p.V./.!.j.j.p.p.j.A.G.j.j.G.G.V.Y.!.!.G.Y.A.j.r.<.<.3.r.c.!.A.j.V.A.Y.!.!.&X#X!.A.j.j.p.c.Y.A.c.c.7.*.<.j.c.j.V.c.p.j.!.!.Y.c.Y..X`./.!..X`.&X!.j.j.d.j.p.j.j.V.G.c.j.A.Y.j.d.j.G.j.7.j.!.A.3.<.<.<.c.c.p.d.*.<.j.d.d.G.!.r.<.j.j.V.Y.j.p.7.d.j.<.( <.3.p.d.<.+.r.p.d.!./.A.A.3.} r.j.p.j.!.j.( ! r.V.j.7.<.<.7.<...! J ! ..*.j.j.7.*.R R R ! *.r.o.} c.A.j.V.G.G.A.c.A.Y.j.p.+.+.<.*.7.j.p.j.d.j.d.<.r.3.<.<.7.<.+.<.7.r.j.j.( <.A.j.!.Y.!.#X`.!.G.7.3.3.3.5.r.p.j.p.<.*.3.<...<.p.p.3.V.G.j.d.G.V.j.G.<.J } <.<.G.Y.A.!.j.j.j.! J p.V.Y.j.d.r.d.V.c.p.p.3.! ! <.3.<.V.j.*.U f c R *.r.j.*.7.V.r.3.j.3.*.<.<.7.j.j.d.p.<.7.d.G.G.j.j.c.<.d.V.<.! *.r.d.+.U +.<.J U <.*.d.p.7.*.<.3.<.<.<.+...! J J ! } *.( 3.A.j.3.*.} U <.A.G.j.7.C.!.R y h A.#X<.p.&Xd.<.*.<.3.*.+.r.<.j.G.A.d.7.r.A.j.<.<.Y..X/.A.} r.V.!.A.j.j.V.j.j.r.r.| F ! ......+.r.3.} ! *.<.( 7.7.! C *.j.j.p.V.!.A.d.<.} ! <.A.j.r.j.G.A.<.D <.Y.!.`./.7.} j.*.d.#X<.! 3.<.j...! j..X!.Y.7.p.+.R C ! 7.7.7.r.N N } <...<.!.G.d.A.c.j.!.G.!.#Xj.( R 3.c.<.} *.<.} N U <.*.p.j.j.V.j.j.Y.j.! n U ( 7.j.3.( } ( ( p.3.*.c.!.!.G.!.`.8.<.Y.!.!.V.j.Y.+.C ! ! ..U R <.3.p.<.U *.} ! R +.*.+.r.p.U ( r.r.r.j.p.r.r.<.3.r.7.3.7.<.+.} } ( ! ! ! +.R N J } <.7.<.+.! ..} } <.<.<.p.A.G.j.*...*.3.d.p.*.} R R D h k N ! ! <.d.<.( <.*.} +.<.",
"Y.V.A.V.d.d.p.<.<.r.c.c.<.3.c.j.c.V.`.#X.X;XY.+.! j.!.;X,X.X.X!.r.v r h 3.A.G./.`.G.!.!.!./..X.X!.!.!.V.d.j.j.d.<.<.<.j.Y.Y.j.p.G.G.d.p.c.A.V.j.7.p.c.j.p.c.G.c.d.3.r.j.j.V.Y.j.r.V.!.Y.Y.Y.!.!.G.c.j.j.3.} } <.A.!.G.j.j.A.!./.G./.!.Y.Y.A.d.<.A.!.!.Y.j.<.+.*.7.r.7.j.j.7.r.j.j.V.V.!..X`..X`./.!.#X!.j.j.j.A.c.G.V.j.V.A.Y.!.Y.d.r.j.A.j.p.7.c.c.c.V.d.j.A.d.j.V.7.<.7.<.<.d.j.<.+.7.j.A.G.j.<.3.j.G.7.+.7.r.*.+.} ( <.s.d.c.G.j.7.*.<.j.j.j.c.c.3.! U 3.G.j.*.<.d.j.<...! U ( } ..<.2.<.+.( ( ..( ! ....<.V.!.V.V.Y.!.T.V.V.V.7.<...+.*.! <.j.p.d.r.r.r.<.<.d.3.3.p.3.<.<.7.c.Y.c.+.7.G.j.Y.r.j.j.j.!.Y.7.3.c.j.G.j.3.<.*...<.3.*.! ! *.r.j.c.d.<.<.j.j.j.G.<.C ! <...j.Y.!.V.<.<.3.U J r.G.j.r.j.d.7.j.j.j.d.r.+.<.p.3.3.!.A...U z C ! +.j.A.7.<.d.<.+.3...<.<.*.3.j.j.3.<.<.<.7.G.G.p.p.j.p.c.Y.j.7.7.3.r.*.} <.7...<.j.<...<.c.V.<.! ! ..<.<.+.! ! } } ! ( R <.Y.c.3.<.<.} <.j.j.7.*.G.&X.XR f D <.p.c.A.<.*.<.7.r.<.( ! ! j.!.c.<...3.j.!.V.<.j.!.!.G.r.! r.!.!.c.7.3.<.( | +.( ( | ..r.A.p.c.A.p...<.<.} j.j.*.<.<.<...+.p.G.!.!.V.7.} 3.j.j.j.d.7.3...N ..j.j.!.`.7.} /.A.d.G.j.7.*.+.r.7.*.r.Y.!.j.R ! ( ( U +.j.d.p.<.C ! <.7.<...c.!.c.j.N r <.9X;X&Xp.+.7.p.<.} ( ..<.r.+.( ..! ..<.<.A.j.3.r.+.R ! ..r.Y.!.Y.j.<.+.<.j.c.j.!./.!.j.A.!.c.j.A.Y./.V.j.A.r.( ! ! 7.*.7.G.A.j.7.} ..<.*...<.( ( 7.p.<.<.<.<.*.7.p.j.d.<.<.<.<.<.<.<.<.+.} +.*...! U +.! <.p.7.3.+.! } ..! ! <.*.<.c.V.G.j.3.<.r.j.j.j.<.*.} ( R N J ! ( } <.p.<.! } +.( } <.",
"j.V.!.!.c.c.c.r...<.c.A.7.7.V.j.A.V./.!./.5X.Xd.R <...*.j..X,X/.<.h s J c.!.!.c.#X!.!.Y.Y.`./.!.!.Y.A.j.d.d.j.r.*.+.*.j.!.c.r.7.j.j.<.<.j.j.j.d.*.p.j.r.d.V.j.V.j.r.V..X/.!.!.A.M.G.!.!.!.G.!.&X!.c.j.j.r.+.<.j.!.!.!.V.j.G./.j.<.j.c.j.c.G.j.7.j.A./.!.j.7.<.} 4.p.f.j.j.p.7.<.p.Y.!.!././.`./.!.!..X!.d.d.c.G.A.Y.c.3.<.j.Y.G.Y.V.c.V.c.j.d.7.p.d.j.c.p.j.V.r.3.j.d.7.r.7.3.<.3...+.3.d.c.c.p.<.<.p.c.j.j.A.j...} 3.<.*.r.r.<.<.j.j.<.j.V.p.p.j.7.<.+.R ( p.<.! <.j.j.<...( ! ..<.3.3.*.( +.<.<.3.*.} ..+.r.G.!.G.A.!.Y.c.V.G.j.<.7.<.<.*.! <.j.7.3.<.3.p.<.*.<.+.*.<.3.7.d.j.c.G.V.A.!.Y.A.G.<.3.<.<.V.A.3.<.r.r.A.V.7.<.<.<.3.<.+.! ( *.7.c.7.r.d.d.j.<.r.c.7.} *.<.! +.<.d.j.<.+.<.<...*.j.j.r.A.G.j.j.3.<...<.<.( +.<.p.j.p.<.+.n C } <.p.r.p.<.<.+.*.d.j.c.j.j.Y..X!.r.<.+.} ..d.j.p.j.A.A.Y.A.r.r.r.*.<.<.<.*.} ` 7.p.<.( 7./.!.<...*.! ( *.*...<.r.<...J ! p.Y.j.<.r.c.7.7.3.3.d.r.G.!.`./.V.! J r.d.*.p.<.<.3.7.3...! <.d.j.r.<.3.j.c.A.!.j.<.! ( c.!...7.Y.G.j.*.<.p.Y C U ( <.3.r.A.j.! +.j.Y.r.<.( ..p.3.7.j.j.r.<.+.<.j.!.`.Y.r.+.<.+.( *.<.} ! J C ..j.d.j.V.<.<.V.!.7.7.j.V.7.<.<.j.j.c.V.r.( v C ..*.R } p.7.<.! N R +.d.r.! *.<.j.c.r.r 7 3.`.#Xj.} p.j...*.<.7.<.d.d.<.3.<...7.r.!.A.p.3.} ..j.A./.`.`..X`.G.7.p.c.Y./.`.!.!.A.!.!.Y.!.G.c.c.j.d.d.c.V.7...} *.r.p.G.!.A.c.j.d.j.j.p...! ! ! <.<.} <.*.<.3.p.<.+.} *.<.<.*.<...! R ( *.*...( R U <.p.+.( ! D ! } ( 3.j.<.3.V.V.V.j.7.<.r.j.j.p.<.<.*.! U D U ! } <.3.<.*.*.<.<.+.} ..",
"A.V.G.Y.A.V.c.<.*.+.<.r.7.r.V.c.A.V.!.V.V./.c.7.j.A.} h s ! Y.`.V...<.j.G.j.j.<.j.A.!.Y.G.!.!.Y.!.A.j.d.r.p.p.3.3.3.<.j.j.<.+.<.7.r.<.<.j.j.d.p.7.V.A.7.7.d.7.V.V.j.Y.;X&X.X*X#X/.!.Y.!.!.!.!.#X!.c.j.j.j.j.c.!./.!.G.V.j.A.!.<.+.d.V.j.j.V.j.d.V.c.!.!.j.d.d.<.j.G.j.p.d.j.j.p.j.Y.Y.Y.!.`..X!./.!.`.!.p.d.j.c.V.c.j.<...p.V.d.j.G.!.!.j.p.j.j.3.<.r.d.p.j.j.3.} r.p.3.r.j.V.p.7.<.3.p.j.j.p.<.} <.d.j.d.d.c.j.<.4.c.j.<.d.p.<.<.G.j.<.c.!.d.<.<...+.r.*.} p.p.*.<.d.d.*.( ( } ! ..*.3.7.} <.3.r.3.*.<.+.} p.!.Y.!.!.!.j.7.j.Y.j.j.A.j.7.+.! <.p.3.6.p.d.j.j.<.<.<.<.<.<.3.j.c.j.c.V./.!.j.V.V.....} <.c.V.r.<.<.<.j.V.j.d.3.p.p.3.<.<.d.j.d.j.*.<.j.j.c.3.p.j.<.3.d.j.<.+.! ..c.j.j.d.j.*.! j.A.j.!.!.j.3.<.<.<.<.<.} } +.p.j.<.7.j.} ! ! ! +.<.j.j.7.<.*.7.j.V.j.d.G.`.G.3.*.<.+.} 7.j.p.c.!.!.!.j.} <.p.<.<.+...} ( *.<.<...+.<.p.j.<.*.r.<.+.+.( ! <.p.r.<.! +.d.j.3.*.<.p.<.7.7.j.!.G.`./.j.d.V.G.j.<.<.j.j.*...! ..7.<.3.Y.j.r.7.3.3.d.d.c.G.d.( N +.!.`.j.j.!.A.c...<.j.( C ~ 1.7.j.V.j.( r r J j.d.r.! <.r.7.p.<...r.p.7.<.7.c.A.d.<...d.3.} +.d.j.r.<.! ..7.3.3.7...! +.j.<.*.*.r.<.} ! 7.j.A.j.} R D ! 3.<.! ! 3.r.<.3.+.! <.j.<.J C } ( p.A.! 2 4 3.!.#Xj.3.7...<.p.j.3.r.7.( *.j.3.7.j.!.V.7.<.<.c.j.`.;X`..X#X!.&XA.A.A.!..X/.Y.!./.A.r.c.`.V...J <.p.<.r.c.j.<.! ! ..N <.`./.!./.A.A.j.<.( R R R <.<.( 3.<.<.+...} } } <.7.<.} ..N U R ! ! R ! ! } ( j.j...( ! C N R ( 3.7.<.j.G.!.Y.V.r.*.<.7.<.*...*.<.( ! ! ! ( } 3.3.( ! +.<.3.<...} ",
"G.j.j.j.j.j.d.( <.} ! ..3.3.p.d.j.c./.V.V.Y.7.3.#X5X;Xj.+.<./.9X7X`..X/.!.G.G.d.p.G.!.A.!.`.Y.Y.j.r.3.7.r.j.j.j.j.V.j.j.p.+.*.<.7.7.<.r.j.j.j.j.c.G.G.7.3.7.<.j.A.j.A.!.!.!.#X;X#X!.A.V.G.G.G.!.j.j.p.j.V.G.Y.!.G.G.V.j.p.j.Y.j.r.j.V.j.c.G.j.j.G.A.A.j.7.7.p.7.V.Y.j.3.p.j.c.d.j.V.c.!.`.`..X.X!.Y./.Y.d.c.G.V.A.j.j.d.<.j.A.p.<.g.G.!.V.7.j.G.Y.p.<.*.<.r.j.r.<.j.p.<.3.j.A.p.<.+.3.p.j.V.p.<.r.A.Y.G.c.r.r.7.<.<.j.j.p.j.d.j.c.A.d.3.V.!.A.r.7.<...r.p.3.j.V.d.3.7.r.<.} } ..*.! D <.A.7.3...j.3.*.3.+.R <.G.Y.`.`.!.j.<.r.j.j.A.Y.j.<.} } 3.7.<.r.j.j.j.j.r.d.j.j.p.3.p.j.c.j.A.G.G.c.d.j.G.} *.<.7.d.j.7.+.7.3.j.j.j.j.<.r.j.d.r.j.G.Y.c.j.+.( *.} p.d.Y.G.<.j.G.!.A.A.r.p.7.j.Y.!.!.r.! p.j.d.V.Y.j.7.j.j.<.( ! ( ..! *.d.d.j.c.7.*.U ! 3.+.r.c.j.r.r.r.j.V.j.j.Y./.c.<.<.j.3.<.j.j.r.j.!./.#XV.<.p.j.r.j.j.j.A.Y.V.p.<.( *.<.*.*.+.*.j.j.d.<.! R ( <.3.<.p.j.j.d.p.7.7.p.<.<.3.j.A.j.V.<.R R ( A.V.<.p.j.d.! +.( *.p.+.+.r.<...<.7.<.7.<.Y.!.3.J +.!.#XY.r.3.c.G./.<.} ( ! R <.7.7.C.V.<.R 7 7 k <.7.j.7...3.p.j.<.! <.r.<.<.r.j.d.<.+.*.j.A.p.*.d.G.j.d.r.+.*.<.<.<.} D J } ! ..+.r.r.<.<.j.d.d.<.D J J ! } D N D ! } R ( ! C ! ..! ! C ..<.G.d.j.3.i y J A.#Xp.( *.<.+.7.<.+.3.! ! d.3.( d.c.3.} ! ( d.<.j.#X#X&X`.j.!././.!.!.!.!.Y.Y.V.<.! ..c.d.U N 3.A.j.+.+.<.<.<...! s N j.!.G.A.!.!.j.( D C J ( 7.G.r.c.j.d.+.! ..<.<.r.j.7.....! <.<.+.U N U ! ! R 3.r...<.3.! N J R ( ! +.V.j.Y.G.D.j.*...<.*.<.......! R ! J ! ! *.<.( ! ..%.*.+.....",
"<.<.<.r.3.3.p.*.<...U ..r.<.<.<.<.j.`.!./.;XY..X.XG.Y..X;X#X`.&X;X/.!.!..X`..XG.A.A.d.3.Y.&XA.d.r.<.<.<.7.j.c.c.Y./.G.c.j.7.7.3.<.<.<.r.j.V.!.G.V.j.c.7.7.p.<.7.G.G.Y.Y.A.G.!./..X`.G.j.j.c.A.Y.c.j.j.j.A.!.`././..X/.V.3.<.j.!.G.c.j.j.V.G.d.r.j.V.A.j.j.p.r.r.A.!.A.V.!.!.G.d.j.j.c./.#X!.!..X!.A.!.Y.j.!..X!.c.<.p.j.<.p.c.3.+.7.j.G.V.3.r.c.j.<.*.<.r.j.d.3.3.j.d.r.p.c.A.7.<.<.r.j.G.!.j.3.A.Y.j.V.!.V.d.7.7.3.d.p.p.3.+.j.Y.j.d.c.G.Y.G.V.Y.c.} +.p.7.d.d.r.+.+.3.3.<.*.<.<.*.( r.A.<.7.7.<.*.+.7.*.R *.j.A.!.!.!.j.3.7.3.p.c.j.r.<.} <.7.<...<.d.3.<.7.7.r.d.j.r.7.j.V.j.d.c.G.j.d.j.j.V.} r.V.j.j.G.G.3.r.3.d.p.p.3.} 3.j.j.p.3.r.r.<.+...! +.! r.d.G.j.r.p.p.j.d.A.c.j.V.d.c.A.!.j.} 3.j.7.r.V.j.j.c.<.+.( ! ! <.*.7.j.p.j.j.<.<...7.j.3.<.r.7.7.j.j.j.j.j.c.!.!.d...} A.r.3.V.V.3.d.Y.j.A.j.p.V.j.<.c.j.A.#X;X!.j.7.} +.Y.c.*...r.G.Y.V.<.( ! ! ....! 3.p.3.<.<.<.3.j.*.<.r.j.<.! *.N c v h +.j.d.A.! !.<.j.r.d.c.} ( <.<.+.r.d.7.+.N <.;Xj.v C } ! ..<.! +.r./.p.! N c Y +.( *.c.j.<.! w r z ( ..j.j.*.r.*.<.r.......( <.c.A.p...! ..<.G.c.<.7.j.j.V.d.+...<.*.} ! D *.*.U ( <.7.+.! p.c.7.+.! R +...} ! v D ! ( *.R ( <.( ..! ! r.( j.V.<.} <.`.`.h % f !.j.R j.V.( ! J N 3.<.J ..! 3.G.j...+.<.r.V.*.} !.&X#X!.3.d.`./.!.!.V.A.G.j.7.j.+.N U +.( ! <.d.7.D N R ( r.r.! k z ! !.A.3.j.!.c.} J N C ( <.`.V.!.Y.V.*.R ( <.<.7.j.7.+.*.<.j.p.*.J D ..<.U N ( ..! 3.r.! ! ! ! U C *.V.+.} *.d.d.} ! ! ! r.*.} ( R ! ..! <...+.<.<.+.( R ! ! } <.",
"+.*.<.3.<.<.p.r.<.<.} <.p.<.*.7.<.7.G././.!.!.&X!.j.j.!.!.Y.!./.!.!.Y.!.!..X#XG.Y./.j.r.A.j.<.3.j.j.j.j.y.3.3.7.p.c.!.!.d.0.d.d.p.c.r.*.<.!.Y.V.j.3.p.d.p.j.d.7.g.c.A.A.A.!.G.p.G.c.j.j.p.p.j.V.V.j.c.j.7.V.&X&X`.&X`.Y.7...j.!.c.d.j.r.3.r.3.<.0.l.j.g.j.j.j.l.G.C.c.Y.!./.!.j.<.j.G.Y.`.`.Y./.Y.Y.!.V.*.p.&X`.A.3.j.V.r.j.j.<...( *.j.p.<.r.j.p.+.+.j.A.d.<.r.*.3.j.j.j.Y.A.<.*.<.j.j.Y.!.j.c.!.A.j.V.A.c.j.j.j.r.r.7.7.3.<.j.`.j.<.7.d.A.V.V.V.A.r.! *.d.d.d.7.<.+.3.d.r.3.<.p.d.r.3.3.r.d.d.7.+.+.! U } j.j.c.A.G.A.d.<.*.r.c.j.7.<.d.<.<.<...<.<.7.d.j.j.<.j.j.d.j.7.*.p.p.d.<.r.r.c.G.V.<.*.<.<.7.3.Y.#Xj.! <.r...*.7.<.j.c.G.j.<.j.! ! <.7.r.7.<.p.r.c.d.3.j.<.7.j.3...3.j.V.Y.j.j.p.! *.<.j.7.r.j.d.p.<.<.+.+.+.+.p.j.r.<.p.d.7.r.+.7.j.p.r.3.<.3.j.Y.7.<.A.j.j.;XY.<.( r.7.A.r.*.<.j.j.<.<.! ( 3.<.3.!.G.d.!./.d.j.G.7.<.G.!.r.+.p.A.j.d.*.} <.*.! ! ! <.<.+.3.<.} 7.r.3.d.c.7.<.*.} 3.! f f ! ! R p.+.<.r.r.( ! <.( ..<...<.<.j.p.v r n c.d.z v ! U ..3.V.7.p.G.r.+...J D } +.p.j.+.3.! q w z ! 3.A.j.7.7.7.+.+.<.<.p.7.3.Y.Y.<.+.+.<.( j.d.*.( d.Y.!.j.} ! <.*...( N *.*.( *.j.<.D J <.G.j.} ..<...+.! <.! ! } ! ..R ! r.r.3.7.r.<.J <.3.3.*.p.A.&X`.N 4 7 ( ! 3.V.! R J ! +...( ! C 7.G.j.+.<.d.j.!.G.C } !.V.A.A.} <.!.&Xc.7.<.7.*.( } ! N D *.j.!.`..X!.*.R } +.+.r.<.} ! R *.N J <.A.!.j.! N ( d.r.!.!.V.j.j.+.J ! <.<.+.3.<.( ( p.!.<.R ! } j.Y.V.j.d...! ..( ! *.+...( J <.!.} C ..<.p.<.! R N ! <.! ..<.! +.*.3.} ( <.<.( R ! ! ! } <.",
"..+...*...+.<.<.7.3.} +.3.<.<.7.<.e.A.A.A.!.Y.!.!.Y.!.`.!.G.G.Y.#X.X!.!.!.!.!.j.G.`.G.r.r.7.7.V.j.V.A.c.p.<.<.p.j.j.C.c.7.*.1.d.V.!.V.r.3.G.V.c.A.d.j.j.p.j.j.d.A.c.j.j.d.j.c.p.p.7.3.3.r.r.r.r.<.d.G.G.c.Y..X.X/..X!.!.j.<.p.V.p.r.d.p.r.d.7.<.0.N.j.0.j.D.V.N.Y.l.r.j.!.[./.j.3.j.7.7.A.!./.&X!.G.V.j.<.3.!..X!.r.j.G.j.p.j.<.} } <.j.p.3.j.c.j.p.j.A.j.7.<.3.*.d.G.G.A.G.V.p.<.<.j.j.7.7.j.G.c.V.V.j.3.3.d.c.G.p.<.( +.r.j.G.#X!.7.<.<.p.j.!.Y.!.j.<.7.d.<.*.<.+.} r.c.d.<.( <.<.3.A.&X!.<.! ! } <.( } 7.G.c.j.d.3.3.7.<.+.*.3.j.3.*.c.<.+.7.*.<.*.<.j.A.c.j.Y.!.V.G.j.3.r.<.r.7.d.r.j.j.j.<.*.+.*.*.<.j.G.*.! <.+.! <.G.Y.c.d.j.r.7.G.<.<.j.G.j.d.r.p.<.d.V.3.j.r.j.!.p.....d.d.G.j.p.7.+.<.+.<.d.d.j.c.7.<.j.3.} } <.<.<.<.+.3.r.d.j.....<.r.p.d.r.7.7.c.p.r.j.3.7.#X!.p.<.3.3.G.j.<.<.d.p.<...! ( 7.j.V.Y.`.j.G.G.<.<.V.j.j.V.!.Y.c.V.G.G.V.d.r.7.<...! U R +.} <.7.7.p.<.j.Y.!.j.<.<.*.3.p.} ( } ! J <.<...<.<.+.! <.+.<.<.3.p.7.j.j.R z U Y.A.n h ( j.V.7.!.A.j.7.! ! *.! J } ..<.p.<.<.<.k f z J <.G.c.j.j.j.+.+.j.j.d.d.d.Y.!.p.} } ! ! ..( ( } r.j.!.V.( ! ....} ( R +.C ! } <.j.+.C *.j.j.<.*.! C C J @.} <.+.R ! C R *.3.r.p.j.7.! R C 3.d.A.#X#XV./.<.r h R ..3.! U R ! +.<.....*.<.*.3.<.*.3.p.G.`...c h U G.Y.<.d.A..Xj.+.<.j.( ....! D ! p.!.!.j.7.!.&Xj.<.*.! p.<.<.<.*.p.R ! ! d.G.j.+.J ( 3.h R 3.c.Y.d...} <.<.} ~ ! ! } <.A./.*.v C 3./.!./.!.Y.r.} ....} *.} ! ( ! <.!.j.+.<.3.d.<.! J U U } R } <.} ..<.r.<...+...! ( ..} ! } <.",
"7.3.<.*.+.*.<.*.7.7...+.3.7.7.7.<.d.A.j.j.Y.Y.A.V.!.;X;X`.!.!.A.G.!.c.j.j.j.j.d.!.`.!.j.j.c.A.!.j.V.A.A.j.<.<.j.c.V.A.A.d.*.<.c.!.Y.c.r.<.c.V.V.c.j.V.j.d.j.c.j.j.p.7.3.7.j.j.j.3.7.r.7.<.3.7.p.d.V.!.!.!./.#X#X/./.!./.Y.j.j.j.j.j.j.j.j.c.V.p.i.N.j.p.C.!.G.j.d.r.3.j.!..X`.l.j.c.<.*.j.!./..XA.j.c.j.r.<.p./.!.3.<.j.j.r.j.c.} +.<.j.j.d.d.r.j.V.G.c.r.3.3.<.} p.A.V.j.r.3.7.<...d.j.( ! <.r.<.p.j.<...*.p.c.!.V.7.( ( <.r.c.G.`.c.r.7.j.d.V.G.!.!.V.A.c.<.} 7.*.! <.j.j.j.r.<.+.+.c.#Xj.U N ..r.j.<.3.c.!.V.c.d.<.+.<.3.<.+.<.V.j.<.V.<...7.r.r...<.j.c.j.p.p.d.7.p.r.3.7.( r.j.j.3.p.d.p.<.*.3.j.<.3.3.d.! ! <...} r.V.V.p.3.+.! } c.7.d.Y.j.<.3.j.j.<.<.d.7.j.p.c.G.j.7.r.d.3.V.c.3.<.3.r.<.<.j.j.j.Y.p.7.d.<.R R } D n ! <.7.r.j.G.+.! *.7.<.<.<.7.3.d.r.j.j...*.G.!.V.j.3.<.A.V.j.7.r.<.3...+.3.d.c.!.!.d.*.p.G.r.7.c.j.d.<.j.c.j.j.j.Y.A.c.c.d.3.<...R J +.( ( <.r.<.! r.G.!.j.+.! ! ! j.c.!.G.j.*.+.*.} ( +.<.! ......d.j.7.<.j.V.<.U *.G.V.n 7 h p.j.r.!.A.j.7.( } <.( D ..} } 7.p.j.A.3.} N N ! d.j.V.G.V.<.<.c.c.p.r.A.!.G.<.+.p.+.! D U *.3.j.j..Xj.+.3.r.*.} ( ..j.<.<.R ! d...! ! *.*.*.<.<...+.! ! <.r.<.} <.<.! ..<.d.p.p.7.! n D !./..X#Xj.3.7.j.7.....( +.! C D U } <.*.7./.V...7.j.7.*.+.p.!.<.N h ( !./.c.V.!.;X!.<.+.j...! +.( ! ..j.c.} 0 1 n `.!.3.<.U V.7.<...U ..U ( ..d.c.j.7.! U U q h R 7.A.p.*.p.d.<.*.+.} ! <.j.!.G.( v J p.`./.c.j.!.!.c.r.<.<.<.+.! } } +.j.c.c.r.3.r.3...! } D U J ! *.! R *.d.r.<.*.! ! ! +.<.} } <.",
"3.3.<.+.*.<.3.<.7.7.+.<.p.p.r.3.p.A.!.A.V.Y.G.j.d.V..X&X/.!.G.c.r.c.j.p.d.j.c.A.`..X`.!.!.`./.!.V.j.d.j.p.<.*.<.d.c.A.A.j.*.<.V.!.j.p.3.3.j.j.j.7.p.V.A.j.c.V.c.c.j.j.j.j.c.c.j.p.d.j.j.j.j.j.j.c.A.A.A.!./.`.`..X`.`.#X`.!.G.G.`./.A.j.j.A./.G.V.G.l.j.L.~.C.p.<.7.p.d.r.r.p.<.7.d.<.<.V.!./.`.V.j.j.j.d.p.p.Y.Y.3.*.j.j.j.V.G.3.d.p.p.7.7.j.j.c.G.A.r.<.3.r.<.( p.c.j.d.*.( <.<.} p.c.<.} <.} ..<.7.*.*.r.d.d.j.A.j.*...+.r.!.j..X!.j.j.!.V.3.j.c.!.!.!.c.*.#.d.3.( *.t.d.j.3.*...( r.!.j.! ! +.p.r.+.3.A.!.A.j.j.<.( +.<.*.<.7.V.c.3.7.+.*.<.d.p...*.d.r.<.<.3.7.<.<.3.p.d.+.j.G.j.<.7.p.d.r.7.c.G.<.j.7.p.<.R ! *.p.V.j.3.<.<.! N N *.*.r.A.<.! +.j.!.A.<.<.r.d.r.r.3.<.d.A.j.3.j.c.3.7.r.r.p.<.j.c.j.A.d.7.<.3...} <.R N ! <.3.<.r.Y.3...r.r.! D R *.<.<.<.j.j.<.<.j.!.!.Y.A.j.!.!.!.d.3.} ..! <.c.j.3.d.A.+.J ( p.p.p.c.c.p.3.V.j.3.3.3.c.c.c.A.j.7.3.*.( ! <.+.*.p.r...U <.j.A.j.<.<.7.r.G.G.G.j.d.} *.r...! U *.<.3.<.<.!.!.r.+.7.r.*.! <.V.`.p.s r n v } Y.`.A.7.} *.<.R n ! ! ! <.3.V.d.j.d.( ! } 7.7.p.j.j.3.7.d.p.j.j.Y.!.j.! ! j.j.<.} *.p.j.c.7.A.c.r.V.p.} ....<.!..X!.<.( *.J ! ..+.*.3.c.G.c.d...! } +.} ( *.j.<.*.<.p.<.<.<.! C +.c.<.<...N N N N A.<.! +.*...U J R ..+.! ..A.r.<.c.j.3.<.3./.!.<.J <.A.`.!.3.<.j.`.;X!.} ! ! U ( ! } r.!.V.v , @ 3 J 3.j.j.J <.*.<.<.D D N J 7.j.j.V.V.7.} J *.j.c.c.!.A.j.G.A.p.p.d.3.<.p.V.`.!.r.! ! d.G.c.<.<.G.&X.Xj.3.j.j.d.<.p.j.3.3.j.A.r.<.<.7.<.R J ! U ! ! } } ! <.} ..*...! U ! ..*.( ( <.",
"+.*.*.+.<.d.j.j.3.<...<.p.7.6.7.V.!.!.Y.G.G.G.j.d.d.c.A.c.j.d.r.p.A.c.j.p.r.j.Y.!./.#X.X!.Y.!.!.j.<.p.V.j.d.j.p.d.A.L.c.p.<.r.!.!.j.j.p.7.p.7.<.7.j.Y.!.!.Y.G.j.3.7.p.j.A.G.V.V.j.p.d.V.Y.!.G.j.p.j.j.A.!.`.`..X&X#X#X#X.X/.!./.;X&X!.V.j.V.!.A.!.W.l.j.L.!.V.j.3.d.j.r...! #.#.<.r.<.3.A.!.!..X.XV.j.r.r.V.A.V.j.p.3.c.Y.A.V.p.7.A.G.j.3.3.c.Y.Y.!.A.7.*.<.7.+.*.j.V.Y.Y.r.+.<.*.+.7.j.7.7.r.*.<.<.<...<.j.d.7.V.G.r.*.<.+.r.#X!./.V.7.<.!.!.7.7.p.Y.G.j.p...<.p.c.p.3...! +.} ! } ( <.V.j.! R ! *.( ! *.d.p.7.r.p.+.R ! ( } *.j.c.p.} } ! ..! <.3...<.r.<.<.3.p.j.d.p.p.c.A.r.c.!.j.r.r.d.j.p.j.A.j.! j.j.p.3.! ! <.3.j.Y.<.<.3...U N R ! +.3.7.+...<.A.!.7.*.p.p.<.*.( ! <.j.j.<.7.r.<.<.<.*.r.r.p.c.j.d.r...( <.<.<.p.7.+.+.<.<.<.<.A.d.3.j.p.R N N U ( ..*.7.j.j.V.r.Y.`.Y.d.3.j.Y.Y.p.7.*.! R ..j.V.3.*.7.<.! ( <.<.<.p.j.r.r.G.j.r.d.d.G.V.j.G.V.r.<.....( <.3.j.R.d.+.( <.3.<.<.+.<.G.Y.!.!.V.j.7.! 3.r.7.<.! <.d.j.j.c.G.!.d.<.<.} +.*.d.j.Y.V.J f z h N j.`.Y.p.3.r.<.! n U } <.<.+.j.7.j.j.*.p.A.j.<.<.p.d.3.r.3.3.Y.A.j.`.!.( n ! V.j.7.3.7.d.V.<.<.<...<.R J <.d.c.`.`.G.b.+.} ( } p.r.7.r.j.Y.V.7.<.} } ! } ! J <.3.*.*.<.} ! *.( r.j.<.C J D n h w r +.} <.7.( *...U U ....D C ! ( 3.d.<.*.! n ( ;Xr.s h c v <.} ! } r.!.!.! N N U ! U ! 3.Y.V.n 3 ; e D +.Y.!.} J ( 3.d.+.( ! ! ! <.r.j.j.r.<.*.j./.Y.j.V.A.G.&X!.j.p.7.<.7.j.V.G./..X<.! j.Y.r.<.! J ( A.!.d.c.V.G.j.A.!.c.3.3.<.+.<.7.j.p.! C ! J ( ! ! <.<.7.+.+.*.<...! } 3...! ( *.",
"} *.<.+.7.V.c.j.3.<.} *.<.<.7.d.V.Y.G.G.A.G.!.!.V.d.r.r.r.p.d.d.j.Y.A.j.d.r.c.Y.j.V./.#X!.Y.G.G.A.j.!..XY.c.V.j.C.!.!.l.d.j.Y.#X!.G.Y.d.7.7.r.r.c.!./..X`.!.Y.j.! ..<.3.j.V.A.A.V.p.r.j.j.c.c.j.7.j.V.G.Y.!.#X;X;X&X&X.X!.!.!..X&X#X`.!.G.A.V.d.j.j.j.C.!.!.W.G.j.j.d.a.<.| <.<.<.d.<.<.d.r.j.Y.#X!.!.j.3.j.G.c.7.r.7.j.j.c.V.<.7.V.A.V.V.A.!.Y.G.A.G.j.<.3.p.7.<.p.j.Y.!.j.*.<...<.<.<.<.p.V.V.r.<.*.! +.d.d.j./.V.<.*.3.<.7.j.!.j.3.<...j.G.j.<.3.A.j.r.r.<.d.r.j.7.j.d.<.7.+.<.j.j.r.j.p.<.+...<.....<.r.+.! 3.r.*.! ..*.+.<.G.V.<.! ..! ! ! <.3.<.<.7.<.7.p.p.j.j.p.r.j.j.<.j.Y.j.j.d.p.p.3.p.V.j.! p.r.<...} ..r.R ! V.p.d.A.j.<.! R ( +.<.c.j.<.3.j.V.r.7.j.j.*.} ( ( <.r.c.j.p.7.3.3.<.+.j.j.<.d.j.<.p.+.! *.<.<.j.A.j.7.p.p.r.<.A.j.3.7.d.+.( ! N R } <.c.P.V.G.+.c./.A.! ! <.d.j.r.j.j.<...! +.j.j.3.3.7.7.r.<.+.<.r.j.j.7.j.d.3.7.d.G.c.j.G.V.r.<...<.+.<.<.d.j.3.+.*.7.7.*.<.<.p.!.j.d.G..X`.!.j.V.d.3.r.7.j.V.V.d.A.c.c.7.3.<.*.<.<.7.<.} ! U ! +.+.! <.c.A.G.!.A.<...N U <.j.j.*.r.7.d.d.D } j.d.3.r.c.j.<.3.<.<.j.p.7.#X&X<.N N <.A.j.<.<.r.V.<.} D ! *.( +.G.!.Y.G.!.<.r.7.r.<.3.j.c.V.j.p.A.G.p.<.<.<.} *...J <.*...} +.! ! <.3.G.j.*.! ! ! <.D r i k N R U ! } 7.! D ! ( ! ! ..3.<.*.<.<.s 3 f `.j.y a c f ..j.Y.j.V.A.r.! } R J +.<.*.} <.7.! 2 O e 3.c.!.!.<.7.7.<.<.<.7.p.3.N *.d.j.3.( } *.d.G.j.<.2.7.c.;XA.r.<...+.r.V.A.<.p.#Xj.( p.j.3.} <.U k ! r.d.!.Y.!.G.Y.!.A.3...! ! ..7.j.<.R ! ! J ( ! ! <.7.7.<...! ! ! D ! *.+.<.<.7.",
";.*.+.} 7.V.d.<.7.3.+.+.+.<.d.j.c.!.G.A.A.Y.`./.Y.c.d.7.r.j.A.j.G.Y.G.G.c.c.!.!.r.r.c./..X!.A.V.V.Y.!.!.c.p.p.c.c.V.V.l.j.c.Y.!.A.!.!.d.d.j.c.V.A.!.Y.!././.!.j.r.j.d.p.j.c.c.c.V.p.d.j.r.r.j.c.p.d.c.V.j.G.`.#X#X.X;X.X/./.!..X.X`.&X#X!.A.j.r.<.p.j.V.G.W.!.!.G.d.<.3.<.( } ~ <.7.} +.<...7.V.!.A.A.A.7.<.j.j.<.7.7.p.3.d.!.d.j.V.j.j.G.!./.Y.c.d.j.A.d.7.j.G.p.p.p.j.c.r.+.+.+.<.3.d.p.d.!.`.d.<.<.<.3.j.j.V.!.7...<.3.r.d.+.d.<.} <.<.j.j.j.<.<.j.7.<.r.3.V.7.+.! j.&X!.j.( <.j.j.*...<.7.p.<.p.7.r.r.j.<.( *.7.<.*.3.<.<.r.G.p.<.*.<.! ..<.d.d.7.7.<.<.r.p.j.j.j.7.<.3.<.} r.V.j.A.r.<.3.<.<.d.j.<.<.3.+.! +.+.<.N N 3.j.!./.G.j.<.<.3.r.j.d.r...<.3.<.( <.j.d.*.} *.*.7.d.!.!.!.j.3.3.7.3.c.j.! *.7.<.j.7.3.d.j.j.Y.A.j.j.A.c.j.p.G.j.<.+.p.<.r.7.! +.<.7.V.3.+.p.R j.`.A.<.+.*.3.j.7.j.j.<.+.U ! 7.j.j.j.j.A.j.*.! <.j.A.Y.V.A.j.<.+.<.d.p.3.c.j.<.*.} <.<.<.+.( ( ( ! ( <.r.<.p.j.V.Y.! v D d.j.Y.!.G.!.} <.c.!.A.G.j.G.A.j.<.<.<.7.r.<.( +.<.*.r.j.r.7.} <.A.!.Y.Y.j.<.( v D ! ..<.} <...7.d.h h *.<.<.r.r.7.*.<.7.3.7.+.<.G./.j.<.+.( !.G.d.r.r.p...! } 7.c.j.A.`.!.r.*.j...+.7.j.<.<.d.j.Y.Y.j.Y.!.p.3.p.p.+.} ( ! <.! } } *.....7.j.c.7.! ! D C j.t.p.<.R ! C U +.! 3.+.R J R U ..j.j.<...c.p.h h d.!.r.q 8 C ( d.!..XA.A.<.N N <.! N +.d.7...} 7.j.k * 7 R j.`.`.Y.!.G.<.} 3.j.c.<.*.j.j.j.r.+.+.<.3.7...R ( <.p.!.d.<.+.+.<.j.G.!.N c j.j.} <.p.G.p.p.U z <./.G.A.!.!.!.Y.Y.A.7.( ! ....<.<.U C R ! ( } ( } *.<.3.<...! ( ( ( ..<.<.d.c.c.",
"<.<.*...j.!.j.<.7.p.3.<.+.<.c.V.G..X/.!.A.G.!.A.Y.G.c.p.p.A.G.j.V.j.j.c.c.A./.!.j.r.d.G.!.V.j.V.!.#X!.j.p.*...p.d.r.j.C.C.A.c.a.j.G./.j.Y.!.G.j.j.V.d.j.G.!.!.c.Y.!.G.j.j.V.j.j.j.<.d.G.A.c.A.A.j.d.V.Y.G.!.&X.X`.`.;X#X.X#X/..X`.!.#X.XY.c.r.p.j.N.N.a.5.j.G.!.!.r.( ....( *.*.3.d.<.7.j.<.p.Y.`.d.<.p.7.*.7.7.<.p.j.c.7.d./.V.p.V.j.j.V.A.G.A.c.<.r.V.j.r.V.`.!.c.p.p.p.3.<.<.( ..7.A.j.r.A.G.A.d.c.V.Y.!.j.A.c.*.*.7...<.j.} <.+.} 7.j.j.3.<.<.} 3...} 3.<.j.+...} c.j.( +.<.<.7.<.} ..7.p.3.7.j.d.r.<.d.<.} ! <.<.<.3.*.} 3.r.! *.j.*.J 7.c.V.j.r.7.+.*.p.r.d.p.7.+...<.3.*.7.j.j.A.<.( *.*.+.*.3.+.! r.3...A.<...! ! } <.A.Y.j.A.V.j.c.j.G.!.c.<.j.j.*.} r.<.7.<.+.<.*.<.7.!.!.!.j.! ! *.+.d.7.J ( <.<.p.7.7.j.j.V.V.<.! 3.V.d.j.p.A.j.<...7.<.d.c.<.j.j.7.<.N z *.R A.&XG.j.*.! } 3.<.r.*.} ( } 3.j.j.G.#XV./.V...! 3.j.j.d.G..X!.d.<.<.<.3.<.j.r...} ! <.*.<...U D ! ! D j.A.j.j.c.G.V.c : , N ( c.!.3.V.3.r.!.!.j.G.j.G.d.<.*.} +.j.A.j.<.j.G.V.c.j.+.*.U ! j.!.A.j.r.<.} N R J v D ! <.+.j.!.z h <.*...! N U } <.c.c.d.<...<.!.!.c.c.3.A.Y.j.V.p.<.! } r.p.3.3.j.A.d.R ! ..+.! N 7.<.} +...<.7.3.j.Y.p.j.Y.!.7.! J U } ! +.<.<.<.+.3.j.!.c.3.<.<.! c././..XV.<.J ! U ! J } ! D C N } !.G.3.*.V.A.+.*.d.#X!.f - r ..r.<.Y.j.B.7.! ! j.3.D ! +.+...*.3.j.A...! h k <.c.!.!.!.<.+.j.!.V.*.d.d.3.d.A.V.j.d.....R U *.j.j.j.c.d.3.3.d.j.G.!.! n d.7.C ( <.j.d.V.7.! 3.c.j.V.j.c.G.A.j.j.3.! ! 3.<.3.r.*.( ! R ! ! ! *.} ! <.<.*.+.+.<.<.+.( <.j.G.A.",
"3.<...! <.j.p.<.7.<.7.<.*.p.Y.G.!././.!./..X!.j.G./.!.j.j.G.Y.c.c.G.c.j.j.j.G.G.A.j.*.7.j.<.<.p.!./.!.A.<.R +.j.A.j.r.r.d.j.a.<.j.v.!.G.V.!.G.r.3.j.j.7.j.Y.G.j.!./.c.d.Y.!.j.j.3.<.j././.!.G.d.d.!..X.X#X#X`.`./.`./.`.#X`.`.&X/..X`..XV.d.3.3.j.j.g.7.7.<.>.j.<...( +.7.*.<.<.r.j.3.7.j.j.j.j.c.j.7.3.<.+.3.j.d.j.j.A.r.<.V.j.*.3.j.j.d.p.j.V.d.*.d.A.p.r.j.A.G.A.d.d.d.p.6.*.+.7.G./.r.+.j.G.V.c.j.j.j.A.G.j.!.r.( +.<.3.7.<.<.d.! ( <.<.r.7.*.<.<.+.+.<.p.r.j...} j.A.r.+.3.p.j.r.<.7.<.r.<.7.r.<.<.( +.+.! D ..r.d.*.<.<.r.j.p.*.<.+.} d.j.3.d.<.<.p.<.<.<.3.<.*.( ..r.3.*.<.c.j.<.} } ..*...+.+.*.} ( <.7.3.R +.p.<.7.<.<.V.Y.!.j.d.p.<.j.V.V.d.3.<.p.j.3.*...3.j.p.! +.<.j.d.j.j.3.*.} <.7.7.} R ( 3.p.<.*.3.3.d.p.( } d.j.p.3.*.3.r.j.3.<.*.j.j.*.<.j.j.3.c D 3.7.c.j.A.j.p.! ! <.3.<.( ! +.r.c.A.Y.!.!.j.d.j.j.r.<.c.j.} ! r.G.r.*.<.*.<.<.7.7.*.+.+...p.d.<.! J } ! U d.d.J.j.p.A.;X} 0 9 k 7.G.c.*.j.<.*.!.A.j.c.A.c.3.....*...A.!.A.3.A.A.G.p.( ( ! ..N D r.j.*.+.<.3.D ! ! } ! } ! ..3.A.j.*.<.+.z e i h } j.*.r.p.! 3.$.A.!.V.A.j.!.G.c.d...} U U 3.r.<.} +.r.+.N ! D ( ! ! <.*.! r.<.<.<.*.<.j.c.c.!.j.<.<.! U ( ! +.<.j.<.! ..j.j.7.r.<.<.j.!.!.!.j.<.! D C R *.U C R ( ! 3.j.#XA.3.j.G.j.<.! <.!.#Xj.r 7 v f c !..X!.A.p.j.r.*.! ! C N ..3.<.j.G.j.c.<.! j.d.A.!..Xd.<.7.3.r.p.c.7.N D <.;X#Xj.<.R U ! *.j.p.<.p.V.3.<.p.A.j.G.j.V.G.r...} } <.d.<.7.r.j.7.D J p.j.V.V.d.j.d.! } j.V.c.j.j.c.Y.! ! K C U U R ..! +.*.! U ! ( ! } d.A.j.",
"7.7.3.+.<.7.<.<.<.} ( ( ! <.j.A.Y.!.!.`.;X;XY.7.p.c.c.d.j.G.A.d.j.Y.!.A.p.3.j.G.!.G.<.+.<...*.3.c.Y.Y.G.d...<.j.A.c.r.<.7.j.l.j.7.<.p.j.A.!.V.<...p.c.c.c.j.d.p.d.V.c.j.G.c.j.A.j.d.c.!.!.!.!.A.j.!.`.`..X.X`.`..X`.!././.!.!.!.!.`././.j.p.7.d.N.j.g.<.+.5.1.<.*.7.r.3.j.j.j.*.<.j.7.<.j.j.j.d.7.3.+.<.7.3.p.j.j.d.p.j.<...j.r.*.7.j.z.j.j.c.G.7.+.d.V.r.3.j.A.V.V.c.A.Y.G.c.<...7.V.Y.r.<.j.A.V.7.<.3.d.c.j.r.A.j.7.7.<.+.<.#.Y.c.! ..<.+.<.<.*.<.<.+...<.j.V.j.+.! *.p.r.<.+.*.+.<.p.j.7.7.<.p.*...7.+.<.3.} ..3.d.d.+.<.<.<.c.V.r.3.<.<.d.p.+.3.*.+.<.<.<.*.p.d.j.p.7.j.p.3.7.7.<.} ..<.3.r.r.<.*...+.+.<.d.A.<.3.j.d.G.j.d.#Xj.p.7.7.<.! ..A.j.<.+.<.r.j.<.! ! ..*.3...+.+.<...<.*.7.p.*.r.c.j.*.! ! <.r.*.<.r.<.<.3.} ..p.p.7.<.*.p.r.p.d.r.3.<.+.! <.j.r.<.R ..p.7.c.j.c.Y.c.( ! 3.<.<.p.<.<.3.3.<.7.c.Y.A.j.d.r.7.+.r.r.+.! ..p.7.+.<.<.! ( *.+.! ! } +.3.V.j.d.! D ! ..<.3.d.7.<.j./.<.h r a U r.3.U 3.7.R ( <.j.A.A.*.*.! } *.} r.r.r.+.7.( ( <.! ( <...R ..j.p...} ..+.N R <.<.} ( ! ..3.Y.Y.7.<.D w w w 7 s U D <.j.j.V.( d.!.G.j.+.( j.j.p.p.d.R N ! *.3.d.*.+.+.r.*.R ..+.<.j.7.! *.3.7.<.} ..<.<.d.V.p.} ..} ! +.! <.d.<.D ! } *.....3.j.c.!././.Y.V.7.} ( } ..<.R R 3.Y.p.p.A.;XG.*.} ..} ....<.c.!.V.N w y e h !.#X!.A.j.j.+.U D J ! ..j.Y.j.j.3.!.#X!.!.Y.! +.j.!.Y.A.V.<.} <.( !./.U 1 N !./.<.! ( 7.j.j.3.*.3.j.<.*.<.j.d.j.V.A.j.+.! *.<.<.!.p.<.7.j.7.C n ( A.!.V.V.j.d.<...d.A.G.j.7.j.!.c.<.R ! ..} ! ! *.*.( J R } +...} <.3.*.",
"<.7.p.3.<.<.<.r.<.! R ! ..<.d.G.G.G.G.!.&X;XY.3.<.3.<.<.d.Y.!.c.j.G.!.!.V.j.G.`.Y.G.<.! } *.<.7.c.G.A.V.d.*.*.7.p.c.l.j.L..X`.!.c.7.r.V.!.!.A.<.} j.!.`.!.c.r.3.c.Y.!.!.!.d.3.j.c.j.j.A.A.!.`./.G.!.!.!.!./..X`.`.`.!.!.!.!.Y.!.!./.!.!.j.d.7.j.j.N.C.<.! i.N.g.<.j.j.3.j.c.L.r.*.j.p.*.3.j.j.<.*.*.( +.3.7.d.j.p.<.<.r.*...7.<.<.r.j.j.c.A.Y.!.r.+.3.r.*.<.7.j.G.!.!.!.A.A.A.r.7.j.A.A.j.d.c.A.!.j.j.j.j.p.r.7.j.r.<.<.+.+.<.<.Y.d.! 3.7...<.<.+.7.p.<.+.<.j.!.Y.3.! } <.<.r.*.<.<.p.V.j.7.p.<.j.} } d.*.<.7.} r.j.c.j.*...+.<.p.Z.j.7.r.p.3.*.<.7.*.+.<.<.7.r.j.j.G.v.j.c.j.p.w.+.} +.<.7.j.Y.d.<.<.<.<.<.} <.G.p.d.j.j.G.j.j..X3.<.d.d.<.! +.!.A.<.( ( +.<.*.! +.3.<.d.p.*.} <.<.3...r.j.*.j.G.V.r.<.*.7.r.! *.j.3.+.<.( ! +.3.<.*...r.3.r.V.A.c.<.! R <.j.<.<.3.r.d.7.j.c.A.!.!.j.3.r.p.r.<.<.7.j.j.<.*.d.G.j.j.j.j.j.+.<.r.3.<.( 7.j.<.<.<.+.<.3.<.! ! ..<.!.*.h } 7...<.<.*.3.<.+.! <.Y.j.*.N h U <.<.! <.p.*.} ! <.c.!.<...! <.j.3.<.U ! <.+.n N ! R ! *.J ! d.!.!.V.A.!.r.! ! 3.<.3.*.+.*.<.d.j.<.*.U a e e 7 i D J p.!.3.p.C ..G.Y.7.! J r.r.<.A.Y.( C ! +.<.A.3.<.+.p.j.! ! ! ..j.p.} ! <.+.J } r.r.3.3.j.p.+.+.<.+.*.( J <.3.! ! ! 3...+.7.j.Y.!.A.!..X;X!.j.j.j.<.! ..+.j.;Xc.7.c./.G.7.*.! U ( <.<.! R U N N *.! C V..X!.!..X/.3.! n C ( *.r.V.c.j.g.Y.( U G.`.<.j.V.G.V.j.j.<.U } 3.V.;X!.q 5 N 3.r.<.3.A.Y.j.<...<.r.*.} ..d.d.d.d.j.j.<.+.<.*.} *.! ! ..<.( J U J <.3.j.!.j.<.<...3.c.Y.p.+.d.Y.A.r.<.+...+.*.+.d.j.<.! } +.} ( R ( ..*.",
"*.<.p.d.j.d.p.V.Y.j.7.p.j.j.c.!.A.V.c.V.!.#X!.j.p.3.<.<.7.j.j.d.Y.!.G.!.V.p.j.I.c.c.3...3.j.j.d.V.A.j.r.<.! ( *.1.d.r.3.C..X;X;X/.j.<.p.G.!.G.<...j./.`.`.!.p.+.p.c.Y.!.!.j.3.7.r.r.j.V.V.Y././.G.V.G.Y.Y.!././.`.`.!.!.!.Y.G.!.#X`./..X!.Y.p.7.p.j.N.5.#.j.!.L.d.r.3.<.0.<.r.7.<.j.p...<.p.3...<.<.+.+.<.3.j.V.j.*.<.j.j.7.d.r.7.j.j.j.c.G.Y.!.V.r.3.*...<.3.3.j.G.!.Y.j.j.G.V.G.!.A.j.c.A.V.c.G.d.r.j.j.j.p.<.7.<.<.<.<.+.3.<.3.<.<.c.j.} +.<.+.7.j.p.<.<.7.V.Y.p.+.3.<.<.!.!.Y.A.Y.j.( ! <.*.d.} } j.<.7.j.3.d.V.A.V.<...*.<.r.c.c.3.<.7.<.+.7.<...} +.+.<.p.j.p.d.d.d.j.j.7.3.*.<.<.<.<.j.Y.<.<.d.<.<.<.( *.j.j.G.c.d.7.*.p.Y.r.d.c.p.+.! ..A.c.3.<.r.r.r.3.R <.c.d.j.c.<.<.r.d.j...3.p.! j.V.j.d.p.r.j.j.} ..!.V.<.<.*.} ..3.<.+.} <.3.j.!.`.#Xj.<.+.<.c.r.<.p.7.r.<.7.c.!.!.`..X!.G.A.d.( ! ( r.j.7.<.p.j.r.d.V.A.j.+.<.j.r.j.<.p.A.r.<.} *.<.r.3.+.+.<.3.A.C q ! j.7.p.3.r.d.<.*.! +.r.d.Y...! 3.<.p.<.*.<.<...! <.V.Y.r.*...7.p.<.} v C <.! N D R ! { ( U 3.!.!..X!.G.!.&Xc.<.7.<.V.j.p.p.<.*.+.( ....R h c v R *.! <.<.n } D *.!.!.r.( ! <.<.*.7.7.! R ! <.<.G.j.!.j.j.A.! U ! ..j.A.j.p.!.7.N U <.<.+.( <.<.} ( ( } +.*.J ! ! J ! } j.3.p.c.c.!.3.h h J 7.G.G.A.!.A.+.7.p.p.!.c.d.G.!.Y.p.+.} *.p.7.U 7.3.} ! ( p.3.! 3.G.!.!./.!.r...N R <.<.<.p.r.p.!.d.3 # v d.r..X.Xj.r.7.j.j.! U r.j.!.,XY.j.V.!.r.r.r.c.V.j.j.7.j.V.r.<.+.j.j.j.<.<.d.c.d.+.! ( } *.*.<.} J ( <.U f s <..XG.p.p.7.3.j.!.j.<.j.Y.3.*.} ! ! 3.j.3.j.!.j.+.} ! J ! R } <.p.",
"<.<.7.j.Y.G.c.!.!.!.V.j.7.<.3.j.Y.!.!.Y.!.`..X/.A.j.c.V.j.j.j.j.!./.!.!.c.r.j.!.j.j.7.7.V.Y.j.j.G.!.j.p.<.( ..<.<.<.#.*.j.!..X;X&Xj...<.V..X!.<.7.G./.`.#X`.V.3.*.d.Y./.`.!.j.3.r.d.V.G.V.A.G.G.j.d.c.!.!.Y.Y.Y./.#X.X!.Y.G.Y./.&X/./.#X#X.X7.! 7.5.<.5.j.V.D.j.0.*.<.a.j.<.3.p.<.j.p.*.<.3.*.} 3.7.<.<.p.j.!.`.c.} +.j.j.r.r.p.j.j.j.d.j.A.A.G.!.A.j.7.<.p.r.3.r.c.G.G.j.j.A.G.!.!.c.7.r.d.p.j.7.r.p.p.7.p.d.7.7.<.r.c.7...<.*.! ..3.V.j.+.<.<.+.3.j.d.r.3.<.j.c.p.<.r.+...G.!.G.c.!.!.r.<.<.! *.} ! <.*.3.d.p.c.c.d.j.<.<.7.7.c.j.j.3...<.p.j.p.r.<.....+.*.<.j.3.<.7.3.d.j.3.7.3.7.<.} ..7.j.+.<.j.<.} <.*.3.p.j.!.c.3.! U 7.Y.Y.G.j.<...! ..7.p.p.A.!.A.j.7.+.<.V.c.j.G.j.j.d.j.j.<.j.V...j.j.r.3.r.d.V.G.<.<.&X`.r.d.c.j.r.<.*.<.*.*.j.Y./.&X;XG.Y.V.j.Y.j.<.7.<.p.<.<.j./..X`./././.!.j.<.} R } 7.7.3.p.d.p.7.j.j.r.+.3.j.d.Y.7.<.3.*.+...} +.<.3.<.<.<.+.r.<...3.7.j.V.j.j.j.<.3.! ( ! ! j...( 7.<.<.<...( R } *.j.<.R +.*.+.*.} ! } J ( *.( R ! R R ! D U c.#XV./.!.V.V.`.!.j.r.} A.j.<.7.+.....} *.r.d.} } ..7.p.} <.U h ! +.d.Y.Y.7...J U <.<.( ! ! ( C r.j.G.7.!.G.A.c.+.! ! ..d.p.} ( !.c.! ! +.! J ..*.*.} ! ( <.j.<.J v c N C ! d.d.j.V.j..X7.1 * 4 N j.G.3.r.c.*.j.!.j.A.G.G.G.c.r.<.! +.j./.!...3.c.A.!.p.*.} ! ! p.Y.A.c.j.d.<.J ! } ! } <...*.j.!.n r U <.! <.J C j.`.!.j.+...} !.G.j.Y.#X!.j.j.j.j.V.c.j.A.j.j.V.r.<.*.j.j.p.7.<.7.V.j.} ! *.} ..( <.<.<.j.A.d.N h *.`.!.V.V.j.3.r.V.p.*.r.p.} } +.! J } 3.<.p.A.p.( ! J D ( +.<.3.d.",
"3.<.3.c.!.!.G./.!.!.Y.d.+.+.r.V.!.#X;X#X`..X&X&X!.G.!.!.A.j.A.!.`..X/./.!.!..X&Xj.7.<.7.V.A.p.j.!.`.!.A.p.+.} } } +.<.j.L./.`./..XY.p.p.j.!.`.j.j.G.!..X&X`.!.!.r.V.!.G.V.Y.!.V.A.Y.!.!.A.c.j.j.3.r.j.!.`.A.d.j.Y./.`.!.!.!.!..X`.!./..X#X;X3.U <.<.<.a.N.j.j.p.<.#.<.r.j.<.0.0.7.j.j.<.<.<.( ..3.<.*.7.G./.#X&XG...<.d.r.3.3.d.j.c.j.d.c.V.j.A.A.A.Y.V.j.p.<.7.Y.Y.j.c.V.d.g.A.!.!.c.3.*.*.<.j.<.j.V.j.<.<.p.j.3.+.<.j.7.<.3.*.! +.<.r.j.<.7.<.<.<.r.3.7.7.<.j.j.j.3.<.! ! 3.<.! C *.!.!.G.<.J ( *.} *.*.<.3.p.Y.j.+.<.*.3.d.r.j.p.r.r.*.*.d.A.j.c.j.3.<.7.<.*.r.3.7.p.3.7.j.d.p.p.r.<.+.<.p.j.+.<.j.<.( +.*.+.3.d.G.d.<.( ( j.Y.!.j.<...+.+.*.+.3.j.Y.j.<.7.7.j.7.c.V.j.A.r.3.7.d.!.c.c.j.+.d.j.3.<.r.j.j.j...r.;X.Xc.G.!.A.3.*.+.r.d.r.!.`.`.`.!.c./.`.Y./.j.j.p.7.c.3.7.Y..X`.&XA.<.j.!.j.j.j.<.r.j.7.*.3.d.j.7.d.r.p.7.7.<.7.G.j.3.<.} +...( ..<.7.r.r.<.! d.3.<.*.*.A.G.c.c.<.+.<.! ! ! C ! ! D ! ! ( } ....( <.<.j...z U } <.7.<.! ..! R ( +.! R ! ! J J D j./.<.d.c.p.<.<.j.j.p...j.3.} +.} *.<.<.<.j.G.j.7.} *.r.3.j.*.U <.3.p.r.j.j.r.R N ..<.( ..<.} } d.p.j.<.G.c.j.<.+.! D ! 7.+.z h +.<.( *.<.! U } ( } } ! ! <.p.j...J C ! D ! d.7.7.<.<..X!.s 4 4 c 7.j.} } 7.! <.Y.j.V.!.A.7.} ! *.( <.V.G.V.+.G.A.r.<.U J U C N ..j.p.<.*.<.*.! ....R ! } ( <...!.!.A.7.N 7 7 % , ! `./.d.( } ..V.A.V.V.c.j.A.A.V.A.!.G.j.j.j.a.j.<.+.+.7.<.<.j.r.r.c.j.*.+.<.7.<.} +.<.r.V.j.c.V.3.r.!.!.V.c.j.<.<.7.*.} *...R ! 3.p...U ! ! *.d.7.....! R } +.*.} <.",
"r.3.p.c.!.Y.c.!.A.j.j.1.} *.j.Y./.#X&X.X/.`.#X&X`.G.!./.c.r.j.!..X&X/.!.!./.`.!.r.3.3.r.c.j.3.j.Y.`.!.V.d.+.! U ( *.d.V.A.~.$X/.!.Y.j.j.7.7.G.c.d.j.V.Y.!.!.!./.c.A.V.7.<.j./..X/..X.X!.A.c.j.j.7.j.j.!./.j.<.r.V.!.!.!./.!.!.!./.`.#X`./.;Xd.} <.<.7.j.a.j.D.j.p.p.r.3.r.<.1.+.d.j.j.<.<.<.*.d.j.j.7.j.!./..X.Xj.<.j.V.d.d.p.j.j.j.d.j.A.c.j.A.j.j.A.!.G.3...7.!.V.<.r.V.r.p.!.!.V.j.3.+.} *.c.3.<.<.3.d.j.j.r.<.( ! *.<.7.j.<.<.3.<.<.j.7.7.<.<.<.<.*.3.7.<.c.j.p.<.<.<.<.3.<.7.( <.G.Y.!.d.<.+.3.<.7.7.r.r.j.!.j.( *.+.<.p.7.<.<.<.p.r.*.7.j.j.j.j.p.3.<.....d.p.j.j.<.<.j.j.d.j.p.r.r.p.j.c.7.<.j.c.7.3.<.! 3.j.Y.d.d.r.r.V.r.r.<.} U R } +.} *.d.c.+.R <.d.j.3.<.r.r.j...! ( <.G.A.3...! <.r.<.+.r.c.j.3.} j././.!.!.G.j.+.+.+.p.V.V..X!.!.A.p.<.V.Y.Y.!.j.j.d.j.V.*.j.#X.X/./.j.<.d.!.G.A./.j.G.!.d.+.<.7.d.7.7.<.j.j.r.*...j.!.!.d.*.} ! ! } <.r.d.j.7.} 7.} } <.3.G.!./.A...+.*.! ! } C J ! N D ! } *.<.3.<.<...j.p...} D <.p.p.+.<.<...} } ! ( <.3.<.3.( <.Y.r.p.d.j.r...<.r.r.*.j.p.t.p.r.p.p.3.+.<.r.j.d.( ! 3.<.j.r.<.<.3.7.+.c./.!.<.R ( +.<.3.3.} j.p.*.<.3.G.A.c.p.j.*.J ! <.( v ! <.+.! ( ..! U <.*.*.*.+.<.r.d.<.r.j.! ! <.<.j.*.<.( } c.!.*.a 7 h C ..+.<.d.+.J +.} j.G.j...U ! <.} r.Y.V.j.<.<.( D N z U ! N n ..j.<.*.( ..( v D ( ! J C C R *.j.!.!.<.h : * @ + 7 C d.j.( N <.7.7.j.j.<.<.3.j.j.G.!.G.V.c.V.A.G.7.<.<.p.<.<.V.c.j.Y.c.<.<.7.7.3.<.! U ! <.<.( j.j.p.A.`.`.V.d.d.r.3.+.*.3.<.} J ! 7.d.<.} ! ( 7.p.7.7.*.! ( ! ! J ..",
"j.j.j.V.V.j.r.c./.j.7.3.<.p.G.Y./.!.!.A.G.!.`..X!.A./.;X!.j.A.!.!.;X&X!.V.V.G.c.j.j.j.j.V.j.3.j.!..X!.V.j.3.*.( *.r.L.Y.c.!.&X/.`.A.7.r.<.<.V.j.r.j.j.c.!..X.X/.!.!.V.7.<.j./..X/.#X#X!.G.V.c.j.j.c.j.A.!.p...r.G.!././.`.!.V.j.V.!./.A.j.!.r.*.<.<.<.<.<.l.+XN.C.L.Y.V.Y.c.V.r.p.j.p.+.+.7.j.`.;X.X!.!.`.!.!.!.} } A.Y.d.j.r.r.j.j.d.j.Y.V.j.A.Z.p.j./.!.3.! 7.j.p...3.A.<.<.!.!.d.7.<.*...*.j.3.( ~ 7.G.!.A.r.<.<.<.<.+.<.j.+.*.<.<.<.V.j.p.p.3.<.<.+.<.3.<.V.j.<.*.3.p.7.<.u.Y.A.Y.!.j.G.V.A.3.r.<.p.3.<.+.*.A.j.+.<...+.3.<.*.<.+.r.j.<.7.p.c.3.r.d.3.} ! <.G.c.j.j.+.( r.r.j.j.j.j.j.r.7.j.V.3.j./.G.V.c.*.<.j.!.p.p.d.r.p.U ! <.3.R D +.3.<.+.7.j.<.! <.3.7.<.! ..<.j.<.<.! ! d.j.<.} $.<.<...! <.c.c.j.r.c.Y.!.!.G.j.d.3.*.+.r.A.Y./.j.G.p...! 3.p.j.Y.r.d.7.j.p.U j.;X/.#Xr.j./././.`.#X;Xj.c./.G.d.p.p.<.3.*.R 3.j.r.3.7.j.!.G.<.( ..<.! ..<.3.<.<.+.U ! U R ( ! <.c.!.Y...r.d.<.} ..v ! ! N R ! <.j.<.<.<.<.<.<.*.p.j.7.!.Y.j.} *.j.j.d.} ..7.j.A.G.c.3.! j.j.r.*.r.j.<.! ! ! ! 3.j.G.G.G.A.j.3.! U ! <.j.*...j.3.j.j.! R *.3.( c.`.!.G.p.p.p.c.r.*.<.r.3...! ! <.j.c.j.c.3.( +.<.*.+.} <.3.3.<.*.} ! 7.<...} ..p.V.j.r h 7.<.+.<.*.c.<.j.....<.j.Y.N h N C ! <.<.<.! R J D p.G.j.} U ! j.*.*...N N U ( h f J C ! } N ! j.`.Y./.Y.G.G.( ! *.*.! ! ! ! ..} r.Y.7.v 2 : $ % = 8 R j.p.<.r.<.<.j.Y.p.<.<.7.d.G.j.j.G.A.V.A.A.<.*.p.c.j.A.A.G.Y./.V.*.<.j.<.r.r.+.! <.c.A.+.<.<.7.d.!.`.p.3.j.j.<.+.<.j.p.j.+.R ( <.<.*...! <.r.7.3.*...*.( U C +.",
"d.c.G.!.`.G.j.!.#X!.c.7.<.7.A.j.c.V.j.d.A.!./.!.Y.V.Y.!.!.Y.c.3.c..X`.s.3.d.d.j.c.p.j.j.r.3.<.<.d.V.A.c.3.<.<.! ..d.!..X#X[.~.!.!.d.r.7.a.V.d.<.7.d.j.3.j.#X.XY.c.V.j.j.j.V.G.!.`.!.A.!.!.c.c.j.j.c.c.j.j.d.d.z.!.!.!.!.!.c.r.p.V.V.j.r.7.7.3.<.j.j.<.3.V.Y.!.V.V.G.A.V.G.!.A.j.3.r.3.} } j.`.`./.`.!.!.!./.p.<.} <.j.V.A.c.c.A.A.7.c.!.c.d.d.c.!.A.G./.!.p.3.j.p.3.7.V.!.j.j.!.!.j.<.<.3.+.+.7.<.( ! <.d.j.A.j.r.*.<.3.<.7.j.d.7.r.7.3.r.r.<.+.<.r.j.*.r.7.+.<.d.<.<.<.<.j.c.!.A.p.p.r.7.!.&XA.+.<.3.7.<.p.<.<.3.7.7.*.*.+.j.j.*.<.3.<.3.7.<.r.V.r.j.j.<.<.<.3.j.c.c.!.<.D r.j.j.!.r.j.Y.<.r.!.`.!.A.!.V.<.<.<.3.r.r.j.j.d.c.p.! ! <.*...<.( ! <.+.<.j.3.<.<.d.r.+.+.! 7.<.<.3.R *.3.<.*.+.<.} ..7...+.3.j.!.r.<.c.G./.!.j.r.d.+.<.j.!.#X`.Y.V.j.r.<.<.<.<.A.*.+.*.<.} ! V..X`.c.p.c.!.#Xd.Y.!./.Y.j.~.!.G.G.7.<.3.} ! ..<.3.j.Y.`.!.!.7.......} <...} +.! J R ! ( <.7.( ( ( 7.j.j.d.<.j.j.j.<.<.+.+.+...<.d.<.r.<.d.p.! ! j.!.!.<.p.7.( 3.r.<.j.+.<.!.c.p.<.! <.<.<.7.j.7.<.A.G...! 3.r.6.c.`.p.j.!.c.<.<.3.<.!.V.V.3.3.p.j.d.r.( ! } p.V.#X!.!.Y./.!.d.<.N J N ! 3.*.! <.<.R 3.j.*...<.<.r.j.<.( ..<.+.! ! <.<.! n R <.! p.Y.n v <.V.j.3.<.j.} +.} ! <.} r.7.<.<.! ! *.( U R C <.<.!.c.j.*.<.3.p.p.*.k c f h c c N R N N R v <.&X&X#X!.!.!.!.d...*.p.3.} ! ! ! <.<.7...N N a 4 7 h ! ! } *...<.<.2.A.G.j.d.<.<.G.Y.p.7.p.j.V.!.A.c.<.j.Y.j.G.!.A.Y.!.G.d.*.3.c.r.*.! <.j.j.d...+.<.r.U U } +...d.j.( ! r.r.d.j...+.....+.! <.+.+.<.<.<.<...+.3.! ! <.",
"j.V.A.!.`.!.c.G.!.!.V.j.j.j.V.c.d.l.j.p.j.!.!.!.!.V.G.!.A.V.V.j.!.!.c.<.r.c.j.j.7.<.7.3.r.j.3...+.7.r.<.*.*.3.*...a.!.[.`.!.Y.A.G.p.<.<.d.V.j.V.7.r.d.r.V.&X#X!.j.j.V.!.`.!.G.!.!.V.j.c.c.j.V.j.!.`.!.j.d.r.d.j.G.!./.!.V.d.r.j.V.V.c.j.d.d.p.r.d.3.+.r.c.j.c.G.Y.G.G.V.c.Y.A.r.<.3.3.<.<.j.!././..X`./.!.!.3...<.<.7.j.j.j.V.!.G.j.G.Y.j.d.d.j.!.!.!.`.!.j.7.j.c.r.<.c.`.`.!./.!.c.7.r.j.j.<...+.+.*.3.<.<.j.d.<.( ! +.3.j.G.j.c.j.d.p.<.<.*.( ( <.A.d.j.d.p.V.j.<.3.7.c.V.j.j.j.<.( +.j..X.XV.} <.3.7.<.3.<.<.p.j.p.<.r...+.3.....<.3.<.<.*.<.j.7.j.r.<.j.G.G.d.G.A.Y.j.<.c.V.Y.G.Y.p.r.j.j.Y.!.`.!./.A.} ( 7.j.<.} d.j.<.7.7.<.*.<.+.+.3.<.} ! } ..<.! ! +.p.7.....<.A.r.3.*...j.j.<.<.r.j.7.<.<.! ! *.j.`.Y.p.A.!.!.!.Y.Y.c.d.Y.!.Y.!./.G.V.A.7.+.*.3.7.j.*.U ! ....} c.!.!.j.c.G.V.!.r.d.j.d.d.d.!./.G.Y.j.3.r.*.} *.*.<.j.Y.&X`.`.j.<.*.} ! ( <.<.*.+...} +.7.7.j.*.( +...d.j.j.<.<.<.j.c.3.<.<.<.} +.3.7.<.*.7.r.} ! } } r.<.r.<.3.d...D 7.+.r.!.<.R ! N R <.7.j.V.j.p.c.j.*.*.j.c.3.<.j.j.<.c.`.r.*.V.!.G.G.!.j.j.j.j.j.d.+.J ( V.!.`.!.!.<.j.!.3.} ! R D ! +.*.( ..<.*.d.j...( <.<.p.j.3...! ....! D C U ! ( } +.! 3.j.<.<.<.d.!.c.3.j.C ! ..J <...+.<.U ( J U <.<...! } 3.<.d.v z R r.! ( ! ( J C v <.! C N D c c R J j..XV.Y.!.A.V.`.`.j.3.<.<.+.! N ! ..! ! R *.j.( C J ..<.( <.p.7.c.j.j.j.c.j.7.( ! d.A.j.j.j.j.c.Y.A.j.7.c.Y.d.c..X!.Y.j.r.*.( <.!.j.} ! +.p.d.7.} ! +.<.n h N ! r.d.j...! +.<.j.j.3.3.*.....! ! *.<.*.} } } ! } <...*.r.",
"j.G.A.A.Y.V.j.j.G.!.V.c.c.p.3.3.j.c.j.r.j.A.!.`.A.j.c.A.j.d.j.A.,X.XV.d.A.!.V.c.j.7.<.<.p.c.p.*.} 3.<.....*.<.<...3.j.V.j.j.a.7.<.*...*.d.j.p.j.j.d.j.d.G.&X#X{.G.A.A.!.`.!.!./.!.A.p.r.p.j.!.!.&X;X/.A.j.c.c.V.G.!./.G.j.d.j.V.!.!.!.!.!.!.!.Y.!.G.j.A.A.j.j.c.!.!./.!.G.!.G.<.<.<.3.p.j.A.!.!.!./.!.G.V.Y.p.7.p.....7.d.j.V.A.j.j.!.!.A.j.p.j.V.!.!.!.!.c.d.V.V.r.*.<.p.j.G.!.Y.!.V.d.c.V.r...7.<.7.j.j.p.p.+.j.3.! ! <.j.`.`.!.j.d.r.<.<.3.<.3.<.c.p.f.<.*.<.<.+.<.7.G.j.3.<.j.r.+.*.c.!.Y.A.r.<.+.+...r.r.j.!.!.j.p.p.( ..r.7.<.r.j.7.<.*.+.7.d.j.<.} d.G.A.j.!.Y.c.A.A.A.G.c.c.&XY.3.j.A.!.&X!.V.V.d.! U <.7.*.( 7.p.*.<.+.<.<.*.+.} } *.( J *.r.j.*.} ! } <.} } <.G.p.r.*...j.p.+.( ( 7.Y.!.r.! R } j.!.`.!.Y.!.!.A././.V.j.!.!.j.j.A.G.j.A.j.<.( r.!.!.7.<.<.+.<.3.V.c.Y.j.V.A.r.c.j.j.A...7.j.!./.!.`.!.j.j.7.*.*.*.<.p.A.#X`.`.A.j.j.7.*.! p.j.<.3.<.! ( 7.<.p...( j.r.<.<.<.+...+.p.j.*.<.j.d.3.3.r.A.V.r.<.*.} ( ! R *.<.j.j.j.!.c.j.*.! <.A.<.+.d.p.! ..<.6.j.c.A.!./.c.7.p.p.( ! 7.`.7.3.!.p.! <.<.<.r.A.c.G.j.j.G.3.<.J +.!.!./.!.j.! ( A.c.j.c.3.r.7.+...( +.j.c.c.j...<.d.*.*.r.j.<.( ! ! R N c ! r.V.<.*.} <.3.*.j.3.3.Y.G.p.3.*.7.7.D } ! N N N ! D D } <...! <...J ..h a n ! ! } D ^ ( ! N <.<.R N N N U ! N V.!.7.d.V.7...<.A.V.j.7.<.<...U <.3.<.*.! <./.j.3.+...} ! <.A.A.A.Y.V.7.7.j.<.! ! r.!.!.!.Y.V.j.p.p.d.j.I.V.3.d.V.V.V.j.p.w.7.j.c.p.*.( ( *.r.j.} R +.V.3.! Y +.Y.j.7.! N D ! d.d.r.<.( ! ! ! U ( ..( R ! ! U } *.+.3.r.",
"j.Y.Y.V.c.j.j.c.j.j.p.j.V.j.7.3.j.A.V.d.p.j.c.G.j.p.j.c.j.j.A.!./.Y.c.j.!.`.A.j.!.j.r.r.p.r.<.<.<.d.<.} *.<.<.<.<.4.<.<.*.<.*.| ! ..<.r.j.j.p.3.G.j.j.d.j.G.!.!.!.!.G.c.G.!.`..X.X!.d.7.r.V.#X&X.X!.A.A.!.!.!.Y.Y.!.Y.V.c.A.A.A.G.A.Y.!.`./.!.Y.Y.`..X!.A.A.V.j.A.G.!.!.A.V.j.3.<.<.7.j.Y.!.!./.#X`.G.c.j.j.<.<.j.( ( p.j.c.V.c.7.d.V.G.V.j.j.G.V.!.!.!./.V.j.Y.A.j.3.+...3.j.!.c.!.!.j.j.G.p...7.<.3.A.A.j.7.U +.3...+.3.d.Y.!.j.<.*.<.7.d.j.j.j.r.j.7.j.r.<.<.*.+.3.<.A.p.j.V.!.!.j.c.!.!.Y.!.J.d.*.( ! r.j.!.`.G.c.G.j.<.j.!.G.r.j.V.j.j.r.} *.j.c.<.( 7.A.Y.<.A.G.j.Y.!.!.!.!.A.j.j.( U c.A.`.!.j.<.( } ( ! } } } p.d.<.<.<.<.*...*.*...( ! <.j.j.d.<.+.} *.*.<...<.p.*.r.<.( <.<.<.} ! <.G.j.*.R ! 7.Y.c./..XY./.!.A.!.!.G.j.j.c.d.*.j.`.V.!.V.r.+.j.#X!.j.V.<.! ( r.V.j.G.c.V.V.7.j.!.!.!.7.Y././.!.!.`.G.A.j.r.*.....<.p.c.!.!.!.Y.!./.c.p.! p.j.<.j.7.! ! <.<.y.+.*.!.!.*...<.<.<.*.<.3.! } j.j.3.*.} p.7.<.} ! ! ( <.3.( U ..7.j.!.Y.j.+.D } j.!.!.A.!.7.} ! <.r.<.3.j.G.j.*...*.! ! c.j.<.! *.7.<.+.J J +.p.r.c.d.p.j.<.+.U 3.!.Y.!.Y.j.!.c.V.c.A.`.!.j.A.3.+...3.c.3.*.( ( j.!.<.+.d.!.c.*.J D U U J ..p.j.*.*.*.<.<.! <.*.*.7.A.!.r...<.<.J ! C c n N ! R U ! ! ! ! 7.7.! <.! J ! <.r.d. .! ! <.! C N ! ! ! <.r.+.J <.j.<.<.3.<.( ! ! +.<.*.+.<.7.3.7.d.j.r.! ( V.!.j.*...7.d.j.Y.V.Y.!.V.} ! <.<.+.<.p.G./.`.`.Y.j.<.<.d.V.j.p.d.j.3.d.d.7.7.7.<.<.+.<.3.<.( ! 7.A.j.<.7.c.3.<.<.V.A.j.r...R U ! *.3.r.*.....} } ! ! } ! T ( ! C ! +.! <.<.",
"d.V.G.A.A.Y.!.`.j.r.p.A.!.Y.A.d.A.Y.j.<...*.<.r.3.p.j.V.G.!.`.!.G.V.c.j.V.G.d.3.V.d.<.<.<.<.*.<.r.j.<.! +.<.*.<.3.<.+.| | *.<.| ! 3.A.V.r.d.c.d.V.j.j.d.7.r.d.A.!.`.!.G.!./././.G.G.j.j.j.Y.&X#X!.c.j.A.!.!.!.!.!.!.Y.G.Y.!.!.A.Y.V.c.A.!.`.!.G.j.!.#X!.A.!.!.G.c.V.j.j.r.<.<.j.p.r.d.A.!.!.!./..X`.!.A.j.j.! U <.R ! 7.7.3.p.p.3.7.j.V.j.7.d.!.!./.!.!.!.j.d.V.V.j.d.7.r.d.j.d.r.c.A.d.j.!.r.! <.*.7.A.V.j.j.<.( 7.7.d.j.j.d.p.d.7.*.<.d.p.<.<.<.<.r.+.3.<.<.G.3.<.<.} d.p.!.;X;X&X!.`.&X`.!.!.j.j.r.<.! +.<.V.!.V.j./.A.r.c.G.Y.j.V.V.j.!.V.<.*.j.j.<...<.j.Y.7.c.!.!.G.G.V.A.`.Y.+.<.( ! !.V.!.`.;Xj.} V.!.<.d.<...j.j.+.*.3.j.<.+.} 7.j.<.} <...U R J R ! ..<.3.<.*.<.*.p.<.1.<.<.3.7.p.j.3.<.} ! +.A.!.! <.!.A.G.j.p.c.j.d.!.Y.G.A.r.d.!.G.V.<.*.p.Y.!.j.!.!.r.R ! 7.j.3.j.j.r.p.7.r.Y.V.d.7.G.!./.!.!.!.Y.A.p.3.+.( ..*.7.c.Y.!.!.Y.!..Xj.r.! <.3.<.j.r.+.D R *.p.7.7.V.V.+.+.3.7.( ! ..*.! ! 7.r.<.*...d.*.<.<.+.U N C U C J +.r.j.!.!.!.7.R } *.V.j.U 3.c.*.} 3.<.( ( *.+.<.+.*.p.3.7.!.} ! ! ! ..3...! U ..<.3.c.j.j.j.3.} R d.!.Y.A.7.<..X.XY.!./.`.!.3.Y.j.3.<.3.p.( D D ! d.A.7.7.G..X!.7.! R ! ( } *.*.*.! ! ! ( +.....! ( +.p.Y.7.} <.<...( C U U C J C ! ( D J ( r.7.R ..! <.j.!.!.!.<.U ! r.p.*.N <.3.<.V.!.j.7.*.7.<.<...3.7.*.! ( ( ! *.V.!.A.Y./.!.j.( N ! p.G.r.*.j.V.A.Y.j.r.d.d.+.} 3.<.3.3.7.p.j.G.!.!.j.j.c.A.A.r.c..Xj.<.j.c.d.7.3.<.<.} <.<.<...! <.j.j.p.j.j.p.d.<.<.7.*.+.} ! ! ! ( +.<.} +.<.! ! U ( } ! R } ! D } <.J ( <.",
"p.j.j.V.!.`..X`.A.j.c./.`.!.G.p.!.!.j.<.+.+.*.<.<.r.j.A.!.&X#X!.V.j.j.p.j.G.j.j.j.p.+.} <.r.r.<.r.d.<.! ! +.} *.<.*.#.#...<.<...+.c.;X.X7.3.c.j.d.j.V.j.7.<.<.j.#X.X!.Y.G.j.j.j.p.j.V.Y.Y.!..X~./.Y.G.!.G.A.!.`.!.!.!.!.!.!.!.G.Y.c.p.r.j.Y.Y.c.p.j.Y.V.c.!.!.Y.G.Y.V.j.j.<.3.G.G.G.A.Y.!.!.!.!.!.!.Y.G.j.d.! J <.*.7.j.7.<.j.A.7.7.d.G.j.<.7.j.Y.G.c.j.j.p.7.p.p.r.r.p.r.7.<.*.<.d.V.d.d.j.3.<.r.<.<.j.j.j.A.G.j.j.j.V.Y.A.d.r.j.d.<.<.d.p.<.<...<.<.! ..( } V.p.<.*.} 7.p.!.G.!.!.A./.`.!.!.G.j.j.7.<.! ! ! <.r.r.+.V.!.j.c.A.Y.A.!.A.j.!.G.7.p.c.p.<.<.<.p.c.j.j.G.!.V.A.!.!.c.!.c.r.r.G.;X!.p.<.!.`.A.!.c.<.!.c.<.r.j.<.3.3.j.<.*.! *.c.3.<...! U *.+.+.} ..*.<.<.3.d.j.c.3.d.+.( <.3.3.r.*.7.7.*.3.A.V.N U ^.!.Y.c.A.!.3.c p.Y.c.c.V.3.<.<...R } j.Y.Y.j.!.!.V.<.<.d.j.+.<.7.<.<.3.<.G.A.p.} *.d.!.`.Y.Y.`.c.<.<.+...<.<.3.V.Y.#X.Xj.d./.A.j.*.<.<.*.<.+.*.D C ..<.7.3.<.<.<.} +.+.C J +.<.*.( *.+.( ..*.j.j.<.<.<...! ! R ! V.!.G.!.!.A.Y.<.R ..U ..! h } r.<.+.} ! ! } <.<.r.3.<.3.3.3.j.r.+.p.p...! ..r.( U } j.j.U ! j.*.! ( j.j.c.j.<.d.j.j.<.d.c.c.j.<.G.Y.c.p.*...! R ! ! } <.3.j.!.`.!.j.<.<.<.( ( <.*.+.! ! C R ..<.<.R ! } ! +.<.<.+.R ( <.*.p.7...! R <.7.} ! +.j.<.D ! ~ r.V.j.+.j.....3.+.} ( D j.G.d.d.3.! ( <.<.r.d.+.3.d.r.J U R Y ( j.!.d.d.!.!.3.J c N <.`.A.3.7.d.c.!.G.+.} *.<.<.<.<.+.<.7.7.p.A.!.c.3.r.V.j.r.+.c..X! h ! <.<.+...*.+.} *...*...( 7.j.c.j.7.<.7.c.*.! <.! ! ! U D U ! ( ( U ! } R U ! 3.<.( R ( ! U } 3.R ! <.",
"p.d.j.V.!.!.!.Y.V.G.Y.`..X!.Y.j.c.Y.Y.A.G.V.p.<.r.j.c.Y.`..X!.A.V.j.j.j.j.j.r.d.j.j.<.3.V.G.c.7.*.7.7.( ! } ( *.*.*.<.<...#.<...<.A.&X&Xj.3.j.d.3.p.V.j.7.<.<.d.#X.XY.h.p.3.3.p.3.d.j.V.j.j.Y.Y.`./.`.!.c.V.!./.!.!./..X/.!.!.Y.!.!.c.j.c.!.!.V.<.<.7.7.p.A.Y.Y.!.!.!.!.!.c.c././..X!.Y.!.!.!.!.!.!.!.A.d.7.! ! *.<.r.r.<.<.d.j.d.r.p.j.7.*.r.j.r.p.p.3.3.d.d.<.3.<.r.d.<.*.<.3.<.r.G.j.p.7.3.A.c.7...3.j.r.d.c.j.7.j.c.!.Y.7.<.j.d.3.<.3.3.<.3.7.3.r...<.<.<.j.r.<.+.*.7.j.Y.s.<.j.j.!.Y.j.Y.!.G.j.<.+.( +.( *.3.r...d.j.r.d.d.G.V.Y.c.d.V.j.3.j.A.r.<.r.r.j.G.!.A.V.G.G.A.Y.Y.d.Y.!.r.<.A.!./.! f c *.j.<.C ( c.V.<.<.j.j.V.d.7.<.<.+.*.<.*.r.*.! ! 7.<.<.7.r.3.<.<.d.G.!.G.d.p.! U <.3.+.<.<.3.3.<.3.j.G.+.p.c.j.A.G.G.Y.+.q J j.3.<.c.<.! J ! } <.d.d.c.j.c.j.j.<.<.p.c.*.} p.c.r.r.<.!.!.V.+...7.!.!.d.p.!.A.<.<.<.<.d.d.j.A.A.&X!.R N G.`.!.s.<.<.<...( ..+...<.( +.*.*.<.p...! ( N ( r.p.3.+.*.<.*.7.V.!.!.<.( +...<.r.r.j..X!.c.!.c.! v D N <.} ! ! C ! R } ..! ! ! ! ! ..+.} ! ! <.j.j.<.R ! 3.+.U ! r.} C ! V.d.h k *.! U <.j.7.j.j.r.Y.j.c.<.<.+.J ( <.A.!.!.G.3.! ! ! ( ! U ( 3.c.!.!.!.A.c.V.7.} ( +.<.<.*...J ( *.r.j...R +.} +.p.p...V C ..7.7.<.*...! ! +.( ! ! D J v U ! <.r.<.3.V.<.3.7.} <.<.! d.A.} n N N U ( } 3.j.7.j.c.c...! ..<...<.j.j.j.!./.<.U R *.A.`.Y.d.j.A.G./.G.d.*.+.<.} ! +.! <.p.p.r.j.V.d.<.d.!.j.r.3.V./.U r N ( +...( } ! ( *.} ..( ( d.V.j.d.r.*...3.! ( +.*.<.*.! U R U ..} R ! ..( ( *.A.r...! ! R D ! 7.} ! +.",
"r.d.V.!.!.!.Y.A.G.`./.`.#X!.!.!.j.A.G.Y./..X!.V.G.G.!.`.#X/.G.j.d.r.c.!.A.d.7.j.j.j.j./.;X/.j.<.! <.j.<.} +.+.<.<.1.d.0.} ( *.#.+.7.j.V.j.3.p.d.<.<.d.r.<.....<.!./.G.r.3.r.d.j.r.p.7.3.*.<.j.V.!.!.!.A.j.G.!.!.!.Y.!.#X.X/.!.!.G.!.G.j.c.Y.A.j.d.3.7.<.r.Y.!.!.!.G.G.Y.G.A.!./..X;X`.Y.!./././.Y.!.!.Y.d.7.( ..<.<.<.<.3.r.r.7.3.3.d.V.r.<.d.r.<.r.p.<.<.c.V.<.<.+.3.j.r.<.r.j.2.3.A.Y.c.p.<.Y.Y.j.<.p.j.<.<.r.j.<.p.j.V.c...( ( +.<.<.<.<.<.<.7.<.p.+.*.+.} *.<.+.! } *.V.`.c.j.!.!.!.Y.p.j.j.A.j.7.3.*.<.<.7.7.p.3.V.<.*.p.<.j.r.d.p.r.j.p.<.p.V.r.<.7.3.d.c.G.V.j.!.`.!.Y.j.d.j.j.3.+.3.V./.c.N e e U +.! !.d.j.7.j.A.j.j.d.d.r.7.c.j.....p.<.( ( <.! <.V.!.V.3.3.j.G.G.c.j.<.+.} p.G.c.r.*.<.3.3.r.3.A.7.j.Y.A.Y.!.s.V.!.*.r.&XG.p.c.j.<.^ +...+.7.<.3.p.j.r.r.*.+.r.G.3.} 7.!.j.r.+.j.j.<.7.<.d.Y.G.3.3.!.!.<.<.<.r.A.G.!.A.c./.r.r 8 r.&X.Xj.<.r.p.<.<.<.( <.<.J ! } p.A.d.+.! ! N ! 3.3.3.*.*.1.+.<.c.c.j...( } D J <.j.!.Y.d.p.V.j.+.C D N <.*.J U } C N ! ....<.<.*...3.<.<.} ! 3.j.<.p.} N +.j.<.( ..! ! <.A.Y.<.<.<.} ! <.d.<.j.r.3.j.<.p.<.G.V.( p.A.!./.!.!.G.r.p...! R ! +.<.d.Y.!./.!.!.!.p.+.<...r.7.+.( N ! ! <.j.<.! p.G.j.7.<.*.( U ..3.( } <.7...! ! ..+.! ! *.N R <.<.( ( <.c.j.j.<.*.j.+.! *.r.} ( j.<.n ! } <.d.d.Y.Y.Y.A.( +.d.+.! 7.c.3.r.j.<.( <.<.d.j.<.! 7.c.j.G.j.r.<.3.j.<...<...<.j.7...<.j.j.j.j.Y.<.<.<.3.V.! J +.*.<.<.*.+.! ..<.! ( } ..j.j.j.<...( ..3.! *.} 7.p...D R ( U ! } ( } <.*.! } j.<.! ! ! ( ! ..7.*.! ! ",
"r.j./..X!.c.j.A.!.`..X!.!.c.p.p.A.!.A.j.A.`.#X`./.Y.!.;X;X#X/.d.<.7.A.!./.!.p.<.3.V.!.j.( ! 3.j.+.*.<.r.3.+.} +.<.r.l.p.<.#.~ ! ! <.+.<.+.} 7.r.3.j.d.d.j.d.j.d.Y.G.V.j.p.p.j.A.d.j.p.r.r.3.r.r.V.!./.!.Y.!.!.!.!./././.&X#X!.G.j.j.c.A.j.r.p.j.r.7.p.d.j.Y./.G.!.Y.Y.Y.V.j.A..X.X#X!.!.Y.!.!.!.!.!.G.A.j.r.<.*.} <.j.7.3.V.A.j.3.*.7.j.r.*.<.<.*.<.<.3.<.r.c.7.7.<.<.j.G.C.A.j.<.d.d.7.r.r.p.c.G.c.3.<.p.7.*.<.c.c.j.j.j.V.j.3.<.<.j.r.} ..p.! } 7.r.<.7.<.+.*.3.7.! } <.j.j.d.V./..X/.!.3.<.<.r.r.d.7.<.3.r.<.*.<.<.G.A.j.r.r.d.} } <.*.3.d.<.j.A.A.<.<.d.j.A.V.p.<.c.!.V.c.j.A.j.j.!.V.j.d.V.j.( v y r ! !.`.`.c.j.c.A.A.j.7...3.j.d.j.7.( p.3.7.<.! ! } j.!.!.j.d.j.G.A.j.j.p.+.*.d.A.A.Y.<.<.3.r.j.7.<.+.d.j.3.j.!.} <./.!.Y.A.G.d.j.<.r...C ..<.3.<...<.j.3.c.d.<.p.V.c.<.p.Y.A.j.r.r.<.7.7.p.j.<.d.<.! 3.d.7.j.d.r.d.!.!.c.!./.7.k 4 ! !.#X!.7...3.<...<.( } <.<.j...d.`.c.+.! ! ( <.! <.r.<.<.A.Y.<.c.c.p...+.! ( ! R c.A.! D <.V./.Y.j.j.! ! ! J ! D } N C +.+.<.r.3.r.7.j.j.<.! 7.*.J <.*.N ! d.3.....! +.<.c.j.V.!.3.+.! r.V.j.j.! <.3.! } <.V.j.R j..X#X!.!.j.`.Y.7.( ! ! +.+.r.j.A.`.V.G././.j.3.( ! 7.j.p.+.! R D ..*.+.R r.c.7.( +.( R R ..<...R ( 7...( } ( <...( } N J ( D N C ( ( <.!.j.+.r.! J D <.!.A.G.!.<.( ! } *.p.d.r.j.j.<.*.<...R 7.<.+.! ! R ! ( ! ! N ! D 3.G.j.A.j.<.( 7.G.3.3.r.j.j.j.<.7.r.<.`.!.c.! e R 3.r.<...! 7.3...} *.+.U +.<.<.R *.} +.3.<.*.R ! <.*...! ! } <.} R ..( ! ! ! } } *.7.p.C ( 7.! R ! ..! ! <...} *.",
"<.3.c.Y.Y.c.r.d.!.!.!.Y.Y.V.j.n.`./.A.j.V.!.!./.!.G.G..X.X`.#X!.3.r.V.!..X`.j.*.<.j.Y.r.} <.c.!.A.3...<.d.r.+.! ! #.<.....| U J +.<.*.<.+.( <.<.r.V.j.j.V.G.A.j.d.j.V.j.p.7.d.V.c.V.A.!.!.G.c.p.A.!.!.!.Y.J.A.G.Y..X#X`.`./.Y.A.j.j.c.c.p.3.d.c.r.p.c.G.Y.`.&X/./.!.G.j.p.d.j.A.!.!.V.G.A.!.!.!.!.!.G.G.V.d.3.<.*.<.p.3.3.j.V.c.7.*.<.j.j.<.! ! ..*.3.d.<...3.r.j.V.V.L.Y.L.Y.c.d.j.r.3.r.j.c.A.j.p.<.*.r.7.<.<.V.j.t.r.r.3.<.<.<.3.j.3.( U +.( ..*.....<.<.<.<.A.j.*.3.p.d.<.} d.Y.V.p.j.r.r.<.r.j.d.<.3.j.j.3.( *...7.d.c.j.<.<.*.3.7.*.<.p.d.j.c.d.} +.p.d.r.V.d.3.j.A.c.V.V./.G.j.Y.V.j.r.j.j.<.! N R 3.V.!.!.G.Y.!.!.!.c.7.<.p.j.7.d.j.<.j.j.d.j.<.} ..j.Y.!.G.A.A.Y.A.d.j.c.j.7.r.V.A.Y.j.} } <.j.V.c.r.c.r.<.<.!.A.j.G.V.G.<.3.( ( +.j.<.R *.r.d.<.*.j.!.!.!.j.d.A.!.G.<.d.G.A.A.j.p.<.d.<.<.7.<.j.j...} 3.j.c.7.p.3.j./.!.G.!./.A.! ..<./.!.p.<.<.*.! } ( *.j.V.`.j.j.V.j.c.3.<.j.j.! J ( ! ( p.V.3.d.<.3.<.r.7.( J } j.j.<.p.<.U A..X!.!.7.( <.j.V.3.p.+.7.} ! r.p.<.j.j.j.Y.!.<...R R } *.! ! ..( ( ..+.<.<.p.<.<.j.<.*.! +.<.<.3.U U +.+.( } d.<.U <.j.!.!.!.j.!.j.( ! } ! ( ( 3.j.A./.Y.V.j..XY.3.} D +.p.3...! U N U ..<.! *.*.} ! } ! C D ! ..( ! ! +.! ! ( ( *...! ! R U J C C J 3.j.d.A.G.!.A.U N ! j.!.<.! p.<.J J R ! ..<.*.r.r.} } +.( ( j.<.<.*.! N N D J ! } ..! c.`.A.!.V.7.3.j.G.<.3.d.j.j.Y.d.p.c.d.!.A.p.<.N ..<.<.} ! ..r.3.+.( ! ! ! <.r.<.R ! R J ! *.+.! ( *.+.( R ! +.r.r.*.( ! ..+.! R U ! <.c.p.3.d.! ! ( ..! ! <.} } <.",
"! ( <.d.A.A.j.c./.!.!.!./.!.!.#X.X`.Y.V.Y.!./.#X`.Y.Y.`./.!..X.XA.c.G.!.&X;XG.3...<.G.`.#X#X!.A.!.3.! <.A.Y.p...J ~ ( Y ~ | ! } d.j.d.d.r.<.r.7.r.j.7.r.A.G.j.p.7.j.A.A.j.j.j.j.j.d.j.G.A.c.V.j.j.V.A.A.G.V.c.G.A..X&X`.!.A.V.V.p.7.r.r.<.<.7.d.r.j.!.`./.`.#X/./.Y.j.r.p.j.G.~./.c.d.Y.L.!.!.!.`.!.!.!.!.G.j.p.*...<.<.<.r.j.c.j.r.d.!./.j.+.! <.<.p.j.<.! <.d.c.`..X!.A.V.c.p.7.r.j.j.j.j.j.r.j.d.7.p.j.d.<.<.j.7.<.r.7.+.} +.j.3.<.<.7.*.7.3.d.d.7.r.j.j.p.j.<.} R 3.V.c.7.<.<.j.d.+.7.j.c.3.7.j.p.*.7.G.c.<.+.<.*.<.3.j.d.+.7.<.7.r.<.*.<.<.<.r.<.! +.d.j.d.j.p.r.c.G.G.!.!.G.d.*.r.p.<.! +.<.j.} n ! r.j.!..X!.j.<.7.A.G.j.d.V.Y.j.j.j.7.j.*.*.j.j.j.j.c.A.Y.!.!.G.G.G.j.A.V.`./.Y.`.G.c.j.<.! R 3.A.A.<.<.<.<.N <.Y.V.j.j.3.D +.! U ( 7.+.<.r.j.d.} } j.!.j.A.G.Y.!.!.A.<.<.p.d.Y.!.A.d.A.3...} ! 3.j.3.+.<.A.j.+.<.! ! 7.3.j.!.!.;X/.!.j.!.!.j.7.<.<.<.<.<.<.d.Y..Xj.V.V.!.`.A.c.`.A.3.! ( ( *.j.!.A.V.3.<.r.j.Y.p.<.G.c.p.j.<.U U V...! j.!.j.p.j.j.7.<.C r...! +.! ( p.G.d.j.#X!.+.N +.! +...! J U ! ! R ! } <.} +.d.7.3...+.*.} ..J n ! *.! <.!.V.} } 3.G.!.Y.d.!.c.! ! } ! *.<.3.d.V./.`.r.D j.!.r.7.! } ..( ! ! ! R U } +.( *...+...} ! N N U ! ! ! ( ! D R ! ! ..} } ( ! U U ! ..<.c.Y.Y.!.Y.c.j.<.! ! } +.k i D } N R ! J ! *.| <.7.( ..*.} +.j.*.+.3.<.R R ! ! ( ! N <.V.N R &Xc.j.c.Y.G.<.<.j.p.7.j.j.V.!.j.p.+.+.r.<.<.3.<.*.*.7.j.r.<...R R ..<.p.*.! ! ! R ! +.+...*.<.<.*.! D ! } 7.p.<.<.<.*.<.<.+.( ! r.d.p.p.( ! ..+.( ..<.! ! *.",
"*.+.<.d.V.j.j.!.;X&X/.!.Y.Y.!.!.!.!.!.Y.!.`..X&X.X!.!..X`.!.`.#X/.!.`././..X!.j.....j./.Y.p.3.A.Y.p...*.d.V.d.+.! } ..! ! #.<.j.G.A.d.r.7.7.j.j.d.7.+.7.A.j.d.d.d.j.j.V.A.V.j.p.c.j.j.d.<.7.A.c.3.d.j.j.V.j.d.j.V.!.!.!.Y.c.j.j.A.j.d.d.p.j.j.j.p.c.`.&X`.!.!.!..XG.d.p.d.j.G.`.#Xj.p.!.Y.!.!.`.`./.!./.`./.G.j.<...<.p.r.r.j.A.j.j.c./.&XA.<.+.j.r.r.d.<.*.3.p.d.!./.Y.V.j.d.3.7.7.j.j.7.3.p.7.p.p.r.d.c.j.j.j.V.d.d.A.Y.j.j.j.!.p.<.p.A.V.!.l.r.p.d.j.c.r.<.<.<...! <.d.p.3.<...j.c.p.j.V.j.*.<.d.3.} 3.j.p.+.! ! ( ....*.<.<.7.3.<.3.3.*.! ! <.d.3.*.*.<.j.j.r.<.<.c.G.A.G.!.A.j.<.j.V.p.( *.<.!.+.h ! j.j.j.G.V.3.! R <.d.7.<.r.c.A.A.j.p.G.<.<.Y.G.!.!.j.r.j.A.A.d.r.j.j.V.7.!.#X/..Xj.7.r.7.....3.p.7.<.r.<.7.C ! 3.7.j.j.<.R *...U R 3.<.3.d.j.j.<.<.j.Y.( 3.c.Y.V.j.j.3.} <.7.!..X.X!.!.p.+.( R ! <.<.*.*.d.d.+.p.<.! +...j.Y.p.Y.`.G.d.c.!.!.A.j.V.V.j...! +.j.!.j.!.;X!.V.G.!.#X!.!.G.A.j.c.A.`.!.Y.d.<.3.3.j.p.d.!.d.U k q c *.<.y k j.`.Y.Y.j.7.r.<.C <.<.<.( U { 3.j.3.*.!.,Xp.c U D U ! U D ! ! U v C R ! ! } <...<...*.3...! ! ! N ! +.7.!.c.*.+.r.G.!.c.*.!.!...! +.} j.A.j.r.j.!.c.n 4 ! &XA.j.*.} ! ! ( ..( R ! R N D +.7.3.! } R n c C ! ! U ( ! ! ( +.<.p.p.( ! N N ! r.Y././.c.j.!.d.n h N ( } ! <.R N R ! ! +.! J U +.( +.r.<.*...+.( <.( D R ! R J J N N N k <.7.8 h .Xj...<.j.Y.<.*.c.j.j.c.Y.Y.!.!.!.<.+.7.d.+.+.<.<...j.V.d.3.3...! ( <.3.! ! ! <.<.+.+.+.+.<.+.*.<.! U J R 3.c.j.d...D ! +.*.3.<.<.( <.3...! ..*.*.<.( ! } <.",
"A.c.c.G.j.<.3.j..X.X!.V.j.G.!.!.G./.!.G.!././.!.!.V.G.`.#X.X#X;X#X&X;X#X!.!.!.V.*...p.G.V.7.p.&XG.c.<.! ( 7.p.<.<...<.#.+.p.C.!.V.V.j.j.j.p.p.7.r.<.( <.j.p.r.p.p.7.7.p.j.j.d.7.Y.!.!.A.d.j.A.p.} <.<.d.c.j.p.j.j.j.V.!.!.V.p.d.j.r.7.7.7.p.d.7.p.V.`..X!.!.!.!./.Y.j.g.d.j.G./.`.c.j.!.A.!././././.!.!./.!.A.j.+...3.c.j.7.d.V.V.l.c.!.#XG.3.<.c.j.r.<.<.7.0.<.<.d.c.V.G.A.j.d.c.j.j.d.3.r.j.c.d.p.7.r.j.j.j.A.G.A.A.!.`.#X`.!.c.7.7.7.r.r.V.r.3.<.<.j.Y.c.<.( p.p.<...+...<.3.<.p.j.j.d.d.<...<.7.<.+.<.<.+.( <.} <.<.<...<.d.*.<.7.7.<.} ! ! 7.j.7.r.3.<.p.j.j.2.3.c.V.j.j.A.j.d.3.j.c.p.} <.<.A.<.! r.A.d...R r.G.j.<.7.p.p.<.*.<.p.j.p.7.j.j.c.!.j.Y.A.3.<.A.!.G.3.<.7.d.V.j.c.G.V.!.c.j.A.d.<.3.<.*.+.<.d.j.!.j.j...! <.*.+.....<.+.! d.j.j.V.V.Y.Y.j.j.j.<.<.<.p.d.j.c.r.d.V.c.!./.#X.XY.V.r.p.r.<.<.<.<.....r.p.!.`./.!.j.j.c.j..X!.! c R p.!.Y.!..X!.j.! ! 3.G.!.d.Y.;Xj.7.G.j.Y./.`.`./.G.V.V.!.Y.!.!.*.<.7.j.V./.#X!.<.N h j.j.! v 3.!.<.} A.A.<.d.3.<.*...! ! ! R U ! ! ! j.#Xc.C N R N U T R ....( } *.<.*.*.r.j.<.( U } p.<.! <.p.! ! +.*.3.3...<.c.j.G.j.! j.!.r.} <.*.c.!.A.p.7.!.<.e + z #X#XG.<.....<.<.*.! C } ! C D *.j.p.R } U N c n J U N J  .<.( ! r.j.3.D C n U ! <.!.!.j.d.V./.j.C h c N ! ! *.! R ! U <.+.! ! ! ..! +.3.<.! D +.} +.<.( J ! ( ! ! ! ( ! ( } ..R ! r.<.<.! <.Y.j.3.V.7.+.<.G.Y.j.V..X3.*...<.! U +...! r.j.d.r.c.j.*.! +...D ! ! 3.7.*.+.+...( R ! ! N U J ( j.!.!.G.<.} +.<.<.<...3.<.7.r.<.! ( *.*...} ..<.*.",
"!.!.!.!.p...<.r.j.A.!.Y.G.!./.!.!.&X.XG.Y.!./.!.Y.j.c.!..X&X&X;X;X!.A.!./.!.A.<...<.3.d.j.j.j.j.c.V.p.} ( 3.p.3.1.| <.r.j.~.&X.XY.Y.Y.G.V.j.7.<.<.<.<.<.3.7.d.7.2.3.7.7.r.r.d.j.!.!.!./.!.!.!.d.} } <.j.c.j.j.c.j.j.j.!.#XY.d.r.3.7.p.p.7.r.p.3.3.j.Y.A.c.G.!.!.V.Y.A.d.d.G.!.!.A.Y.A.V.j.!.#X/..X#X.X/.!.G.c.j...} <.j.j.3.p.j.G.j.j.!.#X!.j.p.c.V.j.<.*.r.<...#.<.3.p.V.V.p.d.V.j.d.d.d.d.d.d.j.j.j.c.V.V.V.Y.`.`.Y.j.V.!.!.c.<...<.<.<.<.j.<.<.! U +.A./.j.( ! *.*.} ..} 3.7.( ..<.7.r.d.3.3.<.<.<.<.<...( +.p.<.3.3.<.<.7.p.<.7.d.p.<...( } 3.<.*.3.p.7.d.G.j.*.<.j.p.7.r.j.j.j.7.j.j.r.*.3.p.V.G..X/.c.c.c.N *.V.A.j.d.d.j.<.} ( ..3.j.j.p.V.V.!.V.V.j.7.p.G.!.G.r.3.j.j.G.G.r.<.+.p.j.c.A.<...*.! ( *.3.r.r.r.p.V.*.+.3.! *.3.<.V.!.j.!.!.Y.G.j.A.!.j.d.j.p.7.<.<.7.j.V.j.!./.!.!.j.Y.`.c./.j.d.j.r.j.V.G.j.<.j.c.G./.`.!.! ..<.<.Y.G.! h <.V.!.G.!.!.j.<.+.d.G.!.Y.d.j.j...7.j...d..X!.Y.!.!.G.Y./.A.!.!.3.<.d.j.Y.!.d.<.3.Y.Y.&X!.3.3.Y.d.N D <.! J <.+.p.j.7...+.} R ! R ! J ( *.7.<.( ! n D C N R R ! <.<...! *.c.!.c.*.! ..d.d.+.7.V.j.<.<.*.<.7.*.3.<.! +.<.N D *.<...*...<.p.G.c.p.G.j.! r v d.!./.p.<.<.<.<.} ! ! *.<.r.<.<.A.j.*.R U ( ! c c U R N +.j.( D <.<.U ! U ! ! n ! Y.c.n } <.d.A.!.!.r.C } ! +.! } *.} <.! ( d.r.r.*.r.!.A.*.D } ! ! ..+.! ! ! ( ..+.<.} } N ( A.p.} r.j.<.<.!.G.<.G.!.3.! ..7.! N r.p.*.! +.( R ( ! ! J U ! +.j.V.<.U 7.+.J ! ! ..<.! } +.( ! U R R v N D *.V.G.G.!.!.r.3.7.<.J h ! p.V.j.p.! ! } ( U +.*.<.! ",
"A.A.Y.A.<.<.c.p.r.j.!.`.!.G.A.c.`.&X.XY.A.Y.Y.!.c.j.c.Y.`.#X`.&X;Xj.<.j./.!.j.( ..j.7.+.<.j.!.V.r.j.p.<.+.<.<.*.1...<.p.C..X$X[..X!.V.j.p.p.p.d.r.d.j.j.<.<.j.7.7.p.j.d.7.7.j.A.Y.G.A.!.#X#X#X!.c.r.d.V.j.d.d.d.c.A.Y.!..X!.j.j.<.7.j.j.p.j.j.r.7.j.c.p.r.j.A.A.j.Y.A.7.3.j.V.j.7.V.V.d.<.c.!.!.#X;X;X`.!.A.c.j.7.<.<.j.c.j.c.j.j.d.j.!..X!.A.j.V.j.j.<.*.<.*.*.<.<.<.*.r.d.<.1.d.7.<.<.3.3.3.r.7.p.j.G.!.!.!./.;X;X!.p.3.j.c.p.<.*.<.r.j.j.c.r.<...R ( j.#X!.r.! <.7.<.<.*.3.<.U ..p.j.j.A.d.p.7.<.<.<.*.( ..<.j.*.3.<.7.r.j.V.p.7.r.p.7.<.<.<.p.<.+.<.7.r.p.A.<...3.7.*.*.<.r.r.7.<.7.<.3.<.<.+.3.c./.p.} j./.<.7.j.V.A.j.j.V.r.<.+.<.3.p.d.7.d.<.d.j.r.! } ..<.7.p.<.3.d.p.j.G.j.p.*.j.A.A.V.<.p.c.+.! ( <.7.<.+.<.3.} 7.7.! ..+.( p.j.3.c.!.G.j.<.p.j.7.j.A.<.p.7.<.3.r.j.c.G.!.!.!.<.p./.j.Y.d.*.<.*.j.G.!.p.+.d.j.V.G.A.V.N *.r.3.c..XY.r.G.!.Y.V.!.!.j.r.3.A.Y.Y.Y.A.j.j.j.V.p.<.j.!.j.<.V.Y.V.Y..XG..X`.A.j.c.A.Y.G.3...! !.&X!.;X;X#X.X*.! d.<.v N <.+.<.A.d.<.7...} <.<.7.! J D } *.<.+.U } ! R ..} <.r.*.! ! *.c.!.Y.j.3.p.r.p.<.r.j.j.j.j.j.d.7.<.<.} ! ..7...D ( j.<.( ( } ( d.d.j.j.Y.#XG.p.<.c.!.G.p.<.<.*...} +.! <.Y.c.<.V.j.c.j.3.A.A.J k C R N ! V.d...<.*.! <.} +.D c <.!.!.3.3.U +.!.#X/.j.U *.<.c.p.j.r.( <.} *.j.3.j.r.p.!.Y.V.*.! ! } D ! +...U ! ..R U +.} R ! *...! } D ..<.Y.j.N <..XG.<.! p.p.N ! <.<.....p.<.+.C } R N ! 7.A.c.<.} } J C ! } +.j.<.} <...! } } ! n D } r.d.j.j.j.Y.j.+.*.7.<.! 7.j.j.p.j.+.! U U C ! ! <.} ",
"A.A.V.d...p.!.d.V.V.!.&X/.G.Y.!.`..X!.A.j.d.d.j.7.r.c.Y./.#X/..X&Xc.r.Y.`.!.Y.r.7.!.r...<.c.Y.<.! ( } ( ( +.<.<.3.<.<.3.j.C.c.A.!.G.c.j.d.j.j.j.j.j.G.Y.<.( <.<.p.j.c.j.r.7.j.V.j.j.p.V.!.!./.&X#XA.A.!.c.d.d.r.G./.`.!.!.!.G.V.7.p.j.j.c.G.A.d.j.Y.A.r.3.j.c.j.p.j.p.*.+.3.3.+.} 7.7.<.! *.7.A./.$X&X!.A.j.j.j.j.7.<.d.c.c.G.j.j.j.!.&X.X!.A.j.c.r.3.*.} ( ! <.0.7.<.| 1.p.<.<.<.7.7.r.j.j.j.!.3.3.7.d.j.j.A.!./..XG.<...3.d.7.7.7.7.p.V.r.7.<.<.3.<.} 3.!.`.A.j.V.c.p.j.p.c.V.7.G.`.A.7.c.j.j.r.*.<.<...( <.r.p.! ....+.} <.j.r.<.3.r.3.3.p.p.d.<.*.+.<.p.p.G.7.t.A.j.<.<.7.r.<.<.*.<.<.7.<.<.} 7.c.V.*...A.Y.J ! <.j.V.7.<.7...! +.d.j.r.d.j.G.+.7.G.r.! ..} J ! <.<.7.p.1.<.p.j.c.<.j.G.A.A.d.c.Y.*.! *.p.7.( 3.d.<.! p.j.3.<.+.+.7.3.+.7.Y.V.7.<.j.7.*.p.c.7.c.d.<.<.7.j.c.j.A.`.#X*.3.`.A.j.d.<.<.<.j.j.j.<.} 3.r.!.Y.j.j.<.d.j.j.A.`./.A.j.j.7.r.Y.A.f.j.j.!.A.G.`.!.G.V.!.r.*.Y.`.&XG.<.G.!.d.p.V.j./.!.!.G.V.A.c.V.!.#X!.j.!.Y.!.!.!.!.+.! Y.7.N U <.+.8.c...<.p.<.7.*.<.j.( ! <.<.R } ! D } ! ! <.<.d.V.<.( ! ( <.<.<.c.c.V.<.<.<.7.j.V.!.j.G.`.A.p...C ! +.7.7.! ( A.j.( } +.! +...7.G.j.!.;X;XA.!.`.G.p.<.p.j.7...! J ( G.A.<.A.G.#X;Xd.G.;Xp.! ..} ! R V.`.j.<.! ( ( +.3.U *..XA.c.3.U i ( G.+.*.!.j.V.d.G.r.d.<.! 7.<.*.} n *.3.*.r.d..Xj.! ! } h n <.*.N R *.U N ! ..! n C <.<.! v R C 3.j.i w s !./.+.+.A.<.*.! ! ! ! c.A.7.N <.*.N ! j.j.<.! ! ! N D ! ..( j.<...7.<...<.*.! c U r.j.r.j.j.*.<.p...<.c.V.j.A.j.} *.j.<.R N C J ! ! <...",
"A.A.j.c.Y.!.!.c.j.Y.`.;X/.G.!./.!.!.!.7.! ..7.j.j.j.j.Y.Y.G.!.c.j.j.c.!.!.!.!.j.j.Y.7.! 7.j.<...} 7.<.! ! ..r.j.j.<.*.3.j.c.j.j.!.j.d.d.7.<.3.r.e.d.A.j.p.3.<.3.p.j.A.V.j.j.Y.`.G.j.<.7.!.!.Y.!.#X!.Y.A.d.r.p.p.A.!.!.V.j.A.Y.G.p.3.d.d.j.Y.V.d.j.V.j.3.3.d.V.V.d.j.r.<.*.7.d.r.r.<.p.3.*.<.r.c.!.!.`./.Y.Y.!.!.!.d.+.r.j.A.!.<.*.p.!.#X.XG.j.j.V.7.#.#.<.<.>.| } #.o.~ o.<.7.j.j.<.<.p.V.A.V.V.r.j.j.<.} *.r.Y.Y./.!.r.( <.p.p.7.p.r.p.A.j.d.<.p.p.r.<.r.`.V.j.j.+.<.c.7.7.V.#XA.!.;XA.p.<.j.d.r.7.d.<.( ( r.+.*.<.<.<.<.( ..r.r.j.p.j.*.+.p.j.j.3...*.<.d.G.G.j.Y.V.p.j.r.A.c.3.3.*.<.<.V.V.d.r.r.G.V...Y.Y.V.7.3.j.c.j.<.<.!.d.<.d.j.j.d.d.c.Y.r.!.`.d.U ! 3.( <.j.7.<.j.p.r.! n *.<.r.j.A.r.r./.j.+.} ! *.7...3.G.r.*.<.p.p.<.7.s.r.p.3.<.j.G.j.j.j.p.j.3.<.<.r.3.<.r.<.*.d.r.p.c.V.r.A.G.G.<.V.j.j.c.r.j.G.d.<.c.j.j.j.j.j.<.<.r.<.V.`.!.7.3.r.3.<.c.d.! r.j.A.V.G.!.j.j..Xj.! <./././.#XY././.d.<.3.3.j.V.!.!.!.!.V.r.p.j.A.!.Y.j./.&X<.j.*.! p.j.3.! ! ..j.d.R ! *...<.} +.<.<.} r.<.U D N R R J 3.G.j.j.d.( U +.} ! R ( 7.j.r.<.! } *.<.c.!.Y.!./.A.Y.} C ! } <.+.+.( } r.*.j.c...p.j...j.j.j.!.c.} 7./.!.A.A.!.G.G.<.R N *.d.d.r.#X.Xr.!.`..X`./.A.j.A.c.d.G.G.Y.j.R ( R +.A.d.G.&Xc.C 0 5 J `.! 5 J V.c.p.G.j.3.p.*.R 3.p.*.! N D } R ! ( .X;Xs.! Q C C ( n ! ! ! } J J } C f v } ..J D <.! N +.p.h @ U Y.7.! ..<.3.} ! R r.*.j.!.( *.<.} ..+.<.} U ! ..! R ! } ( ( *.<.<.r.*.;.j.j.d.} R j.c.A.<.N } A.!.V.Y.`.V.G.p.+.d.V.j.*.! ! D ! +.*...",
"N.G.G.!.#X&X&X!.!.!./.#X/.G.!.!.!.!.j...! } p.c.V.c.A.!./.Y.c.d.<.<.d.!./.!.V.r.c.V.p.<.<.<.! J } <.+.( ( *.d.c.j.p.p.j.j.V.c.Y.G.j.j.j.p.7.r.7.j.d.j.V.A.A.p.r.V.A.c.j.d.j.!..X/.Y.j.j.!.Y.j.j.!.!.Y.d.<.r.d.<.j.V.j.0.7.j.V.c.j.j.c.d.r.j.j.j.j.j.j.j.c.A.V.c.j.j.V.j.d.p.p.p.<.<.7.<.+.<.p.G.!./.!.!.!.Y.Y.!.#XV...*.p.c.Y.j.p.<.c.#X!.j.j.c.j.<.} +.<.<.>.} <.<.o.<.7.7.7.j.j.p.<.<.<.<.7.d.V.A.c.3.*.*...<.d.!.!.j.<.7.j.r.p.c.V.c.!.G.Y.j.<.<.7.p.c.!.7.<.<.} } 7.<.7.c./.<.C A.G.p.<.7.j.j.j.j.<.} <.d.} <.<.7.d.3.....<.r.p.<.j.r.<.3.<.j.d.7.7.r.j.G.c.j.j.r.r.p.+.p.j.7.<.( +.*.d.j.j.3.3.j.c.*.j.j.p.p.j.c.j.j.A.A.!.G.j.V.V.j.A.d.Y.!.j.!.Y.j.! ! 7.p.d.G.j.<.7.7.j.D v *.*.3.d.j.<.*.A.A.r.! N ( j.c.<.<.*.<.<.7.7.<.<.<.<.3.3.<.7.V.d.j.V.r.j.7.r...<.7.p.p.<.*.*.3.<.<.<.3.j.d.c.c.c.7.p.3.+.p.j.r.<.G.V.r.p.G.c.( r.d.3.!./.j.p.p.j.p.<.e.<.U +.r.c.j.j.c.j.j./.c.r.A.`.G.Y.!.V.<.V.V.c.V.c.V.A.Y.j.j.G.c.<.( ..3.V.p.p.!.!...*.<.! <.j.c.<.( ! *.} D } *...<.! N *.7...j.j.( N D U v n 7./.Y.r.! ! ! <.<.*.! +.p.3...} ! <.<.j.Y.G.A.`..XG.!.+.*.} ! ..*.d.3.! j.A.Y././.Y.<.*.7.j.c.!.+.a J r.!.!.G.`.!.j.*.<.p.j.p.d.p.j.3.! <.7.c././.A.A.Y.G.d.j.j.!.Y.! ! <...V.G.!.Y.d.*.i n <.<.k h c.G.*.3.A.j.d.V.7.( <.! D ! } ( ! C R } !.!.d.( D N D ! N D R ! ! ! D ! D N ..r.<.( ( ! <.*.U <.<.y N p.<.} ( J ( <...*.j.*...<.R 3.d.<.( ! ( ! J ! ..*.} ! ! ( ! ! <.<.+.R ! c..X!.V.<.r.c.A.! N <.G.j.<.<.V.G..X!.A.A.V.c.r.*...! <.<.*.+.",
"!.!.!./.#X;X;X`./.!.!..X`.!..X`.#X&Xc.<.<.<.j.A.c.j.c.G.!.V.d.p.7.r.d.V.c.j.j.j.V.j.d.<.} +.<.( ! ..( ! } <.d.j.p.p.j.j.p.j.j.!.V.j.j.c.j.j.j.r.<.r.c.A.A.j.<.+.A.j.7.<.<.r.j.G.!.G.j.c.!.Y.A.Y.Y.!.!.p.<.p.j.3.j.j.p.<.<.r.j.j.j.j.V.j.r.j.j.c.V.j.j.V.Y.G.c.j.3.d.c.V.j.r.7.d.<.<.7.<.....3.V.`.`.!.!.!.V.j.A.c.c.+.*.j.j.j.d.V.<.j.`.V.j.G.A.D.a.>.o.#.>.#.>.1.+.} 1.j.p.5.a.j.j.d.3.<.<.j.V.G.G.A.p.3.<.} +.r.!.!.c.d.j.V.<.<.j.V.d.j.j.c.r.( } <.j.Y.!.<.<.3.<.*.<.<.7.d.A.<.J !.!.3.+.<.<.3.d.p.<.<.r.j...3.<.p.j.3.....+.7.<.} p.p.7.7.<.7.p.7.3.3.j.G.c.7.3.<.j.j...<.7.p.3.<.7.+.*.*.3.3.7.7.j.<.r.<.<.<.c.Y.p.3.V.!.Y.j.*.j.!.G.Y.<.!.`.Y.!.j.j...R <.<.<.j.j.3.*.*.c.<.R 3.r.j.j.d.*.*.j.Y.j.} ! r.G.!.r.<.! +.<.p.d.<.<.p.j.d.7.<.r.j.7.c.G.p.d.<.<.+.<.p.r.<.<.<.*.<.<.! ( <.r.<.j.!.p.*.p.7.<.j.j.<.3.V.!.c.r.G.!.d.!.G.c.!.V.} } 7.d.j.<.<.<.! } <.A.G.j.V.V.c.A.Y.G./.`.G.G./.'...c.!./.Y.A.G.c.W.V.c.c.d.*.! ! j.!.7.r.j.d.+...<.+.r.p.j.r.<.( ..! J ! U C } R N ( <.<.c.p.R N z C k v 7.#X/...h R ! } } ! D +.<...! } <.p.r.Y.!.G.r.d.!.A.!.j.<.+...<.7.~.j.! <.!.G.G.!.j.n N ( 3.d.`.j.! j./.Y.!.A.`./.p...j.!.!.V.A.j.7.} *.j.7.7.V.d.<.V.`.V.j.c.j.!.Y.*.<.3.( j.!.c.} U ..!.;X&XV.7.j.#X<.C *.7.! U *.+...d.<.! U ..7.*.! ! ! ( ! +.! N v D ! } J ! *.} ( ! ! D ! j.A.<.U ( ! ! ! C ( p...<.p.+.+.+.U ( <.7.<.r.! ! ! J ..j.<.( ! ( ! J ! ( <.} D J ! ! D ( <.7.+.! p.`.A.!.A.p.p.A.<.<.Y.7.( ! N ! ! 7.A.G.A.A.G.d.*...! *...*.3.",
"!.!.!.!..X`./.V.d.j.G./.!./.;X#X!..Xj.p.j.r.j.j.!.V.j.j.V.c.d.c.<.3.p.V.c.r.d.j.c.A.j.+.} p.j.*.! } ( ! ..<.d.j.<.3.d.3.*.<.p.G.c.d.j.j.p.d.j.3.<.j.c.d.7.7.<.<.Y.d.3.r.d.p.j.V.!.G.V.Y./.!.!.!.!.!.!.c.r.r.p.r.j.c.j.3.<.3.p.p.j.j.c.j.j.j.c.c.A.j.j.j.c.V.j.j.3.d.j.j.j.d.j.c.7.<.3.7.*...<.j.!.`.!.!.!.d.3.j.A.Y.7.<.c.c.j.j.j.r.A.!.d.j.!.A.!.G.j.7.<.| | <.#.] ] 1.j.a.7.p.<.r.d.7.<.7.j.j.d.j.j.r.3.<.<.r.j.Y.V.V.c.V.Y.<.<.c.Y.r.p.j.j.<.<.<.<.j.!./.d.j.*.<.} +.<.r.r.A./.V.Y.G.j.3.j.*.+.<.3.7.p.p.p.+.*.} 3.d.*.( *.*.p.7.<.d.3.*.<.3.r.r.3.<.<.d.!.!.d.r.<.r.7.+.7.j.j.p.3.7.+.<.7.j.j.j.3.d.7.r.3.<.*.j.!.j.+.<.j.A.r.! d.!.d.G.<./.G.j.j.<.7.<.! *.+.*.p.d.r.*.} j.*.N } d.!.G.d.3.7.j.G.p.*.j.A.r.V } 7.! ! ..<.<.<.7.c.G.G.d.7.A.r.<.j.j.r.7.U ! ~ <.j.j.3.r.j.p.<.<.} } <.*.*.j.!.r.<.V.A.j.V.V.c.V.7.j.G.<.<.A./.!.A.G.j.d.( U } <.3...*.<.! ! ! r.j.d.c.A.j.j.!.G.G./.!.V.G.`.j.c.!.!.j.c.!.V.!.!.c.*.U D N C V./.j.j.j.d.<.*.3.r.d.} ( <.3.( ..<.<.*.C c D N N N J R <.+...+.C *...! p./.G.! z ( } +.} ! } p.d.<...! +.3.7.!./.&X7...A.d.p.c.( <.<.7.3.j.3.U ! p.j.j.j.j.! N C } <.G.!.Y..X/.c.c.j./.Y.p.<.j.!./.!.!.A.j.p.j.A.j.j.!.c.*.j.!.Y.!./.A././.j.!.j.*.p.Y.V.<.} 3..X#X`.`.#X`.!.} ! 3.+.c c U ! <.j.r.p.+.} 3.*.( <.! N D <.<.! D J } *.N R <.3.3.U ! J J r.j...J U ! N D <.r.j.j.!.j.*.*...} <.} +.! ! ! } ..+.} <.! R ! ! D D *.d.d.*.U J R J N ! <.r.<.! <.`.G.G./.j.<.j.p.d.A.c.<.7.J ! D ..V.d.j.c.V.r.+.+.( ! ( <.j.",
"A.!.!.`.;X.XY.r...p.Y.!.V.V.!.G.r.j.<.r.j.d.c.A.Y.p.<.3.V.V.j.A.3.r.d.Y.!.c.j.j.p.A.j.<.p.!.A.<.( } } ! } <.7.<.*.<.3.*.( <.r.c.c.j.j.j.r.r.7.*.j.!.!.c.j.V.A.j.G.r.<.j.c.j.j.!.!.Y.!.&X;X#X/.!.`.!.!.Y.j.7.3.<.j.V.V.d.3.3.r.r.j.V.V.c.j.j.c.c.V.V.j.p.p.j.c.j.r.j.d.7.p.j.j.j.7.<.7.d.r.7.d.j.A.G.V.G.!.d.<.d.!.!.j.d.j.j.j.j.<.j.Y.A.d.V.!.G.C.L.G.V.j.<.| +.+.} ! <.j.j.7.1...<.7.3.<.3.3.<...+.<.+.*.<.*.7.j.A.j.A.V.c.!.c.r.V.!.p.j.V.A.7.3.r.<.p.c.Y.r.r.3.r.*.<.p.d.7.A..X<.} p.c.p.j.<.<.p.p.p.3.<.*.! U D +.3.( ! <.<.3.r.7.j.<.+.*.d.j.r.<.<.<.3.V.Y.j.7...<.<.} r.c.j.p.7.<.<.j.j.V.V.Y.r.d.j.j.j.3.<.V.!.A.7.3.j.A.j.7.A.r.J j.p.Y.7.+.*.! +.<.*.<.3.<.<.*.<.<...j.+.N R *.c.c.d.j.7.d.V.r.<.c.A.*.a C *.! } *.<.<.<.r.d.p.j.j.d.!.A.j.d.r.j.j.! ( <.d.V.A.V.V.V.c.<.<.+...+...3.A.!.V.j.A.G.d.d.A.!.A.U ! 7.} +.j.!.c.r.d.+.<.<.} ..+.*.! +.3.} ( ! *.<.*.<.3.7.p.p.3.3.c.Y.j.j.!..Xp.p.j.7.c..X!.!.Y.c.+.U R ! ( *.d.j.d.j.Y.3.! +.2.3.U U } <.! ..p.j.<.R N N N C c n n C ! r.d.! <.V.j.V.!.d.+.( +.} <...( ..<.7.3.+.R ..3.<.j.A./.j.7.!.7.<.j.<.j.7.<.<.3.} ! <.j.G.A.j.A.<.C ! <.V.!..X!.j.j.j.d.j.Y.r.p.c.j.A.!.Y.G.j.!.!.d...h.!.;X.XA.A.!.Y.G.j.r.A.!.c.!.G.p.7.j.G.`.!.!./.`./.!..X/.A.! <.r.*.D J ! ..r.r.( 7.7.+.<.*.*.r.( D ( <.+.! ! ! <.<.! <.<.j.p.U ( ! J } *.U U ! R J +.c.!.Y.j.A.7.7.7.! R ..R +...<.<.<.( <...<.! ! +...J R d.!.V.7.<.<...! ! *.<.<.<.! *.!.A.d.V.j.+.<.+.( ..V.<.*.N R ! +.p.d.j.j.d.7.7.r.*.( +.<.7.",
"!././.#X;X#X!.j.3.V.`.!.d.7.j.7.} <.+.d.Y.G.!.!.A.3.! <.j.j.p.7.j.j.3.d.A.V.V.V.j.A.j.p.!.#XY.j.<.*.<.+.*.3.<.+.*...*.} ( +.<.d.j.j.V.G.c.j.p.3.A.&X;X&X`.`.`.!.c.<.*.7.p.7.j./.!.A.!.`.!.!././..X.X`.Y.j.j.p.<.p.j.c.j.7.7.r.r.j.G.A.c.j.j.V.Y.Y.!.!.j.p.j.j.d.r.j.p.3.j.V.c.j.j.d.p.j.j.j.A.V.j.p.7.j.Y.j.r.d.j.A.G.G.G.A.j.7.<.j.Y.Y.A.A.!.!.l.V.j.V.W.j.5.<.<.<.] } 7.g.1.+.<.*.*.<.3.7.7.7.<.*.<.<.d.j.r.d.j.A.G.Y.j.p.G.Q.3.r.j.<.d.A.A.3.<.p.p.c.Y..XY.A.!.!.j.c.c.p.<.j.V.J } r.7.d.r.<.<.j.j.<.! ( ( N N N ( <.( ( <.<.<.3.<.r.<.<.7.A.j.r.<.3.<.<.r.p.*.....j.p...*.7.j.j.c.r.+.d.p.j.G.Y.d.j.G.!.A.d.d.G.A.V.A.G.Y.A.V.j.G.d.! 7.7.j.3...+.! ..<.p.3.<.<.} R ..*.! 3.*...<.*.3.r.3.j.A.G.A.p.*.3.c.j.+.! ! ..c.j.7.j.p.j.7.} <.j.d.j.!.!.a.7.j.V.7.d.V.j.V.!./.!.!.G.j.r.<...*.<.A.!.Y.!.V.d.7.+.<.V.G.j.D D } <.r.7.3.d.*.( ! ..<.3.<.*...! <.p.<.4.p.7.*.} ....<.d.<.<.+.*.r.p.j.!.`.*...3.r.Y.&X.X!.j.r.*.! W D ! ( ..*.( *.!.p.! *.r.d.*.( R } ! ( <.<.} ! ! U U ( Z J ! ! N ..<.R ( p.V.Y.A.p.G.c.<.! +.R U ! J } *...! <.<.*.! ..+.<.j.Y.3.7.d.r.j.<...<.7.} ! V.!.Y.V.j.j.( N ! +.G.`.!.d...r.7.7.7.d.! +.j.j.c.G.!.G.7.!..Xj.*.!.;X!.!..X!.A.A.j.r.<.d.c.d.j.V.V.j.p.p.G.Y.Y.A.A.!.!.!.V.j.U ( *.<...! ! ..d.<.R ..( ! <.<.( d.7.<.j.<.D n D D ..} r./.G.V.p.( ! ! ! } ( N D ! ( ( } 3.j.j.j.+.! p.c...! +...<.3.j.j.<.! d.<.! D ! +.@.D N } 7.*.! ! } ! J R ....+.<.R R p.7.} r.c.<.+.+...U <...! n ! 7.r.<.3.j.V.j.r.d.j.*.<.3.3.<.",
"`.&X#X#X.X`.`.!.G.G.!.G.3.<.p.<.*.( ( r.A.G.A.A./.c.<.p.r.} <.+.3.7.<.<.p.d.c.G.!.Y.j.j.!./.!.Y.j.7.d.a.p.r.<.<.*.} ....} } ..<.j.j.A.Y.Y.j.p.j.Y.`.`.#X.X/..X.XY.j.r.3.<.7.A.&X.X!.!.!.d.r.A.!.!.!.!.V.j.V.A.j.r.d.d.r.7.7.r.r.p.c.c.V.A.V.Y.!.!.`.`.Y.j.j.d.p.j.V.j.j.G.!.G.Y.V.c.j.d.r.p.A.V.r.3.3.d.j.j.p.j.j.G.!.!.!.Y.j.r.r.j.V.Y.Y.A.G.!.C.V.j.j.!.!.N.N.j.j.5.<.5.i.7.7.j.*.! } <.<.3.d.*...*.<.p.d.3.r.j.A.!.!.j.r.j.c.r.<.r.<.d.G.c.<...<.<.j.V.`.`.!.!.!.V.A.c.p.*.p.c.3.V.V.d.c.j.<.7.j.p.<.R } ..C R J ! +.} +.3.<.r.p.3.3.<.<.3.V.j.7.<.p.d.d.j.p.+.*.*.c.r.+.<.3.d.j.j.<.! 7.p.V.Y.j.r.j.G.!.Y.V.V.!.j.c.!.!.G.G.G.j.j.V.p.<.<.j.r.r.r.<.7.3.d.<.<.<.+.! <.<.R } R <.j.p.r.7.+.3.#XY.3.<.<.<.j.!.V.+.! <..X!.p.j.V.j.r.<.3.j.r.<.r.j.r.r.7.j.j.j.j.<.j.`.`.!.!.Y.V.c.7...<.p./.`.Y./.V.<...( +.d.j.V.+.( +.r.3.+.! r.*.R +.*.<.3.+.( ! R +.<.} 3.j.p.<.+.*.*.3.j.j.j.<.} *.7.d.c.A.<...<.j.!.!./.Y.<...} ..( J ! <.( ! ! ! d.<.} 3.j.j.3.+.! *.<.+.( +.*.*.*.! R ..U ! <.<.N ! r.+.<.<.r.j.p.p.!.j.<.! *.R R ..! +.<.( U ( ( *.U J D +.r.7.*.r.<.} 3.+.! ( 7.*.! 7.A.c.p.d.G.p.7.j.<.G.!.j.<.+.p.3.3.( +.! R *.r.V.V.!.G.<.V..X!.G.#X;XG.A.`.A.r./.!.!.G.A.A.c.A.V.A.j.r.! ! *.c.p.7.!.`.j.*.<.! ( ..3.7.! C ! <.! ( +.J J ..! v 7.j.c..XV.! c c ! } U 3.!.!.<.C C N R ! } +.U R ! +.( C ! *.+.j.7.*.d.j.<.! ! ! r.7.j.7.+.! d.+.! J R ..<...J R +.+.( R U J J R ! ! ! ( N N *.<.! 3.c.d.*.} 3.R D } R R ..p.p.*.*.j.A.c.d.d.d...p.p.3.<.",
"!.#X&X&X.X/.#X.X!.j.d.d.*...r.7.V.<.( <.p.j.j.j.Y.c.<.7.} N *.7.p.c.j.r.<.<.c.'.j.j.j.j.A.!.!.`.j.<.r.j.p.<.} ..<...*.*.+...( <.j.j.j.c.j.3.*.r.V.j.p.!.;X#X`.!./.!.V.3.+.7.G.&X;X.X&X!.7.<.c./.A.c.j.d.d.A.!.G.p.p.7.3.3.r.r.7.p.j.j.A.!.!.Y.A.!.!./.!.A.j.j.j.c.A.j.j.Y.A.j.A.V.V.d.3.*.<.V.A.r.r.d.j.r.<.r.j.j.!.!.Y.!.c.<.<.3.7.j.c.j.c.V.c.D.G.V.G.[.).L.!.!.!.L.j.p.p.j.!..Xd.....+...*.r.<.<.3.<.7.5.<.p.p.j.!.Y.j.j.j.p.j.<.3.<.j.A.d.} <.<.<.p.p.G.!.!.!.`.Y.!.A.j.3.j.V.Y.j.A.!.A.A.d.j.j.j.j...<.<.! <.! ! } ..<.7.3.<.7.7.p.3.r.3.j.<.*...3.j.A.Y.j.<.p.r.c.7.3.p.r.j.r.7.<.*.j.r.r.!.p.<.r.V.G.Y.!.!./.V.G.!.c.j.!.Y.j.<.<.3.} <.j.<.d.d.d.j.3.7.( +.+...( r.7.! <...7.c.d.p.7.*.j.j.*.v R p.j.G.Y.c.<.( ..!.!.V.G.j.<.p.V.j.p.<.+.! r.j.A.r.j.G.j.G.<.j.!.j.p.V.A.c.G.d...<.r.!.!.!.`.V.+.} *.+.*.3.G.<...<.3.+.<...d.3.! 3.<.<.! ..( ! ! *.+.R <.p.7.<.*.*...} *.G.c.3.*.<.p.f.r.j.3.*.*.c.!.G.!.!.<.} ! ! ! J ! <.R ( p.*...! ( +.*.( ! +.3.Y.!.A.<.<.<.+.*.+.+.( ..! ! ( R 3.!.U 7.3.3.p.<.+.+.( +.( *.D N R J U ( ! ! } ( r.+.N ! *...+.<.p...( p.r...! r.j.7.<.G.A.<.<.!./..X`.j.A.A.} R <.7.7.r.J ( *.U J <.!.j.d.c.<.j.!./.&X!.#XY.G.`.c.3.!.G.Y.!.A.c.d.p.V.3.! ( N z ! /.!.3.j.j.*.! +.N 7.+.<.r.( C D N N ( *.( ..+.! ( ! ..( j.j.+.c h N ! N <./.;X..a f v ( ! J ! R ! ..( ..J C R C ! <.+.<.+.+.} ! +.+.( <...! ! j.*.*.! D J *.r.+.( ! +.( N N J ! ( ..( ! ! U R ......( <.G.<.N <.( N ! N } <.r.r.*.3.d.d.d.j.j.j.} <.+.! ! ",
"`.`.#X`.Y.!..X.Xj.<.7.<...p.j.3.c.<.7.r.3.p.r.<.p.p.*.j.j.*.p.p.<.3.j.<.*.p.!.!.} } <.3.A.;X.X!.p.d.p.p.<.*.<...} +.<.<...} } } r.p.p.3.*.<.d.A.7...c.`.G.!..X!.V.Y.!.V.r.3.j.Y.!.G.!.&X!.c.Y.j.3.j.j.r.r.j.Y./.d.3.7.7.<.d.j.7.d.p.j.j.c.j.p.j.Y.Y.!.!.A.c.V.j.j.V.j.j.j.j.d.j.j.d.c.j.*.<.j.d.r.j.j.j.d.<.p.j.h.Y./.!.!.G.d.+.<.<.p.r.s.j.p.p.j.c.c.!.`./.`.!././.!.Y.c.j.V.!.`.j.*.*.<.<.+.<.} <.7.7.7.r.3.3.j.j.j.V.G.V.j.j.j.Y.d.<.p.j.d.} <.3.p.3.! 3.j.V.!.!.A.c.B.j.j.r.3.A.G.j.p.j.d.<.<.p.d.7.*.<.7.} } +.<...+.<...<.+.<.c.r.<.<.7.V.r.<.<.j.V.j.c.j.3.V.p.7.! ..d.p.j.r.<.d.r.d.r.*.j.7.<.j.d.r.r.G.A.!./.Y.c.j.V.G.Y.V.<.<.<.} +.<.! <.j.3.d.j.} ..} *.*.*.<.3.<.<.<.d.r.r.3.<.d.j.7.R f U d.c.d.V.p.c.<.+.j.Y.`.Y...! 7.p.d.d.d.3.*.7.!.!.c.V.!.G.V.r.j.c.} } 7.d.<.d.j...*.j./.Y.j.d.j.*.*.<.<.<.p.A.j.<.<.<.3.r.3.<.d...+.3.<.! *.3.} <.d...( } *.<.} *.d.<.<.3.p.j.( <.j.j.<.*.<.<.<.<.j./.!.G.A.p.<.+.} ! N D R N ..j.! U ! ( ! J +.( ..Y..X`.#XA.A.3.} d.+.~ ! } ! N } <.! d.v +.j.<.U ( <.! C +.! ! J c N C ! ..<.( <.*.<.<.! R ! ! <.r.c.c.} ! +.*.*.r.j.A...<.r.} ! d.^.!.A.A.j.r.<.} ! ..+.<.3.*...R C ! j.j.<.3.d.d.V.Y.c.V.A.j.V.^.!.V.!.c.7.j.j.j.j.j.!.j.D c N N ! !.V.d.<.7.3.<...R p.3.! +.R J ..*.+.p.j.U ! J ! ! R C ! p.( 3...n J ( +.V.&X!.J a ! ! *.} R ! ! <.+.} ( ! U ! ! N U U ! ( ! ! } 3.*.R ! +...U d.( U ! J W } <...! ! ! ( ..! ( R ! <.( R } ! ! ! ( +.} } +.<.! } <.<...J J ( +.7.d.<.} } d.d.r.j.j.p.! n U ",
"#X.X!.!.!.`.`.!.j.<.+.3.p.p.r.j.A.d.j.j.p.p.7.<.<.7.<.j.d.3.c.j.r.3.j.7.r.c.!.G.*.+.<.<.p.V.c.c.j.c.r.<.+.<.r.*...} ( ! ( } } ..7.7.7.3.7.j.!./.&XV./.`.p.p.Y.!.A.V.c.G.V.r.r.j.j.7.j..X/.A.V.p.j.Y.Y.j.j.c.A.Y.7.<.<.<.<.d.V.j.7.7.r.s.V.G.c.G.!.!.!./.!.!.G.c.p.p.r.7.r.r.p.d.r.r.j.d.<.7.j.3.r.j.A.Y.V.d.j.V.!.!.!.G.Y.!.V.r.d.3.r.r.j.j.7.7.j.j.j.!..X`..X`.!././.!.V.j.j.G.A.3.<.7.<.<.3.<.<.p.7.<.<.p.r.3.j.j.p.j.G.A.c.V.j.c.j.j.p.<.3.3.7.7.p.7.( <.d.c.V.Y.c.j.d.p.j.j.3.7.3.<.7.r.3...<.<.<.<...} <.*.} <.7.<.<.<.....+.<.p.7.7.<.r.d.r.d.p.j.j.r.d.p.3.j.j.p.} *.p.p.j.p.<.r.*.<.<...<.3.7.V.d.<.+.j.Y.c.!./.j.r.j.G.V.c.3.+.<.<.<.<.} j.`.d.+.3.<.( 3.d.r.<.<.3.7.7.3.7.3.r.7.3.<.<.<...C ( <.<.3.j.G.!.V.<.3.j.j.G.<.<.Y.A.p.7.p.r.+.<.V.!.j.j.Y.G.c.3.V.V.3.3.d.p.j.p.7.*.r.G.`.V.<.<.j.<...<.d.j.j.c.<...r.j.j.r.+.<.3.( ..<...N <.j.p.j.j.*...*.....( <.p.<.<.<.+.j.<.p.V.d...*...! *.r.V.G.c.V.Y.V.Y.j.+...<.<.*.N U j.r.<.<.3.+.+.c.!.j.G.`.!./.c.c.p.<.d.( U ....} R ! R ! V.j.c.p.! N R +.! ! *.*.*.+.U C U ! <.j.j.c.p.+.! 7.! N U j.!.!.G.<.R ! ! ( <.j.j.N C ..<.<.<.<.<.<.<.<.+.+.( ! ..D C ( ( N N ( *.3.<.} *.7.3.7.3.! r.j.p.r.G.`.A.j.j.p.j.!..X`.V.c.3.J C U D R *.7.3.<.A.G.<.} ! p.+.n n C R R *.<.j.p.D U N N N N D U ! J c.G.<.3.j.V.Y.c.V.<.U +.! } ....} ( <.! ( ! J J ! ( } ! ! U R ! U ! c.G.+.! U ! } V.+.J ! ! +.! ! R U J N ! p.d.p.! R d.r.+.+.R R ! ! U ! ....+.( d.G.j.p.( U ! +.r.d.<.R R p.j.r.j.j.j.! n J ",
"/.!.!.!./.!.A.j.3.<.*.d.Y.d.7.c.V.j.c.c.j.j.p.d.c.A.j.p.<.*.r.3.c.j.V.d.j.c.V.p.r.*.....*.<.<.7.V.A.d.<.*.r.d.*.*.<.+.+.3.<.*.<.*...! } 3.G.#X;XG.j..X,X/.!.#X&X/.Y.j.G.!.V.j.j.r.3.c.!.G.V.j.r.j.Y.G.j.j.V.G.A.r.<.<.3.3.p.j.j.<.3.7.r.c.!.A.A.!.!.!./..X!.j.j.p.p.j.V.c.j.j.p.p.p.j.j.7.d.j.<.3.j.A.!.Y.c.G.Y.G.G.G.Y./..X!.c.r.<.<.p.j.j.r.p.j.p.7.c.!.!./.!.G.!.!.!.Y.A.Y.!.`.j.j.j.+.<.d.<.<.p.7.*.7.c.V.j.G.V.j.V.!.Y.j.d.p.3.3.j.7.*.7.j.j.p.j.j.3.r.p.j.p.V.j.7.<.<.r.j.<.*.<.3.7.<.*...!.d.<.7.*.( +.} ! ..*.( ..<...} *.<.*.<.7.<.d.7.7.V.d.*.+.+.<.d.r.j.p.p.+.<.<.3.r.r.<.<.( *.<.*.7.j.c.!.!.j.d./.A.j.Y.`.A.r.r.j.<.j.j.<.<.r.7.*.} 7.!.V.+.+.<.! <.d.j.r.7.<.<.<.7.<.3.<.<.<.7.7.j.d.+.<.r.7.<.3.Y.!.!.3.<.j.p.`.j.<.j.3.+.*.<.*.+.<.c.!.Y.c.A.!.p...c.j.c.Y.!.G.A.p.7.<.j.!.`.V.*.<.V.d.<.<.j.j.+.<.....7.d.r.<.2.j.c.3.7.r...N *.j.p.7.r.} ! ..<.<.7.j.<.! ..+...A.j.j.!.A.d.Y.<.! ( p.G.!.A.j.c.A.!.c.7.d.j.j.V.! C <.3.! <.j.<.<.j.Y.j.j.G.j.!.d.j.d.<.7.! U <.( ( <.+.! <.!..X!.j.( N J } } C R ( } <.*.! ! 7.j.c.G.G.V.3.+.<.U N ! j.Y.!.!.c.U J ( R ( p.G.C z U r.j.3.+.+.} ( ! ..3.7.<.*.! N R R v J *.<.+.( ! ( *.<.d.j.! %.<.<.<.c.#XV.} 3.d.V.!.#X.XA.<.! v c v D ....( R N 3.!.7.( ! ( <...n z J N ! *.<.<.U N D R R R ..! U U j.3.N <.p.G.!.p.V.#XA.} C N J R J C ! ! ! ~ N J ! R ! *.<.! ..3.( ..!.&X! J J ! ..j.r.R R W 3.( U ! ( D N J R } j.r.<.j.Y.d.r.( ! } ! J U ! U ! +.j.7.d.j.<.! ( <.r.3.j.! ! p.V.j.V.Y.j.} N N ",
"!.!.!.!.G.j.7.*.+.j.r.p.c.d.j.c.G.A.V.c.c.j.d.j.G.!.c.3.<.3.7.p.r.p.A.j.j.j.V.j.j.+.R ! *.<.<.<.j.j.p.3.<.r.p.<.*.7.3.3.p.7.*.<.<.<.<.r.j.V.Y.!.c.c.Y.!..X;X#X!.#X.X!.`.&X#X`.c.<.3.A.A.j.j.p.d.j.A.j.7.7.c.G.A.d.7.7.r.r.7.p.j.<.3.3.<.d.c.p.3.!.!.!..X#XG.d.d.j.j.c.A.j.j.d.7.j.j.c.j.r.d.j.<.<.p.j.Y.A.V.!.!.Y.!.!.`.;X;X`.Y.3.*.<.j.c.j.r.j.V.j.<.r.j.G.!.A.A.G.Y.Y.G.G.!.!.;XY.G.j.*.<.j.<.7.j.j.3.j.Y.G.j.j.d.p.V.`.!.V.j.j.p.<.3.j.j.A.Y.<.} <.j.j.j.r.r.r.c.d.3.3.<.<.3.3.3.j.j.<.+.*.7.&Xc.7.d.r.r.p.*.+.<.*.( } <.<.*.+.+.} <.j.r.j.r.d.A.r.+.} +.7.j.7.<.<.3.*.<.*.<.p.d.3.3.} <.r.<.p.A.j.A.Y.A.p.A.V.`.`.!./.j.<.<.! <.j.<.( <.<.*.....p.A.d.d.j.3.r.d.j.7.<.} ..<.p...*.+.} <.p.d.Y.d.( ..3.d.j.j.A.A.!.j.j.j.<.A.Y.7.r.} +.<.*.+.( <.j.G.!.j.p.A.c.<.j.} 3.c.!.V.G.V.G.j.j.Y./.Y.j.j.G.j.<.*.3.<.U +.*.<.<.<.<.<.p.A.c.<.<.r.p.3.+.7.....<.} ! ..*.<.j.!.<.! <.<.! G.G.j./.`.A..XY.<.*.r.A..X!.r.<.j.j.<.7.7...+.G.<.U } 3.R +.<.C U *.r.r.p.7...G.<.*.3.+.<.! ( <.( } d.d.*.r.A.A.G.A.3.L N ! ..U } } ( <.3.+.} 7.j.p.c.j.j.r.r.<...+.p.V.j.c.!.Y.C C ( N n <.!.r.D D *.7.<.....! } *.<.<.*.} ! ! ! <...U U ! <.+.....+.} <.j.!.7.J U <.<.r.A.j.! +.3.A.!.!.!.V.+.( U U N N R D J R c ! r...} <.<.r.p.J c R ( } +.! ! } C R *.*.! <.+.! R <.<.} 3.<.f.V.<.7..XG.( J D R R D U } R J C c C ..! ! *.3.+.<.j.*.! <.c.J ! ! ! } <.<...! J <.+.U ! ..! R ! N N <...D <.A.j.c.<.} <.+.! J U D ! 3.d.C <.p.<...+.3.j.7.j.<.<.j.A.A.Y.!.!.d...! ",
"/.!./.!.d.<.<.( <.c.p.<.<.r.j.j.c.c.c.G.!.Y.Y.!./.`.V.3.p.r.<.d.<.7.G.j.c.V.G.G.V.<.R ( <.<.<.7.d.<.3.7.<.<.3.d.<.j.d.3.3.<.*.r.p.7.d.c.j.7.7.j.j.A.j.*.j..X!.!.~.!./.`.Y.!.`.v.} +.j.j.d.p.3.j.V.A.j.7.7.j.A.c.d.p.7.r.p.r.d.j.c.c.j.7.d.c.p.7.G.!.!.#X;X!.j.j.j.d.j.V.j.p.7.<.r.p.j.r.<.3.p.<.<.p.j.G.V.V.!.!.!.!.!.!.!.!.!.Y.d.<.<.j.A.d.<.<.j.j.<.<.d.V.Y.j.j.z.c.V.A.G.!.!.!.G.G.V.d.j.j.7.d.A.V.j.j.Y.Y.V.c.r.7.j.A.V.j.p.j.c.<.<.j.V.V.V.3.} <.j.G.j.7.<.3.p.<.+.<.<.<.<.p.7.j.p.*.*.<.d.G.j.r.p.r.j.A.<.<.r.d.3.} ! ! ! +...<.d.Y.A.V.j.c.j.<.+...+.<.<.*.<.<.r.<.<.<.r.b.c.d.d.<.r.d.<.7.A.j.d.j.j.....c.`.!.A.!.V.<.( ! <.j.<.( <.3.<.! <.p.j.c.Y.!.c.c.j.j.d.p.( } <.r.<.j.j.<.3.j.V.A.p.*.<.7.r.j.V.j.d.j.V.V.7...r.j.d.d...<.3.+.<...j.j.j.!.j.<.V.r.<.V.} <.j.j.<.<.d.G.j.p.G.!.G.j.7.7.+.! ( 7.3...<.<.<.7.7.j.j.V.!.G.7...<.r.j.<.<.} *.7.+.( <.} ..d.Y.7.+.<...! j.j.+.j.!.j.j.<.! U ! +.j.V.<.( <.<.+.<.<.( ( r.<.! ! p.<.1.} N C ..+.<.<.} <.j.! C } } *.} +.+.<.*.d.j.<.<.<.7.p.j.7.! D ! <.+.7.*.<.r.<.<.+.<.7...*.} +.<.r.! D R r.Y.A.j.!.A.N N R N N +.A.A.} ! } <.r.<.( ! } <.<.*...( ! R ! <.*.*.( N ! ! } <.<.+.+.r.G.r.n ( j.3.<.r.j.*...+.c..X/.!.c.U ! R ! D z v h J ..D D ....+.+.*.( C U <.d.j.j.p...( <.} ! ! ! R } ( ! *.<.<.( j.j.j.j.*...r.! C C C U U D R } ! R U v c ! } ( ! +.R R ..! N h ! ! <.! J ..<.! +.} C <.<.D n J ! D ( ! ( <.! N +.j.3.c.7.! ! } U J ! ! } p.j.N <.j.c.d.7.d.j.3.r.p.p.3.3.j.G.Y.!.G.p.+.",
"`.!.`./.c.7.*.! <.p.3.*.<.r.d.3.d.j.V./.#X#X;X&X/.!.r...<.<.<.j.d.j.!.A.Y.Y.Y.A.A.d.<.<.<.<.3.r.7.<.7.d.3.+.+.7.<.p.p.7.<.*.+.<.7.<.3.r.<.( *.d.j.!.!.p.j.!.Y.Y.c.A..X`.V.c.V.j.j.<.3.j.j.<.*.p.c.j.j.j.j.V.A.j.j.j.r.3.p.d.j.A.!.!.A.d.j.A.c.c.G.A.A.!..X!.j.r.j.p.j.V.c.d.r.7.p.r.p.r.<.7.p.p.p.j.c.Y.c.c.!.Y.!.!.!.G.A.G.Y.Y.V.<...d.A.d.<.*.3.p.3.3.p.c.G.j.r.d.j.V.Y.!./.!.Y.!.Y.A.G.Y.V.j.j.A.c.j.j.V.A.G.Y.j.c.Y.j.r.<.+.3.j.p.r.p.7.p.j.j.*.<.r.j.3...} 7.7.} } 7.3.<.7.<.+.3.3.<.r.3.<.j.j.j.d.<.r.j.<.<.a.G.!.7.! *.r.r.3.d.j.!.Y.!.!.!.j...! ( } *.*.*.p.j.G.d.<.<.d.V.V.j.A.d.c.c.r.<.j.d.p.d.c.d.c.G.V.A.G.G.Y.c.<.*.<.p.7.<.7.r.+.! d.G.A.G.c.j.A.j.r.j.d.c.*.*.3.7.3.j.c.d.d.c.Y.j.d.j.c.j.3.p.3.3.<.<.3.<.+.3.j.7.3.<.! +.*...+.<.Y.V.p.V.j.p.V.7.p.!.d.c.G.j.<.( <.d.7.p.Y.j.7.c.j.r.} R D ..*.+.<.*.<.3.7.c.G.G.!.!.Y.7.<.3.7.<.<.<.7.<.! ! <.*.<.r.d.*.( <.} +.3.r.! <.A.r.*...! J D J ..c.Y.j.<.<.*...<.*.U ! <.<.<.A.!..X!.d.( ! R ! ! R 3.d.U c ( *.*.+.....<.*.7.A.j.7.<.r.<.<.<.<.<.<.7.<.p.*.p.d.( } ..*.<.! ( ! U } <.! U ! j.`.A.<.<.A.! C ! *.3.p.j.r...+.<.7.j.7.! } ..<.<.*.+.3.j.3.R ! ( ..*.U R ! ..<.<.*.+.<.j.d.D 3.j.<.<.<.r.*.<.3.c.!.!.G.j.+.*.J J C N J N ( 7.<.( *.<.} N C <.R +.;X.X!.!.A.j.<.<.j.} N ! ! J J ! <.<...h 7.d.7...! ! ! c J J J ! ! J U R N R } ! n N ! } R ! N N C U J k U ( *.! U } <.} J ( J <.p.! N C n N R C N U ( R +.<.( 3.<.U C ! R U } ( ! <.p.N f R r.G.Y.G.V.7.<.p.j.7.<.j.c.j.j.d.3.( ",
"G.!.`..X/.j.*.} <.*.<.<.d.j.d.j.!.!.!.&X`.!..X/./.Y.3.} ..*.7.j.j.j.!.!.)./.!.G.G.Y.j.j.<...<.<.<.<.j.j.r.r.7.r.<.<.<.<.<.<.<.*.<.<.3.7.<.+.<.3.c.j.Y.!.!./.`..Xc.Y..X!.!./.j.<.!.V.7.7.7.+...<.7.3.p.j.c.V.V.j.j.j.p.7.j.j.j.A.Y.Y.V.r.r.j.j.c.A.c.c.A.G.V.j.3.j.p.3.7.r.r.j.A.c.j.j.j.j.j.j.j.j.j.j.j.r.j.!.!.!.`..X!.Y.!.!.G.V.3.} 3.j.r.7.3.<.7.<.3.7.r.j.j.j.j.c.V.G.!.!.!.!.!.G.c.j.V.G.A.G.V.j.d.j.j.d.j.j.3.A..Xc.d.j.r.<.p.j.j.7.3.d.7.V.3.7.p.j.r.7.d.j.j.3.7.j.p.r.c.<.( 7.p.r.j.r.7.j.7.p.j.<.3.j.7.7.p.j.!.7.U ! <.c.c.j.c.V.d.!./..XY.<...<.<.7.d.p.Y.Y.!.j.7.r.j.c.c.c.!.c.A.G.j.<.3.<.3.7.j.Y.;X!.A.Y.!.Y.!.!.j.r.<.<.<.*.3.p...*.G..XA.V.j.<.V.V.r.7.<.j.<.7.p.p.<...7.c.V.c.j.d.7.p.r.3.*.7.+.<.+...! U ..p.j.p.<.( R +.<.r.*.R p.j.*.<.j.j.j.3.3.j.d.c.A.j.j.3.7.<.*.j.!.<.( V.A.j.<...U } +.! ....+...*.j.!./.A.j.!.p.<.<.+.*.+.3.r.+.! ! <.+.<.3.<.+.*.r.r.*.} p.<.r.V.3.! <.+.U D D R 3.j.d.} } ! ! d.j...r.!..X#X.X&X`./..X7...} ! ! } 7.c.*.! 7.<...+.<.*.3.<.3.G.!.c.3.j.r.<.*.<.3.<.+.7.d.3.r.r...! ( ( *...<.<.! } } ! U ! j.!.j.! ! G.3.*.7.A.c.3.r.<...<.<.<.7.<.! ..<.p.7.! U <.!.j.( <...J U R <.<.1.<.....} ( p.j.+.d.p.+.3.<.( ! <.j.A.A.z.V.j.!.!.7.<.+.+.3.R n ! 3.<.<.j.p...U ;X!.p.;X`.!.!.c.j.r.+.r.! R +.U C ! ! ! ! c.<.d.7.! k z N J c ! R C R R N C J U +.3.d...N C J T ! C U U J ! ! ( <.( R R ! <.*.N ! U 7.j.<.( ! R ( <.! C J *.R ! ! N ( <.( J ( +.} <.*.} +.<.N e v <.G.G.j.d.<.<.p.Y.Y.G.A.p.3.<.<.<...",
"j.!.!.!.`.j.*.3.*.+.<.<.j.A.A.&X&X#X#X&XG.c.!.!.Y.G.j.7.<.<.j.d.j.c./.!.#X`.!.G.!./.Y.j.3.} +.....<.j.r.p.Y.!.!.c.7.*.*.3.j.j.r.<.<.<.*.<.r.h.j.V...7.!.!.!.!.!.!.!.j.( d..X7.! j.A.r.<.<.+.*.+.*...<.d.j.j.j.d.3.j.p.p.A.G.V.A.Y.Y.G.j.p.d.p.j.c.j.V.V.j.c.V.j.j.d.3.3.d.d.j.!.!.c.j.G.G.c.j.d.j.d.7.<.+.7.!.!./..X/.A.j.V.c.p.V.r.+.<.3.<.r.j.r.7.<.<.*...3.j.d.d.p.p.j.G.!.Y.V.j.j.p.r.j.G.Y.c.p.3.p.j.j.p.j.j.<.G.`.p.3.j.d.<.7.j.d.*.3.j.} j.3.p.p.j.r.d.A.j.V.d.j.j.<.<.j.r.*.j.j.7.d.j.!.j.+.*.j.r.r.V.j.3.*.<.A.d.! ! +.j.G.j.G.V.<.V.V.A.!.r.<.d.p.p.j.j.!.V.!.A.j.c.G.V.V.V.!.c.V.A.j.r.<.+.3.*.<.7.!.A.Y.A.j.j.j.r.<.!.V.r.<.} 3.G.d.<.!.!...*.j.<.r.A.j.d.<.j.r.7.<.<.r.e.c.V.d.j.c.r.d.c.r.*.} 3.} R R ..! R 3.d.<.r.<...+.3.p.G.<.c ..r.+.} j.Y.p.,...+.7.r.<.! ! ..! N D r.!.*...Y.!.j.<.*.Q ..<.<.+.! ! ! +.c./.A.<.<.!.V.j.p.<.} ( <.r.<.<.p.j.*.3.<.3.j.c.j.r.3.R 7.<.<.r.*.! <...J R +.<.<...} ..*.! ..A./.G./.&X`.`.!..XY.!.`.j.p.p...*.V.G.!.c.p.G.<.! +.r.<.d.j.p.j.j.d.<.d.3.} ! ! +.+.} } <.<.} <.3.+.....+.} +.3.! <.<.R D C r.!.!.d.V.G.j.d.V.G.+.N ! <.*.r.7.*.<.r.p.d.*.} *.+.*.7.j.j...3.*.R D C <.*.3.<.} +.} ! d.V.j.!.!.d.j.j.} J +.d.Y.!.G.G.V.j.A.r.3.<.3.j.! v c ! } +.j.r.( D /.!.7.!.!.Y.!.r.3.j.! U n } <.! U <.3.( U A.j..Xd.! k v D ! D ..R N R U N U ..*.3.3.Y.A.! R ! J ! ! *.( N J ( +.V.*.J D J ..! ! +.R 3.p.w.<.! R C ! <.<...<.D ! ! N ! <.*.J ! <.3.c.j.7.<.j.+...<.j.A.j.p.V.A.A.j.G.!.!.A.p.p.*.} *.<.",
"j.A.3.r.G.7.*.V.c.j.<...d.`.&X.X7X`.} r.j.j.&X`.Y.d.j.p.d.<.<.c.j.A.G.G.G.V.G.c.j.V.A.V.r.<.7.} <.7.<.<.G./.j.p.Y.!.!.V.!./.&Xj.} ( ..*.*.7.j.j.d.7...r.&Xj.c c J <.N h j.j.<.*.r.3.p.r.<.<.*.<.d.3.3.j.c.j.j...<.<.j.!.!./.`./.!..X/.!.j.<.r.j.c.G.G.c.c.V.V.j.7.3.3.r.j.j.A.!.!.j.V.c.j.V.j.<.r.r.c.j.<.7.!..X`./.Y.A.A.j.r.7.V.j.<.<.r.<.3.3.7.<.<.p.j.p.<.r.<.c.j.<.7.d.c.G.c.7.7.r.p.r.7.p.p.<.<.j.j.j.p.c.G.G..X!.r.r.A.V.d.j.A.c.p.d.j.d.j.<.<.*.*.p.3.r.p.r.d.p.3.<.<.p.d.<.c.j.! r.c.V.p.<.d./.V.p.c.p.7.*.<.j.G.r.<.7.p.!.j.V.A.A.#X7.3.j.c.j.7.<.7.j.A.!.A.!.!.j.j.G.j.j.V.Y.V.j.c.j.7.d.7.<.<.<.7.Y.j.!.G.<.<.p.3.7.!.!.d.<.} d.V.j.+.<.r.C C Y.Y.G.!.r.<.3.c.p.<.r.3.j.V.j.V.j.<.7.3.d.c.!.p.<.j...! +.+.! ( 7.! N D N +.c.j.p.!.`...J 3.7.+.r.j.j.r.....<.r.} n N ! } ! ! 3.c.p.r.`.!.c.3.} ! } <.d.3.} ( <.j.G.!.j.} 3.!.Y.!.!.c.3...<.7.+.*.p.G.c.j.7.<.d.r.r.<.*.R ! +.*.3.<.+...7.( ! ( r.A.+.! *.3.! <./.Y./.G./.!..XG.d.!.!..XA.3.d.p.Y.#X`.!.j.!.Y.p.<.! } *.7.d...3.d.r.<.p.<.! D ! ! ! *.*.<.p.p.<.<.<.} } +.! ..<.*.! j.p.R C p.!.c.c.j.V.p.R <.r.! N ! <.<.7.<.<.j.G.!.`.*.N +.j.<...*.*.3.! ! } ( } ! ! c.p.! } <.! d.!.r.!.!.!..X!.3.J J <.A.`.j.+.c.<.*.7.3.! C <.r.! C ! ! ! *.<.C D ( p.j.7.3.j.c.7.} ! +.} U U ....} p.+.! <.Y.G.j.j.R z N R ! v ! ......N N D R c.r.7.V.A.<.! ! U U +.7...v J ! +.7...J c N ( 7.R R R ..V.c...( 3.! n ! <.+...+.! ! ! } 3.} D ! <.7.d.G.j.<.!.7.7.d.A.!.A.r.7.j.G.!.!./.!.G.V.3.<.+.<.} ",
"<.2.7.j.V.j.j.G.V.j.p.3.c.&X.Xp.j.j.k D A.!./.&Xj.7.r.3.d.<.<.j.!.!.A.j.j.d.j.j.r.j.c.V.j.j.j.<.<.j.j.7.c.d.N h R <.!.;X/.j./.;Xd.7.3.<.*.<.p.j.p.<.<.j.G.} f s ! <.<.*.j.j.c.p.r.<.7.7.3.<.<.7.A.j.p.V.A.A.V.<.7.c.G.A.Y.`.&X.X!..X`.!.j.7.d.j.A.G.G.V.A.!.Y.A.p.p.p.d.V.!.!.Y.G.j.V.V.d.j.j.j.d.p.V.c.7.d.!.`.`.!.G.c.c.j.d.p.j.d.<.<.3.<.r.7.r.p.j.A.!.G.d.p.d.!.!.c.j.c.!..X.Xr.7.j.j.j.p.r.d.3.r.A.Y.Y.d.j.c.V.!.G.<.3.V.G.c.d.j.V.c.j.j.c.r.*.p.r.7.j.r.<.*.<.p.d.d.d.7.d.<...r.d.( 3.j.V.j.j.<.j./.j.<.3.3.*.} +.<.<.<.<.j.`.Y.c.j.Y.G.! U ..<.7.7.7.p.c.j.G.G.!.!.j.j.A.A.V.Y.!.G.V.j.j.r.p.r.r.p.p.j.A.j.d.7.<.3.7.r.A.c.d.j.V.3.j.A.V.D h z ! d.#XG.G.j.d.d.3.j.p.7.p.j.!.!.c.A.j.*.+.3.r.j.!.j.p.j.*.! *.*.*.<.<.R R ! J N z k N *.!.p.+.7.7.<.V.A.j.j.<.} +.d.A.V.V.Y.!.V.*...7.p.j.d.<.*.3.p.3.<.<.<.*.} <.c.Y.Y.Y.!.c.Y./.G.!.!.j.p.+.<.<.} ..<.3.p.p.d.3.<.<.r.} } J ! ..<.d.d.3.! <.! ! ( 3.c...! } *.! <.V.7.j.!.j.r.G.V.<.r.A./.p.*.V.Y.!././.Y.V.!.!./.V.R J ( <.<.( 7.j.<.U +.*.! N N C U } *.<.d.j.<.<.<.+.( ..3.7.! ! ! ( ! U ! d.V.j.c.A.j.+.k N ! J J } +.<.r.7.p.A.!.!./.j.} +.3.+.+.<.! } ! ( *.} ! ( *.7.<.3.7.*.! 7.7.! 7.!.j.! ! ! N N ! } 7.c.7.<.U J ! ! D k C R U ! *.<.! ! R n D ! 7.p.*.<.d.3.N ! ! U R U U } p.j.Y.<.R } j.d.3.r.! k N <.<.! *...! ..R R U U r.} <.p.r.7...R ! D J ! ( C J D ( <.} } D v N } D C N ( c.A.*.J V...D +.<.! } 3.! ! R ! *.( ! +.d.r.<.<.C n A.G.3.3.d.G.G.j.d.d.A.V.c.!.!.Y.A.r.3.+.+.! ",
"+.} r.G.j.j.!.!.G.V.V.V.!.;XV.N w h n j.,X.XG.!.A.j.d.<.p.<.<.d.Y.!.V.j.d.d.j.j.p.j.V.A.V.V.j.+.*.j.d.*.3.3.R C ! R N v k h *.&XG.j.p.7.+.} <.r.p.<.<.V.c.p.j.j.A.Y./.Y.j.j.!.j...( *.<.<.<.<.d.j.p.p.c.c.c.c.7.j.!.G.V.Y.!.!.V.V.!.!./.G.j.V.G.A.V.c.c.G.!.!.A.p.j.c.c.Y.`.!.j.d.p.j.j.7.p.j.A.p.r.j.c.r.j.Y.!.Y.Y.c.j.j.c.j.d.d.r.<.<.<.<.p.7.7.d.j.j.A.G.j.p.j./.!.V.V.A.!.#X!.....7.7.r.d.d.G.j.p.j.j.V.d.c.j.j.A.c.7.p.A.G.7.<.<.j.A.j.j.G.<.*.j.p.<.p.d.<.<.<.j.j.d.r.7.j.V.d.d.j...+.<.<.3.r.D } !.j.} <.<.<.*.( ! ! ! ! j.!.!.p.3.c.j.;.! +.<.<.<.<.3.j.j.j.Y.!./.G.j.Y.!.j.V.A.A.A.j.j.p.3.7.p.r.p.j.d.G.c.p.<.7.r.<.p.3.r.j.V.p.c.A.!.p.J h ( G.#XG.j.j.G.!.3.*.+.<.3.7.j.d.3.j.j.+.! <.<.j.Y.j.7.<.*.! ( <.7.*.<...*.r.<.R f r v ( A.d.3.d.g.d.A.!.j.r.r.<.3.j.!..XA.7.j.!.c.j.A.G.c.p.! C ! <.7.r.7.*.+.<.j.!.Y.j.j.!.!.!.Y.c.Y.!.Y.j.<.<.<.<.7.r.p.7.<.r.p.<.<.c.<.} ! +.7.r.p.3.<.! ( ! <.<.3.j.<.( *.*.! 7.j...*.A.<.C N J ( <.j.Y.j.p.G.!./.`.!.!.A.!.!./.!.( N +...+.} 7.d.+.J ! *...R R ! ! } ! ( <.3...! } ..! ! ..( N ! ! R +.+.r.j.d.j.j.V.Y.<.n ! ! ! ( ( ! } ! ( 7.Y.!.G.!.!.*.J J R ( *.! ( } } *...! ..7.*...p.d.3...! } R } A.j.N R ! N C ! R <..X/.p.N C D D D h c J C *.j.!.!.l.j.r.! D ! ! C ! p.r.h D *.( R ( } ..+...j.V.7.( } *.<.r.7.U ( c.7.! } ( ! *.} } *.<.( ! j.c.3.d.7...! D C N ! U D C R } ! *...! U ..} J N ( j.j.<.! <.! ! <.7...} ..! U C D ! ( +.7.j.j.d.7.U N G./.c.<.} *.3.j.A.A.G.G.A.!.!./.G.3.<.( ( R ",
"3.*.p.Y.j.j.!.G.A.A.!.!.!.`.Y.<.k h } #X;X!.Y.!.#X.XA.<.r.r.7.r.p.j.j.c.j.j.j.j.r.r.j.G.A.j.p.*.} <.r.<.<.p.d.j.p...v h N C *.V.V.d.r.7.*.! ..7.j.p.p.j.r.j.!.c.<.j.!.!.G.G.A.j.<.<.7.3.7.3.<.r.3.r.j.G.c.j.j.<.r.c.j.j.p.*.7.7.j.G.!..X/.G.G.A.c.j.j.c.Y.!.G.j.<.c.Y.A.G.!.G.p.<.7.p.<.<.j.c.j.r.3.j.j.p.j.V.c.j.j.j.p.j.j.d.r.j.d.r.3.<.<.7.<.<.7.r.7.p.j.j.j.j.c.r.7.j.A.!.!.c.+.+.<.<.3.j.A..XA.p.r.3.d.d.G.!.G.V.j.7.p.j.j.3.7.3.j.A.j.d.j.3.*.p.7.! ( 3.3.<.<.d.j.<.*.7.G.!.G.j.j.3.p.r.<.d.f.} <.c.r.<.*.3.j.V.j.<.! ! } j.V.V.j.r.p.r.<.*.7.r.7.<.<.7.j.j.j.A.Y.!.A.p.j.G.<.r.j.A.V.7.d.j.p.7.7.<.<.7.3.7.d.p.<.d.G.d.<...Y.!.V.A.V.....&XA.( r.Y.!.Y.d.j.!.`.3.( } 7.j.d.j.7.<.j.V.r.<.<...r.j.r.*.( *. .R <.r.! *.p.*.<.3.r.! N R ! r.<.<.r.j.7.<.c.G.j.A.c.j.p.j.!.j.v ( E./..X/.!.G.`.r.! U ! +.<.<.<.<.p.A.Y.j.<.<.j.c.G.G.G.Y.!./.!.c.j.d.7.d.d.p.<.} +.3.7...<...} ! 7.j.p.<.*.<.<.} ! <.<.! <.*.N ..<.<.A.!.*.! N h i r f } r.r.G.G.Y.Y.V.A.!.Y.&X!./.#XY.!.r.U +.J U ! +.<...+.n C D U ( ..( ( } ( +.<.+.! ! ( ..+.! ! ! } J J } ..p.d.p.j.c.Y.G.<.R 7.<.} <.+.<.+.J ! c.#X.Xj.V..XV.*...+.<.<.( ..<...+.+.R } <.*.*.7.<.r.p.J <.<.*.p.r.! <.<.C N C D ( d.p...*.+.! R ( D ( j.G.`.!.`.;X`./.!.7.! ! ! D ! j.!.! R p.7.U ( <.+.<.} r.Y.G.3...<.} ..3.! } j.! n U ! J ..! R } <.( } j.j...*.<.! n N ! R ` ! N J } <.! ..7.j.j.V.d.( N J ( +.+.o...! J ! ..<.<.( ! R D N N U 3.j.<.<.<.<...! d.j.p.+.} <.7.j.j.r.j.G.Y.G.!.#X!.7...! } ! ",
"p.7.j..X`.j.+.R A.!..X#XV.<.r.!./.<.r.!.&X/.A.j./..XV.+.7.j.j.r.3.j.j.c.j.d.d.7.1.*.p.!.!.A.j.V.<...3.p.<.d.c.j.r.j.p.j.!.V.d.p.c.r.<.7.1...<.j.j.j.p.r.<.r.V.7.C <.!.!.!.`.!.!.d.p.<...<.p.<...<.7.j.A.d.<.7.<.*.<.r.j.} J 3.j.g.c.A.!.`.!.!.!.A.V.V.G.!.!.A.d.<.V.!.V.j.A.G.j.<.7.p.<.3.j.j.d.p.r.j.c.j.j.V.j.j.c.j.p.d.d.7.3.r.3.r.7.<.p.j.r.<.3.p.d.c.Y.G.j.j.d.<.<.j.A.Y.A.j.r.3.<.<.<.3.j..XA.d.d.p.j.d.c.V.Y.Y.V.j.j.j.j.j.c.j.c.A.j.j.A.c.7.d.j.} ! <.<.} } <.<.+.*.7.V.c.G.V.V.j.Y.!.c.<.<.<.3.<.<.r...*.d.A.c.r.<.*.3.j.r.<.d.c.d.7.*.<.d.j.j.p.3.r.c.V.j.j.j.j.r.} ..<...r.j.j.j.<.3.c.c.j.r.7.3.3.r.*.<.7.d.!.`.c.7.*.!.!.A.!.!.! R V.j...j.G.j.j.c.p.j.V.*.( ..7.j.r.r.<.<.3.<.+.<.*.! <.j.c.7.( *.<.! *.r.J ( <.( } *.<...! J n <.f.<...7.*.! r.!.V.c.j.j.7.3.c.V.! ( 7.j.`.Y.c.G.j...! *.<.7.p.j.j.j.j.A.j.<.! R <.j.G.!.`./.!.Y.Y.G.Y.j.3.3.<.<.<.7.3.r.A.<.! ( +...p.j.<.! } d.d.<.R ! ! C } ( N +.3.7.V.Y.d.7.k 0 a N J ! <.j.V.r.p.j.c.c.G.!.!.c.j.#X&X;X!.*.*.R R ! ! ( } +.R J D ! ..*...+.<.+.*.3.7.+.R R +.+.K ( *.! C } ! ! <.d.j.G.!./.!.3.N } ( +.<.R ! ! D +.G.`.V.( ( A.!.G.c.r.+.! R +.d.<.7.j.<.<.3.<.3.r.+.<.p.R +.*...! R N } <.C z c J ..( D D ! ! R *.A.p.j.`.;X;XY.G./.!.!.!.j.3.<.3.3.3.j.Y.G.<.j.7.D J ..} d.p.d.j.V.V.r.r.<.( ..J ! p.! C ....D } ! J N v ! ( ( } ! } <.( D U ( ! ..R N R +.<.R ! *.V.!.`.A.7.R v J <.r.c.c...J R ! ..} ! U ! ! R N N <.j.7.d.r.<.*.! } ..! ! <.j.V.c.p.*.r.j.j.d.j.A.j.<.! U ! ! ",
"c.c.V.`.#Xj.*.! G.A.!.#XV.~ } V.`.3.c.!.c.G./.c.p.j.7.} 3.j.A.d.d.c.c.j.p.r.j.j.r.*.p.!.`.A.c.!.V...*.r.3.d.j.7.d.c.r.d.j.7.r.c.G.p.<.7.d.r.d.G.G.V.d.r.3.r.c.A.p.j.!.G.p.G.A.Y.!.A.r...d.!.j.<.+.<.d.j.3.<.r.3...*.r.j.3.7.!.Y.V.V.j.A.Y.Y.!.!.!.!.!.!./.!.Y.c.j.!.!.j.r.j.V.c.p.7.j.j.p.j.j.j.j.j.c.A.c.V.A.c.G.G.c.j.d.r.3.7.7.<.7.3.3.p.p.p.p.r.d.c.Y.!.Y.j.c.j.r.d.j.j.d.3.<.<.<.*.3.7.<.3.Y.j.7.j.j.G.p.r.p.Y.!.!.!.G.G.!.A.V.d.c.j.3.c./.G.3.*.3.( R *...+.} <.<.<.j.j.p.c.!.!.G.p.G.G.j.3.p.3.7.<.<.7...} 3.7.+.+.3.r.r.p.7.+.r.c.d.7.+.<.d.j.p.3.<.7.j.A.j.r.7.7.<.( ! ..<.j.7.<.r.r.r.j.V.V.j.d.7.7.p.<.! <.A./.c.r.j.j.V.c.V.!.&XA.!.#XY...<.3.r.j.!.j.7.r.+.*.<.<.<.*.7.r.d.3.} <.j.j.} } 3.p.3.} +.<.} ( 3.! R ! ..<.<.! ! ( N y ! j.<...r.p.<.d.G.c.r.<.r.r.<.7.7.3.*.<.<.j.<.<.c.<.J ! d.V.j.A.!.!.A.V.V.c.j.<.} } j.G.G.!..X!.A.c.G.!.j.r.d.7.<.<.A.j.<.j.<.! ......7.d.<.! ! r.p.j.+.( ( ! *.! ! +...! ! ! <.j.7.n ! A.j.} +.G.!.r...! 3.V.!.G.!.c.C d./.Y.r.U } ( +.! D ( ( R ! J D R ! ! ! ! } } ..3.j.3.! J U D C <.<.( ..c.3.! ! *.j.Y.Y.A.Y.V.} ..! ! <.R ! ( <.c.!..X!.7.d.!.!./.`.Y.3.D N ( <...3.G.j.c.C.<.<.r.<...} C } U ^ } *.! ! } U N N +.c.r.! } U J ( c.;X!.!.!.!.!.!.!.!./.!.Y.p.j.j.j.!.!.!.A.Y.A.j.7.( U ! ( <.7.7.r.d.d.<.p.j.+.! C R *.! J +.<.R +...R N h ! +.! ! ! ! <...! R J C } ! U R ! ! R } ( <.c.!./.!.r.N +.!.V.Y.A.! J *.<...! } ! ! ! ( R C ( +.R 3.c.j.3.C v N C J ( 7.c.V.j.j.j.r.<.} ..#.....! R ! J ",
"..j.#X7X.XA.V.j.A.r.j.`.`.V.G.&X;X<.<.<.! ,.!.!.3.<...} <.3.j.p.d.V.j.j.7.7.j.V.j.<.r.G.!.j.p.A.V.*.<.r.d.j.p.<.j.j.*.*.+.<.d.G.A.7.+.3.c.c.c.!.c.j.j.r.7.d.j.j.j.6.j.d.} <.} 3.Y.Y.j.<.j.!.d.<.3.7.p.j.p.r.j.d.<.<.d.j.c.!..XG.!.!.V.c.j.d.V.Y.!.!.!.!.!.!.!.!.!.!.Y.j.d.j.c.j.j.7.j.c.p.j.c.V.j.j.j.c.j.j.c.j.Y.G.V.c.j.7.3.p.j.p.7.<.<.<.+.<.j.p.p.j.j.j.j.d.c.c.j.j.j.r.3.*.<...+.<.d.j.7.r.V.j.p.j.j.V.r.r.j.!.Y.j.V.j.j.G./.!.j.d.<.( p.V.!.d.+.<.*.+.j.c.7.( +.3.p.c.c.j.c.V.!.V.7.A.c.r...<.} *.<.+.<.<.<.r.<...+.7.r.7.p.3.r.j.c.p.} ( <.3.<.<.<.<.p.A.j.d.3.7.7.<.<.<.<.<.7.<.*.7.j.d.d.j.V.j.p.p.p.7.p.} <.A.j.! J 3.!.V.j.G.`.&XA.#XY.p.N h J j.!.`.j.7.r.<.7.r.7.<.( <.7.p.3.+.d.!.Y.+.! ! ( ! ! } ....! <.( ! ( <.<.3.( *.+.! s i ( +.<.p.j.V.A.V.!.j.<.*.7.p.<.<.} <.c.r.<.D ! d.j.<.3.V.c.j.c.G.j.c.V.A.G.!.L.r.! 7.V.A.Y.!.!.G.!.!.Y.p.d.V.d.<.j.`.A.<.r.<.<.<.! ! *.<.<.*...<.7.A.<...<.+.+.! <.3.<.<...+.j.A.G.3.j.#X/.r.3.Y.;X!.f.R *.A.!.j.A.d.r ! 7.( ..! ! <.r...n ! } ! D N N J ! ! } +...+.+.7.A.j.+.( } ! } V.c.r.r.c.!.p...+.3.r.3.! C r.p.c.<.! <.p.*.<.G.!.G.!.`.!.&X`.A.G././.j.U N U ! C ( p.r.d.c.<...( <.+.R N ! N R ..<.*.} J U ! ! <.c.r.} +.+.! } r.d...7.j.V.j.Y.c.p.c.A.V.d.c.!.!..X;X;X/.c./.!.A.7.U R } <.<.<.3.<...U 3.!.d.+.( ( ..} U J +.U ( R C D N n ! ( ! R R ( ! N C C D <.<.<.( ! ! <.c.<...7.j.!.*Xc.D r./.<.r.Y.3.3.3.+.( R D R R C ( +.! R J v ! c.!.j.U n N J D D } d.d.r.j.c.d.*.J R +...+.} ..<.! ",
"} j.;X/.! R c.Y.j.7.A.;X;X`.#X&Xj.C f D !.`./.#Xj.<.} *.<.} r.7.3.j.j.p.<.<.p.j.j.*.<.d.c.d.3.j.r.*.*.<.r.j.j.d.d.j.*.+.} <.7.r.j.*.! <.V.A.c.G.V.j.V.p.p.A.j.7.<.3.V.j.*.( U c.d.A.Y.c.!.!.j.j.p.7.r.j.r.r.d.<.<.7.j.d.p.j.A.V.c.A.c.j.d.p.G.`.Y.Y.Y.A.V.V.Y.!.Y.A.j.j.c.G.A.j.d.3.j.j.r.c.Y.V.7.r.d.j.p.r.d.d.c.c.V.A.c.r.<.p.7.<.*...<.3.<.p.p.r.j.c.r.<.<.r.j.j.p.j.c.j.j.7.p...<.r.p.r.3.r.c.c.A.Y.j.c.r.j.<.j.j.j.V.p.( ! !.!.j.3.( ! d.d.7.<.! +.} +.G.!.!...( 3.7.<.3.j.j.3.j.j.r.!.V.p.3.3.<.7.<.} <.<.<.7.7.3.3.<.<.<.j.+.<.3.j.j.} <.<.<.<.<.3.7.p.j.d.d.3.7.<.*.<.<.3.+...3.d.d.d.7.c.j.V.V.p.d.j.7.<.+.j.G.p.! ! j.Y.G.d.j.!.!.<.A.!.7.C N *.!.j.j.d.3.p.<.*.<.<.*.<.7.<.<.<.<.j.Y.j.<.3.c.d.+.( ! } +.} *.U ! <.7.j.d.*.*.! d.} r f R <.<.7.A.!.G.Y.j.3.} 3.j.<.*.} ( d.7.7.( *.7.! } 7.j.p.d.c.j.j.G.!.A.c.A.j.+.R <.A.`./.!.G.A.!.Y.d.+.3.A.j.<.p.d.<.} *.<.3...*.+...! ..<.} ! ..7.R U ..! ! ( } ..} <.3.b.#X!.Y.j.d.V.A.3.<.V..X!.Y.7.j.Y.!.!.A.r.e ! ( N <.7.j.!..Xj.N R +.<.! U N N D ! *.<.3.3.<.3.c.j.<.+.A.d.+.j.G.c.7.7.3.d.d.j.c.c.G.j.i N C j.A.<.<.<.j.j..X.Xj.j.Y.!.!.!.!.!.!.`.A.( U ! ! G ( <.+.*.! +...N R +.( R <.<.<.....*.7.R D ! ( <.r.*.( *.*.! 3.j.<.R r.Y.z k ( } ! d.A.A.d.j./.&X!.!.`./.!.#X`.`.7.N U ..! <.*.+.+.( N ! d.7.! ! ! ! ..U U <.R ! D N ! ! U ( +.! C U J n J ! U N ! +.p.<.! { d./.3.( } ( 7.j.r.C j./.! 7.p.V.!.7.( <...N N J C } *.U R R *.! 7.j.<.N N D ..! C ! 3.<.! ! !.!.d.J ! r.<.( R } <...",
"<.V.`.j.N U !./.V.G.!.#X!.j.c.A.*.N z } V.!.!.!.V.d.*.+...} <.*.+.p.j.<.<.j.j.V.j.0.3.C.c.*.*.3.7.p.3.<.<.j.0.r.r.j.V.c.j.A.j.3.<.*.<.7.j.G.G.A.A.!.V.7.r.V.j.<.<.>.<.i.<.g.N.V.<.p.G.j.0.r.r.j.j.7.<.7.7.d.j.p.j.c.V.7.*.7.j.V.j.3.*.<.3.7.c.`.!.!.G.G.Y.G.A.!.A.c.3.<.p.V.A.V.j.p.j.c.7.7.j.c.p.j.V.V.r.<.d.A.d.j.j.j.c.j.j.j.r.<.<.*.3.r.<.3.p.7.3.r.r.*.+.7.d.p.j.j.a.c.A.G./.j.<.<.p.j.d.7.j.A.Y.c.G.j.c.A.j.d.j.j.j.j.d.c./.Y.G.h.*.} <.J N R R <.*.<.V.V..Xc.+.<.p.*.*.j.j.d.j.d.j.V.d.<.<.<.p.j.<.+.3.3.r.j.r.<.*.+.<.*.d...3.<.7.<.r.j.p.j.j.3.7.j.p.7.3.r.*.3.7.*.<.*.3.r.} <.j.j.c.j.j.<.r.j.p.j.c.3.<.<.j./.Y.7.7.j.!.!.A.A.r.*.<.Y.Y.<.+.*.j.A.j.*.! *.7.3.*.<.7.r.3.V.j.<.( 7.j.j.r.<.3.!.c...+...7.j.3.! ..<.+.<.A.d.3.j.7.d.Y.<.y a 3.d.p.j.j.G.!.A.j.r.d.d.3.r.+.! } +.<.+.<.<.U ! ! <.7.<.j.V.V.V.V.!.p.U v U p.!.G.!.`.!.V.!.!.!.A.j.c.A.j...3.d.<.+.3.<.p.*.....*.*.<.<.( ! ! *.....<.<.+.*.! <.r.<.p..Xr.v +.j.d.j.G.r.J ( j.G.Y.c.A.A.A.#X!.*.N <.*.J 7.j.G.A.j.<.( +.<.<.( ( N z N ! ..<.V.<.! R <.p.<.<.3.j.r.*.p.!.( ! ! +.j.V.c.Y.`.r.! +.*.<.7.7.<.7.Y.!.!.<.( h ! `..XG.!.!.!./.Y.j.+.R ! R } *.*.*.! ! r.! v <.....+.! ! ! ! *.7.<.( } ..! <.+.! } <.} j..XA.( J f w r r N <.r.3.V.<.!.!.!.!.`.#X.X!.#X#X!.V.U ! } N ! } ! ! +.U N ( +.<.<.! +.! ( +.! N U ! C n N N } ! ! ! U C J J ( ! N ( } <.*.! } j.j.3.} +.! N N N +.<...( p.<.<.7...D <.<.R U U R } ! J D N ! ! ( d.+.J J C U J D ! +.} R ! j.V.d.<.*.+.+.<...<.<.} ",
"<.j.!.`.d.j.&X`.#X!.Y.p.R +.!.G.<.<.<.j.j.<.3.r.Y.G.r.+.! ! *.<.d.j.7...7.c.d.p.c.c.l.l.<.C R *.j.c.j.d.p.j.3.3.7.j.!.Y.V.A.V.j.*.( ! <.j.!.!.Y.V.A.j.<.<.7.7.<.~ ] +.7.<.p.j.j.<.<.3.<.<.3.r.j.j.p.r.j.c.c.j.j.G.j.j.<.( <.j.G.A.<.} +.<.3.d.G.!.!.!.Y.Y.A.G./.!.A.3...<.j.A.G.j.r.j.j.3.7.j.j.d.j.A.V.3.<.j.!.c.V.j.r.j.c.j.d.p.7.p.7.3.<.3.j.j.p.<.<.<...( *.<.<.p.r.7.j.Y.!.!.j.r.r.j.j.j.7.j.j.A.G.!.V.c.c.V.j.j.V.V.b.V.!.V.j.!.A.r.*.<.J U *.<.3.( *.V.`.&XG.7.3.j.<.! <.p.3.r.j.c.j.<.<.r.r.d.j.3...<.<.7.c.p.<.3.p.p.<.<.3.V.c.j.<.r.j.r.j.j.3.<.r.7.+.*.p.<.+.<.<.3.<.*.<.^ *.d.d.g.j.7.<.<.3.<.p.j.p.<.*.p.!./.A.V.G.!.#X#X/.3.( <.Y.j.3.<.7.G.Y.V.<...d.j.<...<.7.<.<.j.j.<.} 7.<.! <.7.j.V.+.N R ! *.3.<.( <.r.<.<.G.j.r.j.3.r.A.j.C h R 3.p.7.j.!.c.c.c.d.j.j.d.j.+.U D D +.<.<.<.! +.} <.7.<.7.p.j.V.j.V.j.+.v N 7.G.V.!.!.G.j.V.A.A.G.G.G.G.j...<.r.3.<.3.<.p.r.p.d.7.! J +.*.} D } <.<.7.<.+.<...<.*.7.`.A.e * f <.7.} } 7.*...d.G.!.Y.!.G.p.V.j.J ..j.<...<.r.d.<...+.7.d.<.! <.<...N c ! 3.<.3.+.N f D <.+.+...3.<.! *.p.R R } 3.V.c.G.!.d.r <.j.A.V.!.`.!.!.#X/.A.} ! k n 7.G.Y.#X#X!./.Y.j.j.( ( <.r.R J +.<.! <.<.R ! U +.} +.<.} C U <.r.J R ! D U J D U ( ! 3.c.A.j...r 7 h n N ! p.j.j...r.j.G.G.G.!./.j.j.#X;X#X7.<.} N ! ! U } <.! D N R ..+.! } ! ! <.J D <.} n c n D J N J J N ! <.....! ! <.<.<.+.R ( d.p...N D J U n J 3...U N ! *.7...K R 7.<.+.} 7.<.! ! ..<.! } ! ! <.+.} ! ! J N N J ( } } +.+.+.<.3.<.} } 3.<.3.3.<.",
"<.c.&X,XY.j.`./.!.!..Xd.N ! !.Y.p.p.7.7.+.! +.p.G.!.j...! ! <.d.V.j.3.( <.j.3.<.V.Y.A.a.! N R *.p.d.d.j.l.Y.j.V.c.R./.!.V.c.c.j.7.+.( <.j.A.A.c.A.c.d.3.<.<.<.<.<.>.<.7.#.5.p.p.<.*...*.<.<.p.l.j.7.3.j.V.d.r.j.V.7.7.*.( 3.c.A.j.*.( *.7.7.r.j.A.G.A.A.G.A.A.!.!.A.3...<.j.A.G.p.<.r.j.r.j.G.A.j.j.c.V.r.<.j.!.!.G.j.p.j.c.j.j.j.<.r.d.r.<.3.j.j.j.p.r.7.<.*.<.<.<.r.<.<.j.G.Y.A.j.d.d.r.j.j.j.p.<.j.A.!.c.j.j.d.d.j.!.!.j.j.A.j.j./.!.c.r.r.<.<.3.+.*.*.p.j.A.!.V.j.r.j.7.! <.j.j.j.j.c.j.<.<.V.V.j.c.p.+.*.*.<.j.3.*.r.j.j.7.<.r.j.j.V.7.d.j.j.j.d.j.7.<.<.! *.j.7.+.<.7.3.<.<.7.} *.3.*.<.r.7.<.*.*.<.3.3.7...( 3.G.!.!.!.Y..X.X`.`.V.c.j.A.r.<.7.7.c.A.A.r.<.A.A.<.<.7.7.<.} <.<.<...p.r.*.<.p.j.j.( n J J } <.<.+.<.d.p.p.j.7.<.3.*.! } <.3.J R <.d.*.7.j.j.c.j.<.<.j.V.!.p.} ! D } <.<.<.! <.! +.7.+.+.<.p.p.<.j.!.!.<.} <.p.p.G.G.!.!.!.c.V.G.G.A.c.p.*...<.<.+.<.} *.<.p.r.3.! N ( <.<.! ..<.3.<.<.<.3.+.<.! } !.j.2 % f 7.V.*.D +.<.*.j.Y.A.j.G.j...<.<.N ! <.( ! R } 3.*.( <.j.V.3.! ! ..<.! k c } p.*.7.j.+.} <...} ! +.<.! +...C N U 7.G.r.3.j.3.r 7.Y.!.!..X;X.X`./.!.!.c.j.! v <.j.G..X/.!.!.A.c.A.7.} ! +.! +.d.r.! U *.! U U +.( <.j.3.U U <.j.( ( } C D R ! ! +.J U ( p.!.Y.D N <.j.3.( j.!.Y.D N } c.!.!.!..Xj.} !.`.!.7.} U U ! ! D ! +.+.} ! ....<.( +.} R U C +.G.7.n N ! U N v N v v +.V.j.<.! *.<.( R U U ..d.r.<.! U C C R +.+.} p.<.R ( 7.} U R ..! D <.j.7.! ..d.j.<.<.( U R U ( ( *.! D C U ! ! ..*.! ! <.j.3.! ! <.<.<.7.d.",
"7.Y.&X;X!.!.;X/.j.Y..X!.j.A.!.p.+.*.*.p.p.<.r.d.Y.#Xc...! ..<.r.3.r.<.! +.p.r.r.C.L.j.<.! ! *.3.1.3.3.j.B.!.Y./.!.!.Y.c.p.3.<.*.r.<.*.r.c.V.c.c.j.d.r.r.<.+.*.<.<.#.+.<.! >.5.7.<.<.#.0.7.*.p.c.j.7.<.j.c.7.<.j.c.<.r.7.+.3.p.7.<.} ..r.j.p.r.j.j.j.p.j.V.V.c.V.c.j.7.<.w.j.V.V.j.3.r.j.d.j.Y.G.c.p.j.V.j.7.j.Y./.Y.c.V.A.j.j.V.j...*.d.j.r.<.<.<.p.j.j.r.<.<.d.<.<.<.*.3.Y.!.Y.c.p.r.7.<.r.A.G.j.<.d.Y.`.G.G.V.c.c.c.!.!.d.j.V.A.V.`.A.d.<.3.7.<.<.....<.j.7.3.p.p.d.<.<.*.R <.d.j.r.<.r.j.7.p.V.V.j.V.j.7.r.p.p.V.3.+.<.<.*.<.r.3...<.A.c.j.r.j.7.3.G.c.3.d.3.j.!.V.r.d.3.} +.3.r...+.<.! ..<.3.<.( } 7.p.3.3.! } r.Y.!././.!.Y.A.c.A.j.V.j.7.j.p.r.<.<.7.d.<.<.A.A.p.p.p.3.<.3.<.<.7.} <.d.j.p.3.7.c.7.! ! D } <.p.<.<.d.j.V.p.<.*.7.r.} U ..7.<.+.7.j.<.r.<.<.j.c.<.<.j.c.Y.g.+.} U } <.<.<.+.<.} <.j.<.<.7.7.p.j.V.<.7.<.! <.<.<.j.p.j.G.G.V.c.V.c.d.p.7.<.} ( +.( <.*.*.<.j.7.d.r.} ! *.3.3.<.+.+...+.3.p...r.<.R p.j.r 7 } 7.p.3...<.( U ..p.r.7.A.d.! ..*.! U *.<.! U ! <.<.*.<.p.7.*...! ! ( } J f z <.3.+.G.c.<.j.j.r.! ! ( D } } ( U ! 7.j.! D <.j.D j.Y.Y.!.`./.!./././.;X;X!.! y } c.!.`.Y.Y./.!.Y.A.d.<.d.V.+.<.G.c.+.n C C D J U N ! <.<.R U +.<.*.( ! v N ! +...*.N D +.j.!..X<.r.A.!.A.<.j..X#XG.! ..V.Y.Y.Y.!.+.h p.j.<.<.} } <.p.} N N D } } ! ! J ! ! } ! N N N U r.p.R U <...U J R n N d.`.!.r.! 3.+.R C R ! +.<.( <.7.<.U ! ( ! R ..d.! U } 7.+.! D ! ! C ! *.! U <.p.7.*.<.( C z h C R <.<.! ! ! ! ! ! ( U ! 3.j.3.! } <.<.+.<.j."
};
